sb224sc-HT22-VT27/4dt907/src/data/kinect_good_vs_bad_not_preprocessed_A13_mediapipe/G09.csv
FrameNo,nose_3d_x,nose_3d_y,nose_3d_z,left_shoulder_3d_x,left_shoulder_3d_y,left_shoulder_3d_z,left_elbow_3d_x,left_elbow_3d_y,left_elbow_3d_z,right_shoulder_3d_x,right_shoulder_3d_y,right_shoulder_3d_z,right_elbow_3d_x,right_elbow_3d_y,right_elbow_3d_z,left_wrist_3d_x,left_wrist_3d_y,left_wrist_3d_z,right_wrist_3d_x,right_wrist_3d_y,right_wrist_3d_z,left_hip_3d_x,left_hip_3d_y,left_hip_3d_z,right_hip_3d_x,right_hip_3d_y,right_hip_3d_z,left_knee_3d_x,left_knee_3d_y,left_knee_3d_z,right_knee_3d_x,right_knee_3d_y,right_knee_3d_z,left_ankle_3d_x,left_ankle_3d_y,left_ankle_3d_z,right_ankle_3d_x,right_ankle_3d_y,right_ankle_3d_z
0,0.015117000000000002,0.759402,-0.007086999999999996,-0.14916,0.463642,-0.008092999999999996,-0.17204,0.191202,0.015008000000000004,0.1749,0.46678200000000003,0.008768000000000005,0.21589,0.229082,0.033799,-0.19943999999999998,-0.004731999999999999,-0.033775,0.23201000000000002,0.014096999999999998,-0.013793999999999994,-0.068666,0.00012799999999999964,0.0018210000000000032,0.068666,-0.00012799999999999964,-0.0018209999999999962,-0.12,-0.324278,0.012408000000000006,0.12086,-0.322828,0.042945000000000004,-0.11427000000000001,-0.657778,0.037774,0.12679,-0.622358,0.05519600000000001
1,0.015904999999999996,0.7590075000000001,-0.0081725,-0.149404,0.4638775,-0.008857499999999997,-0.171484,0.1913175,0.0139255,0.175806,0.4665975,0.009028500000000002,0.210616,0.2173375,0.0330945,-0.195964,-0.0043745,-0.0380865,0.229346,0.0075855,-0.014316500000000003,-0.068582,0.00023149999999999993,0.0013325000000000004,0.068582,-0.00023149999999999993,-0.0013325000000000004,-0.119924,-0.3239125,0.011914500000000001,0.12087599999999998,-0.32244249999999997,0.0425415,-0.11452400000000001,-0.6573924999999999,0.0375295,0.127946,-0.6202925,0.0546255
2,0.016416,0.7588695,-0.008568499999999993,-0.149876,0.4641195,-0.009421499999999992,-0.171016,0.1914195,0.012977500000000006,0.176344,0.4663895,0.009438500000000006,0.21050400000000002,0.21837949999999998,0.03279250000000001,-0.19569599999999998,-0.004181500000000001,-0.03935849999999999,0.228634,0.0064034999999999995,-0.014980499999999994,-0.068573,0.00022949999999999967,0.0009825000000000042,0.068573,-0.00022950000000000054,-0.0009824999999999973,-0.120006,-0.3239205,0.011730500000000005,0.120724,-0.32227049999999996,0.042334500000000004,-0.114576,-0.6574004999999999,0.037340500000000006,0.128544,-0.6178905,0.054200500000000006
3,0.0165385,0.7588245,-0.008564000000000002,-0.1500035,0.4644045,-0.009995000000000004,-0.17060350000000002,0.19158450000000002,0.011954,0.17624650000000003,0.4663845,0.009489999999999998,0.21044649999999998,0.2187445,0.032751999999999996,-0.1951235,-0.0036655000000000004,-0.042064000000000004,0.2282765,0.0060634999999999994,-0.015040999999999999,-0.0685775,0.00024749999999999946,0.000890999999999996,0.0685775,-0.0002475000000000003,-0.0008910000000000029,-0.1200635,-0.3239755,0.011703999999999999,0.1206065,-0.3221055,0.042414,-0.1146935,-0.6574855000000001,0.037065999999999995,0.12827650000000002,-0.6161155,0.054704
4,0.016734,0.7587105,-0.008626999999999996,-0.150376,0.4645705,-0.010678999999999994,-0.17042600000000002,0.1916105,0.010639000000000006,0.176554,0.46616050000000003,0.010059000000000005,0.210304,0.2186805,0.032755000000000006,-0.194896,-0.0039995,-0.041807,0.22722399999999998,0.0048885,-0.014044999999999995,-0.06853999999999999,0.0002624999999999997,0.000793000000000002,0.06853999999999999,-0.0002625000000000006,-0.0007929999999999951,-0.120176,-0.32401949999999996,0.011725000000000006,0.120454,-0.3220595,0.042381,-0.112506,-0.6576595000000001,0.035647000000000005,0.127304,-0.6185195,0.054650000000000004
5,0.016954999999999998,0.7584095,-0.009695000000000002,-0.149943,0.4642195,-0.010070000000000003,-0.170533,0.1910895,0.009674000000000002,0.174207,0.4657095,0.008831000000000002,0.21004699999999998,0.2188295,0.032588,-0.195363,-0.0043845,-0.04315599999999999,0.22667700000000002,0.0038795,-0.01439,-0.068537,0.0002614999999999996,0.0008200000000000013,0.068537,-0.0002614999999999996,-0.0008200000000000013,-0.120403,-0.3238305,0.011514,0.120207,-0.3218905,0.042204,-0.118193,-0.6199305,0.037619,0.12793700000000002,-0.6130705000000001,0.055702
6,0.017209,0.7581015000000001,-0.010302000000000006,-0.150479,0.4642515,-0.010652000000000002,-0.17066900000000002,0.19113149999999998,0.009375999999999995,0.17485099999999998,0.4655615,0.009407999999999996,0.20977099999999999,0.2188215,0.032666999999999995,-0.194949,-0.004278499999999999,-0.0441,0.225301,0.0028475,-0.013337000000000002,-0.06853999999999999,0.00028149999999999963,0.0005699999999999941,0.06853999999999999,-0.00028149999999999963,-0.0005700000000000011,-0.12054899999999999,-0.3234385,0.011138999999999996,0.12004100000000001,-0.3220885,0.041997,-0.115929,-0.6570684999999999,0.035607,0.126321,-0.6207784999999999,0.055203999999999996
7,0.016837000000000005,0.7574529999999999,-0.010109999999999994,-0.151028,0.464123,-0.010435999999999994,-0.171048,0.191173,0.009938000000000002,0.175402,0.465563,0.010536000000000004,0.20791199999999999,0.212763,0.035374,-0.195488,-0.0043679999999999995,-0.042531,0.223742,0.0010540000000000002,-0.010501999999999997,-0.06848699999999999,0.00023000000000000017,0.0005290000000000017,0.06848699999999999,-0.00023000000000000017,-0.0005289999999999948,-0.12073799999999998,-0.323657,0.011219000000000003,0.11974200000000002,-0.32204699999999997,0.042008000000000004,-0.11573800000000001,-0.653437,0.03615,0.126502,-0.6171770000000001,0.055003
8,0.016884499999999997,0.757083,-0.010415500000000001,-0.15139950000000002,0.464183,-0.010618500000000003,-0.1712595,0.191203,0.0096415,0.1754305,0.46542300000000003,0.0109625,0.20748049999999998,0.212033,0.0356505,-0.19546950000000002,-0.00427,-0.0429235,0.22266049999999998,-0.0003550000000000003,-0.0092975,-0.0684585,0.00023000000000000017,0.0004364999999999994,0.0684585,-0.00023000000000000017,-0.0004364999999999994,-0.1209095,-0.32359699999999997,0.011133499999999998,0.1195205,-0.322027,0.041916499999999995,-0.11578949999999999,-0.6533070000000001,0.0357915,0.1262905,-0.616557,0.0551165
9,0.0169175,0.7567054999999999,-0.0107195,-0.1517635,0.4642355,-0.0107755,-0.1716835,0.1922455,0.009465500000000002,0.17548650000000002,0.4652855,0.0114205,0.2072465,0.2119755,0.0356555,-0.19565349999999998,-0.0033975000000000003,-0.0433755,0.2221165,-0.0013084999999999998,-0.0091865,-0.06843250000000001,0.00022449999999999987,0.0003415000000000015,0.06843250000000001,-0.00022449999999999987,-0.0003415000000000015,-0.12106349999999999,-0.3235545,0.0110555,0.1192965,-0.3220345,0.0418045,-0.1157935,-0.6532145,0.0354275,0.1259665,-0.6165745,0.055136500000000005
10,0.016942999999999996,0.7563535,-0.010928,-0.15201699999999999,0.46425350000000004,-0.010792000000000003,-0.172367,0.1939435,0.009302999999999999,0.17544300000000002,0.46525350000000004,0.011765999999999999,0.207033,0.2119835,0.035683,-0.195837,-0.0018655,-0.04365,0.221903,-0.0013404999999999997,-0.009152,-0.06840399999999999,0.00022449999999999987,0.0002489999999999992,0.06840399999999999,-0.00022449999999999987,-0.0002489999999999992,-0.121197,-0.32342649999999995,0.010979,0.119123,-0.3220665,0.041699,-0.11574700000000002,-0.6530865,0.035034,0.125623,-0.6168564999999999,0.055158
11,0.016952499999999995,0.756022,-0.011064499999999998,-0.1521785,0.464252,-0.010742500000000002,-0.17314849999999998,0.196022,0.0091415,0.17527149999999997,0.465222,0.011966500000000001,0.2068315,0.211952,0.0357315,-0.19600850000000003,0.0002589999999999997,-0.043899499999999994,0.2217015,-0.001372,-0.0091035,-0.0683685,0.00021799999999999944,0.00015450000000000186,0.0683685,-0.0002180000000000003,-0.00015450000000000186,-0.1213085,-0.323318,0.0109375,0.11895149999999999,-0.322098,0.0416065,-0.1156785,-0.6527580000000001,0.0347905,0.12542150000000002,-0.6171380000000001,0.0551985
12,0.016975999999999998,0.7557564999999999,-0.011026500000000002,-0.152231,0.4642465,-0.010786500000000004,-0.17411100000000002,0.1984265,0.008449499999999999,0.175009,0.4651865,0.011987499999999998,0.206839,0.2119165,0.0352545,-0.19718100000000002,0.0024155000000000005,-0.0448805,0.22155899999999998,-0.001407499999999999,-0.009087499999999998,-0.068334,0.00020850000000000035,8.149999999999824e-05,0.068334,-0.00020849999999999948,-8.149999999999824e-05,-0.12141099999999999,-0.3232235,0.010942499999999997,0.118839,-0.3221335,0.0415385,-0.115781,-0.6524235,0.0346255,0.125359,-0.6170535,0.0552345
13,0.017013500000000004,0.7556245,-0.011013499999999996,-0.1522945,0.4642745,-0.0109355,-0.17600449999999998,0.2015745,0.006180500000000002,0.17487550000000002,0.46520449999999997,0.011984500000000002,0.2081355,0.2142545,0.0331335,-0.1994645,0.0056135,-0.047162499999999996,0.2234055,0.0028665,-0.011251499999999998,-0.0683175,0.0001984999999999999,4.050000000000581e-05,0.0683175,-0.0001984999999999999,-4.049999999999887e-05,-0.1215145,-0.3231055,0.010943500000000002,0.1187155,-0.3221755,0.041537500000000005,-0.1153545,-0.6557255,0.0343995,0.12522550000000002,-0.6171055,0.0552315
14,0.017002000000000003,0.755565,-0.011048999999999996,-0.15215299999999998,0.464375,-0.011104999999999997,-0.18045299999999997,0.208175,0.000682000000000002,0.174647,0.465355,0.011927,0.21154699999999999,0.220205,0.028588000000000002,-0.208223,0.014836,-0.057202,0.229647,0.011677,-0.019749999999999997,-0.068359,0.00017599999999999994,2.000000000002e-06,0.068359,-0.00017599999999999994,-2.000000000002e-06,-0.12170299999999999,-0.322815,0.010889,0.118517,-0.322225,0.041482,-0.115243,-0.6551849999999999,0.034169,0.125247,-0.617165,0.055208
15,0.016967500000000003,0.7554609999999999,-0.011142000000000006,-0.15212749999999997,0.464571,-0.011336000000000006,-0.1862375,0.216671,-0.006420000000000002,0.1742225,0.465651,0.011758999999999995,0.21620250000000002,0.228161,0.022279999999999994,-0.2192075,0.026523,-0.073052,0.2399825,0.023929,-0.03207800000000001,-0.0684355,0.00013200000000000017,-9.60000000000058e-05,0.0684355,-0.0001319999999999993,9.599999999999886e-05,-0.1219375,-0.322549,0.010775999999999994,0.1182525,-0.322309,0.04136599999999999,-0.1151975,-0.6545190000000001,0.03389999999999999,0.1248925,-0.6177990000000001,0.054988999999999996
16,0.0169065,0.7553135,-0.011019500000000002,-0.15143849999999998,0.46501349999999997,-0.011516499999999999,-0.1938385,0.2278935,-0.015094500000000004,0.1736715,0.46595349999999996,0.011436499999999999,0.2223215,0.2369435,0.014304499999999998,-0.23283849999999998,0.044469499999999995,-0.09083250000000001,0.2533615,0.0390315,-0.049208499999999995,-0.0685215,0.00010350000000000029,-0.00024350000000000066,0.0685215,-0.00010349999999999943,0.00024350000000000066,-0.1222285,-0.3222065,0.0106535,0.11794149999999999,-0.32240650000000004,0.0412035,-0.1154785,-0.6546665,0.0337325,0.1244415,-0.6190065,0.054822499999999996
17,0.016785,0.7551205,-0.010713,-0.150679,0.4655005,-0.011736999999999997,-0.203289,0.2407205,-0.025092999999999997,0.172651,0.4665505,0.010941000000000003,0.229801,0.2471805,0.004764000000000004,-0.24889899999999998,0.0688335,-0.113331,0.271231,0.0544115,-0.071491,-0.06862,5.949999999999966e-05,-0.0004329999999999959,0.06862,-5.9500000000000525e-05,0.0004330000000000028,-0.12258899999999999,-0.3218195,0.010574000000000004,0.117551,-0.3225595,0.041041,-0.115739,-0.6541295,0.033672,0.12388100000000002,-0.6204595,0.054558
18,0.016553000000000002,0.7549015,-0.010187500000000002,-0.149971,0.4661415,-0.012151500000000003,-0.216571,0.2591115,-0.041798499999999995,0.171129,0.4672915,0.0099745,0.241719,0.2626315,-0.011519500000000002,-0.270381,0.1005615,-0.14298750000000002,0.294339,0.0839425,-0.10024750000000002,-0.068738,-4.500000000000164e-06,-0.0006475000000000022,0.068738,4.500000000000164e-06,0.0006475000000000022,-0.123051,-0.3214385,0.0104355,0.117039,-0.3226885,0.0408945,-0.116121,-0.6537785,0.0334555,0.12315899999999999,-0.6251385,0.0541765
19,0.0162255,0.7547115,-0.009522499999999996,-0.1491595,0.46676150000000005,-0.012692499999999995,-0.23006949999999998,0.27931150000000005,-0.0587145,0.1695005,0.46803150000000004,0.008699500000000002,0.2546405,0.2797715,-0.028302499999999994,-0.2929295,0.1390215,-0.1738615,0.31860049999999995,0.1204215,-0.1313815,-0.0688645,-6.550000000000002e-05,-0.0008704999999999963,0.0688645,6.550000000000002e-05,0.0008705000000000032,-0.12355949999999999,-0.3211885,0.0102165,0.11648049999999999,-0.32292849999999995,0.0406745,-0.1165795,-0.6543085000000001,0.0328885,0.1223805,-0.6292885,0.053540500000000005
20,0.015847,0.7545195,-0.008787500000000004,-0.148225,0.4674395,-0.013322500000000001,-0.244565,0.30192949999999996,-0.0760235,0.168025,0.4689295,0.007289500000000001,0.268615,0.30020949999999996,-0.0445435,-0.316145,0.1826195,-0.20912350000000002,0.34323499999999996,0.16406949999999998,-0.16312349999999998,-0.06900500000000001,-0.00011450000000000002,-0.0010495000000000018,0.06900500000000001,0.00011450000000000002,0.0010495000000000018,-0.124035,-0.3209905,0.009927499999999999,0.115925,-0.3231605,0.0404175,-0.11710500000000001,-0.6540505,0.0324625,0.12185500000000002,-0.6323304999999999,0.0528975
21,0.015445499999999997,0.7542490000000001,-0.0080835,-0.1474415,0.468159,-0.014074500000000004,-0.2606715,0.32881900000000003,-0.09508649999999999,0.1668285,0.469979,0.005724499999999997,0.2828085,0.324569,-0.060442499999999996,-0.3391615,0.23233900000000002,-0.24384650000000002,0.3676385,0.212719,-0.1940365,-0.0691365,-0.000147,-0.0011725,0.0691365,0.0001470000000000002,0.0011725,-0.1245215,-0.320801,0.009637499999999997,0.1153485,-0.323481,0.0402975,-0.1175715,-0.654741,0.031662499999999996,0.1216785,-0.634331,0.0522835
22,0.015158999999999999,0.7539045,-0.0073690000000000005,-0.147292,0.4688845,-0.015071000000000001,-0.274522,0.3567445,-0.11130300000000001,0.166518,0.4709245,0.004143999999999998,0.296568,0.3481645,-0.074693,-0.358782,0.2869145,-0.274993,0.389148,0.26211450000000003,-0.220563,-0.069244,-0.0001585,-0.001245000000000003,0.069244,0.0001585,0.0012449999999999961,-0.124862,-0.3206555,0.009337999999999999,0.114878,-0.3237455,0.040168999999999996,-0.11800200000000001,-0.6546155,0.031025999999999998,0.121338,-0.6365155,0.051565
23,0.014973,0.7535255,-0.006534999999999999,-0.14712,0.46962550000000003,-0.01609,-0.28517,0.3850755,-0.124254,0.16640000000000002,0.4717555,0.0025960000000000046,0.30764,0.3710955,-0.085764,-0.37026,0.3413655,-0.294344,0.40511,0.3139055,-0.238254,-0.069224,-0.00013950000000000003,-0.0013649999999999982,0.069224,0.00013949999999999998,0.0013650000000000016,-0.12503999999999998,-0.3207445,0.009190000000000004,0.11458,-0.3240945,0.040178000000000005,-0.11823,-0.6547545,0.030516,0.12105999999999999,-0.6387045,0.050928
24,0.014773000000000001,0.753032,-0.005971000000000004,-0.147141,0.47044199999999997,-0.017126000000000002,-0.293601,0.413852,-0.133947,0.166269,0.472642,0.001170999999999995,0.316979,0.398712,-0.094977,-0.377231,0.399582,-0.303697,0.415549,0.36886199999999997,-0.24973700000000001,-0.069166,-9.500000000000003e-05,-0.0014940000000000023,0.069166,9.500000000000003e-05,0.0014939999999999953,-0.125221,-0.32096800000000003,0.009118999999999995,0.114279,-0.324548,0.040264999999999995,-0.118451,-0.6550279999999999,0.030071999999999995,0.12087900000000001,-0.640478,0.050623999999999995
25,0.014532500000000004,0.7520644999999999,-0.0055064999999999975,-0.1471785,0.47187450000000003,-0.018750500000000003,-0.29929849999999997,0.4478345,-0.1415845,0.16623149999999998,0.47404450000000004,-0.0002725000000000019,0.32470150000000003,0.4323845,-0.10211450000000001,-0.3814085,0.46700450000000004,-0.3101445,0.4224315,0.4335545,-0.2553745,-0.0690905,-4.149999999999987e-05,-0.0016525000000000012,0.0690905,4.149999999999987e-05,0.0016525000000000012,-0.12535849999999998,-0.32163549999999996,0.0091725,0.1140215,-0.3253755,0.0404405,-0.1187585,-0.6557355,0.0297905,0.1207015,-0.6425055000000001,0.0504475
26,0.014350499999999999,0.7505244999999999,-0.005209999999999999,-0.1470985,0.4733945,-0.020737,-0.3027885,0.4839345,-0.14736,0.1667515,0.4757945,-0.0016390000000000016,0.3294915,0.46832450000000003,-0.10625,-0.3828885,0.5324344999999999,-0.31051,0.42394149999999997,0.5061644999999999,-0.25544,-0.0690075,5.349999999999973e-05,-0.0018260000000000012,0.0690075,-5.349999999999973e-05,0.0018260000000000012,-0.1254585,-0.3227655,0.009346,0.1137715,-0.3267855,0.040742,-0.1191185,-0.6569055,0.029686,0.12014149999999998,-0.6469955000000001,0.05017
27,0.014251000000000003,0.748952,-0.0052250000000000005,-0.146798,0.474732,-0.022447,-0.302888,0.5165420000000001,-0.147375,0.167422,0.477842,-0.002716000000000003,0.329392,0.504682,-0.106265,-0.382988,0.595032,-0.31052500000000005,0.423842,0.572752,-0.255455,-0.06898699999999999,0.00011599999999999978,-0.0018290000000000042,0.06898699999999999,-0.00011600000000000065,0.0018290000000000008,-0.125498,-0.324078,0.009485999999999998,0.11358199999999999,-0.328308,0.040879,-0.119448,-0.658238,0.029781,0.11982199999999998,-0.649468,0.050438
28,0.014141499999999998,0.7471110000000001,-0.005235500000000001,-0.1469275,0.475821,-0.024195499999999998,-0.30299750000000003,0.548771,-0.1473855,0.1679525,0.480401,-0.0037564999999999994,0.3292825,0.5391910000000001,-0.1062755,-0.38309750000000004,0.650661,-0.3105355,0.42373249999999996,0.6331810000000001,-0.2554655,-0.0689665,0.00012299999999999985,-0.0018264999999999983,0.0689665,-0.00012299999999999985,0.0018264999999999983,-0.1255475,-0.325659,0.009504499999999999,0.1134025,-0.329949,0.040861499999999995,-0.1197675,-0.6598489999999999,0.0297965,0.1193925,-0.6529889999999999,0.0500915
29,0.013946,0.7449915,-0.005254000000000002,-0.147117,0.47799149999999996,-0.025996,-0.303107,0.5785414999999999,-0.147396,0.168723,0.48277149999999996,-0.004802000000000001,0.329173,0.5709715,-0.10628599999999999,-0.383277,0.7017515,-0.30976600000000004,0.423473,0.6878615,-0.253966,-0.068938,0.00011749999999999955,-0.0018239999999999992,0.068938,-0.00011749999999999955,0.0018239999999999992,-0.125617,-0.3275985,0.009498,0.113203,-0.3318585,0.040841999999999996,-0.11988700000000001,-0.6618185,0.029785,0.119033,-0.6565685,0.049814
30,0.013752,0.7424755000000001,-0.005264499999999998,-0.147251,0.4804855,-0.027618499999999997,-0.301471,0.6045855,-0.14469549999999998,0.16972900000000002,0.48488549999999997,-0.005660499999999999,0.328239,0.5993255000000001,-0.1015155,-0.378491,0.7483155,-0.2988855,0.417489,0.7389055000000001,-0.24220550000000002,-0.068855,0.00010250000000000016,-0.001986500000000002,0.068855,-0.00010250000000000016,0.0019864999999999987,-0.125611,-0.3298445,0.0096685,0.112969,-0.3337145,0.0409905,-0.119921,-0.6639744999999999,0.0299525,0.118779,-0.6578544999999999,0.0499955
31,0.013619000000000003,0.7398595,-0.005472000000000005,-0.147429,0.48327950000000003,-0.028842,-0.298929,0.6294394999999999,-0.141031,0.170411,0.4869495,-0.006205000000000002,0.32571100000000003,0.6261194999999999,-0.09604100000000002,-0.372379,0.7897495,-0.28510100000000005,0.409531,0.7845894999999999,-0.226421,-0.06877,5.250000000000046e-05,-0.002117000000000001,0.06877,-5.2499999999996994e-05,0.0021169999999999974,-0.125629,-0.3321705,0.010098,0.112681,-0.33560049999999997,0.041339,-0.11996899999999999,-0.6662905,0.030361,0.118811,-0.6588405,0.050630999999999995
32,0.013503499999999998,0.7371045,-0.005885000000000001,-0.1476935,0.4860645,-0.029716,-0.2952235,0.6518445,-0.136518,0.1707565,0.4889945,-0.0064559999999999965,0.3217565,0.6523445,-0.09026799999999999,-0.3654835,0.8256245,-0.265868,0.4002965,0.8235745,-0.20901799999999998,-0.0686515,-1.4999999999980307e-06,-0.0022959999999999994,0.0686515,1.5000000000015001e-06,0.002296000000000003,-0.1256835,-0.3346555,0.010660000000000003,0.1123965,-0.3374155,0.041751,-0.1201735,-0.6686055,0.030877,0.1189365,-0.6600555,0.051521
33,0.0134215,0.7343925,-0.006430999999999999,-0.1477835,0.48886250000000003,-0.030234999999999998,-0.2895635,0.6719725000000001,-0.128925,0.1708665,0.49083249999999995,-0.006367999999999999,0.3170865,0.6737525000000001,-0.083595,-0.3573135,0.8564425,-0.24431499999999998,0.3901865,0.8564625,-0.189325,-0.0685115,-7.650000000000018e-05,-0.002477,0.0685115,7.650000000000018e-05,0.002477,-0.1256835,-0.3370175,0.011271,0.1121165,-0.3390675,0.042099,-0.1206535,-0.6705475,0.031704,0.1184665,-0.6622174999999999,0.05216
34,0.013293499999999996,0.731833,-0.006985499999999999,-0.14801750000000002,0.49101300000000003,-0.029713499999999997,-0.2849375,0.686453,-0.12141549999999998,0.17075249999999997,0.491993,-0.005824500000000003,0.3104825,0.689323,-0.07607549999999999,-0.3508175,0.872163,-0.2226255,0.37978249999999997,0.877933,-0.1692455,-0.0683035,-0.0001370000000000017,-0.002748500000000001,0.0683035,0.00013699999999999823,0.002748500000000001,-0.1256275,-0.338957,0.0119615,0.11182249999999999,-0.340357,0.0425725,-0.12081750000000001,-0.672317,0.0328455,0.1182325,-0.664357,0.0531815
35,0.0132415,0.7298265,-0.007727999999999999,-0.14832050000000002,0.49319650000000004,-0.028555999999999998,-0.2807305,0.6973265,-0.113658,0.17054950000000002,0.4923465,-0.005091999999999999,0.3041695,0.7011465,-0.068458,-0.3458505,0.8838065,-0.203938,0.37009949999999997,0.8916465,-0.150408,-0.0681095,-0.00021849999999999994,-0.002929000000000001,0.0681095,0.00021849999999999994,0.002929000000000001,-0.1255505,-0.3404735,0.012575999999999997,0.1115495,-0.3410035,0.043001,-0.1209605,-0.6736035,0.034075,0.1177595,-0.6661635,0.054108
36,0.013238500000000004,0.7278835,-0.00845,-0.1487075,0.4954235,-0.027256999999999997,-0.2773175,0.7055335,-0.10635899999999998,0.1701725,0.49229350000000005,-0.003928000000000001,0.2978925,0.7073435,-0.060294999999999994,-0.3429775,0.8910135,-0.187299,0.3609025,0.8976635,-0.132619,-0.0679485,-0.0002505000000000007,-0.003027000000000002,0.0679485,0.0002505000000000007,0.003027000000000002,-0.1254875,-0.3418065,0.013184000000000001,0.1112225,-0.34148649999999997,0.043399,-0.1211375,-0.6746865,0.035322,0.11691249999999999,-0.6683265,0.054927000000000004
37,0.013224499999999997,0.7262005,-0.0092145,-0.1484965,0.4978705,-0.025912499999999998,-0.2748365,0.7117005000000001,-0.09875250000000002,0.16924350000000002,0.4917905,-0.0028364999999999987,0.2914835,0.7134905,-0.052135499999999994,-0.3400665,0.8981805,-0.17046250000000002,0.3516735,0.9032905,-0.11492250000000001,-0.0678845,-0.0002474999999999977,-0.0030535000000000007,0.0678845,0.00024750000000000466,0.0030535000000000007,-0.1254665,-0.34283949999999996,0.013701499999999998,0.1108035,-0.34177949999999996,0.0437465,-0.1213665,-0.6749695,0.0364905,0.11599349999999999,-0.6702395,0.0553845
38,0.013224,0.724779,-0.009969500000000006,-0.14847300000000002,0.499169,-0.024594500000000005,-0.272663,0.717609,-0.0912945,0.16784700000000002,0.491359,-0.0018755000000000022,0.286427,0.718869,-0.04509450000000001,-0.337173,0.904369,-0.1548345,0.343237,0.9078890000000001,-0.09879450000000001,-0.067839,-0.0002319999999999961,-0.0030685000000000018,0.067839,0.00023200000000000304,0.003068499999999995,-0.125413,-0.343461,0.014060499999999997,0.110357,-0.341821,0.0439865,-0.121323,-0.674921,0.0375405,0.115077,-0.671781,0.05566449999999999
39,0.013260999999999998,0.7233054999999999,-0.010648499999999998,-0.148511,0.5005955,-0.022746500000000003,-0.271231,0.7228055,-0.0836175,0.166299,0.49168549999999994,-0.0008215000000000028,0.282059,0.7241355,-0.0384925,-0.334791,0.9102655,-0.1393375,0.335719,0.9117955,-0.0843675,-0.06779199999999999,-0.0002045000000000033,-0.0030615000000000017,0.06779199999999999,0.00020449999999999635,0.0030615000000000017,-0.125431,-0.3437345,0.014384499999999998,0.109789,-0.3418645,0.0442795,-0.12141099999999999,-0.6751545000000001,0.0385895,0.113949,-0.6732244999999999,0.0559475
40,0.013372000000000002,0.721972,-0.011168499999999998,-0.148573,0.501792,-0.020937499999999998,-0.270173,0.7275619999999999,-0.0765325,0.164797,0.4919819999999999,0.00017149999999999804,0.278017,0.729152,-0.0322655,-0.332463,0.9157719999999999,-0.1249925,0.328917,0.9152319999999999,-0.0711525,-0.067747,-0.00016999999999999654,-0.003090499999999996,0.067747,0.00017000000000000348,0.003090500000000003,-0.125443,-0.343928,0.014651500000000001,0.109277,-0.341928,0.0446005,-0.12145299999999999,-0.6751480000000001,0.039517500000000004,0.112887,-0.674328,0.0561285
41,0.0135885,0.7208195,-0.011512500000000002,-0.1486335,0.5029995,-0.019090499999999996,-0.2691635,0.7311095,-0.06952749999999999,0.1635665,0.4917395,0.0011074999999999974,0.2742965,0.7314595,-0.026728499999999995,-0.33015350000000004,0.9213395,-0.11101749999999999,0.3229865,0.9185495,-0.059527500000000004,-0.0677145,-0.00015249999999999986,-0.003095500000000001,0.0677145,0.00015249999999999986,0.003095500000000001,-0.1253935,-0.3439105,0.014850499999999999,0.1088165,-0.3419505,0.0448875,-0.1214035,-0.6751105000000001,0.0403445,0.11221650000000001,-0.6744505000000001,0.0569625
42,0.0138275,0.7196695,-0.011705,-0.14863949999999998,0.5040395,-0.017051999999999998,-0.2681095,0.7346195,-0.062457,0.1626305,0.49113949999999995,0.0019419999999999993,0.2704705,0.7329595,-0.021171999999999996,-0.3277695,0.9258995,-0.09835700000000001,0.3174905,0.9217394999999999,-0.049174999999999996,-0.0676805,-0.00011850000000000055,-0.003165000000000001,0.0676805,0.00011850000000000055,0.003165000000000001,-0.1253195,-0.3438905,0.014973,0.10843050000000001,-0.34200050000000004,0.045133,-0.12147949999999999,-0.6765905,0.040934,0.11124050000000002,-0.6749605000000001,0.057156
43,0.014122500000000003,0.7187735000000001,-0.011828500000000006,-0.14863149999999997,0.5048535000000001,-0.015225500000000003,-0.26707149999999996,0.7358835,-0.0562645,0.16209849999999998,0.4906535,0.0025794999999999985,0.2679185,0.7332935,-0.0165675,-0.3254915,0.9302635,-0.08766750000000001,0.31307850000000004,0.9239735,-0.0411955,-0.0676595,-0.00011749999999999955,-0.0031505000000000005,0.0676595,0.00011749999999999955,0.0031505000000000005,-0.12522149999999999,-0.3439265,0.015011499999999997,0.1082085,-0.3420165,0.045261499999999996,-0.1214715,-0.6765865,0.0412685,0.1108185,-0.6752265,0.0572195
44,0.014367499999999998,0.7179575,-0.011832000000000002,-0.14867450000000001,0.5054575,-0.013543,-0.26615449999999996,0.7370975000000001,-0.05044799999999999,0.16165549999999998,0.49016750000000003,0.0032140000000000016,0.2655055,0.7334675,-0.012395999999999997,-0.32321449999999996,0.9343775000000001,-0.07775,0.3093055,0.9258375000000001,-0.034575999999999996,-0.06763949999999999,-0.00012250000000000455,-0.0031179999999999958,0.06763949999999999,0.0001224999999999976,0.0031180000000000027,-0.1251345,-0.3439725,0.015026000000000001,0.10796549999999999,-0.3420425,0.045342,-0.12142449999999999,-0.6765924999999999,0.04158,0.11050549999999998,-0.6754724999999999,0.057196
45,0.014516999999999999,0.7172075,-0.011647000000000005,-0.148712,0.5060375,-0.012051000000000006,-0.26547200000000004,0.7378775000000001,-0.04567700000000001,0.161308,0.48968750000000005,0.0036809999999999968,0.263748,0.7335375000000001,-0.009239000000000004,-0.321172,0.9375775000000001,-0.069783,0.306578,0.9274675,-0.029603000000000004,-0.067609,-0.0001255000000000006,-0.0030869999999999995,0.067609,0.00012549999999999367,0.0030869999999999995,-0.125082,-0.3440025,0.015007999999999997,0.107748,-0.34213249999999995,0.045398999999999995,-0.121402,-0.6767225,0.041733,0.110128,-0.6757124999999999,0.056989
46,0.014667499999999997,0.7164590000000001,-0.011492500000000003,-0.14871650000000003,0.5066390000000001,-0.0107125,-0.2647765,0.7386090000000001,-0.0414925,0.1610935,0.489099,0.0040865,0.26220350000000003,0.733599,-0.006453500000000001,-0.3193265,0.9406490000000001,-0.0627735,0.3045735,0.928859,-0.025549500000000003,-0.0675635,-0.00011400000000000299,-0.003085500000000005,0.0675635,0.00011400000000000299,0.003085499999999998,-0.1250165,-0.34403100000000003,0.0149165,0.1076035,-0.342181,0.045365499999999996,-0.1215065,-0.6768609999999999,0.0417815,0.1095135,-0.676551,0.0567135
47,0.014790499999999998,0.7158140000000001,-0.011332499999999995,-0.1487305,0.507264,-0.009485499999999994,-0.2641305,0.7393540000000001,-0.0376165,0.16096950000000002,0.48846399999999995,0.004520500000000004,0.2609195,0.733654,-0.004036499999999998,-0.3176905,0.943504,-0.0566735,0.3028895,0.9301940000000001,-0.021853499999999998,-0.0675305,-0.00011900000000000105,-0.0030654999999999988,0.0675305,0.00011900000000000105,0.0030655000000000057,-0.1249605,-0.34407600000000005,0.014826500000000003,0.1074695,-0.342206,0.045298500000000005,-0.1216305,-0.677496,0.041814500000000004,0.10922950000000001,-0.677306,0.0567025
48,0.014958999999999997,0.7157295,-0.0113165,-0.148679,0.5073495,-0.008948499999999998,-0.263679,0.7399995,-0.035208500000000004,0.160961,0.48832949999999997,0.004701500000000004,0.26010099999999997,0.7335195,-0.0026014999999999996,-0.316469,0.9450995,-0.0536025,0.30260099999999995,0.9305295,-0.020280499999999993,-0.067529,-0.00014250000000000373,-0.0030654999999999988,0.067529,0.0001424999999999968,0.0030654999999999988,-0.124909,-0.3441505,0.014831500000000001,0.107481,-0.3422005,0.0452985,-0.121369,-0.6777505,0.0415845,0.109211,-0.6773105,0.0567005
49,0.015109499999999998,0.7156819999999999,-0.011300999999999999,-0.1486455,0.507342,-0.008495000000000003,-0.2633755,0.7405619999999999,-0.033114000000000005,0.1609245,0.48824199999999995,0.004908000000000003,0.25950449999999997,0.733432,-0.0013239999999999988,-0.3155255,0.946372,-0.051100999999999994,0.3024445,0.931072,-0.018811999999999995,-0.0675255,-0.00015500000000000236,-0.0030649999999999983,0.0675255,0.00015500000000000236,0.0030649999999999983,-0.1248655,-0.344208,0.014835999999999998,0.1074845,-0.342198,0.0453,-0.1212655,-0.677828,0.041487,0.10920450000000001,-0.677318,0.056615
50,0.015210000000000005,0.71567,-0.0112335,-0.148604,0.5073099999999999,-0.008144499999999999,-0.263134,0.74098,-0.03150750000000001,0.160886,0.48821,0.005112499999999999,0.259046,0.7334,-0.00017350000000000004,-0.314774,0.9473199999999999,-0.0490945,0.302296,0.93173,-0.0175675,-0.067525,-0.00016999999999999654,-0.0030654999999999988,0.067525,0.00017000000000000348,0.0030654999999999988,-0.12483399999999999,-0.34424,0.0148405,0.107506,-0.3422,0.0453015,-0.121224,-0.6778599999999999,0.0414625,0.109196,-0.67733,0.056514499999999995
51,0.015263500000000003,0.7157,-0.011027500000000003,-0.14861249999999998,0.5073099999999999,-0.008210500000000003,-0.2630725,0.74129,-0.030551499999999995,0.1612275,0.48706,0.005195499999999999,0.2589175,0.7326699999999999,0.00046249999999999764,-0.3143525,0.94797,-0.04783950000000001,0.30221750000000003,0.9322299999999999,-0.0168875,-0.0675255,-0.00016999999999999654,-0.0030155000000000043,0.0675255,0.00017000000000000348,0.0030154999999999973,-0.12479249999999999,-0.34424,0.014720499999999997,0.1075875,-0.3422,0.045164499999999996,-0.1212225,-0.6778599999999999,0.0412955,0.1093275,-0.67733,0.0562825
52,0.015307500000000002,0.7157,-0.010777500000000002,-0.1486055,0.5073099999999999,-0.0083675,-0.2630955,0.7415400000000001,-0.029782500000000003,0.16170450000000003,0.48586,0.005262499999999996,0.2588545,0.73184,0.0010104999999999975,-0.3141455,0.9484699999999999,-0.04703450000000001,0.3021645,0.9327700000000001,-0.016336500000000004,-0.0675215,-0.00016999999999999654,-0.002972500000000003,0.0675215,0.00017000000000000348,0.002972499999999996,-0.1247655,-0.34424,0.0145875,0.1076845,-0.3422,0.0450225,-0.1212255,-0.6778599999999999,0.0410885,0.10947449999999999,-0.67733,0.0560205
53,0.015315000000000002,0.7157,-0.010507000000000002,-0.148608,0.50722,-0.008531000000000004,-0.263158,0.74167,-0.029108999999999996,0.162132,0.48517000000000005,0.005305999999999998,0.25879199999999997,0.73125,0.0014879999999999963,-0.31413800000000003,0.94882,-0.046422000000000005,0.302382,0.9333199999999999,-0.015819,-0.067517,-0.00016999999999999654,-0.002924000000000003,0.067517,0.00017000000000000348,0.002923999999999996,-0.124728,-0.34426,0.014462,0.10780200000000001,-0.3422,0.044879999999999996,-0.12121799999999999,-0.6777599999999999,0.040865,0.109622,-0.67733,0.055725
54,0.015264,0.7157944999999999,-0.010244500000000004,-0.148618,0.5070345,-0.008718500000000004,-0.263248,0.7417944999999999,-0.0284405,0.162452,0.48479449999999996,0.005336500000000001,0.258722,0.7309045000000001,0.0018974999999999964,-0.31420800000000004,0.9489844999999999,-0.0460495,0.30291199999999996,0.9339845,-0.015324499999999998,-0.067526,-0.0001794999999999991,-0.002849499999999998,0.067526,0.0001794999999999991,0.002849499999999998,-0.12470799999999999,-0.3443055,0.0143545,0.107932,-0.3421855,0.0447495,-0.12101799999999999,-0.6778055000000001,0.0405455,0.109742,-0.6773355000000001,0.0553985
55,0.015203000000000001,0.715921,-0.009919000000000004,-0.148643,0.5068910000000001,-0.008921000000000005,-0.263323,0.741931,-0.027954,0.162727,0.48452100000000003,0.005347999999999999,0.258677,0.7306210000000001,0.002243999999999996,-0.314243,0.949121,-0.045938,0.303527,0.9346110000000001,-0.015047000000000005,-0.067536,-0.00017400000000000054,-0.0027830000000000008,0.067536,0.0001739999999999936,0.0027830000000000008,-0.124693,-0.344329,0.014276999999999998,0.10806700000000001,-0.342179,0.044668,-0.121013,-0.677819,0.040281,0.10985700000000001,-0.677349,0.055066
56,0.015135000000000003,0.716043,-0.009554999999999994,-0.148682,0.506733,-0.009073999999999999,-0.26340199999999997,0.742073,-0.027533000000000002,0.162958,0.484293,0.005356000000000007,0.258838,0.730373,0.002582000000000001,-0.314272,0.949263,-0.045947,0.304178,0.935243,-0.014832999999999999,-0.067545,-0.00017000000000000348,-0.002701999999999996,0.067545,0.00016999999999999654,0.002702000000000003,-0.12468199999999999,-0.34434699999999996,0.014197000000000005,0.108208,-0.342167,0.044590000000000005,-0.12090200000000001,-0.677837,0.039956000000000005,0.10991799999999999,-0.677357,0.054836
57,0.015036,0.716202,-0.009058499999999997,-0.14872999999999997,0.506542,-0.009160500000000002,-0.26354,0.742232,-0.027216500000000005,0.16315000000000002,0.48406199999999994,0.005375499999999998,0.2591,0.7300920000000001,0.0029184999999999975,-0.31438,0.949422,-0.0460705,0.30487000000000003,0.935872,-0.0146405,-0.067552,-0.00017199999999999854,-0.002626499999999997,0.067552,0.00017199999999999854,0.002626499999999997,-0.12463,-0.344368,0.014121499999999999,0.10836,-0.342148,0.0445285,-0.12093,-0.677898,0.0397415,0.10995999999999999,-0.677348,0.0546045
58,0.014908500000000005,0.71638,-0.008544000000000003,-0.14878550000000001,0.50641,-0.009190000000000004,-0.2637955,0.74239,-0.026947000000000006,0.1633045,0.48392999999999997,0.005424999999999999,0.25935450000000004,0.7299100000000001,0.0032079999999999956,-0.3145655,0.94938,-0.046236000000000006,0.3054445,0.9363400000000001,-0.014515,-0.0675595,-0.00017400000000000054,-0.0025239999999999985,0.0675595,0.00017400000000000054,0.0025239999999999985,-0.1245755,-0.3444,0.01406,0.10851450000000001,-0.34212,0.044466,-0.1210755,-0.6779499999999999,0.039712,0.1100045,-0.67731,0.054426999999999996
59,0.014755,0.7165535,-0.008009000000000002,-0.148835,0.5062535,-0.009168000000000003,-0.264085,0.7424434999999999,-0.026678000000000007,0.163435,0.4838335,0.00553,0.259575,0.7297635,0.0034509999999999957,-0.31483500000000003,0.9493035,-0.046367000000000005,0.305955,0.9366535,-0.014443000000000004,-0.06756899999999999,-0.00016649999999999998,-0.0024200000000000055,0.06756899999999999,0.00016649999999999998,0.0024199999999999985,-0.12451499999999999,-0.3444165,0.014007999999999996,0.108655,-0.3420865,0.044433999999999994,-0.12120500000000001,-0.6780265,0.039730999999999995,0.11025500000000002,-0.6772665,0.054311
60,0.014560500000000004,0.716739,-0.007408999999999999,-0.1488935,0.506149,-0.00913,-0.26441349999999997,0.7424390000000001,-0.026495000000000005,0.16354649999999998,0.48374900000000004,0.005652999999999998,0.2597765,0.7296389999999999,0.003702999999999998,-0.31520349999999997,0.9491689999999999,-0.046484,0.30635650000000003,0.9368989999999999,-0.014393999999999997,-0.0675705,-0.00016199999999999548,-0.002340000000000002,0.0675705,0.00016200000000000242,0.002340000000000002,-0.1244535,-0.344441,0.013937000000000001,0.10878650000000001,-0.342061,0.04437,-0.12134349999999999,-0.678091,0.039817,0.1105265,-0.677241,0.054246
61,0.014322000000000005,0.716934,-0.006765500000000001,-0.14897699999999997,0.506074,-0.0090615,-0.26481699999999997,0.7423839999999999,-0.026362500000000004,0.16363300000000003,0.483714,0.005791499999999998,0.259953,0.729574,0.003879500000000001,-0.315677,0.9490339999999999,-0.046614499999999996,0.30672299999999997,0.937124,-0.0143975,-0.067577,-0.00016199999999999548,-0.0022765000000000007,0.067577,0.00016200000000000242,0.0022765000000000007,-0.124377,-0.344476,0.0138805,0.108883,-0.34202599999999994,0.0443155,-0.121387,-0.6781360000000001,0.039835499999999996,0.110773,-0.6771860000000001,0.0542095
62,0.0140645,0.7171409999999999,-0.006123500000000004,-0.14906149999999999,0.506031,-0.008997499999999999,-0.26525150000000003,0.7422709999999999,-0.026284499999999995,0.1637085,0.48371100000000006,0.0059185,0.2600885,0.729541,0.0040444999999999995,-0.3161715,0.948801,-0.0469935,0.30701849999999997,0.9373509999999999,-0.014408499999999998,-0.06758249999999999,-0.00015900000000000636,-0.0022194999999999993,0.06758249999999999,0.00015899999999999942,0.0022194999999999993,-0.12430150000000001,-0.344509,0.0138315,0.1089685,-0.341989,0.0442675,-0.1214015,-0.678169,0.0398275,0.1110285,-0.677139,0.0542325
63,0.013784000000000001,0.717331,-0.005435000000000002,-0.149178,0.506031,-0.008901,-0.26567799999999997,0.742151,-0.026283,0.163752,0.48372100000000007,0.006051000000000001,0.26020200000000004,0.729531,0.0042190000000000005,-0.31668799999999997,0.948611,-0.047404,0.30721200000000004,0.937511,-0.014424,-0.067589,-0.00016000000000000042,-0.002155999999999998,0.067589,0.00016000000000000042,0.002155999999999998,-0.124228,-0.344539,0.013787999999999998,0.10903199999999999,-0.34195899999999996,0.044239,-0.121518,-0.678199,0.039897,0.111372,-0.677079,0.054679
64,0.0135125,0.7174929999999999,-0.004807500000000006,-0.1492745,0.506023,-0.008786500000000003,-0.2661145,0.741983,-0.02627850000000001,0.1637955,0.48374300000000003,0.006220499999999997,0.26031550000000003,0.729523,0.004399499999999994,-0.31722449999999996,0.948383,-0.0478435,0.30740550000000005,0.9376829999999999,-0.014408500000000005,-0.0675885,-0.00016899999999999554,-0.002082500000000001,0.0675885,0.00016900000000000248,0.002082499999999994,-0.12413450000000001,-0.34458700000000003,0.013760499999999995,0.10907549999999999,-0.341937,0.0441945,-0.1216345,-0.678277,0.0399695,0.11173549999999999,-0.677017,0.0552265
65,0.0131625,0.7176435,-0.0041355,-0.1493625,0.5060435,-0.0086805,-0.2665525,0.7418435,-0.026321499999999998,0.1638175,0.4837435,0.006381499999999998,0.2604075,0.7295134999999999,0.004576499999999997,-0.3177425,0.9481535,-0.0484035,0.3075875,0.9378135,-0.014391500000000002,-0.0675885,-0.00017550000000000204,-0.0020075000000000023,0.0675885,0.00017550000000000204,0.0020074999999999954,-0.1240425,-0.34462649999999995,0.013731499999999997,0.10912749999999999,-0.3419265,0.044130499999999996,-0.1217125,-0.6783265,0.0399575,0.11211749999999998,-0.6769565000000001,0.0558165
66,0.012875500000000002,0.7177880000000001,-0.003636500000000001,-0.1494635,0.506098,-0.008574499999999999,-0.2669935,0.741728,-0.0263435,0.1638565,0.48378799999999994,0.006544500000000002,0.2604965,0.7295480000000001,0.004749500000000004,-0.3181935,0.9480780000000001,-0.0488965,0.3077865,0.937818,-0.014393499999999997,-0.0675865,-0.00017400000000000054,-0.0019295000000000007,0.0675865,0.00017400000000000054,0.0019295000000000007,-0.12397349999999999,-0.344652,0.013694500000000002,0.10917649999999998,-0.341932,0.0440445,-0.12167349999999999,-0.678322,0.0398255,0.1125465,-0.676912,0.0564655
67,0.012616999999999996,0.7179015,-0.003120500000000005,-0.149543,0.5062315,-0.008471500000000007,-0.267443,0.7416315,-0.0263795,0.163907,0.48382149999999996,0.006692499999999997,0.260597,0.7295514999999999,0.004930499999999997,-0.318643,0.9479715,-0.04946450000000001,0.307997,0.9378415,-0.014402500000000006,-0.06758700000000001,-0.0001774999999999971,-0.0018785000000000052,0.06758700000000001,0.00017750000000000404,0.0018784999999999982,-0.123883,-0.3446985,0.013625499999999995,0.10924700000000001,-0.3419485,0.0438815,-0.12163299999999999,-0.6783284999999999,0.039660499999999994,0.112987,-0.6773785000000001,0.0571565
68,0.012368999999999998,0.7179930000000001,-0.002693999999999995,-0.149627,0.506353,-0.008409999999999994,-0.267927,0.741533,-0.02646699999999999,0.163943,0.48382299999999995,0.006795000000000002,0.260683,0.729533,0.005072000000000007,-0.319097,0.947913,-0.050083,0.308203,0.9378230000000001,-0.014456999999999998,-0.067579,-0.00019200000000000467,-0.0018549999999999955,0.067579,0.00019199999999999773,0.0018550000000000025,-0.123777,-0.344757,0.013488000000000003,0.109333,-0.341977,0.043637,-0.12149700000000001,-0.6783669999999999,0.03945800000000001,0.113223,-0.6778569999999999,0.05755400000000001
69,0.012108500000000001,0.718067,-0.002339000000000001,-0.1497485,0.506427,-0.008350999999999997,-0.2683985,0.7414569999999999,-0.026593999999999993,0.1639515,0.483797,0.006885000000000002,0.2607115,0.729497,0.005187999999999998,-0.3194785,0.9477669999999999,-0.050745,0.3084115,0.937727,-0.014503999999999996,-0.0675815,-0.0002119999999999969,-0.0018379999999999994,0.0675815,0.00021200000000000385,0.0018379999999999994,-0.1236785,-0.344863,0.013267000000000001,0.10938149999999999,-0.342043,0.043359,-0.12157849999999999,-0.678443,0.039433,0.1134115,-0.678373,0.057859
70,0.011903,0.7181465,-0.0021414999999999976,-0.149986,0.5065265,-0.007840499999999993,-0.268846,0.7414165,-0.02673049999999999,0.163944,0.4837665,0.0069525,0.26074400000000003,0.7294465,0.0052815000000000015,-0.319696,0.9475665,-0.0513135,0.308684,0.9376065,-0.014564499999999994,-0.067584,-0.00023450000000000554,-0.0018124999999999947,0.067584,0.0002344999999999986,0.0018125000000000016,-0.12354599999999999,-0.3449735,0.012934500000000005,0.109434,-0.3421135,0.043030500000000006,-0.12157599999999999,-0.6785435,0.039407500000000005,0.113504,-0.6785435,0.057883500000000004
71,0.011700500000000003,0.718149,-0.002042000000000002,-0.15019749999999998,0.5065890000000001,-0.007413999999999997,-0.2692275,0.741339,-0.026954999999999993,0.1639425,0.48368900000000004,0.006956999999999998,0.2608025,0.729359,0.005270999999999998,-0.31970750000000003,0.947329,-0.051999000000000004,0.3091525,0.937329,-0.014969999999999997,-0.0675915,-0.0002370000000000011,-0.0017339999999999994,0.0675915,0.0002370000000000011,0.0017339999999999994,-0.1232075,-0.345221,0.012251000000000001,0.10953249999999999,-0.34230099999999997,0.042402,-0.1215275,-0.678781,0.038918,0.11341250000000001,-0.678801,0.057342000000000004
72,0.011517500000000003,0.7181615,-0.0020790000000000045,-0.1503705,0.5066315,-0.007130000000000004,-0.2694705,0.7412314999999999,-0.027241,0.16396950000000002,0.4836515,0.006865999999999997,0.2609395,0.7292514999999999,0.0051109999999999975,-0.31964050000000005,0.9470915,-0.052756,0.30969949999999996,0.9370715,-0.015493000000000007,-0.0675955,-0.0002494999999999997,-0.001688000000000002,0.0675955,0.0002494999999999997,0.001687999999999995,-0.1227905,-0.3454685,0.011406999999999997,0.1096695,-0.3424585,0.041617999999999995,-0.1214605,-0.6790185,0.038267999999999996,0.1134895,-0.6793585,0.057159999999999996
73,0.011307499999999995,0.7181715,-0.0022625000000000006,-0.15051150000000002,0.5067415,-0.006895500000000006,-0.2696815,0.7411015,-0.02765850000000001,0.1639385,0.4836515,0.0066195,0.26104849999999996,0.7292514999999999,0.004812499999999997,-0.31959150000000003,0.9468415,-0.05374650000000001,0.3102385,0.9368315,-0.016175500000000002,-0.0676115,-0.0002494999999999997,-0.0016784999999999994,0.0676115,0.0002494999999999997,0.0016784999999999994,-0.1223415,-0.3457485,0.010333499999999995,0.10985850000000001,-0.3426985,0.0405455,-0.12137150000000001,-0.6792985,0.037212499999999996,0.11346849999999999,-0.6797085,0.0568395
74,0.011109499999999998,0.7181805,-0.0027924999999999964,-0.1506875,0.5068405,-0.006899499999999996,-0.2698775,0.7409605,-0.028365499999999988,0.16383250000000002,0.4836205,0.006113500000000008,0.2611325,0.7292204999999999,0.004262500000000002,-0.3195975,0.9464505,-0.0551715,0.3108225,0.9364905,-0.017224499999999997,-0.0676325,-0.00028050000000000297,-0.0017234999999999959,0.0676325,0.00028049999999999603,0.0017235000000000028,-0.1218675,-0.34607950000000004,0.008877500000000003,0.11014249999999999,-0.3430395,0.0387185,-0.12127750000000001,-0.6796195,0.035777500000000004,0.1134225,-0.6804095,0.056150500000000006
75,0.010798000000000002,0.718151,-0.0040245,-0.15095299999999998,0.506961,-0.007524500000000003,-0.27005300000000004,0.740791,-0.029945500000000007,0.16359700000000002,0.483561,0.004972499999999998,0.261217,0.729161,0.0030265000000000014,-0.31944300000000003,0.945861,-0.057714499999999995,0.31149699999999997,0.935671,-0.0193645,-0.067684,-0.00033199999999999896,-0.0017775000000000013,0.067684,0.0003320000000000059,0.0017775000000000013,-0.121363,-0.34647900000000004,0.006636499999999997,0.11054699999999999,-0.343539,0.0356215,-0.121203,-0.680019,0.0335645,0.113247,-0.680849,0.0546205
76,0.0103835,0.7179595000000001,-0.005684499999999995,-0.1513505,0.5070195000000001,-0.0083675,-0.2703305,0.7404695,-0.0320515,0.1630295,0.48414949999999995,0.004013500000000003,0.2615095,0.7294595,0.0013165000000000052,-0.31928049999999997,0.9451195,-0.0607505,0.3121395,0.9346795,-0.022053499999999997,-0.0677305,-0.00041949999999999626,-0.0018794999999999992,0.0677305,0.0004195000000000032,0.0018794999999999992,-0.1208905,-0.3470005,0.003872500000000001,0.11089949999999998,-0.3441705,0.031976500000000005,-0.1214505,-0.6802005,0.030781500000000003,0.1131095,-0.6815405,0.051812500000000004
77,0.009933,0.7177880000000001,-0.007744000000000001,-0.151792,0.5070380000000001,-0.009551999999999998,-0.27062200000000003,0.740138,-0.034707,0.162298,0.484998,0.002905000000000005,0.261838,0.729798,-0.0008379999999999985,-0.319002,0.9443280000000001,-0.06440699999999999,0.31286800000000003,0.933478,-0.025401,-0.067783,-0.0005370000000000028,-0.0019990000000000008,0.067783,0.0005369999999999958,0.0019990000000000008,-0.120472,-0.347492,0.0007010000000000002,0.111268,-0.344782,0.027834,-0.121722,-0.680372,0.02758,0.11296800000000001,-0.6819919999999999,0.048518000000000006
78,0.009396000000000002,0.7176665,-0.010416000000000002,-0.152284,0.5070665,-0.011092000000000005,-0.270864,0.7397065,-0.038339000000000005,0.161376,0.4860065,0.0012910000000000005,0.262286,0.7300865,-0.0037389999999999993,-0.318434,0.9435065,-0.069334,0.31360600000000005,0.9323265000000001,-0.029636000000000003,-0.06785,-0.0006505000000000052,-0.0020890000000000006,0.06785,0.0006504999999999983,0.0020890000000000006,-0.120044,-0.3479235,-0.0032060000000000005,0.11169599999999999,-0.3453235,0.022774999999999997,-0.122054,-0.6804835,0.023688999999999998,0.112786,-0.6826035,0.044148
79,0.008848500000000002,0.7175805,-0.013482000000000001,-0.1527085,0.5069805,-0.013380999999999997,-0.27104849999999997,0.7393204999999999,-0.042450999999999996,0.1604215,0.48693049999999993,-0.0005499999999999984,0.2628415,0.7302704999999999,-0.007120000000000001,-0.3177585,0.9427004999999999,-0.074798,0.3143715,0.9311505,-0.034423,-0.0679415,-0.0007554999999999992,-0.002266999999999998,0.0679415,0.0007554999999999992,0.0022670000000000017,-0.1196285,-0.3483295,-0.007496999999999997,0.1121315,-0.34591950000000005,0.017373,-0.1224285,-0.6797395,0.018932,0.11273150000000001,-0.6830295000000001,0.039150000000000004
80,0.008329,0.7173885,-0.016868,-0.153086,0.5069085,-0.015902,-0.27111599999999997,0.7388785,-0.047126999999999995,0.159354,0.48766850000000006,-0.0025529999999999997,0.263474,0.7301985,-0.01092,-0.316926,0.9413285,-0.08138599999999999,0.315134,0.9300085,-0.039576999999999994,-0.06803100000000001,-0.000837499999999998,-0.002513999999999999,0.06803100000000001,0.000837499999999998,0.0025140000000000023,-0.119366,-0.3487415,-0.012015999999999999,0.11255400000000002,-0.3465415,0.011798000000000001,-0.12281600000000001,-0.6790014999999999,0.014147000000000002,0.11272400000000002,-0.6834515,0.033732
81,0.007826499999999997,0.7170175,-0.020234999999999996,-0.1534225,0.5068775,-0.018381,-0.2710925,0.7383075,-0.052247999999999996,0.15833750000000002,0.4885775,-0.004508999999999999,0.2641375,0.7302775,-0.014891999999999996,-0.3160525,0.9398575,-0.08846100000000001,0.3159975,0.9288075,-0.045015999999999994,-0.0681055,-0.0008684999999999943,-0.0027529999999999985,0.0681055,0.0008685000000000012,0.002753000000000002,-0.1191625,-0.3491725,-0.016713,0.1129875,-0.34719249999999996,0.0061360000000000026,-0.1232425,-0.6784425,0.009239000000000002,0.11269749999999999,-0.6838525,0.028134000000000003
82,0.007365499999999997,0.716466,-0.023766000000000002,-0.1535965,0.5067360000000001,-0.021075999999999998,-0.27087649999999996,0.7375360000000001,-0.057772000000000004,0.15738349999999998,0.489626,-0.006374000000000001,0.26488350000000005,0.730426,-0.019118000000000003,-0.31516649999999996,0.938296,-0.095961,0.3169635,0.927516,-0.05078100000000001,-0.0681725,-0.0008789999999999978,-0.0030890000000000015,0.0681725,0.0008790000000000048,0.0030889999999999997,-0.11897650000000001,-0.349584,-0.021634,0.11342349999999998,-0.347804,0.0003589999999999982,-0.12360650000000001,-0.677994,0.004213,0.11273349999999999,-0.684244,0.022498999999999998
83,0.007007999999999997,0.715769,-0.0272845,-0.15370199999999998,0.5065189999999999,-0.023611499999999997,-0.270542,0.736659,-0.0635445,0.156478,0.49044899999999997,-0.008230499999999998,0.265688,0.730389,-0.023466499999999998,-0.314302,0.936789,-0.10368050000000001,0.318028,0.926009,-0.0567815,-0.068256,-0.000891999999999997,-0.0031724999999999982,0.068256,0.0008920000000000039,0.0031725,-0.11895,-0.349991,-0.0266675,0.11386799999999998,-0.348361,-0.0051065,-0.123992,-0.677741,-0.0008675000000000002,0.11289799999999998,-0.684641,0.0168475
84,0.006762999999999998,0.7148965,-0.030354,-0.15365,0.5061565,-0.026012,-0.26997,0.7353365,-0.068941,0.1557,0.4912765,-0.009485999999999998,0.26668,0.7304165,-0.027424999999999998,-0.31357,0.9351265,-0.11102300000000001,0.31904,0.9249265,-0.062134,-0.068314,-0.000949499999999999,-0.0032370000000000003,0.068314,0.0009495000000000059,0.0032370000000000003,-0.118909,-0.3503735,-0.03137,0.11429999999999998,-0.3488035,-0.009845,-0.12436,-0.6775535,-0.005528999999999999,0.1132,-0.6849735,0.01165
85,0.006498500000000001,0.713785,-0.0330955,-0.15363949999999998,0.505455,-0.0282875,-0.2693495,0.7338049999999999,-0.0741205,0.15517050000000002,0.491355,-0.0108765,0.2675605,0.730465,-0.031192499999999998,-0.3128495,0.933375,-0.1182625,0.3201305,0.923885,-0.0672615,-0.0684025,-0.0010280000000000011,-0.0033514999999999994,0.0684025,0.0010280000000000011,0.0033515,-0.11879949999999999,-0.35074500000000003,-0.0359765,0.1148305,-0.349245,-0.014402500000000002,-0.1246895,-0.6773750000000001,-0.009957500000000001,0.11367050000000001,-0.685605,0.0068934999999999995
86,0.0062924999999999995,0.7124185,-0.035794,-0.1535455,0.5046984999999999,-0.030934999999999997,-0.2684255,0.7315485,-0.079233,0.1548445,0.4917085,-0.012387,0.2685645,0.7306985,-0.034963,-0.3121455,0.9317084999999999,-0.125499,0.3212645,0.9231785,-0.072361,-0.0684855,-0.0011124999999999954,-0.0034620000000000002,0.0684855,0.0011125000000000024,0.0034620000000000002,-0.11856649999999999,-0.3510015,-0.041203,0.1155245,-0.3495815,-0.019131,-0.1249855,-0.6769615,-0.014569,0.1142745,-0.6858415,0.002062
87,0.006172500000000001,0.7109019999999999,-0.038153,-0.1534695,0.5039720000000001,-0.033281,-0.2675295,0.729252,-0.08372099999999999,0.1547005,0.492122,-0.013687000000000001,0.26955049999999997,0.730942,-0.038302,-0.31170950000000003,0.930212,-0.131712,0.3224205,0.922552,-0.07696599999999999,-0.0685405,-0.0011639999999999984,-0.003726,0.0685405,0.0011639999999999984,0.003726,-0.1182985,-0.351198,-0.046083,0.11628050000000001,-0.349888,-0.02341,-0.1252695,-0.6765479999999999,-0.018759,0.11492050000000001,-0.685608,-0.0021149999999999997
88,0.005984000000000003,0.7092965,-0.040649500000000005,-0.15343299999999999,0.5030965,-0.0358165,-0.266633,0.7271964999999999,-0.0882925,0.15454700000000002,0.4925365,-0.0151645,0.270377,0.7305765,-0.0417625,-0.31129300000000004,0.9290465,-0.1380315,0.323507,0.9223064999999999,-0.0816195,-0.068579,-0.0011865,-0.0038745,0.068579,0.0011865,0.0038745,-0.11815999999999999,-0.3511435,-0.0512605,0.11710700000000002,-0.34967349999999997,-0.0279935,-0.125333,-0.6757435,-0.0226325,0.115337,-0.6850135,-0.006307500000000001
89,0.0057950000000000015,0.7076844999999999,-0.0431585,-0.153422,0.5022844999999999,-0.0383905,-0.265782,0.7251245,-0.0926255,0.15433799999999998,0.4927845,-0.016719499999999998,0.270868,0.7302344999999999,-0.0452015,-0.311002,0.9284445,-0.1434755,0.32439799999999996,0.9221644999999999,-0.0859485,-0.06862,-0.001180500000000001,-0.0038885000000000005,0.06862,0.001180500000000001,0.0038884999999999996,-0.118094,-0.3509355,-0.0562835,0.117908,-0.3493155,-0.0325355,-0.125492,-0.6748655,-0.0264885,0.115688,-0.6841255,-0.0102615
90,0.005585,0.7061565,-0.0463005,-0.153447,0.5012765,-0.0414065,-0.265057,0.7232065,-0.0971015,0.15409299999999998,0.49260649999999995,-0.0187485,0.27110300000000004,0.7293565,-0.0490675,-0.310797,0.9282665,-0.14909650000000002,0.324583,0.9224264999999999,-0.0908155,-0.068674,-0.0012015000000000012,-0.0038925,0.068674,0.0012015000000000012,0.0038925,-0.118206,-0.3505935,-0.0619535,0.118763,-0.34847350000000005,-0.0376355,-0.12578699999999998,-0.6737235,-0.0308205,0.11603300000000001,-0.6830635,-0.0146455
91,0.005420999999999995,0.7044904999999999,-0.04972699999999999,-0.15338000000000002,0.5003504999999999,-0.044183,-0.26429,0.7212004999999999,-0.10140500000000001,0.15388000000000002,0.49258050000000003,-0.021075,0.27143999999999996,0.7280504999999999,-0.052908,-0.31066,0.9281404999999999,-0.154459,0.32519,0.9227004999999999,-0.095958,-0.068802,-0.0012295000000000014,-0.0037359999999999997,0.068802,0.0012295000000000014,0.0037359999999999997,-0.118314,-0.3501895,-0.067582,0.11968,-0.34750949999999997,-0.042712,-0.12603,-0.6736995,-0.035135,0.11649,-0.6820695,-0.019087
92,0.005418000000000003,0.7028300000000001,-0.054018500000000004,-0.15327,0.49940999999999997,-0.047315499999999996,-0.26341000000000003,0.7195800000000001,-0.1062775,0.15379,0.49213999999999997,-0.023891500000000003,0.27192,0.72635,-0.0574215,-0.31057999999999997,0.9282900000000001,-0.1605155,0.32588,0.9239600000000001,-0.1015305,-0.068859,-0.0012529999999999972,-0.003892500000000002,0.068859,0.0012530000000000041,0.0038925,-0.11835999999999999,-0.34962,-0.0737505,0.12072,-0.34592,-0.048405500000000004,-0.12618000000000001,-0.67292,-0.0400325,0.11703,-0.68034,-0.0241425
93,0.005448500000000002,0.7012005,-0.058364,-0.1531225,0.49873049999999997,-0.050361,-0.2626825,0.7184205,-0.11110600000000001,0.1537975,0.49173049999999996,-0.027008,0.2724775,0.7235405,-0.062117000000000006,-0.3105325,0.9287305,-0.166501,0.3268075,0.9213304999999999,-0.10785700000000001,-0.0689075,-0.0012605000000000047,-0.004083,0.0689075,0.0012604999999999977,0.004083,-0.1183625,-0.3489795,-0.07985,0.1217075,-0.3440395,-0.053935,-0.1264525,-0.6719995,-0.045076000000000005,0.1176575,-0.6782395,-0.029240000000000002
94,0.005774999999999999,0.699301,-0.0638015,-0.152805,0.49819099999999994,-0.054600499999999996,-0.261695,0.716801,-0.1179205,0.154065,0.49104099999999995,-0.0315615,0.273245,0.7214309999999999,-0.0686025,-0.310375,0.929881,-0.17499150000000002,0.327885,0.920381,-0.11745349999999999,-0.068973,-0.0013419999999999994,-0.003831499999999998,0.068973,0.0013419999999999994,0.003831499999999998,-0.11834499999999999,-0.34791900000000003,-0.0874395,0.12310499999999999,-0.34130900000000003,-0.0615455,-0.126645,-0.669629,-0.051324499999999995,0.118505,-0.674739,-0.0357115
95,0.0060885,0.6970565,-0.069188,-0.1524955,0.4979565,-0.058658,-0.2608055,0.7150765,-0.124962,0.1545345,0.4900765,-0.03621,0.2741245,0.7188865,-0.075528,-0.31017550000000005,0.9307464999999999,-0.184106,0.32881449999999995,0.9197365,-0.127183,-0.0690525,-0.0013064999999999986,-0.0036869999999999993,0.0690525,0.001306500000000002,0.0036870000000000028,-0.1181755,-0.34668350000000003,-0.09456300000000001,0.1246045,-0.3395935,-0.069615,-0.1268855,-0.6671035000000001,-0.057366,0.11933450000000001,-0.6709835000000001,-0.042179
96,0.006438000000000003,0.694786,-0.0749465,-0.152168,0.497386,-0.06294749999999999,-0.25990800000000003,0.713836,-0.1323225,0.154892,0.489306,-0.0411485,0.274842,0.716456,-0.0828955,-0.309888,0.931466,-0.1943195,0.329742,0.918586,-0.1373675,-0.069142,-0.001230000000000002,-0.003515499999999998,0.069142,0.0012299999999999985,0.0035155000000000047,-0.117968,-0.345294,-0.1018065,0.12616200000000002,-0.337954,-0.07788149999999999,-0.127068,-0.664084,-0.0635165,0.12017199999999999,-0.666984,-0.0488355
97,0.006912000000000005,0.6924455,-0.0806295,-0.151799,0.49668549999999995,-0.06732750000000001,-0.258909,0.7120555,-0.1397355,0.15527100000000002,0.48853549999999996,-0.0460855,0.27559100000000003,0.7138755000000001,-0.0903005,-0.30949899999999997,0.9320055,-0.20480150000000003,0.33077100000000004,0.9137955,-0.1479415,-0.069167,-0.0011984999999999982,-0.0033745000000000025,0.069167,0.0011985000000000016,0.0033744999999999956,-0.117669,-0.3438945,-0.10870250000000001,0.12774100000000002,-0.3366545,-0.0859355,-0.12711899999999998,-0.6614945000000001,-0.0693325,0.12102100000000002,-0.6629445,-0.0553705
98,0.00749,0.690398,-0.0865075,-0.1514,0.495998,-0.0716065,-0.2578,0.710178,-0.1474325,0.15559,0.487338,-0.0511345,0.27616999999999997,0.7113179999999999,-0.0980805,-0.30886,0.932658,-0.2159895,0.33144999999999997,0.9092979999999999,-0.1588595,-0.069165,-0.001151000000000001,-0.0033974999999999977,0.069165,0.0011509999999999992,0.0033974999999999977,-0.11738000000000001,-0.342382,-0.1157365,0.12932,-0.335022,-0.09417249999999999,-0.12713,-0.6582720000000001,-0.0750585,0.12186,-0.6582520000000001,-0.0619535
99,0.008029499999999998,0.688264,-0.092413,-0.1509815,0.495554,-0.075789,-0.2566615,0.7083539999999999,-0.155307,0.15586850000000002,0.48615400000000003,-0.056012,0.2766085,0.707594,-0.10575799999999999,-0.30788150000000003,0.933064,-0.227667,0.33215849999999997,0.9029739999999999,-0.169377,-0.0691635,-0.0010669999999999998,-0.0034109999999999974,0.0691635,0.0010670000000000002,0.0034109999999999974,-0.1171315,-0.340766,-0.122376,0.13079849999999998,-0.333736,-0.102143,-0.1270615,-0.6547360000000001,-0.080433,0.12257849999999999,-0.653366,-0.068177
100,0.008707499999999996,0.686626,-0.098515,-0.15037150000000002,0.49524599999999996,-0.08068700000000001,-0.2552915,0.706256,-0.16362,0.1561985,0.484916,-0.060938000000000006,0.2771585,0.7049259999999999,-0.11362,-0.3067015,0.934116,-0.23998999999999998,0.3326985,0.897116,-0.17956,-0.0692275,-0.0009139999999999999,-0.0035390000000000074,0.0692275,0.0009140000000000001,0.0035390000000000005,-0.1169415,-0.33584400000000003,-0.129233,0.13242849999999998,-0.328474,-0.11043700000000001,-0.1269015,-0.649564,-0.08584800000000001,0.12327849999999999,-0.647354,-0.074532
101,0.009375999999999999,0.6846154999999999,-0.10411399999999998,-0.149779,0.4947355,-0.08499999999999999,-0.253819,0.7035454999999999,-0.17143799999999998,0.15654099999999999,0.48412550000000004,-0.06527599999999999,0.277681,0.7024055,-0.12102299999999999,-0.305409,0.9348655,-0.25196799999999997,0.333511,0.8901654999999999,-0.189188,-0.069334,-0.0008485000000000003,-0.0035529999999999937,0.069334,0.0008485000000000003,0.0035530000000000006,-0.116929,-0.3304545,-0.13572099999999998,0.133991,-0.3236845,-0.118237,-0.126749,-0.6445145,-0.09057699999999999,0.12396099999999999,-0.6415045,-0.080274
102,0.0102505,0.682318,-0.109845,-0.1489505,0.494188,-0.089513,-0.2520005,0.700518,-0.179288,0.1570595,0.483078,-0.069646,0.27845949999999997,0.701238,-0.128407,-0.3039005,0.9351280000000001,-0.264298,0.33440949999999997,0.887228,-0.198608,-0.06946250000000001,-0.0007410000000000021,-0.0035229999999999984,0.06946250000000001,0.0007409999999999986,0.0035229999999999984,-0.11684050000000001,-0.324912,-0.142311,0.13573949999999999,-0.31874199999999997,-0.126082,-0.1262505,-0.6389819999999999,-0.095136,0.1248195,-0.635272,-0.085993
103,0.011935499999999998,0.682246,-0.12009249999999999,-0.1456965,0.491006,-0.0980675,-0.2487665,0.698786,-0.1908185,0.15774349999999998,0.481546,-0.07865849999999999,0.2799235,0.7000259999999999,-0.1400745,-0.3016565,0.934796,-0.2809185,0.3361035,0.883796,-0.21065850000000003,-0.0693985,-0.0004979999999999984,-0.003856499999999999,0.0693985,0.0004980000000000019,0.003856499999999999,-0.1164865,-0.317114,-0.1561575,0.1384935,-0.311454,-0.1393295,-0.1248465,-0.631524,-0.1042305,0.12625350000000002,-0.6268940000000001,-0.0960765
104,0.013630999999999997,0.6827705,-0.1309265,-0.14244099999999998,0.4894905,-0.1076335,-0.245551,0.6993205,-0.2040615,0.158379,0.4805105,-0.0884765,0.281499,0.6993605,-0.1525265,-0.298851,0.9327105,-0.29799149999999996,0.337729,0.8824505,-0.2248315,-0.069431,-0.0003835000000000019,-0.004303500000000002,0.069431,0.0003835000000000019,0.004303500000000002,-0.116131,-0.3071395,-0.1704835,0.141059,-0.3017995,-0.15288249999999998,-0.123371,-0.6215695,-0.1138315,0.127419,-0.6159895,-0.1065155
105,0.015287500000000002,0.6826645,-0.1419705,-0.1390555,0.4871945,-0.1180165,-0.24203550000000001,0.6988045,-0.21769650000000001,0.1585845,0.4788445,-0.0991015,0.2830145,0.6981545,-0.16534749999999998,-0.2958655,0.9312145000000001,-0.3151365,0.3398445,0.8834845,-0.2398865,-0.06952649999999999,-0.0004405000000000034,-0.004633499999999999,0.06952649999999999,0.00044049999999999645,0.004633499999999999,-0.11573549999999999,-0.29572550000000003,-0.1853915,0.1435445,-0.29057550000000004,-0.1666245,-0.1219555,-0.6096655,-0.12344749999999999,0.1284345,-0.6034554999999999,-0.1170325
106,0.016952000000000002,0.6823345,-0.153771,-0.135457,0.48498450000000004,-0.129147,-0.238557,0.6963944999999999,-0.23106,0.158803,0.4766645,-0.110409,0.284183,0.6966644999999999,-0.178417,-0.29251699999999997,0.9278845,-0.33291,0.341673,0.8890545,-0.25576,-0.069686,-0.00033650000000000346,-0.004909999999999998,0.069686,0.00033650000000000346,0.004909999999999998,-0.115217,-0.28283549999999996,-0.200818,0.146073,-0.2778055,-0.18078,-0.120557,-0.5957855000000001,-0.133368,0.129393,-0.5894155000000001,-0.127635
107,0.018487500000000004,0.6820620000000001,-0.165276,-0.1318395,0.48285199999999995,-0.140183,-0.2350795,0.695222,-0.24425,0.1589605,0.475302,-0.121783,0.2851105,0.6953320000000001,-0.19172,-0.2892695,0.924932,-0.35028000000000004,0.3435205,0.894742,-0.27161,-0.06985949999999999,-0.00027100000000000735,-0.005090000000000011,0.06985949999999999,0.00027099999999999347,0.005089999999999997,-0.11469950000000001,-0.269838,-0.21637,0.1486305,-0.264768,-0.195046,-0.11919949999999999,-0.5814779999999999,-0.143229,0.1302305,-0.575078,-0.138154
108,0.0200195,0.6814845,-0.176842,-0.12785249999999998,0.48031450000000003,-0.151919,-0.2312425,0.6927545,-0.257425,0.1589975,0.4727245,-0.133247,0.2859975,0.6945545,-0.205187,-0.2861225,0.9224745,-0.367055,0.3453675,0.8961645,-0.287615,-0.0700165,-9.949999999998849e-05,-0.005275000000000002,0.0700165,9.950000000000236e-05,0.005275000000000002,-0.1141225,-0.2550155,-0.23230499999999998,0.1512175,-0.2495155,-0.209919,-0.1178325,-0.5654155,-0.153189,0.1309075,-0.5596355,-0.148751
109,0.021452999999999996,0.6805650000000001,-0.188424,-0.12390200000000001,0.477225,-0.163589,-0.226932,0.686415,-0.270285,0.158618,0.47052499999999997,-0.144614,0.286678,0.6935849999999999,-0.21874500000000002,-0.282582,0.9149050000000001,-0.38365499999999997,0.347158,0.8978550000000001,-0.303585,-0.07017899999999999,-7.500000000000562e-05,-0.005365000000000009,0.07017899999999999,7.499999999999174e-05,0.005365000000000009,-0.113402,-0.24027500000000002,-0.248285,0.153778,-0.234275,-0.224879,-0.116502,-0.549795,-0.163257,0.131388,-0.544735,-0.159066
110,0.0229135,0.6792,-0.19999100000000003,-0.1200525,0.47432,-0.175152,-0.2234825,0.68164,-0.28313,0.1583075,0.46857,-0.15613900000000003,0.2875075,0.69315,-0.23233900000000002,-0.27951250000000005,0.90845,-0.39971,0.3490175,0.90072,-0.31976000000000004,-0.0703015,-5.999999999997674e-05,-0.005530000000000007,0.0703015,6.0000000000004494e-05,0.005529999999999979,-0.1123725,-0.22449999999999998,-0.26448,0.1563875,-0.21835,-0.23986000000000002,-0.1150425,-0.53403,-0.173409,0.1318675,-0.52947,-0.16933800000000002
111,0.024333500000000004,0.678675,-0.211238,-0.11616349999999999,0.47075500000000003,-0.18661,-0.2204735,0.6778649999999999,-0.295845,0.15802650000000001,0.46701499999999996,-0.167545,0.2882565,0.692375,-0.245934,-0.2766735,0.902965,-0.41563500000000003,0.3512265,0.903965,-0.33547499999999997,-0.0703005,-0.00019500000000000073,-0.00576500000000002,0.0703005,0.00019500000000000073,0.005764999999999992,-0.1111935,-0.20839499999999997,-0.28064500000000003,0.1590865,-0.20206499999999997,-0.25512100000000004,-0.1134135,-0.5181250000000001,-0.183459,0.1323665,-0.514335,-0.179543
112,0.025066999999999996,0.6759000000000001,-0.21658,-0.11483199999999999,0.47007,-0.19222899999999998,-0.219132,0.6740900000000001,-0.30296,0.15773800000000002,0.46546,-0.173312,0.288668,0.69028,-0.25341800000000003,-0.274802,0.89795,-0.42535,0.352698,0.9041,-0.34565,-0.07017699999999999,-0.00039000000000000146,-0.006000000000000005,0.07017699999999999,0.00039000000000000146,0.006000000000000005,-0.110292,-0.19418,-0.28813,0.160648,-0.18778999999999998,-0.26308,-0.11239199999999999,-0.5045,-0.187862,0.132358,-0.50189,-0.184123
113,0.025724499999999997,0.67297,-0.22101699999999996,-0.1134625,0.46721999999999997,-0.19724999999999998,-0.2177725,0.66973,-0.308705,0.15740749999999998,0.46319,-0.17835099999999998,0.2887275,0.68765,-0.25956199999999996,-0.2737225,0.89269,-0.43366499999999997,0.3538175,0.9019400000000001,-0.353305,-0.0700655,-0.0005400000000000127,-0.006034999999999985,0.0700655,0.0005400000000000127,0.006035000000000013,-0.1094125,-0.18127000000000001,-0.29495499999999997,0.1619475,-0.17512999999999998,-0.269985,-0.1113625,-0.4928699999999999,-0.19154899999999997,0.13248749999999998,-0.49158,-0.18794799999999998
114,0.026376500000000008,0.6703399999999999,-0.224889,-0.1122735,0.46533,-0.20152,-0.2166935,0.66555,-0.31418999999999997,0.1573865,0.46131,-0.182394,0.2887965,0.68547,-0.264815,-0.2717835,0.8878999999999999,-0.44095,0.3547265,0.8973,-0.35961,-0.06998650000000001,-0.0005000000000000004,-0.006110000000000004,0.06998650000000001,0.0005000000000000004,0.006110000000000004,-0.10865349999999999,-0.16935000000000003,-0.30086999999999997,0.1630665,-0.16358000000000003,-0.27633,-0.11026349999999999,-0.48251,-0.194765,0.1326265,-0.48256,-0.19115100000000002
115,0.026661500000000005,0.66839,-0.228173,-0.11154649999999999,0.46312,-0.205288,-0.2160665,0.6647000000000001,-0.31982,0.1568335,0.45956,-0.185881,0.2892535,0.6815800000000001,-0.269474,-0.2701865,0.8853800000000001,-0.44777,0.3552935,0.89229,-0.36461,-0.0701425,-0.0006499999999999839,-0.0063,0.0701425,0.0006500000000000117,0.0063,-0.10801649999999999,-0.16149000000000002,-0.30613,0.1637035,-0.15632000000000001,-0.28206,-0.10945649999999998,-0.47352000000000005,-0.19721999999999998,0.1324735,-0.47417,-0.193714
116,0.026875499999999993,0.665305,-0.23150500000000002,-0.11087750000000002,0.460515,-0.20913,-0.2151775,0.6622950000000001,-0.32563,0.1565425,0.456905,-0.189278,0.2893325,0.6784650000000001,-0.273735,-0.26875750000000004,0.8833650000000001,-0.45448,0.3557725,0.885825,-0.36993,-0.07030549999999999,-0.0006949999999999734,-0.006500000000000006,0.07030549999999999,0.0006950000000000012,0.006499999999999978,-0.1073375,-0.15264499999999998,-0.31135,0.1644225,-0.14836499999999997,-0.28778000000000004,-0.1085875,-0.46355499999999994,-0.199665,0.13238250000000001,-0.465025,-0.196133
117,0.026938,0.6619200000000001,-0.23467600000000002,-0.110398,0.45814999999999995,-0.212345,-0.214578,0.66082,-0.33119,0.155702,0.45572999999999997,-0.19259800000000002,0.289382,0.67652,-0.27771,-0.267478,0.8740600000000001,-0.46149,0.356202,0.8845000000000001,-0.37514000000000003,-0.07045,-0.0009500000000000064,-0.006730000000000014,0.07045,0.0009499999999999786,0.006729999999999986,-0.106728,-0.14476,-0.31588000000000005,0.165072,-0.14139000000000002,-0.29272000000000004,-0.107728,-0.45472000000000007,-0.201917,0.132312,-0.45688999999999996,-0.19826800000000003
118,0.027001999999999998,0.658585,-0.237535,-0.10992,0.455315,-0.215192,-0.21387,0.662125,-0.336395,0.15515,0.454855,-0.195622,0.28957,0.674465,-0.281425,-0.26614000000000004,0.869885,-0.468155,0.3564,0.881885,-0.38039500000000004,-0.070613,-0.0013150000000000106,-0.007044999999999996,0.070613,0.0013149999999999828,0.007044999999999996,-0.10614,-0.13664500000000002,-0.319915,0.16568,-0.134065,-0.297025,-0.10691,-0.445735,-0.203962,0.13233,-0.44842499999999996,-0.200168
119,0.026917,0.655775,-0.240179,-0.109388,0.453115,-0.21787,-0.213088,0.6602049999999999,-0.341635,0.15456199999999998,0.45238500000000004,-0.198285,0.28961200000000004,0.6716949999999999,-0.284745,-0.264808,0.865765,-0.474505,0.356862,0.878805,-0.385255,-0.0708,-0.0012650000000000161,-0.007204999999999989,0.0708,0.0012649999999999884,0.007204999999999989,-0.105588,-0.12772499999999998,-0.323395,0.166132,-0.126355,-0.301045,-0.106138,-0.436095,-0.2059,0.13241199999999997,-0.439345,-0.201799
120,0.026874999999999996,0.65243,-0.24239500000000003,-0.10916400000000001,0.45160999999999996,-0.220423,-0.213184,0.6590199999999999,-0.3466,0.154186,0.44936999999999994,-0.200574,0.290216,0.6684599999999999,-0.2876,-0.263644,0.8622,-0.48005,0.357226,0.87537,-0.38978,-0.070938,-0.0010900000000000354,-0.007190000000000002,0.070938,0.0010899999999999799,0.007190000000000002,-0.10508400000000001,-0.11826000000000003,-0.32647000000000004,0.16655599999999998,-0.11777000000000004,-0.30447,-0.105384,-0.4258700000000001,-0.207648,0.132656,-0.42944000000000004,-0.203343
121,0.026736000000000003,0.649385,-0.244379,-0.10894,0.45013499999999995,-0.222814,-0.21408,0.657535,-0.35179,0.15371,0.447415,-0.202794,0.2905,0.665835,-0.29081,-0.26330000000000003,0.8551449999999999,-0.48487,0.35755,0.874055,-0.39422999999999997,-0.071117,-0.0009550000000000392,-0.007179999999999992,0.071117,0.0009549999999999836,0.007179999999999992,-0.10482,-0.108715,-0.32925000000000004,0.16688000000000003,-0.10901500000000003,-0.30762,-0.10468999999999999,-0.41551499999999997,-0.209224,0.13299,-0.419215,-0.204745
122,0.02674,0.6464099999999999,-0.24628699999999998,-0.108569,0.44963,-0.22489199999999998,-0.214479,0.6553899999999999,-0.35602999999999996,0.153531,0.44597999999999993,-0.20465999999999998,0.290781,0.6637,-0.29399,-0.26281899999999997,0.85081,-0.48935,0.357651,0.87142,-0.39881999999999995,-0.07122700000000001,-0.0007500000000000284,-0.007169999999999982,0.07122700000000001,0.0007499999999999729,0.00717000000000001,-0.104599,-0.09912000000000004,-0.33183999999999997,0.167281,-0.09996000000000005,-0.3105,-0.103969,-0.405,-0.21064299999999997,0.133461,-0.40870000000000006,-0.205973
123,0.0265365,0.641945,-0.248066,-0.1086955,0.449855,-0.226655,-0.2150655,0.652115,-0.359895,0.1531945,0.444525,-0.206353,0.2909045,0.661375,-0.296975,-0.2626655,0.8453350000000001,-0.493415,0.3574845,0.869235,-0.403275,-0.07135849999999999,-0.0004549999999999832,-0.0071350000000000025,0.07135849999999999,0.0004549999999999832,0.0071350000000000025,-0.1046655,-0.08998499999999998,-0.334295,0.1674445,-0.09121499999999999,-0.31318500000000005,-0.1034555,-0.39488500000000004,-0.211918,0.1337345,-0.39863499999999996,-0.207093
124,0.026272,0.6397349999999999,-0.24950699999999998,-0.108879,0.447885,-0.22829499999999997,-0.215759,0.649485,-0.36287499999999995,0.15299100000000002,0.443905,-0.207892,0.290661,0.6621049999999999,-0.299795,-0.262589,0.841775,-0.496655,0.357291,0.867895,-0.407575,-0.07147999999999999,-0.0005450000000000177,-0.0070049999999999835,0.07147999999999999,0.0005450000000000177,0.007005000000000011,-0.10497899999999999,-0.07905499999999999,-0.336535,0.16756100000000002,-0.08058500000000002,-0.315655,-0.102959,-0.382795,-0.21307099999999998,0.134001,-0.386555,-0.208028
125,0.025877499999999998,0.6365000000000001,-0.24973099999999998,-0.1091885,0.44725000000000004,-0.22903099999999998,-0.2167985,0.64653,-0.36456,0.1527915,0.44328,-0.208447,0.29054149999999995,0.66143,-0.29998,-0.2624185,0.83602,-0.49723,0.35683149999999997,0.8681099999999999,-0.40923,-0.0715825,-0.0004899999999999904,-0.006989999999999996,0.0715825,0.0004899999999999904,0.006989999999999996,-0.10562850000000001,-0.06823000000000001,-0.33776,0.1677515,-0.06982,-0.31672,-0.1025585,-0.37045999999999996,-0.213255,0.1342815,-0.37414,-0.208061
126,0.025734,0.6348199999999999,-0.24974400000000002,-0.10966,0.44642,-0.229551,-0.21783,0.64426,-0.36543000000000003,0.15295,0.44239999999999996,-0.20872400000000002,0.29036,0.6606799999999999,-0.29966000000000004,-0.26236,0.83741,-0.49722,0.35643,0.86953,-0.40973000000000004,-0.071709,-0.00039000000000000146,-0.007000000000000006,0.071709,0.00039000000000000146,0.0069999999999999785,-0.10643,-0.05717,-0.33882,0.16803,-0.058640000000000025,-0.3173,-0.1022,-0.35797999999999996,-0.213321,0.1346,-0.36125000000000007,-0.207923
127,0.025650999999999997,0.633275,-0.249756,-0.11011400000000002,0.44635199999999997,-0.230051,-0.218094,0.643625,-0.36546,0.15318600000000002,0.440638,-0.208919,0.290136,0.659565,-0.29963,-0.261604,0.838205,-0.49715,0.356196,0.872155,-0.40975,-0.071886,-7.499999999999174e-05,-0.0070199999999999985,0.071886,7.499999999999174e-05,0.0070199999999999985,-0.10731399999999999,-0.045825000000000005,-0.33979000000000004,0.168416,-0.04711500000000002,-0.31769000000000003,-0.101804,-0.345225,-0.213416,0.134916,-0.348135,-0.207807
128,0.025762500000000004,0.632285,-0.249675,-0.11057049999999999,0.44595599999999996,-0.230383,-0.2185705,0.645265,-0.36534,0.1535495,0.44026499999999996,-0.20904,0.29017950000000003,0.6569149999999999,-0.2996,-0.2609505,0.835825,-0.49606000000000006,0.3555795,0.872435,-0.40981,-0.0720335,-0.00013499999999999623,-0.0070300000000000085,0.0720335,0.00013499999999999623,0.0070300000000000085,-0.1084305,-0.034135000000000026,-0.34067000000000003,0.16888950000000003,-0.035355000000000025,-0.31773,-0.1013805,-0.33184500000000006,-0.213612,0.13518950000000002,-0.33465500000000004,-0.207739
129,0.025845999999999997,0.6309750000000001,-0.248691,-0.11108399999999999,0.446149,-0.23016699999999998,-0.21849400000000002,0.645225,-0.364155,0.154006,0.440881,-0.20869,0.290416,0.656065,-0.29883499999999996,-0.260984,0.834875,-0.495625,0.354966,0.873305,-0.409435,-0.072016,-0.00019499999999994522,-0.006995000000000001,0.072016,0.00019500000000000073,0.006995000000000001,-0.109574,-0.020994999999999986,-0.34101499999999996,0.169376,-0.022374999999999978,-0.317245,-0.10087399999999999,-0.31708499999999995,-0.213472,0.135466,-0.31986499999999995,-0.207259
130,0.026068,0.6296600000000001,-0.24850100000000003,-0.11142,0.44694700000000004,-0.23059000000000002,-0.21847,0.64332,-0.362675,0.15466999999999997,0.44116700000000003,-0.20919000000000001,0.29075,0.6555500000000001,-0.29825500000000005,-0.26094,0.83284,-0.493545,0.3543,0.87296,-0.409385,-0.071977,-1.999999999996449e-05,-0.006835000000000008,0.071977,2.0000000000020002e-05,0.00683499999999998,-0.11065,-0.008469999999999978,-0.341835,0.16998000000000002,-0.009869999999999934,-0.31757500000000005,-0.10024,-0.3018099999999999,-0.21402900000000002,0.13583,-0.30557,-0.207568
131,0.026318000000000005,0.628935,-0.24812499999999998,-0.11191699999999999,0.44627100000000003,-0.2309,-0.218387,0.642355,-0.362325,0.155293,0.44025000000000003,-0.209499,0.291333,0.655265,-0.298025,-0.26104700000000003,0.831455,-0.490755,0.354103,0.869085,-0.40734499999999996,-0.071846,7.499999999999174e-05,-0.006724999999999981,0.071846,-7.499999999999174e-05,0.006725000000000009,-0.111647,0.004055000000000031,-0.342195,0.170603,0.002595000000000014,-0.31777500000000003,-0.09961699999999998,-0.28638499999999995,-0.214229,0.136063,-0.291495,-0.207667
132,0.0265105,0.629075,-0.24722,-0.1122355,0.44514600000000004,-0.231054,-0.21867550000000002,0.6418050000000001,-0.361625,0.15582449999999998,0.43947100000000006,-0.209569,0.2920545,0.654585,-0.297635,-0.2613955,0.829945,-0.487485,0.3543845,0.865005,-0.404875,-0.0716835,4.500000000001725e-05,-0.006605,0.0716835,-4.499999999996174e-05,0.006605,-0.1126455,0.01604500000000003,-0.342415,0.17117449999999998,0.01452500000000001,-0.317685,-0.09908549999999999,-0.2714249999999999,-0.21429900000000002,0.1361345,-0.27729499999999996,-0.207587
133,0.026688499999999997,0.626265,-0.24612499999999998,-0.1123925,0.443945,-0.231368,-0.2189325,0.641295,-0.36068,0.15635749999999998,0.43714899999999995,-0.20996399999999998,0.29257750000000005,0.652945,-0.29674,-0.2615825,0.8262149999999999,-0.48482,0.35462750000000004,0.860155,-0.40237999999999996,-0.0715495,0.0005749999999999922,-0.006849999999999995,0.0715495,-0.0005750000000000477,0.006850000000000023,-0.11346250000000001,0.026914999999999967,-0.34294,0.1717575,0.025544999999999984,-0.31764,-0.09827250000000001,-0.257505,-0.214666,0.1362175,-0.2639250000000001,-0.207806
134,0.0268415,0.62563,-0.245058,-0.1125475,0.442327,-0.231806,-0.2192175,0.64163,-0.359745,0.1568625,0.435667,-0.210509,0.2932025,0.65175,-0.295685,-0.2618575,0.82392,-0.481645,0.3547925,0.8549599999999999,-0.399465,-0.0713965,0.0007900000000000129,-0.00711500000000001,0.0713965,-0.0007900000000000129,0.00711500000000001,-0.1140775,0.03667999999999999,-0.343515,0.1723425,0.035609999999999975,-0.317515,-0.0973675,-0.24584,-0.215096,0.1362325,-0.25142000000000003,-0.208093
135,0.0268915,0.6239049999999999,-0.243934,-0.1126165,0.440932,-0.23209200000000002,-0.21942650000000002,0.642435,-0.3588,0.15740349999999997,0.43440199999999995,-0.21112200000000003,0.2938535,0.650385,-0.29475,-0.2622265,0.8219449999999999,-0.47843,0.3550235,0.847755,-0.39635000000000004,-0.0711845,0.0010149999999999881,-0.0072600000000000164,0.0711845,-0.0010150000000000436,0.007259999999999989,-0.11465650000000001,0.04603499999999999,-0.34387,0.17288350000000002,0.045804999999999985,-0.31757,-0.0962065,-0.232545,-0.21534600000000004,0.1361135,-0.23887500000000006,-0.20812400000000003
136,0.0268585,0.6231099999999999,-0.242747,-0.11291749999999999,0.44083399999999995,-0.232288,-0.2199875,0.64415,-0.35809,0.1580125,0.43378799999999995,-0.21140899999999999,0.2951125,0.6496999999999999,-0.29352999999999996,-0.2634675,0.81939,-0.47492999999999996,0.3552725,0.84193,-0.39283,-0.0708925,0.0013099999999999778,-0.007569999999999993,0.0708925,-0.0013100000000000334,0.007570000000000021,-0.1152375,0.05641999999999997,-0.34378,0.1733925,0.05712999999999996,-0.31735,-0.0949375,-0.21794000000000002,-0.21528099999999997,0.1358925,-0.22515000000000007,-0.207949
137,0.026936,0.620675,-0.241263,-0.113167,0.440324,-0.23258,-0.220277,0.644755,-0.357355,0.158563,0.432023,-0.211817,0.29642300000000005,0.649795,-0.29390499999999997,-0.26435699999999995,0.818935,-0.473205,0.35625300000000004,0.835195,-0.390625,-0.070632,0.0017550000000000066,-0.007734999999999992,0.070632,-0.0017550000000000066,0.007734999999999992,-0.115587,0.06531500000000001,-0.34357499999999996,0.174063,0.067525,-0.317525,-0.09281700000000001,-0.20456499999999994,-0.213076,0.135713,-0.21269500000000002,-0.207759
138,0.026929500000000002,0.618395,-0.240478,-0.1132965,0.43803100000000006,-0.233188,-0.22058650000000002,0.6449750000000001,-0.357745,0.1591935,0.42948600000000003,-0.212815,0.2979135,0.6485150000000001,-0.294965,-0.2652565,0.816155,-0.472125,0.3573635,0.827745,-0.389675,-0.07048950000000001,0.002185000000000048,-0.007924999999999988,0.07048950000000001,-0.0021849999999999925,0.007925000000000015,-0.1159365,0.07257500000000006,-0.343835,0.1747835,0.07649500000000004,-0.318505,-0.0890765,-0.192805,-0.210567,0.13485350000000002,-0.20169499999999996,-0.20760599999999998
139,0.026694999999999997,0.61628,-0.239912,-0.11356300000000001,0.43493000000000004,-0.234033,-0.220903,0.64651,-0.35943499999999995,0.159697,0.42712700000000003,-0.21401499999999998,0.299047,0.64432,-0.295695,-0.266343,0.81725,-0.473085,0.35851700000000003,0.82126,-0.38951499999999994,-0.070412,0.0024100000000000232,-0.008154999999999996,0.070412,-0.0024100000000000232,0.008155000000000023,-0.116293,0.07968000000000003,-0.344215,0.175477,0.08544000000000002,-0.319745,-0.085443,-0.18125000000000002,-0.208247,0.13375700000000001,-0.19074000000000002,-0.207645
140,0.026453500000000005,0.613723,-0.24010700000000001,-0.1137435,0.43257200000000007,-0.235573,-0.22099349999999998,0.64683,-0.36205,0.1601165,0.42559,-0.215843,0.2997365,0.6384000000000001,-0.296414,-0.2685935,0.81615,-0.47476,0.36036650000000003,0.81942,-0.39124000000000003,-0.0703115,0.002630000000000021,-0.008330000000000004,0.0703115,-0.00262999999999991,0.008330000000000004,-0.1166635,0.08621000000000006,-0.34506000000000003,0.1762465,0.09387000000000006,-0.32183,-0.08182149999999999,-0.16991999999999996,-0.206525,0.1326365,-0.18035,-0.208172
141,0.026061499999999998,0.612391,-0.24114800000000003,-0.1139065,0.43011,-0.23744800000000002,-0.22169650000000002,0.6482600000000001,-0.36518,0.1605135,0.42415,-0.21803,0.3006335,0.63622,-0.297974,-0.27099650000000003,0.8155600000000001,-0.47694000000000003,0.3622535,0.81858,-0.39353000000000005,-0.0702305,0.0027800000000000047,-0.008490000000000025,0.0702305,-0.0027800000000000047,0.008489999999999998,-0.1169965,0.09288999999999997,-0.34622,0.1771635,0.10259000000000001,-0.3245,-0.07820550000000001,-0.15829000000000004,-0.20520500000000003,0.1314635,-0.16978000000000004,-0.209099
142,0.02549,0.612631,-0.24054000000000003,-0.114242,0.4319,-0.23719700000000002,-0.223222,0.64899,-0.36598,0.16042800000000002,0.42426,-0.217704,0.30092800000000003,0.636029,-0.29821200000000003,-0.274182,0.81578,-0.47678000000000004,0.363648,0.82101,-0.39389,-0.07016,0.00268999999999997,-0.008140000000000008,0.07016,-0.00268999999999997,0.00813999999999998,-0.11756200000000001,0.09688000000000002,-0.34501000000000004,0.177788,0.10838000000000003,-0.32467,-0.07598200000000001,-0.14990000000000003,-0.20203900000000002,0.130858,-0.16247,-0.208486
143,0.0247795,0.614011,-0.240036,-0.1144965,0.43322,-0.236508,-0.2246965,0.64994,-0.366155,0.1602035,0.42413,-0.216982,0.3007435,0.63609,-0.297943,-0.27748649999999997,0.8173699999999999,-0.476835,0.3643735,0.8234699999999999,-0.393865,-0.07010949999999999,0.0027000000000000357,-0.008135000000000003,0.07010949999999999,-0.0027000000000000357,0.008135000000000003,-0.1180465,0.10000999999999999,-0.343605,0.1783035,0.11307,-0.324505,-0.07421250000000001,-0.14371,-0.198904,0.1302635,-0.15615,-0.207509
144,0.024009,0.6155649999999999,-0.23971800000000001,-0.114728,0.4339199999999999,-0.23611700000000002,-0.225968,0.6496399999999999,-0.366275,0.160052,0.4266199999999999,-0.216789,0.301212,0.638114,-0.298167,-0.280728,0.81782,-0.476985,0.364272,0.82639,-0.394145,-0.07006,0.002429999999999932,-0.008125000000000021,0.07006,-0.0024300000000000432,0.008124999999999993,-0.11834800000000001,0.10137999999999991,-0.343305,0.178802,0.11508999999999991,-0.324395,-0.074166,-0.14079000000000008,-0.19889600000000002,0.129892,-0.1532300000000001,-0.207322
145,0.0227105,0.6155649999999999,-0.23947600000000002,-0.1153105,0.4339199999999999,-0.23605900000000002,-0.2278405,0.6491699999999999,-0.366445,0.1596595,0.4264799999999999,-0.21676,0.3007795,0.638114,-0.297866,-0.2836705,0.81782,-0.47714500000000004,0.3639195,0.82639,-0.394565,-0.0701055,0.002429999999999932,-0.008105000000000001,0.0701055,-0.0024300000000000432,0.008105000000000001,-0.11874050000000001,0.1005299999999999,-0.343325,0.17895950000000002,0.11431999999999992,-0.324365,-0.0745585,-0.14079000000000008,-0.198916,0.1293095,-0.1532300000000001,-0.20736100000000002
146,0.021598,0.6155649999999999,-0.238934,-0.11582999999999999,0.4339199999999999,-0.23545900000000003,-0.2284,0.6491699999999999,-0.365845,0.15944,0.4264799999999999,-0.21613000000000002,0.30049,0.638114,-0.29712700000000003,-0.28662,0.81782,-0.476705,0.36375,0.82639,-0.394505,-0.070271,0.002429999999999932,-0.008025000000000004,0.070271,-0.0024300000000000432,0.008024999999999977,-0.11896000000000001,0.1005299999999999,-0.342695,0.17912,0.11377999999999994,-0.323695,-0.074745,-0.14263000000000003,-0.19862200000000002,0.12890000000000001,-0.1532300000000001,-0.20674900000000002
147,0.020406499999999998,0.6155649999999999,-0.23786200000000002,-0.11635550000000001,0.4339199999999999,-0.23432000000000003,-0.22871550000000002,0.6491699999999999,-0.364505,0.15871449999999998,0.4264799999999999,-0.215011,0.2996545,0.638114,-0.295813,-0.2895255,0.81782,-0.475685,0.3633645,0.8265699999999999,-0.393575,-0.0705485,0.002429999999999932,-0.007835000000000009,0.0705485,-0.0024300000000000432,0.007834999999999981,-0.11926550000000001,0.1005299999999999,-0.34153500000000003,0.1789945,0.11343999999999993,-0.322515,-0.0751935,-0.14462000000000008,-0.198109,0.1285945,-0.15333000000000008,-0.20559000000000002
148,0.01915,0.616104,-0.23676999999999998,-0.116953,0.43357,-0.23316399999999998,-0.22919299999999998,0.64881,-0.36268999999999996,0.157887,0.42747999999999997,-0.21387699999999998,0.298377,0.6394070000000001,-0.294196,-0.29136300000000004,0.82031,-0.47423,0.36222699999999997,0.82819,-0.39257,-0.070694,0.0023299999999999432,-0.007849999999999996,0.070694,-0.0023300000000000542,0.007850000000000024,-0.11955299999999999,0.10016999999999998,-0.34067,0.17860700000000002,0.11306,-0.32148,-0.076601,-0.14700999999999997,-0.20022299999999998,0.128197,-0.15458000000000005,-0.20451299999999997
149,0.0179385,0.619248,-0.236693,-0.11758949999999999,0.43467,-0.231685,-0.2296295,0.64532,-0.36051500000000003,0.15664050000000002,0.42976,-0.212481,0.2966105,0.64089,-0.29215599999999997,-0.29322950000000003,0.8224199999999999,-0.47219500000000003,0.3595505,0.8347,-0.391995,-0.0709845,0.0019299999999999873,-0.007525000000000004,0.0709845,-0.0019299999999999873,0.007525000000000004,-0.1195795,0.09173999999999999,-0.339855,0.1780305,0.10415999999999997,-0.319575,-0.0771615,-0.15591,-0.198429,0.1276605,-0.16471999999999998,-0.20301
150,0.016851500000000002,0.6228950000000001,-0.236136,-0.1180545,0.43654600000000005,-0.22975600000000002,-0.2303745,0.6429050000000001,-0.35631,0.1551755,0.43199300000000007,-0.210573,0.2947055,0.642325,-0.289469,-0.2942445,0.8242750000000001,-0.46950000000000003,0.3567055,0.8428950000000001,-0.39115,-0.0712305,0.0014850000000000696,-0.00718000000000002,0.0712305,-0.0014849999999999586,0.007179999999999992,-0.11920449999999999,0.08209500000000008,-0.33918000000000004,0.1774655,0.09317500000000006,-0.31724,-0.0805575,-0.16898499999999994,-0.199939,0.1276555,-0.17700499999999997,-0.201576
151,0.0164485,0.62651,-0.235493,-0.1185865,0.43846700000000005,-0.227758,-0.2310665,0.63953,-0.35314999999999996,0.1539635,0.434485,-0.208733,0.2930635,0.64733,-0.288561,-0.2950565,0.8271200000000001,-0.46684000000000003,0.3534835,0.8483700000000001,-0.38976,-0.0714725,0.0009200000000000319,-0.006819999999999993,0.0714725,-0.0009199999999999209,0.006819999999999993,-0.1184565,0.06965000000000005,-0.33855,0.1770135,0.07890000000000003,-0.3149,-0.0839405,-0.18516,-0.201342,0.12802349999999998,-0.19245999999999996,-0.200133
152,0.016171999999999995,0.63057,-0.23476800000000003,-0.11908300000000001,0.44136299999999995,-0.225673,-0.23151300000000002,0.64242,-0.34938500000000006,0.153117,0.43682699999999997,-0.20668000000000003,0.291157,0.6527799999999999,-0.28703900000000004,-0.295443,0.83227,-0.464305,0.349727,0.8578399999999999,-0.386815,-0.07166,0.0006099999999999994,-0.006455000000000016,0.07166,-0.0006099999999999994,0.0064549999999999885,-0.117383,0.05480999999999997,-0.33803500000000003,0.176487,0.06215999999999999,-0.312735,-0.08729100000000001,-0.20417000000000007,-0.20242400000000002,0.12870700000000002,-0.21083000000000007,-0.198832
153,0.016006499999999996,0.63493,-0.233894,-0.1191065,0.444357,-0.223603,-0.2318265,0.64288,-0.34534,0.1522135,0.43942000000000003,-0.204729,0.2894935,0.65684,-0.28565999999999997,-0.2957665,0.8376,-0.46047,0.3464235,0.86443,-0.38482,-0.0717435,0.00018000000000001348,-0.0061299999999999966,0.0717435,-0.00018000000000001348,0.006130000000000024,-0.11594650000000001,0.03761000000000003,-0.33758,0.1760235,0.042889999999999984,-0.31057999999999997,-0.0904635,-0.22564999999999996,-0.20324099999999998,0.1299235,-0.23184999999999995,-0.197701
154,0.0160415,0.63934,-0.233356,-0.1189835,0.44526699999999997,-0.222004,-0.2313535,0.64432,-0.341515,0.15148650000000002,0.44158,-0.20339100000000002,0.2879465,0.6591499999999999,-0.28341500000000003,-0.2958335,0.8430799999999999,-0.457465,0.3430165,0.86671,-0.382915,-0.0718405,-9.00000000000345e-05,-0.006045000000000023,0.0718405,8.999999999997899e-05,0.006044999999999995,-0.1142635,0.015649999999999942,-0.337735,0.1755965,0.018849999999999978,-0.309205,-0.09281350000000001,-0.25206000000000006,-0.20419900000000002,0.1304265,-0.25766,-0.19624200000000003
155,0.016157999999999995,0.642995,-0.23379499999999998,-0.11847400000000002,0.445951,-0.22142299999999998,-0.230684,0.645215,-0.33770999999999995,0.15153599999999998,0.444405,-0.203116,0.286526,0.662275,-0.28158,-0.295604,0.847065,-0.45547000000000004,0.34000600000000003,0.869525,-0.38134,-0.071941,-0.0004350000000000187,-0.005769999999999997,0.071941,0.0004350000000000187,0.005769999999999997,-0.112544,-0.0064349999999999685,-0.33865,0.175166,-0.005104999999999971,-0.30901999999999996,-0.094834,-0.278405,-0.205946,0.130936,-0.28400499999999995,-0.19577699999999998
156,0.016208,0.647455,-0.233371,-0.117707,0.450106,-0.220209,-0.23000700000000002,0.6473450000000001,-0.33281499999999997,0.151453,0.44593400000000005,-0.201928,0.285003,0.664185,-0.278905,-0.295187,0.851485,-0.45250500000000005,0.33715300000000004,0.875975,-0.378805,-0.072014,-0.0002949999999999897,-0.00573499999999999,0.072014,0.0002950000000000452,0.00573499999999999,-0.11099699999999998,-0.03079499999999996,-0.337995,0.174593,-0.030674999999999952,-0.308095,-0.095667,-0.307855,-0.203909,0.131313,-0.31345499999999993,-0.19428600000000001
157,0.017007999999999995,0.652455,-0.232729,-0.117046,0.452877,-0.218553,-0.228966,0.6508449999999999,-0.32765999999999995,0.151654,0.44745899999999994,-0.200591,0.28409399999999996,0.666005,-0.27626,-0.293816,0.8585449999999999,-0.44891000000000003,0.334954,0.884485,-0.3761,-0.071965,-0.0005050000000000332,-0.005470000000000003,0.071965,0.0005049999999999777,0.005470000000000003,-0.10931600000000001,-0.05545500000000003,-0.3367,0.174244,-0.05608500000000005,-0.30684999999999996,-0.09607600000000001,-0.337755,-0.201504,0.13197399999999998,-0.343245,-0.192659
158,0.017619000000000003,0.6570100000000001,-0.229742,-0.117126,0.45518000000000003,-0.21533,-0.229186,0.65506,-0.32211500000000004,0.15184399999999998,0.45012,-0.197663,0.283414,0.66939,-0.272775,-0.293116,0.86549,-0.44271499999999997,0.33367399999999997,0.88808,-0.371885,-0.071681,-0.0005199999999999649,-0.005335000000000006,0.071681,0.0005200000000000204,0.005335000000000006,-0.107816,-0.07766999999999996,-0.333735,0.17354399999999998,-0.07777999999999996,-0.304475,-0.096576,-0.36571,-0.198523,0.132654,-0.36953,-0.190396
159,0.01802,0.66202,-0.22651200000000002,-0.117398,0.45762,-0.21216600000000002,-0.229388,0.65893,-0.31640500000000005,0.15232199999999999,0.45288,-0.19452200000000003,0.282372,0.6736599999999999,-0.26838500000000004,-0.292718,0.87229,-0.436315,0.332212,0.89082,-0.367545,-0.07144700000000001,-0.00047999999999998044,-0.005205000000000015,0.07144700000000001,0.00047999999999998044,0.005204999999999987,-0.10664799999999999,-0.09904000000000002,-0.32976500000000003,0.17269199999999998,-0.09838000000000002,-0.301165,-0.097058,-0.39057000000000003,-0.19573100000000002,0.133272,-0.39438,-0.18819700000000003
160,0.018315,0.666955,-0.221937,-0.11780399999999999,0.460885,-0.207924,-0.229024,0.6683950000000001,-0.30991,0.152586,0.456355,-0.190269,0.281366,0.680805,-0.26361999999999997,-0.29236399999999996,0.8783749999999999,-0.42883000000000004,0.331106,0.895165,-0.36136999999999997,-0.071276,-0.0002949999999999897,-0.005110000000000003,0.071276,0.0002949999999999897,0.005110000000000003,-0.105744,-0.118925,-0.32502,0.171696,-0.117985,-0.2966,-0.097664,-0.413935,-0.192399,0.13372599999999998,-0.41748500000000005,-0.185135
161,0.01843,0.6717249999999999,-0.21697799999999998,-0.11818300000000001,0.463275,-0.20310299999999998,-0.22928300000000001,0.671605,-0.304125,0.152747,0.460025,-0.18568199999999999,0.28060700000000005,0.684965,-0.257835,-0.292763,0.885965,-0.41994499999999996,0.330097,0.894375,-0.352805,-0.070991,-0.0004250000000000087,-0.0049849999999999894,0.070991,0.0004250000000000087,0.004985000000000017,-0.105183,-0.138015,-0.319795,0.170597,-0.136855,-0.29154499999999994,-0.098443,-0.436095,-0.18881699999999998,0.133987,-0.43950500000000003,-0.181583
162,0.018480000000000003,0.676515,-0.21085299999999998,-0.118762,0.464975,-0.19683299999999998,-0.230692,0.677415,-0.297025,0.152718,0.462435,-0.17976199999999998,0.27943799999999996,0.6888449999999999,-0.25077499999999997,-0.293832,0.892855,-0.40868499999999996,0.328808,0.8951150000000001,-0.342475,-0.070696,-0.0003549999999999942,-0.005004999999999982,0.070696,0.0003549999999999942,0.0050050000000000094,-0.104842,-0.155625,-0.313195,0.169508,-0.15374500000000002,-0.285325,-0.099402,-0.45668499999999995,-0.184332,0.134058,-0.45973500000000006,-0.177057
163,0.018063499999999996,0.6809000000000001,-0.204671,-0.1192995,0.46672,-0.190663,-0.2322495,0.68137,-0.289565,0.1529905,0.46472,-0.173923,0.2782405,0.69258,-0.244025,-0.2952995,0.89784,-0.396825,0.3274805,0.90412,-0.332415,-0.07046150000000001,-0.0003399999999999792,-0.005025000000000002,0.07046150000000001,0.00034000000000000696,0.005025000000000002,-0.1046095,-0.16843999999999998,-0.30613500000000005,0.16852050000000002,-0.16586999999999996,-0.27915500000000004,-0.10032949999999999,-0.47216,-0.180076,0.13419050000000002,-0.47487,-0.172689
164,0.01743449999999999,0.6842950000000001,-0.19786399999999998,-0.1200995,0.47131500000000004,-0.183873,-0.2335595,0.685135,-0.27910999999999997,0.1532905,0.46959500000000004,-0.167286,0.2774105,0.6964250000000001,-0.235401,-0.2967695,0.9013549999999999,-0.38173,0.3261505,0.9118950000000001,-0.3217,-0.0702015,-0.00023499999999998522,-0.005069999999999991,0.0702015,0.00023500000000001298,0.005069999999999991,-0.1045795,-0.18228499999999997,-0.29774,0.1673405,-0.17882499999999996,-0.27149,-0.10134950000000001,-0.48845500000000003,-0.175167,0.1342605,-0.490505,-0.167739
165,0.016817999999999993,0.68894,-0.19093000000000002,-0.121503,0.47348,-0.17685700000000001,-0.235553,0.69138,-0.2683,0.153487,0.47211000000000003,-0.16055,0.275727,0.7003900000000001,-0.225976,-0.298953,0.91259,-0.36625,0.32487699999999997,0.9152600000000001,-0.3099,-0.070015,-0.0004200000000000037,-0.004760000000000014,0.070015,0.0004200000000000037,0.0047599999999999865,-0.104763,-0.19326999999999997,-0.28826,0.16586700000000001,-0.18911999999999998,-0.26255,-0.102463,-0.50149,-0.17008800000000002,0.134397,-0.5026999999999999,-0.162448
166,0.0157775,0.6933800000000001,-0.18254700000000001,-0.1227725,0.47781,-0.16875,-0.2375025,0.69652,-0.25536000000000003,0.1532575,0.47638,-0.15268400000000001,0.2741575,0.70427,-0.21510600000000002,-0.3010925,0.91785,-0.34785,0.3234175,0.91414,-0.29527000000000003,-0.0697675,-0.00047999999999998044,-0.0045600000000000085,0.0697675,0.0004800000000000082,0.0045600000000000085,-0.1051925,-0.20498,-0.27695000000000003,0.1640275,-0.20012999999999997,-0.25151999999999997,-0.1034525,-0.5154700000000001,-0.16284200000000001,0.1341475,-0.51587,-0.155119
167,0.014974000000000005,0.6966000000000001,-0.17539,-0.12396900000000001,0.48101000000000005,-0.16189199999999998,-0.23929899999999998,0.70417,-0.24418499999999999,0.153121,0.47892,-0.146069,0.27292099999999997,0.7078500000000001,-0.205262,-0.303159,0.92658,-0.330675,0.322281,0.9154200000000001,-0.281575,-0.069366,-0.0003999999999999837,-0.004494999999999999,0.069366,0.00040000000000001146,0.004494999999999999,-0.105639,-0.21248999999999996,-0.266505,0.16247099999999998,-0.20710999999999996,-0.240865,-0.104309,-0.52505,-0.156448,0.133951,-0.52477,-0.148366
168,0.014162500000000005,0.697515,-0.168232,-0.1261425,0.48362499999999997,-0.154349,-0.2407625,0.711345,-0.23215999999999998,0.15295750000000002,0.481265,-0.139015,0.2715875,0.711775,-0.19439499999999998,-0.3059525,0.934245,-0.31228,0.32107749999999996,0.923215,-0.26586,-0.0690965,-0.00031499999999999584,-0.004479999999999998,0.0690965,0.00031499999999999584,0.004480000000000012,-0.10598250000000001,-0.220005,-0.25439999999999996,0.16061750000000002,-0.21341500000000002,-0.22801,-0.10527249999999999,-0.534825,-0.149413,0.13368750000000001,-0.533265,-0.141261
169,0.0133735,0.7020255,-0.159887,-0.1279465,0.4871855,-0.146379,-0.2425665,0.7155054999999999,-0.219063,0.1532835,0.4847255,-0.131212,0.2704135,0.7162055,-0.182422,-0.30812649999999997,0.9371354999999999,-0.291953,0.32013349999999996,0.9290655000000001,-0.248973,-0.0690315,-0.0003475000000000006,-0.004317000000000001,0.0690315,0.0003474999999999867,0.004317000000000001,-0.1056465,-0.22636450000000002,-0.238083,0.1580935,-0.2196845,-0.210953,-0.1062765,-0.5438845000000001,-0.141691,0.1336135,-0.5422445,-0.13344899999999998
170,0.012293499999999997,0.707179,-0.1520215,-0.1294835,0.489999,-0.1385325,-0.2450435,0.719419,-0.20623950000000002,0.1534065,0.488059,-0.1238425,0.2692565,0.720649,-0.1708605,-0.3104135,0.938789,-0.2718795,0.3189165,0.935729,-0.2324795,-0.06885849999999999,-0.00022199999999999998,-0.004012500000000002,0.06885849999999999,0.00022199999999999998,0.004012500000000002,-0.1056635,-0.23835099999999998,-0.2205495,0.1548365,-0.23190099999999997,-0.19313950000000002,-0.10720350000000001,-0.5589109999999999,-0.1342575,0.13295649999999998,-0.557071,-0.1254545
171,0.011443000000000002,0.7117895,-0.1451005,-0.13086499999999998,0.49330949999999996,-0.1314535,-0.24734499999999998,0.7233795,-0.19466250000000002,0.153725,0.49240949999999994,-0.1173425,0.268195,0.7256195,-0.1603765,-0.312465,0.9407795,-0.2537725,0.31788500000000003,0.9430995,-0.2172725,-0.06869900000000001,-0.00016350000000000392,-0.0035745000000000082,0.06869900000000001,0.00016349999999999698,0.0035744999999999943,-0.10550499999999999,-0.2498405,-0.2040825,0.151585,-0.2440105,-0.1762085,-0.10791500000000001,-0.5730505,-0.1272975,0.132275,-0.5713205,-0.1176345
172,0.009934499999999995,0.7152700000000001,-0.133316,-0.1329725,0.49659000000000003,-0.11942799999999999,-0.2501125,0.72682,-0.17887999999999998,0.1532975,0.49641,-0.10593,0.26668749999999997,0.7300800000000001,-0.145112,-0.3151725,0.9434,-0.23168,0.3162075,0.94188,-0.19713,-0.06855649999999999,0.00017299999999999954,-0.0030839999999999895,0.06855649999999999,-0.00017299999999999954,0.0030840000000000034,-0.1061725,-0.26136,-0.18239,0.1474975,-0.25614,-0.15357300000000002,-0.1094425,-0.58701,-0.114755,0.1306975,-0.58546,-0.104222
173,0.008430500000000004,0.7169035,-0.12140800000000002,-0.1359575,0.4993035,-0.10702,-0.2523975,0.7303335000000001,-0.162951,0.1526825,0.49561350000000004,-0.09458000000000001,0.26484250000000004,0.7311635000000001,-0.12959,-0.3175975,0.9452335000000001,-0.210813,0.3145425,0.9381135,-0.176923,-0.0684415,-2.549999999999948e-05,-0.0025350000000000095,0.0684415,2.5500000000001216e-05,0.0025349999999999956,-0.1066075,-0.2744965,-0.157721,0.1423725,-0.2702365,-0.12856900000000002,-0.1112075,-0.6024265,-0.10008700000000001,0.12885249999999998,-0.6013965,-0.08899300000000002
