sb224sc-HT22-VT27/4dt907/src/data/kinect_good_vs_bad_not_preprocessed_A13_mediapipe/G23.csv
FrameNo,nose_3d_x,nose_3d_y,nose_3d_z,left_shoulder_3d_x,left_shoulder_3d_y,left_shoulder_3d_z,left_elbow_3d_x,left_elbow_3d_y,left_elbow_3d_z,right_shoulder_3d_x,right_shoulder_3d_y,right_shoulder_3d_z,right_elbow_3d_x,right_elbow_3d_y,right_elbow_3d_z,left_wrist_3d_x,left_wrist_3d_y,left_wrist_3d_z,right_wrist_3d_x,right_wrist_3d_y,right_wrist_3d_z,left_hip_3d_x,left_hip_3d_y,left_hip_3d_z,right_hip_3d_x,right_hip_3d_y,right_hip_3d_z,left_knee_3d_x,left_knee_3d_y,left_knee_3d_z,right_knee_3d_x,right_knee_3d_y,right_knee_3d_z,left_ankle_3d_x,left_ankle_3d_y,left_ankle_3d_z,right_ankle_3d_x,right_ankle_3d_y,right_ankle_3d_z
0,0.018804,0.7365280000000001,-0.0217515,-0.154077,0.466288,0.0177385,-0.18237699999999998,0.229998,0.0222095,0.172603,0.46138799999999996,0.024364499999999997,0.230553,0.244608,0.0238055,-0.18800699999999998,-0.010362,-0.0514835,0.26354299999999997,0.003451,-0.030163499999999996,-0.06665199999999999,0.0017400000000000002,0.0007414999999999991,0.06665199999999999,-0.0017400000000000002,-0.0007414999999999991,-0.118507,-0.320332,0.0176255,0.112263,-0.320842,0.0471505,-0.130717,-0.606652,0.052179500000000004,0.11607300000000001,-0.670812,0.0754195
1,0.017583,0.737016,-0.018397999999999998,-0.15392099999999997,0.464906,0.018783000000000005,-0.181931,0.23050600000000002,0.022005000000000004,0.171609,0.461226,0.026085000000000004,0.23063899999999998,0.244486,0.024910000000000005,-0.18568099999999998,-0.011160999999999999,-0.052119,0.258439,0.019025,-0.029288999999999996,-0.066606,0.0016689999999999995,0.0009740000000000026,0.066606,-0.0016690000000000003,-0.0009739999999999957,-0.118541,-0.320584,0.018087000000000006,0.112359,-0.320934,0.047219000000000004,-0.13094099999999997,-0.606214,0.05269800000000001,0.125649,-0.616114,0.07211000000000001
2,0.017392499999999998,0.7372875,-0.0171595,-0.15337450000000002,0.46480750000000004,0.0196365,-0.1812145,0.2308875,0.021886500000000003,0.17076550000000001,0.4608275,0.027484500000000002,0.2302655,0.2445775,0.026110500000000002,-0.18469449999999998,-0.0078475,-0.0511985,0.25596549999999996,0.0247895,-0.0287995,-0.0665065,0.0018075,0.0012435000000000015,0.0665065,-0.0018075,-0.0012435000000000015,-0.1183645,-0.3209825,0.018145500000000002,0.1127055,-0.3212925,0.0473415,-0.1309345,-0.6056425,0.0530475,0.1209455,-0.6748625,0.0669405
3,0.016935500000000003,0.737524,-0.014780500000000002,-0.1546755,0.465104,0.0196175,-0.1807355,0.230774,0.021840500000000002,0.1711945,0.460614,0.0288215,0.2295945,0.243444,0.027589500000000003,-0.1815855,-0.011248000000000001,-0.05513149999999999,0.2521745,0.013423999999999998,-0.029650500000000003,-0.0665075,0.0018640000000000002,0.0012344999999999995,0.0665075,-0.0018640000000000002,-0.0012344999999999995,-0.1182655,-0.321506,0.0185035,0.11276449999999999,-0.321546,0.0476525,-0.1306855,-0.6059060000000001,0.0536115,0.1210145,-0.6748160000000001,0.0672665
4,0.015489999999999999,0.7392964999999999,-0.010373500000000008,-0.155318,0.4648665,0.019762499999999995,-0.180078,0.23057650000000002,0.022190499999999995,0.169122,0.46077650000000003,0.030499499999999995,0.22656199999999999,0.2410565,0.0320675,-0.17993800000000001,-0.0042035,-0.052902500000000005,0.242922,0.0281505,-0.022650500000000004,-0.066524,0.0017225000000000005,0.0013064999999999952,0.066524,-0.0017225,-0.001306500000000002,-0.118158,-0.3211535,0.019017499999999996,0.112972,-0.32125349999999997,0.0474405,-0.130688,-0.6053735,0.054488499999999995,0.120232,-0.6726635000000001,0.0765225
5,0.015208999999999997,0.7394965,-0.009558499999999998,-0.15501700000000002,0.46454650000000003,0.019849500000000003,-0.18010700000000002,0.23031649999999998,0.022346500000000005,0.16878300000000002,0.46049650000000003,0.030862500000000005,0.223163,0.2352265,0.034849500000000005,-0.180157,-0.0032855000000000002,-0.0513135,0.239543,0.0263365,-0.020728499999999997,-0.066521,0.0017035000000000002,0.0013785000000000047,0.066521,-0.0017035000000000002,-0.0013784999999999978,-0.11859700000000001,-0.32252349999999996,0.019724500000000002,0.112883,-0.3208735,0.0469535,-0.130517,-0.6058535,0.0544825,0.120513,-0.6723935000000001,0.0764355
6,0.015106499999999995,0.7401085000000001,-0.008759500000000003,-0.1556435,0.46503849999999997,0.019618499999999997,-0.17676350000000002,0.2116585,0.0266145,0.16848649999999998,0.4605285,0.030845499999999998,0.2207265,0.23342849999999998,0.036970499999999996,-0.18226350000000002,-0.0066345,-0.0510445,0.2356765,0.023238500000000002,-0.017765500000000004,-0.0665265,0.0016604999999999996,0.0013384999999999994,0.0665265,-0.0016605000000000005,-0.0013384999999999994,-0.1187135,-0.3227215,0.019917499999999998,0.11269649999999999,-0.3209715,0.0462275,-0.13087350000000003,-0.6038815,0.054482499999999996,0.11910649999999999,-0.6728514999999999,0.0732265
7,0.015540500000000002,0.7410545,-0.009511000000000006,-0.1567475,0.4651645,0.017756999999999995,-0.1806275,0.22368449999999998,0.028464999999999997,0.1715025,0.4604645,0.030233999999999997,0.2159925,0.2298245,0.039410999999999995,-0.1881175,-0.0025245000000000007,-0.035641000000000006,0.2273325,0.0009544999999999996,-0.012726000000000001,-0.0664605,0.0014614999999999997,0.000445999999999995,0.0664605,-0.0014615000000000001,-0.00044600000000000195,-0.11952750000000001,-0.3232855,0.018960999999999995,0.1120825,-0.3214155,0.044631,-0.13127750000000002,-0.6051555,0.052924,0.12327250000000001,-0.6413855,0.071498
8,0.015521999999999998,0.741576,-0.009181999999999996,-0.156852,0.464926,0.016966000000000005,-0.179952,0.22082600000000002,0.030579000000000005,0.171518,0.46017600000000003,0.029967000000000004,0.212618,0.22673600000000002,0.041798,-0.189172,-0.002535000000000001,-0.030218999999999996,0.222598,0.0013809999999999994,-0.008340999999999994,-0.066444,0.0013669999999999997,0.00016900000000000248,0.066444,-0.0013670000000000002,-0.00016899999999999554,-0.119662,-0.323774,0.018599000000000004,0.112108,-0.321644,0.043847000000000004,-0.13123200000000002,-0.6054539999999999,0.052258000000000006,0.124138,-0.6350439999999999,0.070763
9,0.015514499999999994,0.7419575,-0.009581,-0.1568505,0.4648275,0.015898,-0.17926050000000002,0.2174975,0.032515,0.17158949999999998,0.4599175,0.029269,0.2096195,0.2238875,0.043481,-0.1905105,-0.0028635000000000006,-0.024158,0.21954949999999998,-0.0023745,-0.004415000000000002,-0.0664335,0.0012654999999999997,-0.0001820000000000016,0.0664335,-0.0012655000000000001,0.0001820000000000016,-0.11976049999999999,-0.3242725,0.018096,0.1121395,-0.3218325,0.042781,-0.1312105,-0.6057824999999999,0.051359,0.1242895,-0.6347125,0.069964
10,0.015381500000000003,0.742358,-0.010474999999999998,-0.1570295,0.464658,0.014353000000000001,-0.1793195,0.215718,0.032962000000000005,0.1716105,0.45961799999999997,0.028040000000000002,0.2079705,0.221888,0.043563000000000004,-0.1923595,-0.0016009999999999996,-0.016847999999999995,0.2169805,-0.006576,-0.0012770000000000004,-0.0664145,0.0011660000000000002,-0.00043899999999999495,0.0664145,-0.001166,0.0004390000000000019,-0.1199995,-0.324682,0.017236,0.11195050000000001,-0.322092,0.041268,-0.13140949999999998,-0.606282,0.050068,0.1249605,-0.627892,0.068934
11,0.015346499999999999,0.7427630000000001,-0.011618,-0.15728250000000002,0.46453300000000003,0.012864999999999998,-0.1795725,0.215333,0.031219999999999998,0.1715475,0.459353,0.026456,0.2077375,0.221503,0.041822,-0.1940725,-0.00026800000000000044,-0.015753,0.21674749999999998,-0.005892,-0.0030180000000000033,-0.06641150000000001,0.0010439999999999998,-0.0007600000000000003,0.06641150000000001,-0.0010440000000000002,0.0007600000000000003,-0.12028250000000001,-0.325067,0.016198999999999998,0.11170749999999999,-0.322337,0.039744,-0.1313725,-0.609237,0.048688999999999996,0.1256475,-0.621037,0.067664
12,0.015513999999999997,0.742927,-0.013007499999999998,-0.157589,0.464437,0.011412499999999999,-0.179899,0.214957,0.0294445,0.171521,0.45908699999999997,0.0246995,0.207431,0.22112700000000002,0.0400485,-0.195319,0.0010370000000000002,-0.0175815,0.216441,-0.006267999999999999,-0.004791500000000004,-0.066408,0.000946,-0.0010485000000000008,0.066408,-0.0009459999999999998,0.0010484999999999974,-0.120619,-0.32544300000000004,0.0150815,0.11138100000000001,-0.322523,0.0384125,-0.131319,-0.612163,0.0473215,0.126391,-0.614113,0.0659515
13,0.0157805,0.743032,-0.0145075,-0.1578335,0.464352,0.010024500000000002,-0.1802635,0.214602,0.027682500000000002,0.1713065,0.458872,0.0229455,0.2071065,0.220772,0.0382885,-0.1965035,0.0024749999999999998,-0.019390499999999998,0.2161165,-0.0066229999999999995,-0.006551500000000002,-0.0664095,0.0008689999999999999,-0.0012525000000000001,0.0664095,-0.000869,0.0012525000000000001,-0.1209835,-0.32579800000000003,0.0140075,0.1110365,-0.32268800000000003,0.037179500000000004,-0.1312135,-0.614998,0.046005500000000005,0.1266165,-0.613438,0.0642235
14,0.01612,0.7432354999999999,-0.0157295,-0.157887,0.4643055,0.0086485,-0.182167,0.2158155,0.0254455,0.170953,0.4587655,0.0212455,0.207553,0.2211855,0.0359185,-0.202427,0.0056845,-0.021414499999999996,0.218603,-0.0051424999999999995,-0.009402500000000001,-0.066419,0.0008304999999999999,-0.0013164999999999982,0.066419,-0.0008305000000000001,0.0013165000000000017,-0.12135699999999999,-0.32590450000000004,0.013048500000000001,0.11069299999999999,-0.32279450000000004,0.036152500000000004,-0.13103700000000001,-0.6172745000000001,0.044784500000000005,0.12684299999999998,-0.6127845000000001,0.06297749999999999
15,0.016466,0.7434785,-0.016698500000000005,-0.15767199999999998,0.4643285,0.007536499999999998,-0.184942,0.2183385,0.020652499999999997,0.17061800000000002,0.4587885,0.019539499999999998,0.210408,0.2249085,0.030637499999999998,-0.21110199999999998,0.010935499999999999,-0.026057500000000004,0.22520800000000002,0.0022475,-0.016898500000000004,-0.06645300000000001,0.0008104999999999999,-0.001299500000000002,0.06645300000000001,-0.0008105,0.0012994999999999986,-0.12165200000000001,-0.3258115,0.012245499999999998,0.110428,-0.3228815,0.0354385,-0.130832,-0.6206014999999999,0.0437805,0.127028,-0.6121814999999999,0.062008499999999994
16,0.016844000000000005,0.7438585,-0.017188500000000002,-0.157247,0.46438850000000004,0.006440500000000002,-0.189477,0.2234585,0.013822500000000001,0.170273,0.4589185,0.0176525,0.215253,0.2299385,0.0227575,-0.222447,0.0200655,-0.0354015,0.236153,0.0129255,-0.0296885,-0.066511,0.0008015,-0.0012425000000000005,0.066511,-0.0008015,0.0012425000000000005,-0.12193699999999999,-0.3255415,0.0115955,0.110153,-0.32290149999999995,0.0348915,-0.13064699999999999,-0.6227315,0.042827500000000004,0.127173,-0.6115615,0.0611155
17,0.017150500000000006,0.7443489999999999,-0.0168245,-0.1567265,0.464559,0.0057655,-0.1965065,0.230139,0.004576500000000001,0.16960350000000002,0.459369,0.0158775,0.22156350000000002,0.236439,0.0138385,-0.23694649999999998,0.033308,-0.05200949999999999,0.25119349999999996,0.029471999999999998,-0.0484355,-0.06657450000000001,0.000779,-0.0010974999999999978,0.06657450000000001,-0.000779,0.0010975000000000013,-0.1221865,-0.325111,0.0114905,0.10990350000000002,-0.322831,0.0348745,-0.13043649999999998,-0.624661,0.042577500000000004,0.12717350000000002,-0.611261,0.0605705
18,0.0173395,0.744728,-0.016086500000000004,-0.1556615,0.464998,0.005171499999999999,-0.2057615,0.240178,-0.008896500000000002,0.1686885,0.460158,0.0139915,0.2306685,0.24592799999999998,0.0023385000000000003,-0.2556415,0.052586,-0.0751665,0.2704985,0.052551,-0.0719555,-0.0666245,0.0007570000000000001,-0.0008615000000000012,0.0666245,-0.0007570000000000001,0.0008615000000000012,-0.1224315,-0.324472,0.0115515,0.1096285,-0.32272199999999995,0.0350225,-0.1302415,-0.626572,0.0423945,0.1271385,-0.611062,0.0600655
19,0.017391499999999997,0.7449534999999999,-0.014925999999999998,-0.1542535,0.4655635,0.004815,-0.2172535,0.2531335,-0.024635,0.1677465,0.46125350000000004,0.012277,0.2422265,0.2581135,-0.009219999999999999,-0.2777335,0.0758125,-0.102547,0.2921265,0.0833465,-0.098877,-0.0667025,0.0007385,-0.0006859999999999991,0.0667025,-0.0007385,0.0006859999999999991,-0.1226535,-0.3238665,0.011926,0.1093565,-0.3226265,0.035193,-0.1300435,-0.6280365,0.042581,0.1271065,-0.6111565,0.059690999999999994
20,0.017301,0.745055,-0.013391,-0.15298899999999999,0.466145,0.004067000000000003,-0.230839,0.272015,-0.043108,0.167081,0.462395,0.010599000000000003,0.256941,0.275125,-0.022541,-0.299869,0.111055,-0.134978,0.314691,0.121195,-0.130108,-0.066778,0.000724,-0.00040699999999999764,0.066778,-0.000724,0.0004070000000000011,-0.12293899999999999,-0.323285,0.012323000000000002,0.10903099999999999,-0.32255500000000004,0.035334000000000004,-0.13016899999999998,-0.628335,0.042685,0.127001,-0.6112749999999999,0.059259
21,0.017091999999999996,0.7450950000000001,-0.011677,-0.151814,0.46664500000000003,0.003266999999999999,-0.245444,0.295755,-0.06171599999999999,0.166616,0.463865,0.008835999999999998,0.272136,0.298145,-0.041111999999999996,-0.32335400000000003,0.15489499999999998,-0.170076,0.338646,0.166395,-0.165966,-0.06686,0.0007289999999999999,-6.600000000000009e-05,0.06686,-0.000729,6.600000000000009e-05,-0.123224,-0.32276499999999997,0.012670999999999998,0.108706,-0.32254499999999997,0.035323999999999994,-0.130334,-0.628715,0.042714,0.126866,-0.611455,0.058795
22,0.016761500000000002,0.7449785,-0.0099625,-0.1512935,0.46730849999999996,0.002399499999999999,-0.2600835,0.3231985,-0.0796365,0.1663065,0.46531849999999997,0.007069499999999999,0.28476650000000003,0.32465849999999996,-0.0589925,-0.34690350000000003,0.2050085,-0.2061345,0.35999650000000005,0.21739850000000002,-0.2002945,-0.0669525,0.0007445,0.00034149999999999806,0.0669525,-0.0007445,-0.0003415000000000015,-0.1234535,-0.3221415,0.012907499999999999,0.10842650000000001,-0.3225615,0.0353485,-0.1307135,-0.6292315,0.0425375,0.1267265,-0.6117615000000001,0.0583475
23,0.016245999999999997,0.744536,-0.008325500000000003,-0.151141,0.467906,0.001569499999999998,-0.273131,0.352266,-0.0949025,0.165949,0.467176,0.005400499999999999,0.29504899999999995,0.354446,-0.0746965,-0.365261,0.261206,-0.23508250000000003,0.37448899999999996,0.274376,-0.2257225,-0.067046,0.0007230000000000001,0.0006804999999999971,0.067046,-0.0007229999999999999,-0.0006805000000000005,-0.12376100000000001,-0.321904,0.0130865,0.108099,-0.322834,0.035434499999999994,-0.131181,-0.6285740000000001,0.0425165,0.126439,-0.612454,0.0579505
24,0.015764000000000004,0.7439325,-0.0074185000000000015,-0.151297,0.4685725,0.0011314999999999988,-0.281937,0.3832725,-0.1040775,0.165233,0.4695025,0.0042654999999999985,0.300373,0.38451250000000003,-0.0849775,-0.374947,0.32285250000000004,-0.2487375,0.378823,0.3357525,-0.2381975,-0.067009,0.0006724999999999999,0.0007554999999999992,0.067009,-0.0006724999999999999,-0.0007554999999999992,-0.123957,-0.3217675,0.013481499999999999,0.107873,-0.3232175,0.0357355,-0.131637,-0.6282875,0.042854500000000004,0.126073,-0.6133975,0.05808049999999999
25,0.015421500000000005,0.7427795,-0.0074445,-0.1512695,0.4698595,0.00011850000000000055,-0.28807950000000004,0.4197395,-0.11060350000000001,0.16430050000000002,0.4721495,0.0031975000000000007,0.3029305,0.4220095,-0.09159350000000001,-0.3796695,0.39368949999999997,-0.2539035,0.37867049999999997,0.4070995,-0.2414835,-0.0669155,0.0006224999999999998,0.0007665000000000016,0.0669155,-0.0006224999999999998,-0.0007664999999999998,-0.12405949999999999,-0.3221605,0.0138805,0.10775050000000001,-0.32406050000000003,0.035916500000000004,-0.1319995,-0.6278505,0.043298500000000004,0.1257705,-0.6147505,0.0583525
26,0.015185999999999998,0.7410629999999999,-0.007457999999999999,-0.151115,0.471303,-0.0012219999999999974,-0.291225,0.45572300000000004,-0.114107,0.163355,0.475163,0.002002000000000002,0.303645,0.46083300000000005,-0.096417,-0.380265,0.46659300000000004,-0.253937,0.37843499999999997,0.477173,-0.241497,-0.066802,0.0006129999999999998,0.0007730000000000011,0.066802,-0.0006130000000000007,-0.0007729999999999994,-0.123935,-0.32280699999999996,0.013933000000000001,0.107735,-0.325387,0.035915,-0.13225499999999998,-0.6272570000000001,0.043425000000000005,0.125585,-0.616487,0.058515
27,0.014882500000000003,0.7383345,-0.007476,-0.1506725,0.47427450000000004,-0.003492000000000002,-0.2916825,0.4965045,-0.11413599999999999,0.1624575,0.47859450000000003,3.500000000000031e-05,0.3035775,0.5073145,-0.098006,-0.3804225,0.5436845,-0.253946,0.3782775,0.5585445,-0.241506,-0.0666875,0.0006495000000000008,0.0007799999999999994,0.0666875,-0.000649499999999999,-0.0007799999999999994,-0.1236425,-0.3245055,0.013949999999999999,0.10778750000000001,-0.32741549999999997,0.035919,-0.1326125,-0.6279954999999999,0.043531,0.12541750000000002,-0.6198755,0.058620000000000005
28,0.014482499999999999,0.7353635,-0.007547000000000002,-0.1501085,0.4775835,-0.0057350000000000005,-0.2917685,0.5406335,-0.114088,0.1617115,0.4818535,-0.0020530000000000027,0.30351150000000005,0.5519335,-0.098218,-0.3805085,0.6213734999999999,-0.253898,0.3770515,0.6326735,-0.241518,-0.0666075,0.0006735000000000005,0.0008369999999999992,0.0666075,-0.0006735000000000005,-0.0008370000000000009,-0.1232585,-0.3265165,0.014025999999999999,0.1078515,-0.3293565,0.035975999999999994,-0.1329085,-0.6291465,0.043583,0.1253315,-0.6234765000000001,0.058752
29,0.014046499999999996,0.7321679999999999,-0.008169000000000003,-0.14959650000000002,0.48110800000000004,-0.007582000000000002,-0.2918365,0.580568,-0.113713,0.1612535,0.48493800000000004,-0.003869000000000001,0.30344350000000003,0.592718,-0.097843,-0.38072649999999997,0.688178,-0.251003,0.3717835,0.699548,-0.23767299999999997,-0.0665685,0.0006280000000000001,0.0009499999999999995,0.0665685,-0.0006280000000000001,-0.0009499999999999995,-0.1228565,-0.328632,0.014428,0.1079035,-0.331542,0.036336,-0.1330965,-0.630712,0.043966,0.1252535,-0.6273620000000001,0.05920399999999999
30,0.0135605,0.728882,-0.009284999999999998,-0.14931149999999999,0.484762,-0.009377,-0.2919115,0.615752,-0.11254399999999999,0.1609385,0.487692,-0.005458999999999999,0.3010485,0.628072,-0.097384,-0.3761915,0.747342,-0.24103399999999997,0.3618285,0.759742,-0.22826400000000002,-0.0665715,0.0005540000000000024,0.0010270000000000001,0.0665715,-0.0005539999999999989,-0.0010269999999999967,-0.1224315,-0.330918,0.014872000000000002,0.1079185,-0.333978,0.036707000000000004,-0.1333315,-0.632578,0.044554,0.1251885,-0.631548,0.059812000000000004
31,0.013123,0.7252795,-0.01064,-0.149186,0.4885795,-0.010720999999999998,-0.28870599999999996,0.6453994999999999,-0.105671,0.160674,0.48987949999999997,-0.006772999999999998,0.295414,0.6595095,-0.09667099999999999,-0.365566,0.7985095,-0.223961,0.347384,0.8170495,-0.212361,-0.066533,0.0004954999999999994,0.0009979999999999989,0.066533,-0.0004954999999999994,-0.0009979999999999989,-0.122076,-0.3338005,0.01554,0.10792399999999999,-0.3367505,0.037397,-0.133486,-0.6349205,0.045481,0.125144,-0.6358705,0.060853000000000004
32,0.012737499999999995,0.722052,-0.012634500000000003,-0.1491305,0.492432,-0.0116845,-0.28373050000000005,0.673122,-0.0997605,0.1604195,0.49151199999999995,-0.007780499999999999,0.2868495,0.685662,-0.09467049999999999,-0.3554505,0.842522,-0.20260050000000002,0.33199949999999995,0.865092,-0.19289050000000002,-0.0664455,0.0004480000000000005,0.0009655000000000011,0.0664455,-0.0004480000000000005,-0.0009655000000000011,-0.1216705,-0.336498,0.0163155,0.1079595,-0.339358,0.0381315,-0.1336305,-0.637068,0.0465675,0.1251395,-0.639988,0.0620725
33,0.012426499999999997,0.7187915,-0.014970500000000005,-0.1489965,0.4961215,-0.0122185,-0.2774565,0.6966315000000001,-0.0914845,0.16001349999999998,0.49247150000000006,-0.008420500000000001,0.27736350000000004,0.7086915,-0.08662450000000001,-0.34280649999999996,0.8780615,-0.1781145,0.3144035,0.9055215,-0.16846450000000002,-0.06630950000000001,0.0004294999999999993,0.0008465,0.06630950000000001,-0.0004294999999999993,-0.0008465,-0.1212665,-0.33936849999999996,0.0172345,0.1080435,-0.3419885,0.038975499999999996,-0.13372650000000003,-0.6392785,0.0478635,0.12513349999999998,-0.6442285,0.0635365
34,0.012164999999999999,0.71568,-0.017347999999999995,-0.148849,0.49903,-0.011621,-0.270119,0.7117100000000001,-0.08163000000000001,0.159511,0.49262000000000006,-0.008502999999999997,0.26855100000000004,0.7226,-0.07757,-0.32901899999999995,0.90061,-0.15248,0.299051,0.93377,-0.14378,-0.066145,0.00041899999999999576,0.0007020000000000012,0.066145,-0.0004190000000000027,-0.0007019999999999978,-0.120799,-0.34156,0.018313000000000003,0.10809099999999999,-0.34441,0.039947,-0.133809,-0.64208,0.04963000000000001,0.125181,-0.64854,0.06534300000000001
35,0.012028500000000001,0.7129875,-0.019910499999999998,-0.1486225,0.5017175,-0.010685499999999994,-0.26296250000000004,0.7263175000000001,-0.0717865,0.1587675,0.4919975,-0.008293499999999995,0.2598975,0.7337675,-0.0681765,-0.3157225,0.9173575,-0.1270205,0.28577749999999996,0.9577675,-0.1218005,-0.06597349999999999,0.0004354999999999984,0.0005395000000000018,0.06597349999999999,-0.0004354999999999984,-0.0005394999999999983,-0.1203525,-0.34359249999999997,0.019464500000000003,0.1081975,-0.34635249999999995,0.04084650000000001,-0.1336325,-0.6460625,0.0514395,0.1253175,-0.6524725,0.0671495
36,0.012029999999999999,0.7112940000000001,-0.021778,-0.148471,0.502634,-0.009246999999999998,-0.25871099999999997,0.732564,-0.065506,0.15773900000000002,0.490624,-0.007636999999999998,0.254649,0.7342740000000001,-0.061834,-0.308071,0.923614,-0.112443,0.279939,0.964964,-0.108273,-0.065915,0.00040899999999999964,0.000623000000000002,0.065915,-0.00040899999999999964,-0.0006229999999999986,-0.120031,-0.344646,0.020267000000000004,0.108249,-0.347636,0.041477,-0.13347099999999998,-0.648666,0.052804000000000004,0.125479,-0.654926,0.068464
37,0.012003000000000003,0.709871,-0.022958000000000003,-0.147841,0.503221,-0.007937000000000003,-0.255071,0.7326509999999999,-0.05999700000000001,0.157069,0.48907100000000003,-0.006867000000000002,0.250379,0.733901,-0.05652700000000001,-0.302241,0.925211,-0.10226400000000001,0.27609900000000004,0.9721110000000001,-0.09904400000000001,-0.065895,0.0003919999999999965,0.000733000000000001,0.065895,-0.00039200000000000346,-0.000733000000000001,-0.119771,-0.345399,0.020948,0.108289,-0.348939,0.042083,-0.133311,-0.650919,0.054046,0.125619,-0.656719,0.06969
38,0.0120205,0.7087540000000001,-0.023883,-0.14720350000000001,0.5035339999999999,-0.006747999999999997,-0.2517335,0.7331840000000001,-0.055139999999999995,0.1566165,0.487654,-0.006141000000000001,0.24679649999999997,0.733034,-0.051804,-0.2968135,0.9270240000000001,-0.093332,0.2726965,0.9787140000000001,-0.090732,-0.0658725,0.0004420000000000049,0.0007950000000000006,0.0658725,-0.00044199999999999795,-0.0007949999999999971,-0.11956349999999999,-0.346026,0.021560000000000003,0.1083465,-0.350006,0.042565000000000006,-0.1331835,-0.656766,0.054791000000000006,0.12571649999999998,-0.6581459999999999,0.070796
39,0.012145999999999997,0.707747,-0.024541,-0.146767,0.5037470000000001,-0.005630999999999997,-0.248757,0.734117,-0.050925000000000005,0.156343,0.48637700000000006,-0.005424999999999999,0.24377300000000002,0.731537,-0.047702,-0.292167,0.928497,-0.086088,0.270173,0.9845870000000001,-0.083848,-0.065854,0.0004950000000000024,0.0008610000000000007,0.065854,-0.0004950000000000024,-0.0008609999999999972,-0.119367,-0.346473,0.022093,0.10838300000000001,-0.350913,0.042946,-0.13294699999999998,-0.663083,0.055466,0.125843,-0.659183,0.071859
40,0.012224500000000003,0.707103,-0.0250675,-0.14636349999999998,0.504213,-0.0047315,-0.24713349999999998,0.735293,-0.048412500000000004,0.1560165,0.48581300000000005,-0.0051724999999999965,0.24179650000000003,0.730383,-0.0447315,-0.2895435,0.930373,-0.08234749999999999,0.2700365,0.9850329999999999,-0.08015749999999999,-0.0658245,0.0005229999999999957,0.0009755000000000007,0.0658245,-0.0005230000000000026,-0.0009754999999999972,-0.1192135,-0.346537,0.0223555,0.1084465,-0.351537,0.0430365,-0.1325835,-0.668957,0.0558645,0.12595650000000003,-0.659767,0.0726745
41,0.0122975,0.7064845000000001,-0.025298999999999995,-0.1460065,0.5046745,-0.003946999999999999,-0.2457065,0.7360245,-0.04643599999999999,0.1557235,0.4853145,-0.004910999999999999,0.2403735,0.7298845,-0.042455999999999994,-0.2868665,0.9315845,-0.07893599999999999,0.2698935,0.9854345,-0.076596,-0.0657945,0.0005654999999999966,0.001061000000000003,0.0657945,-0.0005655000000000035,-0.0010609999999999994,-0.1191065,-0.34688549999999996,0.022564000000000004,0.1085035,-0.3522155,0.042948,-0.1321865,-0.6748255,0.056279,0.1260335,-0.6605055,0.073377
42,0.0122705,0.706141,-0.0254855,-0.14568150000000002,0.505221,-0.0032855000000000037,-0.24466149999999998,0.736981,-0.0453925,0.15537849999999997,0.484931,-0.004813500000000005,0.2396085,0.729361,-0.0409055,-0.2848615,0.9328609999999999,-0.0775295,0.2697585,0.9854510000000001,-0.0740895,-0.0657915,0.0005910000000000012,0.0011504999999999987,0.0657915,-0.0005910000000000012,-0.0011505000000000057,-0.1190515,-0.347039,0.0226175,0.1085485,-0.352839,0.042485499999999995,-0.1317915,-0.6791590000000001,0.056459499999999996,0.1261485,-0.660909,0.07382649999999999
43,0.012213500000000002,0.7059245000000001,-0.025595,-0.1453485,0.5062845,-0.002815999999999999,-0.2441085,0.7381145,-0.04490999999999999,0.15506150000000002,0.4848545,-0.005192999999999996,0.2395815,0.7290645,-0.04045599999999999,-0.2836685,0.9339945000000001,-0.07701,0.2697215,0.9849645,-0.07350999999999999,-0.0657905,0.000614499999999997,0.001134000000000003,0.0657905,-0.0006145000000000039,-0.0011339999999999961,-0.1190185,-0.3476255,0.022563,0.1085815,-0.3534255,0.041825,-0.13138850000000002,-0.6845654999999999,0.056293,0.12615150000000003,-0.6614955,0.073937
44,0.012155999999999997,0.705729,-0.025731499999999997,-0.144936,0.507589,-0.002736500000000003,-0.24365599999999998,0.738569,-0.044580499999999995,0.154764,0.485359,-0.005802500000000002,0.239564,0.7286590000000001,-0.040153499999999995,-0.282706,0.934439,-0.07664750000000001,0.269824,0.9844590000000001,-0.0731975,-0.065792,0.0006110000000000004,0.0011584999999999998,0.065792,-0.0006110000000000004,-0.0011584999999999998,-0.118946,-0.34813099999999997,0.0223425,0.108664,-0.353931,0.040876499999999996,-0.130936,-0.689821,0.0559995,0.126154,-0.662001,0.07377149999999999
45,0.012093,0.7053554999999999,-0.026215000000000002,-0.14460499999999998,0.5086354999999999,-0.0030039999999999997,-0.243285,0.7387254999999999,-0.044405,0.154445,0.48600550000000003,-0.006737,0.239535,0.7288454999999999,-0.040000999999999995,-0.28165500000000004,0.9345855,-0.076435,0.27025499999999997,0.9838455,-0.073015,-0.06577,0.0006034999999999999,0.0011359999999999981,0.06577,-0.0006034999999999999,-0.0011359999999999981,-0.118885,-0.34874449999999996,0.021906,0.10882499999999999,-0.3545445,0.039456,-0.130475,-0.6953345000000001,0.055476,0.126175,-0.6626145,0.073104
46,0.012106000000000002,0.7049995,-0.027059,-0.144371,0.5088795,-0.0036829999999999988,-0.243051,0.7387395,-0.045463,0.154079,0.4866095,-0.007941000000000004,0.239529,0.7290095000000001,-0.040283,-0.280821,0.9345495,-0.07853500000000001,0.270889,0.9834895000000001,-0.072975,-0.0658,0.0006255000000000011,0.001133000000000002,0.0658,-0.0006255000000000011,-0.001133000000000002,-0.118801,-0.35004050000000003,0.020829,0.109079,-0.3554605,0.036911,-0.130021,-0.7008205,0.054597,0.125769,-0.6660904999999999,0.071173
47,0.012124000000000003,0.7047614999999999,-0.028037,-0.14415299999999998,0.5091114999999999,-0.004492000000000003,-0.242913,0.7385615,-0.047081,0.153717,0.4870915,-0.009101000000000005,0.239827,0.7300015,-0.040942000000000006,-0.280113,0.9343115,-0.081406,0.271577,0.9829514999999999,-0.073466,-0.065829,0.0006355000000000041,0.001131,0.065829,-0.0006354999999999972,-0.001131,-0.118653,-0.3513185,0.019450999999999996,0.109367,-0.35663849999999997,0.034076999999999996,-0.129683,-0.7028085000000001,0.053994,0.125237,-0.6698785,0.06908500000000001
48,0.012082999999999997,0.7047464999999999,-0.029423500000000005,-0.143972,0.5093065,-0.005559500000000002,-0.242772,0.7385465,-0.04933950000000001,0.153398,0.4874765,-0.010256500000000002,0.240228,0.7313565,-0.0421185,-0.279422,0.9342965,-0.0847865,0.272388,0.9822365,-0.0746265,-0.065859,0.0006375000000000061,0.0011294999999999986,0.065859,-0.0006374999999999992,-0.0011295000000000055,-0.118342,-0.3530435,0.0172435,0.109708,-0.3585435,0.0303255,-0.12934199999999998,-0.7036235,0.053143499999999996,0.124708,-0.6735735,0.0667875
49,0.0118715,0.7047265,-0.031203499999999995,-0.1439255,0.5093065,-0.006676500000000002,-0.2426255,0.7385465,-0.0523405,0.1532645,0.4874765,-0.011067500000000001,0.2406445,0.7326165,-0.043978500000000004,-0.2789955,0.9342965,-0.0892725,0.2733345,0.9809365000000001,-0.0770925,-0.0658995,0.0006375000000000061,0.001062500000000001,0.0658995,-0.0006374999999999992,-0.001062500000000001,-0.1179555,-0.3551435,0.014416500000000002,0.1100445,-0.36067350000000004,0.026152500000000002,-0.12921549999999998,-0.7045635,0.0520115,0.1241845,-0.6775635,0.0643505
50,0.011631000000000002,0.7045565,-0.0333185,-0.143876,0.5093065,-0.007911500000000002,-0.242426,0.7385465,-0.055983500000000005,0.153204,0.4874765,-0.011994499999999998,0.241174,0.7335365,-0.04632650000000001,-0.278616,0.9342965,-0.0945115,0.27431400000000006,0.9794365,-0.0801115,-0.065956,0.0006375000000000061,0.0009834999999999983,0.065956,-0.0006374999999999992,-0.0009834999999999983,-0.117566,-0.3574235,0.011027499999999999,0.110444,-0.3628435,0.021637499999999997,-0.129156,-0.7058535,0.050629499999999994,0.123754,-0.6816635,0.0616415
51,0.011402999999999996,0.7041465,-0.0358125,-0.143791,0.5093065,-0.009257500000000002,-0.242181,0.7381965,-0.060022500000000006,0.153199,0.4874765,-0.013028500000000005,0.241909,0.7341065,-0.0493565,-0.27826100000000004,0.9338164999999999,-0.10044050000000002,0.275389,0.9775365,-0.0838205,-0.066029,0.0006375000000000061,0.0008764999999999953,0.066029,-0.0006374999999999992,-0.0008765000000000023,-0.117271,-0.3598135,0.007153499999999997,0.110879,-0.36483350000000003,0.016932499999999996,-0.129051,-0.7072835000000001,0.0489985,0.12342900000000001,-0.6860835,0.0587795
52,0.011134499999999999,0.703741,-0.038547500000000005,-0.1438005,0.508721,-0.010676499999999998,-0.2419205,0.737611,-0.06449650000000001,0.1532695,0.48743099999999995,-0.013905500000000001,0.2427995,0.734521,-0.0530725,-0.2778205,0.932981,-0.10710550000000002,0.27663950000000004,0.9753310000000001,-0.08855550000000001,-0.0661095,0.0006340000000000026,0.0007595000000000032,0.0661095,-0.0006339999999999957,-0.0007595000000000032,-0.1169905,-0.36216899999999996,0.0027054999999999996,0.1114095,-0.366899,0.0118465,-0.1289405,-0.708549,0.0471245,0.12313949999999999,-0.690399,0.0557535
53,0.010819500000000003,0.7029875,-0.041797999999999995,-0.1437655,0.5080975,-0.012083999999999998,-0.24159550000000002,0.7364474999999999,-0.06972700000000001,0.1531745,0.48742749999999996,-0.014766000000000001,0.24379450000000003,0.7349275,-0.056971,-0.2770555,0.9315874999999999,-0.11424699999999999,0.2779545,0.9731374999999999,-0.09373699999999999,-0.0662025,0.0006465000000000012,0.0006019999999999984,0.0662025,-0.0006465000000000012,-0.0006019999999999984,-0.1166855,-0.3641925,-0.002363999999999998,0.1120545,-0.3687225,0.0063469999999999985,-0.1288455,-0.7097425,0.045015,0.1230245,-0.6945525,0.052639000000000005
54,0.0105385,0.7016924999999999,-0.045331,-0.14375349999999998,0.5073225,-0.013523999999999994,-0.24132350000000002,0.7348724999999999,-0.07511799999999999,0.1531265,0.4873725,-0.015544999999999996,0.24479650000000003,0.7354225,-0.061392999999999996,-0.2762635,0.9296825,-0.12148800000000001,0.2793165,0.9709325,-0.09908800000000001,-0.0662725,0.0006495000000000042,0.0004280000000000013,0.0662725,-0.0006494999999999973,-0.0004279999999999978,-0.1163235,-0.36643749999999997,-0.008293999999999996,0.1128065,-0.3703775,0.00030300000000000465,-0.1288435,-0.7107075,0.042701,0.1231165,-0.6987175,0.049493
55,0.010291000000000005,0.7003045,-0.048977999999999994,-0.143612,0.5061344999999999,-0.014926000000000002,-0.240892,0.7330745,-0.08061,0.15310800000000002,0.4872145,-0.016269,0.245348,0.7363145,-0.065955,-0.275422,0.9274745,-0.12869999999999998,0.280548,0.9677245,-0.10587,-0.06634799999999999,0.000614499999999997,0.00023899999999999963,0.06634799999999999,-0.000614499999999997,-0.00023899999999999616,-0.11599199999999998,-0.36749550000000003,-0.014297999999999998,0.113738,-0.3712055,-0.005414999999999996,-0.128672,-0.7113555,0.040365,0.123338,-0.6995455,0.047141
56,0.010148500000000001,0.6985269999999999,-0.0532305,-0.1432975,0.5042169999999999,-0.017939499999999997,-0.2403175,0.729797,-0.0873185,0.1531225,0.48648699999999995,-0.0186365,0.24654250000000003,0.7355970000000001,-0.0719385,-0.2744975,0.9239569999999999,-0.1366385,0.28192249999999996,0.964537,-0.11430850000000001,-0.0664715,0.0005869999999999972,5.000000000005e-07,0.0664715,-0.0005870000000000042,-5.000000000005e-07,-0.1157575,-0.368283,-0.021837500000000003,0.1150825,-0.371243,-0.012305499999999997,-0.1286075,-0.7109430000000001,0.0376565,0.1236525,-0.699173,0.044040499999999996
57,0.010150000000000001,0.696604,-0.057196500000000004,-0.142974,0.5028940000000001,-0.020908499999999997,-0.239754,0.7267140000000001,-0.0935655,0.153056,0.485894,-0.021268499999999996,0.24773599999999998,0.735414,-0.0778555,-0.27373400000000003,0.9205040000000001,-0.14503549999999998,0.283186,0.9616240000000001,-0.1227655,-0.066612,0.0005530000000000049,-0.00019749999999999976,0.066612,-0.0005529999999999979,0.00019749999999999976,-0.11574399999999999,-0.368356,-0.029260500000000002,0.116596,-0.370446,-0.019104499999999996,-0.128534,-0.709696,0.0350775,0.123996,-0.698216,0.0408875
58,0.010415500000000003,0.6951765,-0.060962,-0.1426495,0.5022865000000001,-0.024168999999999996,-0.2391295,0.7228465000000001,-0.099456,0.1530205,0.4844965,-0.024799999999999996,0.24886049999999998,0.7304865,-0.083286,-0.2730695,0.9169965,-0.152856,0.2844605,0.9523965,-0.13125599999999998,-0.0667485,0.0005045000000000049,-0.0003949999999999995,0.0667485,-0.000504499999999998,0.000395000000000003,-0.11599949999999999,-0.36744350000000003,-0.037045999999999996,0.11857050000000001,-0.3694235,-0.026848999999999998,-0.1285595,-0.7069234999999999,0.032597,0.1248105,-0.6957635,0.037699
59,0.010703000000000002,0.6933445,-0.064691,-0.142356,0.5014045,-0.027798000000000003,-0.238476,0.7194345000000001,-0.10493,0.152944,0.48369449999999997,-0.028136,0.249924,0.7254945,-0.08901,-0.27231599999999995,0.9140645000000001,-0.16036,0.285604,0.9441545,-0.13935,-0.06687699999999999,0.0004755000000000037,-0.0005159999999999991,0.06687699999999999,-0.00047549999999999676,0.0005159999999999991,-0.116556,-0.3660655,-0.045223000000000006,0.12057399999999999,-0.36805550000000004,-0.034681,-0.12864599999999998,-0.7028955,0.030037,0.126054,-0.6922855,0.034251000000000004
60,0.010981999999999997,0.6916375,-0.068123,-0.141927,0.5003375,-0.031799999999999995,-0.237617,0.7156875,-0.11023,0.153143,0.4833275,-0.031528,0.25099299999999997,0.7211075,-0.09422,-0.271507,0.9114875,-0.16802999999999998,0.28673299999999996,0.9371375000000001,-0.14693,-0.06699,0.00044149999999999745,-0.0005390000000000013,0.06699,-0.00044149999999999745,0.0005390000000000013,-0.117557,-0.3643025,-0.053897,0.122673,-0.3662425,-0.042693999999999996,-0.128777,-0.6975925,0.027334,0.127473,-0.6876525,0.030614
61,0.01116,0.688861,-0.0714845,-0.14151399999999997,0.499831,-0.0355675,-0.236834,0.711621,-0.11532450000000001,0.153296,0.483441,-0.0348465,0.251846,0.716341,-0.0990545,-0.27073400000000003,0.909171,-0.1754345,0.287696,0.9302509999999999,-0.15409450000000002,-0.067007,0.00037799999999999986,-0.0005435000000000023,0.067007,-0.00037799999999999986,0.0005434999999999988,-0.119004,-0.36278900000000003,-0.0629085,0.12475599999999999,-0.364329,-0.0509125,-0.129004,-0.691899,0.0244235,0.12885600000000003,-0.682529,0.027053499999999998
62,0.011308499999999999,0.687218,-0.07454000000000001,-0.1409725,0.49896799999999997,-0.03968100000000001,-0.2359825,0.7086480000000001,-0.12007,0.1536075,0.48187800000000003,-0.038822999999999996,0.2527275,0.712918,-0.10387,-0.2698825,0.9083680000000001,-0.18322,0.2887775,0.922338,-0.16263999999999998,-0.0670355,0.0002950000000000001,-0.0005590000000000005,0.0670355,-0.0002950000000000001,0.0005590000000000005,-0.1206425,-0.359942,-0.07213,0.1270075,-0.36126199999999997,-0.059583,-0.1292925,-0.684512,0.021286,0.1303775,-0.675702,0.022796
63,0.011522500000000001,0.6857279999999999,-0.07738300000000001,-0.14023149999999998,0.498438,-0.043894999999999997,-0.2351015,0.7065079999999999,-0.12473299999999998,0.15386850000000002,0.481178,-0.04286499999999999,0.2535385,0.7084680000000001,-0.108513,-0.26903150000000003,0.9086380000000001,-0.190823,0.28969849999999997,0.915308,-0.170793,-0.06708449999999999,0.0003380000000000015,-0.000562,0.06708449999999999,-0.00033799999999999976,0.000562,-0.1224015,-0.355872,-0.081173,0.1292085,-0.357772,-0.06789200000000001,-0.1295215,-0.6758519999999999,0.017866,0.13177850000000002,-0.6674819999999999,0.018759
64,0.011784999999999997,0.6848705,-0.08007249999999999,-0.13947199999999998,0.4976205,-0.048182499999999996,-0.234292,0.7044005,-0.1291625,0.15406799999999998,0.48065050000000004,-0.04706749999999999,0.25419800000000004,0.7041405000000001,-0.1128025,-0.268022,0.9102705,-0.19813250000000002,0.290638,0.9097905000000001,-0.1773225,-0.067177,0.0005025,-0.0005744999999999986,0.067177,-0.0005025,0.0005745000000000021,-0.124282,-0.3508995,-0.0910425,0.13152799999999998,-0.3541795,-0.07696249999999999,-0.12986199999999998,-0.6656295,0.014639500000000001,0.13311800000000001,-0.6578195,0.014238500000000001
65,0.012106000000000002,0.684538,-0.0819005,-0.13864100000000001,0.497158,-0.0506615,-0.233471,0.704148,-0.13227049999999999,0.154079,0.480488,-0.0496095,0.25472900000000004,0.7014079999999999,-0.11557049999999999,-0.26737099999999997,0.914198,-0.2046905,0.291669,0.905528,-0.1825105,-0.067229,0.0005710000000000003,-0.000667499999999998,0.067229,-0.0005709999999999986,0.0006675000000000014,-0.126181,-0.345022,-0.09977049999999998,0.133529,-0.350062,-0.0848905,-0.130261,-0.6553420000000001,0.011992500000000003,0.134199,-0.6475620000000001,0.010490500000000003
66,0.012662,0.6838495,-0.084269,-0.13769900000000002,0.4960495,-0.053835999999999995,-0.232049,0.7021495000000001,-0.136789,0.154601,0.4797995,-0.05283,0.25590100000000005,0.6983895,-0.11927900000000001,-0.266559,0.9153195000000001,-0.212289,0.293231,0.9038195,-0.188919,-0.067282,0.0007594999999999998,-0.0007780000000000009,0.067282,-0.0007594999999999998,0.0007780000000000009,-0.128239,-0.33811050000000004,-0.110359,0.135391,-0.3443105,-0.093489,-0.130569,-0.6429604999999999,0.009087000000000001,0.135121,-0.6349905,0.006256000000000001
67,0.013767000000000005,0.6821619999999999,-0.086699,-0.13650700000000002,0.49570200000000003,-0.056555999999999995,-0.230607,0.701812,-0.14087899999999998,0.155133,0.480422,-0.055126999999999995,0.257533,0.698572,-0.12305899999999999,-0.26564699999999997,0.9171619999999999,-0.219289,0.295173,0.909632,-0.19459900000000002,-0.067374,0.0008890000000000009,-0.0008599999999999997,0.067374,-0.0008890000000000009,0.0008600000000000031,-0.129787,-0.33155799999999996,-0.120379,0.137403,-0.338588,-0.101679,-0.130557,-0.631418,0.006262,0.135523,-0.6230180000000001,0.002159000000000001
68,0.014971499999999999,0.6810944999999999,-0.088753,-0.13518750000000002,0.4946245,-0.058971,-0.22916750000000002,0.7015845,-0.144883,0.15597250000000001,0.4785745,-0.058248,0.2589325,0.6981345000000001,-0.126553,-0.2647975,0.9204545,-0.226603,0.2973725,0.9156645000000001,-0.200583,-0.0674285,0.0011444999999999997,-0.0008920000000000004,0.0674285,-0.0011444999999999997,0.000891999999999997,-0.13125750000000003,-0.3234455,-0.13012300000000002,0.1393625,-0.3314655,-0.11011300000000002,-0.1306875,-0.6189754999999999,0.003873999999999999,0.1358025,-0.6099355,-0.0011660000000000004
69,0.016619500000000002,0.6805325,-0.09431149999999999,-0.13347150000000002,0.4953725,-0.06482349999999999,-0.2273115,0.7009325,-0.1521015,0.15697850000000002,0.47828250000000005,-0.0649685,0.2610385,0.6973524999999999,-0.1341415,-0.26309150000000003,0.9215424999999999,-0.2366615,0.29979849999999997,0.9136624999999999,-0.2107815,-0.0675235,0.0013584999999999986,-0.0005824999999999997,0.0675235,-0.0013584999999999986,0.0005824999999999997,-0.1321715,-0.3115875,-0.14329150000000002,0.14188850000000003,-0.3202775,-0.12279149999999998,-0.1305615,-0.6027175,-0.0022024999999999996,0.13628849999999998,-0.5930375,-0.0074205
70,0.018382,0.6803975,-0.1008685,-0.130127,0.49454750000000003,-0.0723705,-0.225227,0.7039375,-0.1607885,0.158213,0.47739750000000003,-0.07288750000000001,0.263853,0.6991775,-0.14317850000000001,-0.261117,0.9217075,-0.2473685,0.302973,0.9166975,-0.2220685,-0.06756400000000001,0.0017685000000000062,-0.0007015000000000007,0.06756400000000001,-0.0017684999999999923,0.0007015000000000007,-0.13367700000000002,-0.29354250000000004,-0.1612285,0.14582299999999998,-0.30363249999999997,-0.1406385,-0.130367,-0.5812824999999999,-0.0101025,0.136413,-0.5732725,-0.014146500000000003
71,0.019912,0.679885,-0.107687,-0.12695299999999998,0.49282499999999996,-0.079938,-0.223103,0.7063349999999999,-0.169877,0.159277,0.47841500000000003,-0.08037,0.266797,0.699345,-0.152167,-0.259153,0.921245,-0.25783700000000004,0.306127,0.9165949999999999,-0.232127,-0.067593,0.0020850000000000035,-0.0008409999999999997,0.067593,-0.0020850000000000035,0.0008409999999999997,-0.135013,-0.27541499999999997,-0.17931699999999998,0.149847,-0.28620500000000004,-0.158297,-0.130073,-0.559725,-0.017926000000000004,0.13614700000000002,-0.553355,-0.020235000000000003
72,0.021277,0.6794500000000001,-0.1143355,-0.124307,0.49155,-0.08758250000000001,-0.221077,0.7087600000000001,-0.1790555,0.159833,0.47846,-0.0880865,0.269663,0.7017,-0.1613055,-0.257077,0.9208099999999999,-0.2685555,0.309383,0.91693,-0.24232550000000003,-0.06762499999999999,0.0023299999999999987,-0.0009694999999999999,0.06762499999999999,-0.0023299999999999987,0.0009694999999999999,-0.136097,-0.25711,-0.19732550000000001,0.15415299999999998,-0.26815,-0.1759855,-0.129657,-0.53786,-0.025306500000000003,0.13569299999999998,-0.5330600000000001,-0.0262195
73,0.022552999999999993,0.6795950000000001,-0.12178499999999999,-0.121861,0.490895,-0.09525499999999999,-0.21955100000000002,0.706755,-0.18812500000000001,0.16044899999999998,0.479485,-0.095625,0.272529,0.701755,-0.170495,-0.255291,0.9196650000000001,-0.279355,0.31272900000000003,0.918165,-0.252915,-0.067683,0.0023150000000000115,-0.0011010000000000004,0.067683,-0.0023149999999999837,0.0011009999999999995,-0.13693100000000002,-0.239485,-0.214395,0.15828899999999999,-0.25004499999999996,-0.192535,-0.129061,-0.516705,-0.032525,0.135039,-0.513255,-0.031550999999999996
74,0.023611,0.678845,-0.1295605,-0.119265,0.491135,-0.1031205,-0.21735500000000002,0.705885,-0.1974005,0.161115,0.48145499999999997,-0.10319049999999999,0.274555,0.7017249999999999,-0.1799905,-0.253105,0.918385,-0.2907105,0.316165,0.9173749999999999,-0.2642505,-0.067751,0.002464999999999995,-0.0013295,0.067751,-0.002464999999999995,0.0013295,-0.13754500000000003,-0.221075,-0.2314705,0.162655,-0.23115499999999997,-0.2093805,-0.128425,-0.494475,-0.0396525,0.13422499999999998,-0.4927750000000001,-0.036734499999999996
75,0.024556500000000002,0.681045,-0.13747499999999999,-0.1169665,0.489365,-0.111635,-0.2160165,0.7091449999999999,-0.206255,0.1619235,0.480355,-0.11092500000000001,0.27619350000000004,0.7032149999999999,-0.188935,-0.2510465,0.9224349999999999,-0.301965,0.3191235,0.9167749999999999,-0.27480499999999997,-0.06790550000000001,0.0025550000000000017,-0.0016870000000000001,0.06790550000000001,-0.0025550000000000017,0.0016870000000000001,-0.1376965,-0.20097500000000001,-0.247545,0.16743349999999999,-0.210625,-0.22625499999999998,-0.1276065,-0.471435,-0.046942,0.1335335,-0.471435,-0.042399000000000006
76,0.025595,0.682565,-0.1454835,-0.114438,0.487005,-0.1203535,-0.214908,0.711335,-0.21558349999999998,0.162762,0.479255,-0.1187435,0.278232,0.7046950000000001,-0.1983835,-0.249558,0.9198149999999999,-0.3137635,0.321932,0.913945,-0.2857635,-0.068083,0.0026249999999999885,-0.0020494999999999992,0.068083,-0.002625000000000016,0.002049500000000001,-0.137578,-0.18078500000000003,-0.2636035,0.172102,-0.18961500000000003,-0.24241349999999998,-0.126548,-0.448005,-0.0541165,0.133032,-0.44982500000000003,-0.048239500000000005
77,0.027023,0.683465,-0.15423099999999998,-0.11257500000000001,0.486105,-0.129621,-0.213395,0.709365,-0.225801,0.163535,0.479155,-0.126161,0.28012499999999996,0.7060550000000001,-0.20813099999999998,-0.247665,0.914705,-0.325871,0.324395,0.910135,-0.297481,-0.068296,0.002725000000000033,-0.0023009999999999992,0.068296,-0.0027249999999999774,0.002301000000000001,-0.137015,-0.16008499999999998,-0.279901,0.177125,-0.16740499999999997,-0.258791,-0.12509499999999998,-0.423195,-0.061370999999999995,0.132575,-0.426315,-0.05444399999999999
78,0.028383,0.6835549999999999,-0.1591615,-0.11071800000000001,0.483195,-0.1350115,-0.211958,0.709005,-0.2320815,0.163592,0.47738499999999995,-0.12983150000000002,0.281782,0.706895,-0.21415150000000002,-0.24596800000000002,0.913115,-0.3351815,0.326722,0.913025,-0.30505150000000003,-0.06853400000000001,0.002884999999999971,-0.0028045000000000014,0.06853400000000001,-0.0028850000000000264,0.002804499999999998,-0.136658,-0.14293500000000003,-0.2914215,0.181662,-0.148565,-0.2699515,-0.12357800000000002,-0.40234500000000006,-0.0643985,0.13189199999999998,-0.406115,-0.0562075
79,0.029051000000000007,0.68337,-0.16330150000000002,-0.109539,0.48244,-0.1390115,-0.21123899999999998,0.70608,-0.2378315,0.16321100000000002,0.47608,-0.1327315,0.282821,0.70573,-0.2190515,-0.244889,0.9087700000000001,-0.3439915,0.32782100000000003,0.9108400000000001,-0.3117215,-0.06869600000000001,0.0028799999999999937,-0.002888500000000002,0.06869600000000001,-0.0028799999999999937,0.0028884999999999987,-0.136009,-0.13087,-0.2975215,0.184031,-0.13428,-0.2753115,-0.12264899999999998,-0.38615000000000005,-0.0665795,0.13148100000000001,-0.38802,-0.056953500000000004
80,0.029272000000000006,0.6830350000000001,-0.167245,-0.108667,0.480785,-0.142785,-0.211007,0.703855,-0.243965,0.16262300000000002,0.474295,-0.13561499999999999,0.28347300000000003,0.705015,-0.223485,-0.243897,0.905235,-0.352505,0.328613,0.911025,-0.318455,-0.068896,0.002805000000000002,-0.0030160000000000013,0.068896,-0.002805000000000002,0.0030160000000000013,-0.135487,-0.119085,-0.303085,0.185953,-0.12048500000000001,-0.280005,-0.121877,-0.36996499999999993,-0.068556,0.130893,-0.36996499999999993,-0.057711
81,0.028837,0.68216,-0.171382,-0.108067,0.47843,-0.14663199999999998,-0.211807,0.70087,-0.250332,0.161543,0.47195,-0.138542,0.283723,0.7017899999999999,-0.227772,-0.243657,0.9009099999999999,-0.360392,0.32915300000000003,0.91154,-0.32557200000000003,-0.06901499999999999,0.00270999999999999,-0.0031700000000000027,0.06901499999999999,-0.00270999999999999,0.003169999999999999,-0.135207,-0.10601,-0.308322,0.187413,-0.10533000000000003,-0.284162,-0.12151699999999999,-0.35363000000000006,-0.07050500000000001,0.130013,-0.35186999999999996,-0.058661000000000005
82,0.027939499999999996,0.679985,-0.1748785,-0.1085895,0.475805,-0.1506885,-0.21252949999999998,0.702385,-0.25672849999999997,0.16037049999999997,0.46928499999999995,-0.1414985,0.2835105,0.7022949999999999,-0.23212850000000002,-0.2438395,0.895575,-0.3679885,0.3296205,0.911845,-0.3327385,-0.0690505,0.002684999999999993,-0.003327499999999997,0.0690505,-0.0026850000000000485,0.0033275000000000006,-0.13490950000000002,-0.09375500000000003,-0.31333849999999996,0.1891505,-0.09184500000000001,-0.28813849999999996,-0.1211895,-0.33653500000000003,-0.0722235,0.12918049999999998,-0.33311500000000005,-0.0599255
83,0.027055500000000003,0.678705,-0.1781815,-0.1091635,0.47203300000000004,-0.15469149999999998,-0.2138435,0.7007650000000001,-0.2628615,0.15899649999999999,0.464863,-0.14431149999999998,0.2826465,0.699765,-0.2361915,-0.2442535,0.888795,-0.3746515,0.32928650000000004,0.909835,-0.3388415,-0.0690425,0.0026249999999999885,-0.0034614999999999993,0.0690425,-0.0026249999999999885,0.0034614999999999993,-0.1346635,-0.081285,-0.3176315,0.1910265,-0.07850499999999999,-0.2912615,-0.12086349999999998,-0.319705,-0.0738155,0.1284265,-0.31462500000000004,-0.0612045
84,0.026055000000000002,0.6747650000000001,-0.1807885,-0.109474,0.470592,-0.1574785,-0.21529399999999999,0.6955450000000001,-0.2684385,0.157806,0.46437,-0.1461685,0.281586,0.696925,-0.2399485,-0.244864,0.8779250000000001,-0.3799885,0.328756,0.9064050000000001,-0.3442585,-0.069086,0.0024150000000000005,-0.0037195000000000006,0.069086,-0.0024150000000000005,0.0037195000000000006,-0.134624,-0.07050499999999998,-0.3206685,0.192936,-0.06739499999999998,-0.2932185,-0.120704,-0.305185,-0.0750715,0.127666,-0.29853499999999994,-0.0617645
85,0.024992499999999997,0.672115,-0.182585,-0.10970350000000001,0.468628,-0.159895,-0.2161935,0.691345,-0.27080499999999996,0.15657649999999998,0.46268699999999996,-0.147625,0.2805265,0.694725,-0.24257499999999999,-0.2455835,0.8740349999999999,-0.384825,0.3278165,0.904795,-0.348615,-0.0692635,0.0022749999999999715,-0.003944999999999997,0.0692635,-0.002275000000000027,0.003945000000000004,-0.1347035,-0.059535000000000005,-0.32299500000000003,0.1951165,-0.05628500000000003,-0.29495499999999997,-0.1206235,-0.290825,-0.07619,0.1268365,-0.281535,-0.061973
86,0.023869500000000002,0.669475,-0.18366300000000002,-0.1099275,0.465769,-0.161553,-0.2170975,0.691665,-0.272013,0.1553825,0.46181799999999995,-0.148643,0.2794525,0.693225,-0.244263,-0.2464275,0.871575,-0.38865299999999997,0.3263325,0.902735,-0.351743,-0.0695115,0.00188499999999997,-0.004153999999999998,0.0695115,-0.0018850000000000255,0.004154000000000005,-0.1349675,-0.05040500000000003,-0.324493,0.1975525,-0.04772500000000002,-0.29623299999999997,-0.1206975,-0.27864500000000003,-0.077011,0.1262925,-0.26768500000000006,-0.061657
87,0.022415499999999998,0.6667200000000001,-0.184665,-0.11059849999999999,0.463168,-0.162605,-0.2181285,0.68944,-0.272955,0.15397149999999998,0.46089700000000006,-0.14930500000000002,0.2781615,0.69171,-0.245015,-0.2477185,0.86771,-0.39124499999999995,0.3244915,0.9007700000000001,-0.35404500000000005,-0.06966549999999999,0.0014700000000000268,-0.004401000000000002,0.06966549999999999,-0.0014699999999999713,0.004400999999999995,-0.1355985,-0.04148999999999997,-0.325855,0.1999115,-0.039999999999999925,-0.297285,-0.12119850000000001,-0.26683999999999997,-0.077602,0.1255915,-0.2549199999999999,-0.060984
88,0.020736000000000004,0.664585,-0.1854255,-0.11160699999999998,0.458975,-0.1634455,-0.219217,0.6825650000000001,-0.2736055,0.152393,0.459979,-0.1496855,0.27641299999999996,0.6902250000000001,-0.2455555,-0.249497,0.866785,-0.3932255,0.322333,0.899295,-0.35555549999999997,-0.069876,0.0009850000000000136,-0.0046315,0.069876,-0.0009849999999999581,0.004631500000000004,-0.136547,-0.032445,-0.3271955,0.20236300000000002,-0.03191499999999997,-0.29810549999999997,-0.122037,-0.254815,-0.0779845,0.12451300000000001,-0.24187499999999995,-0.0598365
89,0.018746500000000003,0.6622049999999999,-0.18604900000000002,-0.1129455,0.457138,-0.16407899999999997,-0.2206555,0.675225,-0.274059,0.1505745,0.459566,-0.149969,0.2745545,0.688655,-0.245909,-0.2517855,0.864495,-0.394939,0.3201345,0.899485,-0.356479,-0.0700855,0.0006349999999999967,-0.004802999999999998,0.0700855,-0.0006350000000000522,0.004803000000000002,-0.1378455,-0.024465000000000015,-0.328139,0.2042445,-0.02516500000000005,-0.298229,-0.1232355,-0.24444500000000002,-0.078186,0.1230945,-0.230375,-0.058429999999999996
90,0.016604500000000005,0.660775,-0.186081,-0.1144835,0.455355,-0.164431,-0.2222635,0.668185,-0.274191,0.1487465,0.460079,-0.149691,0.2723765,0.688565,-0.24582099999999998,-0.2544335,0.8623149999999999,-0.396411,0.3177565,0.898425,-0.356891,-0.0703105,0.00023499999999998522,-0.004809999999999998,0.0703105,-0.00023499999999998522,0.004810000000000002,-0.13929350000000001,-0.01783499999999999,-0.328831,0.2056965,-0.019695000000000018,-0.298151,-0.1246835,-0.235695,-0.078258,0.1214765,-0.22016500000000006,-0.057024
91,0.014668,0.659705,-0.18601649999999997,-0.115874,0.453506,-0.16469650000000002,-0.22375399999999998,0.661365,-0.2735865,0.14710600000000001,0.459825,-0.1493265,0.270326,0.686825,-0.24535649999999998,-0.257064,0.860845,-0.3974565,0.315556,0.896355,-0.35708650000000003,-0.07052900000000001,-6.499999999998174e-05,-0.004847499999999998,0.07052900000000001,6.499999999998174e-05,0.004847500000000005,-0.140594,-0.012585000000000013,-0.3294665,0.20655600000000002,-0.014675000000000049,-0.2981765,-0.12601400000000001,-0.22871499999999995,-0.0784155,0.120226,-0.21131499999999998,-0.0558265
92,0.013012999999999997,0.65857,-0.1858285,-0.11698700000000001,0.452051,-0.16485850000000002,-0.224887,0.65642,-0.27187849999999997,0.145783,0.460436,-0.1488985,0.268813,0.68755,-0.24497850000000002,-0.259727,0.86005,-0.3978385,0.313943,0.8975500000000001,-0.35724849999999997,-0.07070699999999999,-0.00040000000000001146,-0.004879499999999998,0.07070699999999999,0.00040000000000001146,0.004879500000000002,-0.141747,-0.008710000000000051,-0.3300685,0.207063,-0.010799999999999976,-0.2982085,-0.127197,-0.22327999999999998,-0.07854749999999999,0.11916299999999999,-0.20359,-0.0546065
93,0.011627499999999999,0.657765,-0.18549900000000002,-0.1178365,0.450594,-0.164869,-0.2258865,0.653055,-0.269779,0.1447635,0.46048300000000003,-0.148339,0.2676135,0.6878850000000001,-0.24460900000000002,-0.2622565,0.8617250000000001,-0.397949,0.3126135,0.898045,-0.357289,-0.0709105,-0.0006549999999999612,-0.0050009999999999985,0.0709105,0.0006550000000000167,0.0050009999999999985,-0.1426765,-0.005734999999999935,-0.330509,0.2074235,-0.00739500000000004,-0.298159,-0.12805650000000002,-0.21877499999999994,-0.078564,0.1185135,-0.19799500000000003,-0.053577
94,0.010755499999999998,0.659405,-0.185284,-0.1185465,0.449137,-0.16509400000000002,-0.2266765,0.649715,-0.267364,0.1439935,0.46086499999999997,-0.148104,0.2666135,0.688605,-0.24443399999999998,-0.2643765,0.8633649999999999,-0.39728399999999997,0.3115235,0.8995949999999999,-0.357294,-0.0710765,-0.0008749999999999591,-0.0050570000000000025,0.0710765,0.0008749999999999591,0.005056999999999999,-0.1434765,-0.005375000000000019,-0.330744,0.20763349999999997,-0.00690500000000005,-0.298014,-0.1287365,-0.21751500000000001,-0.07863200000000001,0.11809349999999999,-0.19609500000000002,-0.052846000000000004
95,0.010596499999999998,0.659405,-0.1849215,-0.11867749999999999,0.449137,-0.1651415,-0.22674750000000002,0.649715,-0.2649215,0.14384249999999998,0.46086499999999997,-0.1479015,0.2662025,0.688605,-0.2441615,-0.2661975,0.8633649999999999,-0.3975115,0.3113825,0.8995949999999999,-0.3572915,-0.07093250000000001,-0.0008749999999999591,-0.005168499999999996,0.07093250000000001,0.0008749999999999591,0.0051684999999999995,-0.1435275,-0.005375000000000019,-0.3308715,0.2075825,-0.00690500000000005,-0.2977915,-0.1288975,-0.21786499999999998,-0.0787615,0.11825250000000001,-0.196145,-0.052504499999999996
96,0.010568000000000001,0.659405,-0.18442350000000002,-0.118754,0.449137,-0.1650435,-0.226934,0.649715,-0.2621035,0.143786,0.46086499999999997,-0.1477435,0.265866,0.688605,-0.2436735,-0.267914,0.8633649999999999,-0.3973135,0.31136600000000003,0.8995949999999999,-0.3569835,-0.07092899999999999,-0.0008749999999999591,-0.0052204999999999994,0.07092899999999999,0.0008749999999999591,0.005220500000000003,-0.14352399999999998,-0.005375000000000019,-0.3308735,0.207576,-0.00690500000000005,-0.29771349999999996,-0.128914,-0.21808499999999997,-0.07879549999999999,0.118816,-0.196145,-0.0523305
97,0.010533500000000005,0.659785,-0.1829335,-0.1188815,0.449137,-0.1645535,-0.2270115,0.649715,-0.26102349999999996,0.14370850000000002,0.46086499999999997,-0.1476135,0.2655885,0.688605,-0.2422535,-0.2689915,0.863515,-0.3955035,0.3112585,0.8995949999999999,-0.3554735,-0.0709105,-0.0008749999999999591,-0.005228499999999997,0.0709105,0.0008749999999999591,0.005228500000000004,-0.1435515,-0.005375000000000019,-0.3307735,0.2075585,-0.00690500000000005,-0.2975835,-0.12893149999999998,-0.21819500000000003,-0.0787545,0.1193085,-0.196125,-0.0523115
98,0.010873500000000005,0.66185,-0.181253,-0.1192645,0.450904,-0.162943,-0.2270245,0.649,-0.260003,0.1436755,0.462092,-0.147333,0.2654955,0.68611,-0.240913,-0.2696045,0.8665400000000001,-0.39314299999999996,0.31132550000000003,0.90191,-0.353353,-0.0708665,-0.0009399999999999964,-0.005132999999999999,0.0708665,0.0009399999999999964,0.005132999999999999,-0.1435545,-0.010289999999999966,-0.329903,0.20756550000000001,-0.010940000000000005,-0.296913,-0.1289745,-0.22318,-0.078736,0.11986550000000001,-0.20074999999999993,-0.052401
99,0.011129499999999997,0.66485,-0.17951,-0.11973450000000001,0.45374500000000006,-0.16111,-0.22654449999999998,0.65363,-0.25767,0.1437155,0.46338500000000005,-0.14695,0.2654455,0.6863100000000001,-0.23906,-0.2697445,0.86875,-0.3896,0.31148549999999997,0.9038,-0.35068,-0.0706755,-0.0008099999999999774,-0.004800999999999996,0.0706755,0.0008100000000000329,0.004801,-0.14356449999999998,-0.017609999999999904,-0.32867999999999997,0.2070055,-0.01700999999999997,-0.29571,-0.1289945,-0.23153999999999997,-0.078631,0.1205255,-0.2087199999999999,-0.052392999999999995
100,0.011784500000000003,0.66862,-0.177908,-0.1199575,0.457788,-0.15922799999999998,-0.2264775,0.661,-0.255158,0.1439225,0.463607,-0.146648,0.2655325,0.68623,-0.237018,-0.2698275,0.87112,-0.384618,0.3120925,0.90622,-0.347248,-0.0704225,-0.0005999999999999894,-0.004576999999999998,0.0704225,0.0005999999999999894,0.004576999999999998,-0.1434175,-0.02689999999999998,-0.326988,0.2060025,-0.02515000000000006,-0.294128,-0.1289775,-0.24340999999999996,-0.078652,0.1213525,-0.22139000000000003,-0.053106
101,0.012541499999999997,0.6729350000000001,-0.1759235,-0.11988750000000001,0.46140300000000006,-0.1570235,-0.22700750000000003,0.666895,-0.25259349999999997,0.14411249999999998,0.46444900000000006,-0.1461835,0.2656225,0.688685,-0.23471350000000002,-0.2710075,0.872295,-0.37819349999999996,0.3130225,0.908425,-0.3431035,-0.0701455,-0.0002749999999999697,-0.004533499999999999,0.0701455,0.0002750000000000252,0.004533499999999996,-0.1433275,-0.03820499999999999,-0.32485349999999996,0.2046425,-0.035184999999999966,-0.2921435,-0.1287775,-0.258625,-0.0785205,0.1221925,-0.23692499999999994,-0.053873500000000005
102,0.013381,0.67683,-0.174003,-0.119903,0.46465900000000004,-0.154753,-0.227073,0.6703600000000001,-0.249583,0.144807,0.466658,-0.145673,0.266357,0.6912200000000001,-0.232043,-0.271523,0.87136,-0.371583,0.313947,0.9098200000000001,-0.338703,-0.069906,-0.00015999999999999348,-0.004505000000000002,0.069906,0.00015999999999999348,0.004505000000000002,-0.143143,-0.05149999999999999,-0.322323,0.203147,-0.047199999999999964,-0.290023,-0.12854300000000002,-0.27683,-0.07849300000000001,0.12284700000000001,-0.25451999999999997,-0.054496
103,0.014317999999999997,0.6808399999999999,-0.1721105,-0.120029,0.46848199999999995,-0.1524605,-0.227399,0.67252,-0.2464705,0.145521,0.46963299999999997,-0.1450805,0.267081,0.69385,-0.2292405,-0.272519,0.86932,-0.3636805,0.315391,0.9173399999999999,-0.3340705,-0.069768,1.999999999996449e-05,-0.004408499999999999,0.069768,-2.0000000000020002e-05,0.004408500000000003,-0.14282899999999998,-0.06602000000000002,-0.3191905,0.201491,-0.06068000000000007,-0.2876905,-0.128359,-0.29700000000000004,-0.0783895,0.123611,-0.2750100000000001,-0.0551935
104,0.015359499999999998,0.6846700000000001,-0.16999,-0.1200885,0.472553,-0.14997,-0.2271885,0.6819200000000001,-0.24237,0.1462115,0.47059300000000004,-0.1442,0.2678415,0.69651,-0.22591,-0.2730985,0.87819,-0.35558999999999996,0.3168915,0.9218000000000001,-0.32911,-0.0694385,0.00032000000000004247,-0.004107999999999997,0.0694385,-0.00031999999999998696,0.0041080000000000005,-0.14231850000000001,-0.08280999999999994,-0.31551999999999997,0.1995515,-0.07632999999999995,-0.28467,-0.1284285,-0.31984999999999997,-0.078183,0.1246015,-0.29943999999999993,-0.056777999999999995
105,0.016402999999999994,0.687325,-0.166074,-0.12022000000000001,0.47667499999999996,-0.146604,-0.22668,0.685565,-0.237584,0.14721,0.47194499999999995,-0.14241399999999999,0.2686,0.700115,-0.222064,-0.27383,0.883355,-0.346924,0.31804,0.922345,-0.321994,-0.069273,0.0006450000000000067,-0.0037390000000000027,0.069273,-0.0006450000000000067,0.0037389999999999993,-0.14151000000000002,-0.10269500000000004,-0.309754,0.19706,-0.09580500000000003,-0.27973400000000004,-0.12885000000000002,-0.34775500000000004,-0.07785,0.12496,-0.33040500000000006,-0.058104
106,0.017715999999999996,0.686205,-0.1616645,-0.11996400000000002,0.48189499999999996,-0.14278449999999998,-0.226864,0.692645,-0.2315245,0.148666,0.475745,-0.1399245,0.269606,0.7045349999999999,-0.2176045,-0.274994,0.891285,-0.33910450000000003,0.319366,0.9228149999999999,-0.31526449999999995,-0.06903000000000001,0.0008949999999999791,-0.0032604999999999995,0.06903000000000001,-0.0008950000000000347,0.0032604999999999995,-0.140264,-0.12234500000000004,-0.3024445,0.194656,-0.11490500000000003,-0.27411450000000004,-0.129614,-0.376405,-0.0772625,0.125876,-0.36302500000000004,-0.060298500000000005
107,0.018859499999999994,0.68777,-0.15656699999999998,-0.1197665,0.483,-0.139167,-0.2264965,0.6936599999999999,-0.224137,0.1501835,0.47666000000000003,-0.136487,0.2709735,0.71041,-0.211827,-0.2757665,0.89523,-0.329897,0.3205035,0.92151,-0.307557,-0.06871050000000001,0.0011099999999999999,-0.0029309999999999996,0.06871050000000001,-0.0011099999999999999,0.002931000000000003,-0.1392265,-0.13938999999999996,-0.293817,0.1920035,-0.13151999999999997,-0.267567,-0.1306465,-0.40280999999999995,-0.075954,0.1268435,-0.39304999999999995,-0.060833
108,0.019753499999999997,0.6864250000000001,-0.15069,-0.1198015,0.485085,-0.13522,-0.2273315,0.688605,-0.21681,0.1518585,0.480975,-0.13213,0.2723485,0.713035,-0.20612,-0.2773715,0.899275,-0.31947000000000003,0.3218585,0.928045,-0.29906000000000005,-0.0681445,0.0009750000000000036,-0.0024799999999999996,0.0681445,-0.0009750000000000036,0.0024799999999999996,-0.1382015,-0.15614499999999998,-0.28357000000000004,0.1892885,-0.14819500000000002,-0.25987,-0.1313915,-0.428755,-0.073317,0.12613850000000001,-0.42101500000000003,-0.058192999999999995
109,0.019992999999999997,0.6858299999999999,-0.1426105,-0.120494,0.48525,-0.1294205,-0.229164,0.6897599999999999,-0.2088205,0.153406,0.48415,-0.12622049999999999,0.27323600000000003,0.71648,-0.19824050000000001,-0.279624,0.90615,-0.3087105,0.32258600000000004,0.92991,-0.2897705,-0.067674,0.0009200000000000041,-0.0022655,0.067674,-0.0009200000000000041,0.0022655,-0.137664,-0.17378,-0.2705905,0.186026,-0.16634,-0.2489805,-0.132524,-0.45612,-0.0693285,0.12495599999999998,-0.45088999999999996,-0.0543265
110,0.019799,0.688705,-0.1334275,-0.121663,0.486795,-0.1216275,-0.23122299999999998,0.686725,-0.19734749999999998,0.154867,0.487605,-0.1176875,0.27391699999999997,0.720455,-0.1885075,-0.282403,0.9121049999999999,-0.2932375,0.322677,0.931445,-0.2773175,-0.06736400000000001,0.0007449999999999957,-0.0017675000000000017,0.06736400000000001,-0.0007450000000000234,0.0017674999999999982,-0.137403,-0.194955,-0.2515175,0.179987,-0.18883500000000003,-0.2296875,-0.134163,-0.48789499999999997,-0.0637255,0.12279700000000002,-0.485345,-0.0492925
111,0.018624500000000002,0.690415,-0.118585,-0.1237785,0.488045,-0.108014,-0.2340685,0.692145,-0.18011500000000003,0.1556615,0.490975,-0.102625,0.2731015,0.721865,-0.172885,-0.2860985,0.9180250000000001,-0.27213499999999996,0.3218615,0.931735,-0.257955,-0.0672175,0.0006549999999999889,-0.0013160000000000003,0.0672175,-0.0006549999999999889,0.0013159999999999995,-0.1363185,-0.21897499999999998,-0.221665,0.17039150000000003,-0.21435500000000002,-0.20025500000000002,-0.1369185,-0.5216350000000001,-0.05029,0.11963150000000002,-0.5213350000000001,-0.037228
112,0.017487,0.6918,-0.1036765,-0.125736,0.48872000000000004,-0.0945435,-0.237126,0.69872,-0.16368649999999998,0.156474,0.49316000000000004,-0.0878405,0.272504,0.72339,-0.15898649999999998,-0.289646,0.92509,-0.2522465,0.32063400000000003,0.92628,-0.23897649999999998,-0.06708,0.0005999999999999894,-0.0009505,0.06708,-0.0006000000000000033,0.0009505,-0.135236,-0.24193,-0.19251649999999998,0.161084,-0.23894,-0.17092649999999998,-0.139606,-0.55389,-0.0369995,0.11661399999999998,-0.5559700000000001,-0.0250645
113,0.0163155,0.693315,-0.0888435,-0.1280085,0.489085,-0.0815095,-0.2401885,0.697895,-0.1486635,0.1573915,0.496985,-0.0736775,0.2718615,0.724915,-0.14365350000000002,-0.2938085,0.921215,-0.2328435,0.3192615,0.923875,-0.2200635,-0.0670025,0.0004639999999999922,-0.0006195000000000003,0.0670025,-0.0004640000000000061,0.0006195000000000003,-0.1341685,-0.26292499999999996,-0.1634235,0.1519615,-0.261845,-0.1418135,-0.1422285,-0.583905,-0.024076499999999997,0.1136415,-0.587975,-0.012597500000000001
114,0.0151495,0.6964125,-0.075462,-0.1303385,0.4894425,-0.06935,-0.2431485,0.7028625000000001,-0.134519,0.1578915,0.5002625,-0.060492000000000004,0.27113149999999997,0.7255925,-0.129029,-0.2978185,0.9209225,-0.213769,0.3180215,0.9253325,-0.203019,-0.0668555,0.0003125000000000003,-0.00036499999999999727,0.0668555,-0.0003125000000000003,0.00036500000000000074,-0.13337849999999998,-0.2807075,-0.135129,0.1429415,-0.2811075,-0.113469,-0.1446785,-0.6093975,-0.010777999999999996,0.1106415,-0.6150375,-0.0004389999999999984
115,0.013636500000000003,0.7005345000000001,-0.0630755,-0.1329965,0.4890645,-0.05787350000000001,-0.24695650000000002,0.7036645,-0.1214595,0.1579935,0.5013245,-0.047976500000000005,0.2701235,0.7248045000000001,-0.11428950000000002,-0.30179649999999997,0.9169745,-0.1948395,0.3166135,0.9253245,-0.1858895,-0.0667315,0.00020349999999999882,-0.00017249999999999904,0.0667315,-0.00020350000000000056,0.00017249999999999904,-0.13295649999999998,-0.2972255,-0.1068295,0.13382349999999998,-0.2989655,-0.0844395,-0.1469665,-0.6324555,0.002932500000000001,0.10763350000000001,-0.6391055,0.0117985
116,0.012112499999999995,0.702338,-0.051472,-0.1354385,0.489958,-0.047705000000000004,-0.2495585,0.707068,-0.109565,0.15817150000000002,0.504578,-0.036726,0.26897150000000003,0.725588,-0.101765,-0.3047485,0.914938,-0.177255,0.3151615,0.9266880000000001,-0.170235,-0.0665505,5.6000000000000494e-05,0.00013599999999999723,0.0665505,-5.6000000000000494e-05,-0.00013599999999999723,-0.1324485,-0.311812,-0.07924500000000001,0.12514150000000002,-0.31506199999999995,-0.0564,-0.1491085,-0.652422,0.016124,0.1045115,-0.659832,0.024458
117,0.010988500000000002,0.70654,-0.040788500000000005,-0.1374245,0.48907,-0.03807050000000001,-0.25278449999999997,0.71302,-0.0988235,0.1583155,0.5041,-0.026492500000000002,0.2680555,0.7271799999999999,-0.08960350000000002,-0.3079745,0.9134,-0.16178350000000002,0.3136955,0.9210699999999999,-0.1557735,-0.0664935,9.600000000000233e-05,0.0003374999999999975,0.0664935,-9.599999999999886e-05,-0.00033750000000000446,-0.1319045,-0.32466,-0.0523145,0.1170255,-0.32955,-0.029199500000000003,-0.1510845,-0.67012,0.029726499999999996,0.1017855,-0.6781200000000001,0.0371385
118,0.0103515,0.709522,-0.031979,-0.1389045,0.48949200000000004,-0.030125000000000006,-0.2543845,0.714042,-0.089031,0.15861550000000002,0.505452,-0.017505,0.2676555,0.728352,-0.079401,-0.31035450000000003,0.909642,-0.14761100000000002,0.3127155,0.919432,-0.142411,-0.0663965,6.300000000000056e-05,0.0008070000000000022,0.0663965,-6.300000000000056e-05,-0.0008070000000000022,-0.1310045,-0.335548,-0.027166000000000003,0.10938550000000001,-0.341808,-0.004081000000000001,-0.1526045,-0.683748,0.042932,0.09895549999999999,-0.690998,0.050539
119,0.0095165,0.708453,-0.02430800000000001,-0.1400175,0.488923,-0.024235000000000007,-0.2558475,0.719413,-0.08235900000000002,0.1585125,0.505683,-0.01123600000000001,0.2668825,0.726713,-0.07141900000000001,-0.31163749999999996,0.906983,-0.139299,0.3116125,0.9184530000000001,-0.132679,-0.0664205,6.899999999999962e-05,0.0009209999999999982,0.0664205,-6.900000000000656e-05,-0.0009210000000000051,-0.1304035,-0.34102699999999997,-0.008008000000000001,0.10438249999999999,-0.34769700000000003,0.013383999999999993,-0.1536075,-0.689717,0.055303,0.09624250000000001,-0.6961269999999999,0.06280999999999999
120,0.009471,0.7088175,-0.0211745,-0.1404,0.48931750000000007,-0.0224795,-0.25633,0.7188675,-0.08015050000000001,0.15839999999999999,0.5045075,-0.009499500000000008,0.26672999999999997,0.7277475,-0.0678205,-0.31209000000000003,0.9066275,-0.1357305,0.31167,0.9194675,-0.1290705,-0.066309,0.0002375000000000016,0.0009274999999999978,0.06630899999999999,-0.0002375000000000016,-0.0009275000000000047,-0.130851,-0.34177250000000003,0.0010755,0.10295,-0.3488525,0.022476499999999996,-0.15376,-0.6908925,0.0595015,0.09552000000000001,-0.6964625,0.06636449999999999
121,0.009454999999999998,0.709246,-0.018194500000000002,-0.140727,0.489836,-0.020116499999999995,-0.25676699999999997,0.718376,-0.07789149999999999,0.158293,0.5037860000000001,-0.006881499999999999,0.26659299999999997,0.7288060000000001,-0.0641015,-0.312477,0.9062760000000001,-0.1324015,0.311713,0.920026,-0.12490150000000001,-0.06622700000000001,0.0003140000000000018,0.0009325000000000028,0.06622700000000001,-0.0003140000000000018,-0.0009324999999999958,-0.131302,-0.342434,0.0101645,0.101583,-0.349594,0.0320695,-0.153887,-0.692044,0.0635235,0.094943,-0.697294,0.0699695
122,0.009421000000000006,0.7095205,-0.015421499999999998,-0.141088,0.49044049999999995,-0.01729250000000001,-0.257138,0.7178005,-0.0749225,0.158252,0.5032805,-0.003955500000000001,0.266542,0.7296905,-0.0606225,-0.312828,0.9057005,-0.1296825,0.311702,0.9203405,-0.12119250000000001,-0.06615399999999999,0.00035149999999999765,0.0009364999999999998,0.06615399999999999,-0.0003515000000000046,-0.0009364999999999998,-0.131848,-0.3431795,0.018675499999999998,0.100522,-0.35028950000000003,0.0413975,-0.154028,-0.6932395,0.06736249999999999,0.094502,-0.6978695,0.0734175
123,0.009441499999999999,0.709461,-0.014595499999999997,-0.1412705,0.491071,-0.01598050000000001,-0.2573705,0.717461,-0.0741005,0.1583195,0.503071,-0.002219500000000006,0.2664795,0.730291,-0.058800500000000006,-0.3130105,0.9053610000000001,-0.13001050000000003,0.31202949999999996,0.920261,-0.1195305,-0.06605449999999999,0.0003820000000000004,0.0009154999999999996,0.06605449999999999,-0.0003820000000000004,-0.0009155000000000066,-0.1322005,-0.343459,0.024362499999999995,0.09987950000000001,-0.35074900000000003,0.048217499999999996,-0.1541605,-0.694199,0.06899949999999999,0.09419950000000002,-0.697989,0.0750155
124,0.009300999999999997,0.7094444999999999,-0.014554499999999998,-0.14147500000000002,0.49177450000000006,-0.014954499999999996,-0.257665,0.7174444999999999,-0.07450350000000001,0.15851500000000002,0.5030945,-0.0006224999999999981,0.266735,0.7302744999999999,-0.0579035,-0.313135,0.9053445,-0.13202350000000002,0.312445,0.9202444999999999,-0.11901350000000001,-0.065963,0.000398500000000003,0.0008765000000000023,0.065963,-0.000398500000000003,-0.0008765000000000023,-0.132525,-0.3434755,0.0275815,0.09929500000000001,-0.3509255,0.0526805,-0.154455,-0.6948355,0.0693165,0.09383499999999999,-0.6975755,0.0757415
125,0.009296499999999992,0.7094444999999999,-0.014857500000000003,-0.14156950000000001,0.4923545,-0.014013500000000005,-0.2577795,0.7172645,-0.07568849999999999,0.1588205,0.5030844999999999,0.0008685000000000012,0.26718050000000004,0.7302744999999999,-0.057308500000000005,-0.31302949999999996,0.9051444999999999,-0.1341485,0.31338049999999995,0.9202444999999999,-0.11891849999999998,-0.0658685,0.000398500000000003,0.0007635000000000003,0.0658685,-0.000398500000000003,-0.0007635000000000003,-0.13279950000000001,-0.3434755,0.0293025,0.09877049999999998,-0.35111549999999997,0.0558865,-0.15474949999999998,-0.6954655000000001,0.0690025,0.0934805,-0.6974055,0.07582649999999999
126,0.009483500000000006,0.7094444999999999,-0.015526500000000006,-0.1414745,0.4925145,-0.013573500000000002,-0.2572845,0.7159544999999999,-0.0779575,0.1594755,0.5029945,0.002634499999999998,0.2679855,0.7302744999999999,-0.056787500000000005,-0.3122945,0.9036544999999999,-0.1364175,0.3139255,0.9196445,-0.1193275,-0.06577749999999999,0.000398500000000003,0.000612499999999995,0.0657775,-0.000398500000000003,-0.0006125000000000019,-0.1333145,-0.3434755,0.0296325,0.0979855,-0.3512655,0.0575605,-0.1553445,-0.6959055000000001,0.0681455,0.0929355,-0.6973855,0.0752385
127,0.009910999999999996,0.7091175,-0.016535000000000008,-0.14130500000000001,0.4925275,-0.013339000000000004,-0.256735,0.7141175,-0.080166,0.160135,0.5028575,0.004390999999999992,0.269355,0.7302675,-0.05622600000000001,-0.310985,0.9015775,-0.13890600000000003,0.31504499999999996,0.9193975,-0.120016,-0.06570000000000001,0.00041150000000000214,0.00037199999999999733,0.06570000000000001,-0.00041150000000000214,-0.00037200000000000427,-0.134095,-0.3436825,0.028733999999999996,0.097495,-0.3513725,0.057402999999999996,-0.156105,-0.6960025,0.066907,0.09223499999999998,-0.6970925,0.07427199999999999
128,0.010634500000000005,0.7087340000000001,-0.017610999999999995,-0.1410485,0.492724,-0.013085999999999993,-0.2561485,0.7113940000000001,-0.081972,0.1609615,0.5027940000000001,0.006617000000000005,0.27148150000000004,0.729564,-0.055157,-0.3089185,0.8988440000000001,-0.14229199999999997,0.31689150000000005,0.9183640000000001,-0.121462,-0.0656315,0.0004620000000000041,0.00015400000000000136,0.06563150000000001,-0.00046199999999999714,-0.00015399999999999442,-0.1348085,-0.343856,0.027348000000000004,0.0970715,-0.35127600000000003,0.056024000000000004,-0.1571385,-0.6958059999999999,0.06539700000000001,0.09134149999999999,-0.696896,0.072869
129,0.011598500000000005,0.708442,-0.018491499999999994,-0.1406135,0.493182,-0.013174499999999999,-0.25642349999999997,0.708312,-0.0837855,0.1620165,0.502852,0.008794500000000004,0.2748665,0.726282,-0.052766499999999994,-0.3066135,0.896212,-0.1467355,0.31886650000000005,0.914782,-0.1225655,-0.06551649999999999,0.0005040000000000044,-0.00021749999999999547,0.0655165,-0.0005039999999999975,0.00021750000000000241,-0.1357545,-0.344068,0.026078500000000004,0.09660649999999998,-0.351458,0.054781500000000004,-0.1586435,-0.695348,0.0640945,0.09003649999999999,-0.696438,0.07165750000000001
130,0.012716000000000005,0.708193,-0.018998,-0.140061,0.49379300000000004,-0.013490000000000002,-0.257211,0.7038030000000001,-0.08604600000000001,0.16302899999999998,0.502903,0.010765,0.279059,0.721603,-0.050257,-0.303661,0.892663,-0.152726,0.32148899999999997,0.910843,-0.12298600000000001,-0.065399,0.0005350000000000008,-0.000781999999999998,0.065399,-0.0005350000000000008,0.000781999999999998,-0.13683,-0.344397,0.025444,0.09618900000000001,-0.351367,0.054185,-0.160621,-0.694527,0.063409,0.088239,-0.695677,0.070982
131,0.0141465,0.708238,-0.0192455,-0.13926850000000002,0.49418800000000007,-0.013774499999999995,-0.2583315,0.698358,-0.0890665,0.1642185,0.503108,0.012880500000000003,0.2851785,0.715418,-0.0475305,-0.3009315,0.888908,-0.1604565,0.3257185,0.903798,-0.12306650000000001,-0.0653285,0.0005819999999999992,-0.0011084999999999984,0.0653285,-0.0005819999999999992,0.0011085000000000053,-0.1379225,-0.34463200000000005,0.025049500000000002,0.0954785,-0.35092199999999996,0.0538135,-0.1627315,-0.692522,0.0629545,0.08581849999999999,-0.694832,0.0705105
132,0.016023500000000003,0.7088490000000001,-0.019189000000000005,-0.1385275,0.49384900000000004,-0.013784000000000005,-0.2615075,0.685879,-0.09401000000000001,0.1658925,0.5034390000000001,0.015637999999999996,0.2944025,0.702709,-0.044562000000000004,-0.2980775,0.8808290000000001,-0.17405,0.3311025,0.889499,-0.12381,-0.0652125,0.000677999999999998,-0.0011540000000000022,0.0652125,-0.000678000000000005,0.0011539999999999953,-0.13904650000000002,-0.345721,0.023190999999999996,0.0941825,-0.34998100000000004,0.052183999999999994,-0.1664975,-0.6902809999999999,0.06267199999999999,0.0817725,-0.693261,0.070223
133,0.017968999999999992,0.7098359999999999,-0.019096500000000002,-0.137663,0.493056,-0.013732500000000002,-0.264792,0.6718259999999999,-0.0999935,0.167498,0.503896,0.018148499999999998,0.307308,0.687406,-0.041564500000000004,-0.29499200000000003,0.870906,-0.1895135,0.335358,0.873776,-0.12577349999999998,-0.065078,0.0008110000000000062,-0.0011485000000000037,0.065078,-0.0008109999999999992,0.0011484999999999967,-0.139906,-0.347054,0.019941499999999997,0.092828,-0.349074,0.0493645,-0.17075200000000001,-0.6878540000000001,0.0618615,0.077048,-0.691574,0.0696605
134,0.019836000000000006,0.711198,-0.019301000000000006,-0.136709,0.49169799999999997,-0.013901000000000004,-0.269161,0.652628,-0.106589,0.16905900000000001,0.504268,0.020323999999999995,0.32027900000000004,0.667438,-0.038318000000000005,-0.292551,0.8525780000000001,-0.206679,0.340189,0.851948,-0.12894899999999998,-0.06492899999999999,0.0009880000000000028,-0.0013750000000000012,0.064929,-0.0009880000000000028,0.0013749999999999943,-0.14034799999999997,-0.34866199999999997,0.014394999999999995,0.09094900000000002,-0.347832,0.046079999999999996,-0.175601,-0.685012,0.060516,0.071449,-0.689672,0.068939
135,0.021740499999999996,0.7129304999999999,-0.019526499999999995,-0.1362315,0.49021050000000005,-0.014101499999999996,-0.2752295,0.6309905,-0.1127305,0.16992049999999997,0.5043305,0.022154500000000004,0.3319705,0.6442105,-0.03430549999999999,-0.29111950000000003,0.8285205,-0.2243505,0.3446205,0.8251204999999999,-0.1334705,-0.06484050000000001,0.001289499999999999,-0.0022314999999999974,0.06484050000000001,-0.001289499999999999,0.0022315000000000043,-0.1400905,-0.3509395,0.006399500000000002,0.0886205,-0.3463595,0.042940500000000006,-0.18075950000000002,-0.6815795,0.0586565,0.06490049999999999,-0.6870194999999999,0.0686615
136,0.022618,0.7154484999999999,-0.019356500000000006,-0.135858,0.4879785,-0.014697500000000002,-0.28303900000000004,0.6047985,-0.11423549999999999,0.169591,0.5038984999999999,0.024259499999999996,0.338731,0.6154985,-0.029545500000000002,-0.290729,0.7984285,-0.2426055,0.348041,0.7919984999999999,-0.1374855,-0.064891,0.0016504999999999992,-0.0031435000000000005,0.064891,-0.0016505000000000027,0.0031434999999999935,-0.13970700000000003,-0.35361149999999997,-0.0034815000000000054,0.084951,-0.3444015,0.040292499999999995,-0.186509,-0.6774415,0.0567975,0.056781,-0.6825015,0.0688355
137,0.023558499999999996,0.7179015000000001,-0.0196635,-0.1358235,0.4856015,-0.015489500000000003,-0.29024150000000004,0.5722515,-0.11586250000000001,0.16871850000000002,0.5026415000000001,0.026526499999999998,0.34056850000000005,0.5805515,-0.022649499999999996,-0.2909215,0.7613715,-0.26088249999999996,0.35046849999999996,0.7512615,-0.1391725,-0.0649585,0.002026499999999997,-0.003914500000000001,0.0649585,-0.0020265000000000005,0.003914500000000001,-0.1378355,-0.35608850000000003,-0.0158895,0.0805485,-0.34259850000000003,0.0381625,-0.1911715,-0.6726885,0.0537625,0.046968499999999996,-0.6778084999999999,0.0692055
138,0.0242015,0.7202200000000001,-0.019809499999999994,-0.1360945,0.48286999999999997,-0.016253499999999997,-0.29809850000000004,0.5333000000000001,-0.1144245,0.16698149999999998,0.5006600000000001,0.029666500000000005,0.33764150000000004,0.54355,-0.015386499999999997,-0.2914985,0.7160200000000001,-0.27748449999999997,0.35144149999999996,0.7058500000000001,-0.14084449999999998,-0.0650715,0.0022240000000000003,-0.0046114999999999975,0.0650715,-0.0022240000000000003,0.0046115000000000045,-0.1346595,-0.35527,-0.0297515,0.0749515,-0.34076,0.0372825,-0.1927895,-0.66774,0.04815150000000001,0.03644149999999999,-0.67479,0.0703365
139,0.024723499999999995,0.7226385,-0.020019500000000003,-0.1369995,0.4799485,-0.017043499999999996,-0.3030065,0.49340849999999997,-0.11107050000000002,0.1647635,0.4976485,0.033535499999999996,0.3313735,0.5036585,-0.006275500000000003,-0.2928165,0.6634785,-0.2913505,0.34840350000000003,0.6526084999999999,-0.14199050000000002,-0.0652535,0.002357500000000002,-0.005226500000000002,0.0652535,-0.0023574999999999985,0.005226500000000002,-0.12927550000000002,-0.35399149999999996,-0.045972500000000006,0.0691335,-0.34083149999999995,0.0379455,-0.1926065,-0.6620815,0.0410335,0.024593500000000004,-0.6702315,0.0720225
140,0.025095499999999993,0.7247345,-0.021107,-0.1390485,0.4766345,-0.01858499999999999,-0.3040945,0.4515045,-0.10597699999999999,0.1607255,0.49359450000000005,0.037416000000000005,0.31875549999999997,0.4586345,0.004072000000000006,-0.2942545,0.5958445,-0.288957,0.33969550000000004,0.5863745,-0.138127,-0.0654555,0.0024115000000000004,-0.0061139999999999944,0.0654555,-0.0024114999999999987,0.006114000000000001,-0.1186885,-0.3520055,-0.06648699999999999,0.06396550000000001,-0.3419955,0.039882,-0.1835725,-0.6581655,0.030543000000000004,0.010565500000000005,-0.6657055,0.072633
141,0.025618500000000016,0.726024,-0.023105,-0.1411385,0.473234,-0.020953,-0.3014115,0.413534,-0.10343,0.1560685,0.488404,0.04044400000000001,0.3053885,0.417214,0.012313000000000004,-0.2909115,0.518704,-0.28286,0.3269285,0.5176940000000001,-0.13297,-0.06562849999999999,0.002456,-0.0072440000000000004,0.0656285,-0.002456,0.0072440000000000004,-0.1056505,-0.350366,-0.08789,0.05505850000000001,-0.347706,0.043212,-0.1691045,-0.655106,0.016376,-0.0021515000000000006,-0.662086,0.074492
142,0.026362499999999983,0.7268835,-0.025314500000000004,-0.1425885,0.4698935,-0.024154499999999995,-0.2965875,0.3767835,-0.1007665,0.1510325,0.4827135,0.0430465,0.2922625,0.3780535,0.0202235,-0.2869875,0.4423635,-0.2757265,0.31430250000000004,0.4481135,-0.12679649999999998,-0.06585250000000001,0.0023105,-0.008555499999999994,0.06585250000000001,-0.0023105,0.0085555,-0.0916495,-0.3489165,-0.10841649999999999,0.0468625,-0.3535365,0.0472345,-0.1493055,-0.6530265,-0.002399499999999999,-0.015437499999999993,-0.6600665,0.0788165
143,0.027782499999999988,0.7269625,-0.02826200000000001,-0.1436165,0.4667225,-0.028083999999999998,-0.2881575,0.3447325,-0.096857,0.14600249999999998,0.4763325,0.045237,0.2803725,0.34163249999999995,0.02753,-0.2830975,0.37017249999999996,-0.267587,0.3021625,0.3772025,-0.119587,-0.0660525,0.0020565,-0.01013,0.06605250000000001,-0.0020565,0.010129999999999993,-0.07489849999999999,-0.3496175,-0.12806700000000001,0.0414225,-0.35974750000000005,0.05244499999999999,-0.1231865,-0.6523975000000001,-0.024674,-0.028847499999999998,-0.6562875,0.08225299999999999
144,0.029609999999999997,0.7266905,-0.03150649999999999,-0.143756,0.4632905,-0.032466499999999995,-0.277235,0.3129705,-0.0876865,0.14099,0.4705005,0.04872550000000001,0.268,0.3087605,0.03878550000000001,-0.274684,0.2963105,-0.2472265,0.28879,0.3071305,-0.10590649999999999,-0.06614999999999999,0.0016655,-0.011679499999999995,0.06615000000000001,-0.0016655,0.01167950000000001,-0.06053999999999998,-0.3489695,-0.1446265,0.03315000000000001,-0.3633695,0.06138650000000001,-0.08491599999999999,-0.6509095,-0.056086499999999984,-0.04485999999999998,-0.6529695,0.0915895
145,0.033204999999999985,0.7253805,-0.036600499999999994,-0.14325400000000002,0.46033050000000003,-0.037970500000000004,-0.264487,0.28621050000000003,-0.07795049999999999,0.13795499999999997,0.4651405,0.0502215,0.25402499999999995,0.2816805,0.0513605,-0.265734,0.22865049999999998,-0.22521049999999998,0.276285,0.24280049999999997,-0.09459050000000001,-0.066055,0.0011394999999999999,-0.013260499999999995,0.066055,-0.0011394999999999999,0.013260499999999995,-0.04702500000000001,-0.3475995,-0.1592405,0.025434999999999985,-0.3664595,0.0705395,-0.04475500000000002,-0.6494595,-0.08763049999999999,-0.05977500000000002,-0.6503295,0.10055650000000001
146,0.03582999999999997,0.7244605,-0.04182849999999999,-0.14300300000000002,0.4574305,-0.04428850000000001,-0.25227900000000003,0.2670905,-0.06579850000000001,0.13423,0.4611005,0.0507965,0.23743,0.2610205,0.0651365,-0.25663,0.1689505,-0.2028685,0.26283,0.1845505,-0.0814685,-0.06559000000000001,0.00039650000000000015,-0.0155285,0.06559000000000001,-0.0003964999999999993,0.0155285,-0.026360000000000022,-0.3444495,-0.17251850000000002,0.01664999999999997,-0.3680195,0.0795385,-0.0035400000000000154,-0.6500995,-0.11861849999999999,-0.07543000000000002,-0.6473395,0.1109475
147,0.034599999999999964,0.7244605,-0.046235,-0.144849,0.4551105,-0.050175,-0.24152300000000002,0.2542205,-0.05207500000000001,0.12706,0.4580605,0.05230900000000001,0.21682999999999997,0.2488205,0.080894,-0.250056,0.1170105,-0.179435,0.24340999999999996,0.13600050000000002,-0.062275,-0.06517,-0.0004494999999999985,-0.01774500000000001,0.06517,0.00044950000000000025,0.017744999999999997,-0.0071600000000000275,-0.3389895,-0.18439499999999998,0.0020399999999999863,-0.3685895,0.09037,0.02999999999999997,-0.6501295,-0.142405,-0.09685000000000002,-0.6414395,0.12679
148,0.03441500000000003,0.7240245,-0.05252000000000001,-0.14597499999999997,0.4528745,-0.05657000000000001,-0.23254799999999998,0.2430945,-0.03938,0.121085,0.4558545,0.051466,0.195635,0.2396645,0.093915,-0.24257299999999998,0.0724745,-0.15824,0.226395,0.09271449999999999,-0.04187000000000002,-0.06504499999999999,-0.0011064999999999998,-0.019589999999999996,0.06504500000000002,0.0011064999999999998,0.019589999999999996,0.00859500000000002,-0.3325455,-0.19243,-0.012714999999999976,-0.3690355,0.09995799999999999,0.06088500000000002,-0.6495955,-0.16343000000000002,-0.11835499999999999,-0.6353755,0.143536
149,0.03315999999999997,0.7237920000000001,-0.05784,-0.14562000000000003,0.451632,-0.06334000000000001,-0.22676600000000002,0.236952,-0.03298999999999999,0.11576999999999998,0.454712,0.05092000000000001,0.17536999999999997,0.23780199999999999,0.102136,-0.236831,0.046284000000000006,-0.13721,0.21026,0.067438,-0.021570000000000006,-0.06490000000000001,-0.001639999999999999,-0.021169999999999994,0.06489999999999996,0.0016400000000000008,0.021169999999999994,0.017189999999999983,-0.326448,-0.19468999999999997,-0.025450000000000028,-0.370618,0.10924800000000001,0.08110999999999996,-0.649308,-0.17935,-0.13939000000000001,-0.6296379999999999,0.159131
150,0.030884999999999996,0.7238405,-0.06248000000000001,-0.14579500000000004,0.45145050000000003,-0.06889999999999999,-0.222393,0.23449050000000002,-0.026829999999999993,0.11052499999999998,0.4550305,0.05052000000000001,0.15803499999999998,0.2350305,0.113291,-0.23550800000000002,0.034971499999999996,-0.11409,0.19389499999999998,0.050131499999999996,0.0013299999999999979,-0.06520500000000001,-0.002233500000000003,-0.021150000000000002,0.06520499999999996,0.0022334999999999994,0.021150000000000002,0.022724999999999995,-0.3208295,-0.1943,-0.03784500000000002,-0.3701695,0.117245,0.095275,-0.6502395000000001,-0.18885,-0.15924500000000003,-0.6237195000000001,0.177457
151,0.027859999999999996,0.723377,-0.06698000000000004,-0.14668,0.451227,-0.07358000000000003,-0.21861999999999998,0.23257699999999998,-0.02731,0.10505000000000003,0.455397,0.05048,0.14545000000000002,0.231867,0.12200799999999999,-0.235251,0.025648000000000004,-0.08983000000000002,0.18007,0.035704,0.024279999999999996,-0.06488,-0.0025589999999999988,-0.02164000000000002,0.06488,0.0025590000000000022,0.021639999999999993,0.027349999999999985,-0.316573,-0.19355,-0.049850000000000005,-0.369373,0.12408199999999998,0.10268,-0.651583,-0.19128,-0.1787,-0.6201829999999999,0.19618999999999998
152,0.024919999999999998,0.7232890000000001,-0.07090000000000002,-0.14814,0.451719,-0.07704,-0.21731,0.232879,-0.030340000000000034,0.09985,0.45690899999999995,0.051059999999999994,0.13846999999999998,0.233439,0.12884,-0.23248,0.023208,-0.06858000000000003,0.16780999999999996,0.032302,0.042179999999999995,-0.06437999999999999,-0.0031009999999999996,-0.02211000000000002,0.06437999999999999,0.0031009999999999996,0.02210999999999999,0.027100000000000013,-0.31500100000000003,-0.18736999999999998,-0.05803999999999998,-0.36780100000000004,0.12957999999999997,0.10091,-0.653161,-0.18494,-0.19493,-0.617161,0.216976
153,0.021194999999999964,0.723089,-0.07417499999999999,-0.15009500000000003,0.451849,-0.08049499999999998,-0.21698500000000004,0.233009,-0.03689500000000001,0.09508499999999998,0.457039,0.048955000000000026,0.13619499999999995,0.233569,0.12959500000000002,-0.23331500000000002,0.023337999999999998,-0.05584499999999998,0.15988499999999994,0.032431999999999996,0.052885000000000015,-0.06390500000000005,-0.0032310000000000012,-0.02218500000000001,0.06390499999999999,0.0032309999999999978,0.02218500000000001,0.026884999999999992,-0.317791,-0.180765,-0.06435500000000005,-0.365521,0.12926500000000002,0.085785,-0.654881,-0.167255,-0.20272500000000002,-0.611091,0.227357
154,0.016664999999999985,0.7227475,-0.07568999999999998,-0.15319499999999997,0.4524375,-0.08156999999999998,-0.217505,0.2324475,-0.043279999999999985,0.08932499999999999,0.45762749999999996,0.04901,0.13461500000000004,0.2341575,0.13202,-0.233315,0.0239265,-0.04718,0.15698500000000004,0.0330205,0.061829999999999996,-0.06322499999999998,-0.003161500000000001,-0.022760000000000002,0.06322500000000003,0.003161500000000001,0.022760000000000002,0.025205000000000033,-0.3205325,-0.17189,-0.07123499999999999,-0.3628525,0.12971000000000002,0.06728499999999998,-0.6554025,-0.14678999999999998,-0.206485,-0.6127225000000001,0.233566
155,0.012469999999999981,0.72142,-0.07629499999999995,-0.15607,0.45245,-0.08143499999999998,-0.21949,0.23246,-0.04941499999999999,0.08392,0.45754,0.05073500000000003,0.13472000000000006,0.23491,0.13366500000000003,-0.23238999999999999,0.023939000000000002,-0.057884999999999964,0.15658000000000005,0.033033,0.06500500000000003,-0.06340999999999997,-0.003148999999999999,-0.021614999999999995,0.06340999999999997,0.0031490000000000025,0.02161500000000005,0.015720000000000012,-0.32477999999999996,-0.15935499999999997,-0.07621,-0.36056,0.12991500000000003,0.04455999999999999,-0.65539,-0.12336499999999995,-0.20367,-0.61504,0.23385700000000004
156,0.013209999999999944,0.72057,-0.07832500000000003,-0.15639000000000003,0.45433,-0.08169500000000002,-0.21982000000000004,0.23609999999999998,-0.05700500000000003,0.08328999999999998,0.45824,0.05055499999999996,0.13815999999999995,0.23792,0.13198499999999996,-0.22674000000000005,0.033803,-0.08404500000000004,0.16103,0.036067,0.05752499999999994,-0.06270000000000003,-0.002907,-0.02159500000000003,0.06269999999999998,0.002907,0.021594999999999975,0.0035099999999999576,-0.32809,-0.14395500000000006,-0.056430000000000036,-0.35367,0.10795499999999997,0.02425999999999995,-0.6547499999999999,-0.10151500000000002,-0.18816000000000005,-0.6131899999999999,0.22192499999999996
157,0.014390000000000014,0.72032,-0.07884999999999998,-0.15685,0.45649,-0.08089000000000002,-0.22152,0.24003000000000002,-0.06568999999999997,0.08274000000000004,0.45877,0.052700000000000025,0.14195999999999998,0.24187000000000003,0.13099,-0.21989999999999998,0.045973,-0.11530000000000001,0.16585000000000005,0.045437000000000005,0.04830000000000001,-0.061960000000000015,-0.0025229999999999975,-0.02174999999999999,0.061960000000000015,0.002523000000000001,0.02174999999999999,-0.008929999999999993,-0.33018,-0.12868000000000002,-0.03155000000000002,-0.34661,0.08439000000000002,0.0033199999999999896,-0.65439,-0.07789999999999997,-0.15455999999999998,-0.60839,0.19571
158,0.016445000000000043,0.7195685,-0.07918000000000003,-0.15803499999999993,0.4588685,-0.07873000000000002,-0.22255499999999995,0.2437685,-0.07419000000000003,0.08997500000000003,0.45938850000000003,0.05618999999999996,0.14653500000000008,0.2465185,0.12944,-0.21299499999999993,0.0584765,-0.14653000000000005,0.17461500000000008,0.0588505,0.03364,-0.06087499999999996,-0.0019004999999999994,-0.022249999999999992,0.06087500000000001,0.0019004999999999994,0.022249999999999992,-0.020254999999999967,-0.3305015,-0.11313000000000006,-0.004854999999999943,-0.3407615,0.059840000000000004,-0.017464999999999953,-0.6531315,-0.054420000000000024,-0.11255499999999996,-0.6076315,0.16290999999999997
159,0.020830000000000015,0.718358,-0.08000499999999999,-0.15742999999999996,0.461288,-0.07670500000000002,-0.22543999999999997,0.248608,-0.08040500000000006,0.09786000000000006,0.458988,0.059085,0.15044999999999997,0.250758,0.127235,-0.20671999999999996,0.068494,-0.17218500000000003,0.18734000000000006,0.07911299999999999,0.016554999999999986,-0.06009999999999999,-0.0014900000000000017,-0.022614999999999996,0.06010000000000004,0.0014899999999999983,0.022614999999999996,-0.033379999999999965,-0.330442,-0.09607500000000002,0.023789999999999978,-0.33501200000000003,0.03547499999999998,-0.03863,-0.652002,-0.030225000000000002,-0.06051999999999996,-0.605432,0.122695
160,0.02646000000000004,0.716688,-0.08089000000000002,-0.1564699999999999,0.464078,-0.07410000000000005,-0.22778999999999994,0.254458,-0.08423999999999998,0.10732000000000008,0.459188,0.06164999999999998,0.15702000000000005,0.255338,0.12569999999999998,-0.2000599999999999,0.07995,-0.19293000000000005,0.20115000000000005,0.100208,-0.0008300000000000529,-0.05989999999999995,-0.0014900000000000017,-0.022300000000000042,0.059900000000000064,0.0014899999999999983,0.022299999999999986,-0.04766999999999988,-0.331032,-0.07834000000000008,0.0519400000000001,-0.328712,0.012689999999999979,-0.059189999999999965,-0.650872,-0.006250000000000033,-0.0047399999999998554,-0.6023219999999999,0.08002999999999999
161,0.032525000000000026,0.714462,-0.08191500000000007,-0.15468500000000002,0.466092,-0.071855,-0.230655,0.259422,-0.08452500000000007,0.11691499999999999,0.459782,0.06152499999999994,0.16579500000000003,0.258992,0.12255499999999997,-0.196465,0.088096,-0.20501500000000006,0.21630499999999997,0.121538,-0.018565000000000054,-0.06009500000000001,-0.0014760000000000016,-0.021525000000000016,0.06009500000000001,0.0014759999999999981,0.02152499999999996,-0.060124999999999984,-0.332898,-0.06342500000000006,0.07624500000000001,-0.323058,-0.009495000000000031,-0.07789500000000005,-0.649718,0.014584999999999959,0.052285000000000026,-0.599588,0.03831499999999993
162,0.039594999999999936,0.7104630000000001,-0.0832949999999999,-0.15233500000000005,0.468123,-0.06820499999999996,-0.23350500000000002,0.26293300000000003,-0.08012499999999989,0.127915,0.460943,0.059105000000000074,0.180825,0.26282300000000003,0.11933500000000008,-0.19493500000000002,0.092666,-0.20627499999999988,0.23445499999999997,0.131833,-0.02330499999999991,-0.060585,-0.0009250000000000022,-0.02014499999999997,0.060585,0.0009249999999999987,0.02014500000000008,-0.07453500000000002,-0.33530699999999997,-0.0476049999999999,0.10259499999999999,-0.317857,-0.029404999999999903,-0.09864499999999998,-0.647737,0.03696500000000008,0.10412500000000002,-0.599097,-0.0002949999999999342
163,0.046965000000000034,0.7060545,-0.08548499999999992,-0.14879499999999996,0.4700845,-0.06505499999999997,-0.23369499999999993,0.2652345,-0.07462499999999994,0.1390650000000001,0.4623045,0.055735000000000035,0.19857500000000006,0.26688449999999997,0.11260500000000007,-0.19644499999999993,0.09522749999999999,-0.20260499999999992,0.2527450000000001,0.1442545,-0.029634999999999967,-0.061574999999999935,9.499999999999093e-06,-0.017584999999999962,0.061575000000000046,-9.500000000002562e-06,0.017585000000000073,-0.0876849999999999,-0.3376755,-0.03300499999999995,0.13004500000000008,-0.3116855,-0.05030499999999993,-0.11944499999999991,-0.6454255,0.05879500000000004,0.1512650000000001,-0.5992255,-0.03440499999999991
164,0.0545500000000001,0.701519,-0.08846999999999994,-0.14432999999999996,0.472159,-0.06174999999999997,-0.2324799999999999,0.26736899999999997,-0.06713999999999998,0.15229000000000004,0.46396899999999996,0.049980000000000024,0.21642000000000006,0.271579,0.10404000000000002,-0.19893999999999995,0.096302,-0.19321999999999995,0.27212000000000003,0.155509,-0.03179999999999994,-0.06207999999999991,0.001056999999999999,-0.015819999999999945,0.062080000000000024,-0.001056999999999999,0.015820000000000056,-0.10236999999999996,-0.336641,-0.020159999999999956,0.15692000000000006,-0.305771,-0.07111999999999996,-0.14008999999999994,-0.642841,0.07974000000000003,0.19229000000000007,-0.601931,-0.06308999999999998
165,0.06232000000000004,0.6960945000000001,-0.09262000000000004,-0.13913999999999993,0.47419449999999996,-0.058640000000000025,-0.22909999999999991,0.2685545,-0.05718999999999996,0.16451000000000005,0.4647445,0.04110999999999998,0.23571000000000009,0.2774445,0.09292,-0.2024499999999999,0.09748749999999999,-0.17530999999999997,0.30488000000000004,0.1670845,-0.02980000000000005,-0.06377999999999995,0.0022065,-0.012229999999999963,0.06378000000000006,-0.0022065,0.012229999999999963,-0.11498999999999993,-0.3354555,-0.010539999999999994,0.16427000000000014,-0.3045355,-0.07182999999999995,-0.16164999999999996,-0.6397455,0.09941,0.2296100000000001,-0.6066155,-0.08669000000000004
166,0.06908999999999998,0.691481,-0.09589999999999999,-0.1351,0.476431,-0.05526999999999993,-0.22399999999999998,0.269941,-0.04408000000000001,0.17447000000000001,0.466481,0.03208,0.25356,0.283611,0.08056000000000008,-0.20847999999999994,0.09887399999999999,-0.15400999999999998,0.33671000000000006,0.17680099999999999,-0.024370000000000003,-0.06538,0.0032740000000000026,-0.008419999999999983,0.06538,-0.003273999999999999,0.008419999999999983,-0.12652999999999992,-0.334069,-0.0022799999999999487,0.16610000000000003,-0.303039,-0.07001000000000002,-0.18218,-0.635619,0.11627000000000004,0.24872000000000005,-0.611539,-0.09636
167,0.07614500000000002,0.6868035,-0.10201000000000005,-0.12782500000000008,0.4792535,-0.05414000000000008,-0.21913500000000008,0.2705335,-0.03066000000000002,0.17791499999999993,0.4675235,0.016449999999999965,0.27278499999999994,0.28922349999999997,0.06895999999999991,-0.212125,0.0986175,-0.13358000000000003,0.3647349999999999,0.1857135,-0.01375000000000004,-0.067245,0.004156499999999997,-0.0041200000000000125,0.067245,-0.0041565000000000005,0.0041199999999999015,-0.136745,-0.3314965,0.0033599999999999186,0.166335,-0.30181650000000004,-0.06741000000000008,-0.20091500000000007,-0.6310865,0.13157999999999997,0.260405,-0.6157865,-0.10096000000000005
168,0.08234499999999989,0.6818690000000001,-0.10812,-0.12176500000000012,0.480599,-0.05374000000000001,-0.21191500000000008,0.269249,-0.01966000000000001,0.1797749999999999,0.467599,0.0008700000000000374,0.28258499999999986,0.292939,0.053100000000000036,-0.21580500000000014,0.092784,-0.11652000000000007,0.3507849999999999,0.198079,-0.01265000000000005,-0.06854500000000008,0.004232000000000003,-0.0009099999999999664,0.06854499999999997,-0.004232,0.0009099999999999664,-0.1463350000000001,-0.329281,0.00653999999999999,0.16351499999999997,-0.30118100000000003,-0.06456000000000006,-0.2157150000000001,-0.627131,0.14273999999999998,0.25968499999999994,-0.6220009999999999,-0.09767999999999999
169,0.08988499999999999,0.6774515,-0.115425,-0.11509500000000006,0.4810715,-0.054544999999999955,-0.204635,0.2693115,-0.008465000000000056,0.175485,0.4658715,-0.017994999999999983,0.2882149999999999,0.2967515,0.03440500000000002,-0.2201550000000001,0.0882035,-0.09504500000000005,0.3326149999999999,0.2105515,-0.015595000000000026,-0.0697850000000001,0.004276499999999999,0.002715000000000023,0.06978499999999999,-0.004276499999999999,-0.002715000000000023,-0.15198500000000004,-0.3274485,0.008464999999999945,0.1586749999999999,-0.3005485,-0.06223500000000004,-0.22675500000000004,-0.6234985,0.151105,0.25321499999999997,-0.6257385,-0.09159499999999998
170,0.09619999999999995,0.673847,-0.12248500000000007,-0.11027000000000009,0.481987,-0.055155000000000065,-0.19671000000000005,0.267287,0.00187499999999996,0.16974999999999996,0.464227,-0.035395000000000065,0.28857999999999984,0.301177,0.018235,-0.2229000000000001,0.080078,-0.07621500000000003,0.31177999999999995,0.221327,-0.021235000000000004,-0.07078000000000007,0.0042169999999999985,0.006264999999999965,0.07077999999999995,-0.0042169999999999985,-0.006265000000000076,-0.15629000000000004,-0.325313,0.00906499999999999,0.15281999999999996,-0.299923,-0.06017500000000009,-0.23481000000000007,-0.6200330000000001,0.15738499999999994,0.24377999999999989,-0.629483,-0.08452500000000007
