sb224sc-HT22-VT27/4dt907/src/data/kinect_good_vs_bad_not_preprocessed_A13_mediapipe/G25.csv
FrameNo,nose_3d_x,nose_3d_y,nose_3d_z,left_shoulder_3d_x,left_shoulder_3d_y,left_shoulder_3d_z,left_elbow_3d_x,left_elbow_3d_y,left_elbow_3d_z,right_shoulder_3d_x,right_shoulder_3d_y,right_shoulder_3d_z,right_elbow_3d_x,right_elbow_3d_y,right_elbow_3d_z,left_wrist_3d_x,left_wrist_3d_y,left_wrist_3d_z,right_wrist_3d_x,right_wrist_3d_y,right_wrist_3d_z,left_hip_3d_x,left_hip_3d_y,left_hip_3d_z,right_hip_3d_x,right_hip_3d_y,right_hip_3d_z,left_knee_3d_x,left_knee_3d_y,left_knee_3d_z,right_knee_3d_x,right_knee_3d_y,right_knee_3d_z,left_ankle_3d_x,left_ankle_3d_y,left_ankle_3d_z,right_ankle_3d_x,right_ankle_3d_y,right_ankle_3d_z
0,0.018414500000000004,0.717583,0.004457999999999997,-0.1457785,0.497463,-0.006390000000000007,-0.2627385,0.693023,-0.082598,0.1682815,0.494423,0.0006069999999999964,0.2817115,0.686303,-0.081108,-0.3187085,0.883623,-0.189078,0.3102515,0.898623,-0.190798,-0.0673825,-0.000268,0.0009459999999999955,0.0673825,0.000268,-0.0009460000000000024,-0.12322849999999999,-0.353787,0.015083999999999993,0.1147315,-0.342837,0.027959999999999995,-0.1230185,-0.658967,0.037867,0.1236815,-0.708807,0.039996
1,0.017837000000000002,0.713749,0.0006190000000000015,-0.146028,0.499419,-0.0036549999999999985,-0.255488,0.694999,-0.07442499999999999,0.165802,0.495959,0.0023270000000000027,0.268432,0.696439,-0.064855,-0.30269799999999997,0.9018390000000001,-0.152335,0.29594200000000004,0.913009,-0.159275,-0.067285,-0.000308,0.0005040000000000044,0.067285,0.000308,-0.0005039999999999975,-0.12361799999999999,-0.351861,0.014379000000000003,0.113472,-0.348261,0.029790000000000004,-0.123668,-0.664071,0.036651,0.12408200000000001,-0.711381,0.042009000000000005
2,0.017691499999999995,0.713596,-0.0007655000000000023,-0.1452255,0.499736,-0.003445500000000004,-0.2529155,0.7133959999999999,-0.0690695,0.16408450000000002,0.495656,0.0026995000000000005,0.2624145,0.702426,-0.05970350000000001,-0.2976955,0.905836,-0.1423195,0.2913845,0.9089459999999999,-0.1396595,-0.0673835,-0.00023899999999999998,0.0005894999999999997,0.0673835,0.000239,-0.0005894999999999997,-0.1237855,-0.350404,0.014165499999999998,0.11323449999999999,-0.348804,0.030678499999999997,-0.1241155,-0.6641440000000001,0.0361545,0.12351449999999999,-0.7136140000000001,0.0411985
3,0.0175255,0.7122635,-0.0035320000000000004,-0.1443935,0.5028235,-0.0013220000000000037,-0.25092349999999997,0.7190735,-0.06532,0.1620265,0.4940435,0.0023279999999999967,0.2552065,0.7420335,-0.053614999999999996,-0.29216349999999996,0.9140335,-0.12744,0.2885665,0.9247735,-0.12787,-0.06754850000000001,-8.149999999999998e-05,0.0009179999999999952,0.06754850000000001,8.149999999999998e-05,-0.0009180000000000021,-0.12375349999999999,-0.3511265,0.013686999999999998,0.11331649999999999,-0.3506765,0.030330999999999997,-0.1247335,-0.6634765,0.035518999999999995,0.12311649999999999,-0.7165265,0.040788
4,0.016945,0.710287,-0.005317500000000003,-0.14396799999999998,0.504957,-0.0012565000000000007,-0.249288,0.721237,-0.0618045,0.159182,0.492957,0.0016865000000000005,0.254282,0.740367,-0.05326550000000001,-0.288028,0.9179470000000001,-0.1189715,0.285472,0.926637,-0.1170915,-0.067606,-0.00017100000000000014,0.0009424999999999989,0.067606,0.00017100000000000014,-0.0009424999999999989,-0.123468,-0.351873,0.013530499999999997,0.112752,-0.352813,0.030241499999999998,-0.125678,-0.662713,0.0346585,0.12637199999999998,-0.697333,0.0451165
5,0.015329000000000006,0.7063254999999999,-0.008532000000000005,-0.14420999999999998,0.5032755,0.0014949999999999963,-0.24459,0.7215254999999999,-0.049236,0.15684,0.4926455,0.0023909999999999973,0.24839,0.7359755,-0.040576,-0.28354999999999997,0.9264954999999999,-0.09836800000000001,0.27622,0.9263355,-0.088868,-0.06783600000000001,-0.00042749999999999906,0.0007169999999999954,0.06783600000000001,0.0004275000000000008,-0.0007170000000000024,-0.12345,-0.3569245,0.012085999999999996,0.11127000000000001,-0.3584245,0.030964,-0.12535,-0.6751245,0.034343,0.12399000000000002,-0.7048145,0.043063
6,0.014037999999999995,0.704105,-0.008842999999999997,-0.145395,0.507605,0.0066840000000000024,-0.245775,0.723935,-0.045974999999999995,0.154565,0.492725,0.004015000000000005,0.244505,0.7323249999999999,-0.035366,-0.282345,0.9258749999999999,-0.09382299999999999,0.273595,0.923615,-0.077403,-0.06767100000000001,-0.0004889999999999999,0.0005199999999999996,0.06767100000000001,0.0004889999999999999,-0.0005199999999999996,-0.123725,-0.359085,0.010801000000000002,0.10999499999999998,-0.360715,0.030993000000000003,-0.126285,-0.6766850000000001,0.034179,0.127645,-0.6705150000000001,0.044088
7,0.012789999999999996,0.7053605000000001,-0.005152999999999998,-0.147086,0.5039005,0.006710000000000001,-0.24780600000000003,0.7230605,-0.045892,0.157144,0.49185049999999997,0.004690000000000003,0.24925399999999998,0.7285805,-0.035337999999999994,-0.285086,0.9248805,-0.094284,0.280294,0.9238305,-0.08304399999999999,-0.067705,-0.0005754999999999996,0.0011630000000000043,0.067705,0.0005755000000000014,-0.0011629999999999974,-0.12399600000000001,-0.35848949999999996,0.011582000000000002,0.109554,-0.3580595,0.029836,-0.127936,-0.6768095,0.035660000000000004,0.12297399999999999,-0.6951895,0.045209
8,0.0112575,0.704588,-0.005313000000000005,-0.1478115,0.5043580000000001,0.008303999999999995,-0.2479415,0.723958,-0.04237400000000001,0.1554485,0.490828,0.004766999999999997,0.24742849999999997,0.729498,-0.032781000000000005,-0.28467149999999997,0.9266380000000001,-0.088477,0.2782585,0.9237580000000001,-0.076597,-0.06776850000000001,-0.0006779999999999998,0.0013259999999999939,0.06776850000000001,0.0006779999999999998,-0.0013260000000000008,-0.1241815,-0.359962,0.011019999999999995,0.1087485,-0.358802,0.029959999999999997,-0.1292215,-0.679362,0.035641,0.12136849999999999,-0.696132,0.045291
9,0.009535999999999996,0.7040660000000001,-0.0051069999999999935,-0.14852500000000002,0.504826,0.010449000000000003,-0.248535,0.7247760000000001,-0.038683999999999996,0.153415,0.48977600000000004,0.005206000000000002,0.244985,0.728406,-0.030157000000000003,-0.284875,0.928126,-0.08290299999999999,0.275775,0.9236960000000001,-0.071583,-0.06786400000000001,-0.0007650000000000001,0.0017810000000000048,0.06786400000000001,0.0007650000000000018,-0.0017809999999999979,-0.124395,-0.361054,0.009864000000000005,0.107865,-0.359194,0.030049000000000003,-0.131135,-0.6826939999999999,0.035747,0.119105,-0.697174,0.045705
10,0.0082365,0.7040274999999999,-0.004737000000000005,-0.1491055,0.5056275,0.012354999999999994,-0.24952549999999998,0.7257374999999999,-0.036431000000000005,0.15167450000000002,0.4893975,0.0057289999999999945,0.24335450000000003,0.7280074999999999,-0.029606000000000007,-0.2855755,0.9285775,-0.079607,0.2741945,0.9236274999999999,-0.070047,-0.06791749999999999,-0.0008205,0.002259999999999998,0.06791749999999999,0.0008205000000000018,-0.002260000000000005,-0.12411549999999999,-0.36145249999999995,0.007248999999999995,0.10718450000000002,-0.3589325,0.030021999999999997,-0.1330555,-0.6855925,0.035696,0.11684450000000002,-0.6975725,0.04621599999999999
11,0.007286500000000001,0.7042615,-0.004198499999999994,-0.1495415,0.5058914999999999,0.013691500000000002,-0.2502715,0.7265315,-0.034326499999999996,0.1505385,0.4901615,0.0063555000000000035,0.24277849999999998,0.7264415,-0.028879500000000002,-0.2863515,0.9291214999999999,-0.0766655,0.2730785,0.9237215,-0.06934549999999999,-0.0679665,-0.000866500000000001,0.002736500000000003,0.0679665,0.0008664999999999992,-0.002736499999999996,-0.1236615,-0.3615585,0.003882500000000004,0.1067285,-0.3586285,0.030025500000000004,-0.1348915,-0.6885985,0.035412500000000006,0.1147185,-0.6976185,0.0468605
12,0.006575000000000001,0.7044404999999999,-0.0034745000000000054,-0.150509,0.5058805,0.014954499999999996,-0.250919,0.7273605,-0.0320575,0.14938099999999999,0.4910205,0.007288499999999996,0.242211,0.7248104999999999,-0.027993500000000004,-0.28713900000000003,0.9295604999999999,-0.0737505,0.272451,0.9237504999999999,-0.06846050000000001,-0.067999,-0.0008865000000000019,0.003217499999999998,0.067999,0.0008864999999999984,-0.003217500000000005,-0.123489,-0.3620295,0.000842499999999996,0.106271,-0.3583995,0.030050499999999997,-0.136749,-0.6916595000000001,0.0350295,0.11235099999999999,-0.6993495000000001,0.0470005
13,0.005995500000000001,0.70459,-0.0023794999999999927,-0.1515465,0.50587,0.016244500000000005,-0.2514265,0.7280800000000001,-0.029761499999999996,0.14842349999999999,0.49166000000000004,0.008265500000000005,0.2421135,0.72329,-0.02682849999999999,-0.28769649999999997,0.9297700000000001,-0.0709625,0.2726035,0.92376,-0.0672825,-0.0680245,-0.0008969999999999985,0.0037385000000000057,0.0680245,0.000897000000000002,-0.0037384999999999988,-0.1235865,-0.36254000000000003,-0.0013684999999999947,0.10583350000000001,-0.35793,0.029941500000000003,-0.1383965,-0.6945399999999999,0.0347205,0.1099335,-0.70082,0.047449500000000006
14,0.0058455000000000035,0.704724,-0.001238000000000003,-0.1522135,0.505514,0.017469000000000002,-0.2516135,0.728574,-0.027756999999999997,0.1476365,0.492134,0.009145,0.2426965,0.7222740000000001,-0.026230999999999997,-0.28791350000000004,0.929884,-0.06876399999999999,0.27303649999999996,0.923694,-0.06664400000000001,-0.06802849999999999,-0.0009320000000000023,0.0043219999999999995,0.06802849999999999,0.0009319999999999988,-0.0043219999999999995,-0.1237635,-0.363026,-0.0026199999999999973,0.1055565,-0.35771600000000003,0.029939,-0.1395635,-0.697066,0.034856,0.10754650000000002,-0.706326,0.047843
15,0.005914000000000003,0.7047500000000001,-0.00016299999999999648,-0.15256499999999998,0.5046600000000001,0.018580000000000003,-0.251485,0.72899,-0.025987999999999997,0.14719500000000002,0.4926,0.009969000000000002,0.24286500000000003,0.71984,-0.025442999999999993,-0.287835,0.9300900000000001,-0.066983,0.273765,0.92366,-0.066533,-0.06798399999999999,-0.001037999999999999,0.004831000000000002,0.06798399999999999,0.0010380000000000007,-0.004830999999999995,-0.12398500000000001,-0.36343,-0.0032109999999999986,0.10550500000000002,-0.35747,0.030070000000000003,-0.140415,-0.6985499999999999,0.035339,0.10566500000000001,-0.7120099999999999,0.047986
16,0.006464499999999998,0.7048220000000001,0.0007549999999999918,-0.15239850000000002,0.503882,0.019446999999999996,-0.2511885,0.729392,-0.02479300000000001,0.1474415,0.493082,0.010684999999999997,0.24337149999999996,0.718082,-0.025064000000000003,-0.2873685,0.930332,-0.06588200000000001,0.27479149999999997,0.923632,-0.066652,-0.0679265,-0.0011289999999999998,0.005204999999999994,0.0679265,0.0011290000000000015,-0.005205000000000001,-0.12389449999999999,-0.36358799999999997,-0.003579000000000006,0.10570149999999999,-0.35714799999999997,0.030003999999999996,-0.1405485,-0.699618,0.03583499999999999,0.10483150000000001,-0.715248,0.04785299999999999
17,0.006982500000000003,0.7048985000000001,0.0016134999999999969,-0.1524455,0.5032485000000001,0.0203605,-0.2508455,0.7296585000000001,-0.023678499999999998,0.1476345,0.4930885,0.011435499999999998,0.2437145,0.7175085,-0.024863500000000004,-0.2869255,0.9302485,-0.0647585,0.27571450000000003,0.9235285000000001,-0.0669885,-0.0679485,-0.0011354999999999994,0.0056244999999999976,0.0679485,0.001135500000000001,-0.0056244999999999976,-0.1238935,-0.3636315,-0.0035745000000000013,0.1057645,-0.3569015,0.0298025,-0.1405855,-0.7003014999999999,0.0364425,0.10405450000000001,-0.7188114999999999,0.0480345
18,0.006962000000000003,0.7049585,0.001992500000000001,-0.15248099999999998,0.5029885000000001,0.0211465,-0.250891,0.7297885000000001,-0.0228125,0.147589,0.4930885,0.012301499999999996,0.243719,0.7173885000000001,-0.025056499999999995,-0.28697100000000003,0.9299785,-0.0638925,0.275989,0.9234085000000001,-0.0675125,-0.06795899999999999,-0.0011354999999999994,0.005820499999999999,0.06795899999999999,0.001135500000000001,-0.005820499999999999,-0.123939,-0.3636315,-0.0027085000000000026,0.10578900000000002,-0.3566415,0.029270499999999998,-0.140341,-0.7018814999999999,0.037066499999999995,0.10364900000000002,-0.7213915,0.0482555
19,0.006946500000000008,0.7050185,0.0022815000000000057,-0.15252949999999998,0.5031385,0.022046500000000007,-0.2509395,0.7297885000000001,-0.02190249999999999,0.1475405,0.4930885,0.013211500000000004,0.24370050000000001,0.7173885000000001,-0.0247545,-0.28700950000000003,0.9297385,-0.0630125,0.2759905,0.9231585,-0.0676025,-0.0679655,-0.0011354999999999994,0.005942500000000003,0.0679655,0.001135500000000001,-0.005942499999999996,-0.1239875,-0.3636315,-0.0017984999999999945,0.10582050000000001,-0.3565415,0.028678500000000006,-0.14014949999999998,-0.7031314999999999,0.03798950000000001,0.1032605,-0.7213915,0.048481500000000004
20,0.007113500000000002,0.7050385,0.002557500000000004,-0.1525065,0.5028185000000001,0.022605500000000004,-0.2508065,0.7297685,-0.0210655,0.14767349999999999,0.49320850000000005,0.0141375,0.24385349999999997,0.7188285,-0.024212499999999998,-0.28685649999999996,0.9295385,-0.0625565,0.27617349999999996,0.9228285,-0.0674565,-0.0679275,-0.0011554999999999985,0.0059545000000000015,0.0679275,0.0011555000000000003,-0.0059544999999999945,-0.1240255,-0.36365149999999996,-0.0008815000000000003,0.1060335,-0.3560315,0.028037500000000003,-0.1400165,-0.7031514999999999,0.038915500000000006,0.10305349999999999,-0.7214214999999999,0.048509500000000004
21,0.008199499999999998,0.704869,0.0027114999999999986,-0.1524115,0.502269,0.022717499999999998,-0.2499315,0.729599,-0.020793500000000006,0.1484785,0.49417900000000003,0.015248499999999998,0.2444085,0.718899,-0.023623500000000006,-0.2859215,0.9292389999999999,-0.0628875,0.2773285,0.922059,-0.0669575,-0.06782350000000001,-0.0011599999999999978,0.0058454999999999965,0.06782350000000001,0.0011600000000000013,-0.0058455000000000035,-0.1238415,-0.36368100000000003,1.8499999999997685e-05,0.10670850000000001,-0.356061,0.027768499999999998,-0.1388715,-0.702841,0.0397845,0.1040585,-0.7210110000000001,0.0492535
22,0.009096499999999997,0.7046585,0.0026735000000000023,-0.15225450000000001,0.5013985,0.022574500000000004,-0.24906450000000002,0.7292585,-0.020809499999999995,0.1494855,0.4954885,0.016532500000000002,0.24487549999999997,0.7172585,-0.022844500000000004,-0.2848645,0.9288585,-0.06355949999999999,0.2787555,0.9212685,-0.0662495,-0.0677075,-0.0011435000000000022,0.0057035,0.0677075,0.0011434999999999987,-0.0057035,-0.1239845,-0.3635915,0.0024965000000000057,0.10749550000000001,-0.3563215,0.027641500000000003,-0.1373145,-0.7035515,0.0406745,0.10591550000000001,-0.7206715,0.050105500000000004
23,0.009841000000000003,0.7044895,0.0024965000000000057,-0.152072,0.5008794999999999,0.022324500000000004,-0.24827200000000002,0.7288695,-0.021225499999999994,0.150328,0.49646950000000006,0.017644500000000004,0.245238,0.7162795,-0.0222575,-0.283842,0.9283695,-0.06471249999999999,0.280208,0.9207095,-0.0657125,-0.067593,-0.0011195000000000024,0.005442500000000003,0.067593,0.001119499999999999,-0.005442499999999996,-0.12417199999999999,-0.36335049999999997,0.005661500000000007,0.10812800000000002,-0.3565005,0.027568500000000003,-0.135692,-0.7027305,0.0418185,0.10803800000000001,-0.7188605,0.050785500000000004
24,0.010355999999999997,0.7043050000000001,0.002269,-0.151299,0.500355,0.022109,-0.247549,0.728265,-0.021997000000000003,0.15158100000000002,0.497265,0.018591,0.245821,0.717265,-0.021738999999999994,-0.282569,0.9275650000000001,-0.066355,0.281561,0.9199750000000001,-0.065215,-0.067495,-0.0011019999999999988,0.005155,0.067495,0.0011020000000000023,-0.005155,-0.12421900000000001,-0.363085,0.008781999999999998,0.10857099999999999,-0.356835,0.027831,-0.133869,-0.701615,0.04322,0.11054099999999999,-0.715885,0.051453
25,0.010754499999999997,0.704086,0.0019600000000000034,-0.1504415,0.49990599999999996,0.021903000000000002,-0.2469115,0.727606,-0.022829000000000002,0.1528185,0.497966,0.019376000000000004,0.2463485,0.7179059999999999,-0.020814,-0.2814315,0.926766,-0.06815299999999999,0.2828685,0.919136,-0.064763,-0.06740750000000001,-0.001079,0.004863000000000006,0.06740750000000001,0.001079,-0.004862999999999999,-0.1240915,-0.362814,0.011314000000000005,0.10900850000000001,-0.357264,0.028241000000000002,-0.1321215,-0.700354,0.044792000000000005,0.11298849999999999,-0.712114,0.052153000000000005
26,0.011139500000000004,0.7039325000000001,0.0015990000000000032,-0.1495405,0.49950250000000007,0.021652,-0.2462505,0.7268025,-0.023819999999999994,0.1540695,0.49853250000000005,0.020055,0.24697950000000002,0.7185525,-0.019918999999999992,-0.2802505,0.9259525000000001,-0.06995,0.2842095,0.9184025,-0.06423,-0.06732250000000001,-0.0010155000000000025,0.004603000000000003,0.06732250000000001,0.001015499999999999,-0.004602999999999996,-0.12364049999999999,-0.3624475,0.013017,0.10956950000000001,-0.3574075,0.028534,-0.13052049999999998,-0.6986074999999999,0.045898,0.1152695,-0.7081375,0.053004
27,0.011375999999999997,0.7038685,0.0012635000000000007,-0.148851,0.49904850000000006,0.0212775,-0.245701,0.7260185,-0.024940500000000004,0.155109,0.49912850000000003,0.0206595,0.24817900000000004,0.7193584999999999,-0.0194135,-0.279111,0.9251685,-0.0719515,0.285339,0.9177285,-0.0636915,-0.067247,-0.0009604999999999995,0.004420500000000001,0.067247,0.0009604999999999995,-0.004420500000000001,-0.12301100000000001,-0.3621315,0.0139735,0.110059,-0.3576515,0.0287465,-0.129271,-0.6967715000000001,0.0465965,0.11728899999999999,-0.7042115,0.054109500000000005
28,0.011463000000000001,0.7038455,0.0008975000000000025,-0.14832499999999998,0.49863550000000006,0.0208505,-0.245145,0.7259355,-0.026006500000000002,0.155875,0.4997455,0.0211635,0.249175,0.7199855,-0.018993499999999996,-0.277945,0.9245454999999999,-0.0737995,0.286425,0.9172555,-0.0633395,-0.067144,-0.0009374999999999974,0.0043085,0.067144,0.0009375000000000008,-0.0043085,-0.122445,-0.3619345,0.0145635,0.110405,-0.3581445,0.0290425,-0.12831499999999998,-0.6948145,0.0472205,0.119515,-0.7007345,0.0551315
29,0.011515999999999995,0.7038255,0.0005285000000000081,-0.147909,0.49827550000000004,0.020331500000000006,-0.24468900000000002,0.7259355,-0.027190499999999992,0.156471,0.5003555,0.021518500000000006,0.25000100000000003,0.7202455,-0.018754499999999993,-0.276769,0.9240054999999999,-0.0755025,0.287401,0.9168854999999999,-0.06314249999999999,-0.067036,-0.0009374999999999974,0.004193500000000003,0.067036,0.0009375000000000008,-0.004193499999999996,-0.122009,-0.3616945,0.014897500000000008,0.11060099999999999,-0.35868449999999996,0.029597500000000006,-0.127549,-0.6930145000000001,0.047678500000000006,0.121331,-0.6974645,0.05607650000000001
30,0.011363000000000002,0.7038275,0.00012150000000000355,-0.147617,0.49795750000000005,0.019741500000000002,-0.24427700000000002,0.7259375,-0.0282665,0.15681299999999998,0.5003575,0.021434500000000002,0.250533,0.7212475,-0.018614499999999992,-0.275887,0.9236875,-0.07702149999999999,0.288143,0.9165775,-0.0629615,-0.066953,-0.0009355000000000023,0.004059500000000001,0.066953,0.0009354999999999988,-0.004059500000000001,-0.121767,-0.36151249999999996,0.014890500000000001,0.11049300000000001,-0.35918249999999996,0.0303415,-0.127127,-0.6917125,0.0479935,0.12206299999999999,-0.6974625,0.0559425
31,0.011125500000000003,0.7037705,-0.00019450000000000023,-0.14744949999999998,0.49761050000000007,0.019029499999999998,-0.24391949999999998,0.7257605,-0.0294945,0.1569605,0.5003805,0.0213625,0.25088049999999995,0.7219105,-0.018483500000000007,-0.27525950000000005,0.9233005,-0.0784225,0.2886505,0.9162805,-0.0626225,-0.0668985,-0.0009125000000000001,0.0038494999999999988,0.0668985,0.0009125000000000001,-0.0038494999999999988,-0.12168949999999999,-0.3613695,0.0148195,0.1102205,-0.3596495,0.0312345,-0.1268995,-0.6904695,0.0482915,0.12209050000000002,-0.7000395,0.0558535
32,0.010800500000000001,0.703711,-0.0005145000000000011,-0.1472785,0.49741100000000005,0.0183605,-0.2434485,0.725231,-0.030831500000000005,0.1570115,0.500471,0.021329499999999998,0.25116150000000004,0.722441,-0.018279499999999997,-0.27477850000000004,0.922971,-0.07965650000000002,0.28902150000000004,0.916071,-0.0622265,-0.0668595,-0.0008780000000000003,0.003643500000000001,0.0668595,0.0008780000000000003,-0.003643500000000001,-0.1217385,-0.361079,0.014781499999999996,0.1099915,-0.360129,0.0322415,-0.1267585,-0.688689,0.048640499999999996,0.1222615,-0.699949,0.0563315
33,0.010451000000000002,0.703746,-0.000785999999999995,-0.147081,0.49731600000000004,0.017642000000000005,-0.243121,0.724796,-0.032271999999999995,0.156689,0.500626,0.021302,0.251339,0.723076,-0.017897999999999997,-0.274181,0.922826,-0.08061099999999999,0.28922899999999996,0.916196,-0.061581,-0.066867,-0.0008669999999999997,0.0034430000000000016,0.066867,0.0008669999999999997,-0.0034429999999999947,-0.12180099999999999,-0.36071400000000003,0.014906000000000003,0.10997900000000001,-0.360124,0.03301900000000001,-0.126771,-0.686624,0.049082,0.12231900000000001,-0.700394,0.056471
34,0.0101395,0.7038179999999999,-0.0010589999999999974,-0.1468455,0.49733799999999995,0.016946000000000003,-0.2428355,0.724468,-0.03373,0.1562345,0.500478,0.021139,0.2515345,0.723708,-0.017616,-0.2733955,0.9227879999999999,-0.08152300000000001,0.2894245,0.916438,-0.06090299999999999,-0.0668855,-0.0008809999999999998,0.003238999999999999,0.0668855,0.0008809999999999998,-0.003238999999999999,-0.1217755,-0.36028200000000005,0.015102000000000004,0.1100045,-0.359872,0.033698000000000006,-0.1268955,-0.684372,0.049321000000000004,0.12239449999999999,-0.700762,0.05663
35,0.0097595,0.7038325000000001,-0.0013109999999999997,-0.1467285,0.4973625,0.016225000000000003,-0.24275850000000002,0.7242925,-0.03501699999999999,0.15577149999999998,0.5005925,0.021044000000000004,0.2515215,0.7236425000000001,-0.017417000000000002,-0.2725085,0.9227125,-0.08246,0.2895715,0.9165825000000001,-0.06049,-0.06694649999999999,-0.0009084999999999996,0.003037000000000005,0.06694649999999999,0.0009084999999999996,-0.003036999999999998,-0.12175849999999999,-0.3599175,0.015382,0.11004149999999999,-0.3596475,0.03417100000000001,-0.1270985,-0.6823374999999999,0.049596,0.12247149999999998,-0.7011474999999999,0.056833
36,0.009493999999999999,0.70389,-0.0015475000000000003,-0.146623,0.49755000000000005,0.015613500000000002,-0.24263300000000002,0.72444,-0.0361675,0.15525699999999998,0.5002,0.020785500000000002,0.251587,0.72401,-0.017204500000000005,-0.27171300000000004,0.92253,-0.0830775,0.289817,0.91678,-0.0602175,-0.066997,-0.0009259999999999997,0.0028245000000000006,0.066997,0.0009259999999999997,-0.0028245000000000006,-0.121713,-0.35942999999999997,0.015608499999999997,0.110067,-0.35945,0.034381499999999995,-0.126983,-0.68127,0.0498615,0.123037,-0.69846,0.0576725
37,0.009243499999999995,0.7039235,-0.001913999999999999,-0.1465135,0.4977135,0.014959,-0.2424235,0.7244535000000001,-0.037314,0.1547665,0.4997035,0.020493000000000004,0.2517365,0.7247435,-0.017103999999999994,-0.2709435,0.9223835,-0.08376600000000001,0.2900465,0.9170235,-0.059976,-0.0670505,-0.0009435000000000016,0.002594000000000006,0.0670505,0.0009434999999999999,-0.002593999999999999,-0.12165350000000001,-0.3587965,0.015879000000000004,0.1100665,-0.3592465,0.03461,-0.1269335,-0.6802064999999999,0.050188,0.12265649999999999,-0.7020965,0.057519
38,0.008983000000000005,0.7038995,-0.0023355000000000042,-0.146407,0.4978695,0.014359499999999997,-0.24221700000000002,0.7245794999999999,-0.0385505,0.154353,0.49919949999999996,0.020172499999999996,0.251863,0.7253295,-0.0170975,-0.27020700000000003,0.9222395,-0.0846165,0.290263,0.9173195,-0.0596965,-0.067095,-0.0009615000000000005,0.0023754999999999957,0.067095,0.0009615000000000005,-0.0023755000000000026,-0.121567,-0.3581005,0.0161715,0.11008300000000001,-0.3589305,0.03487649999999999,-0.126887,-0.6796505,0.05067749999999999,0.12183300000000001,-0.7064305000000001,0.05717849999999999
39,0.008742499999999999,0.7039025,-0.0026894999999999974,-0.1462685,0.4980525,0.013853499999999998,-0.24202849999999998,0.7248225,-0.0397245,0.1540015,0.4987825,0.0197335,0.25220149999999997,0.7260425,-0.017539500000000006,-0.26950850000000004,0.9222225,-0.0854095,0.2905415,0.9178325,-0.0593695,-0.0671335,-0.0009805000000000005,0.0021614999999999968,0.0671335,0.0009804999999999987,-0.0021614999999999968,-0.12145850000000001,-0.3573875,0.016487500000000002,0.1101115,-0.3583075,0.0350505,-0.1268685,-0.6792675,0.0512215,0.1208415,-0.7105475,0.0563085
40,0.008533999999999998,0.7039460000000001,-0.002938000000000003,-0.14615099999999998,0.49824599999999997,0.013510000000000001,-0.241801,0.724966,-0.040546,0.153679,0.49829600000000007,0.019282,0.252529,0.726646,-0.017981999999999998,-0.26893100000000003,0.922046,-0.08616299999999999,0.290819,0.918336,-0.059153,-0.067161,-0.0009999999999999992,0.0019800000000000026,0.067161,0.0010000000000000009,-0.0019800000000000026,-0.121391,-0.356674,0.016812,0.110139,-0.35759399999999997,0.035114,-0.126861,-0.679014,0.051748,0.119719,-0.714514,0.055144
41,0.008354999999999996,0.7040485000000001,-0.0030929999999999985,-0.14605200000000002,0.4984885,0.013260000000000001,-0.24158200000000002,0.7250385,-0.041064,0.153328,0.49769850000000004,0.018817,0.252848,0.7272285,-0.018439999999999998,-0.26845199999999997,0.9218685,-0.08677099999999999,0.29111800000000004,0.9188185,-0.059091000000000005,-0.06719,-0.0009964999999999991,0.0018519999999999995,0.06719,0.0009964999999999991,-0.0018519999999999995,-0.12133200000000001,-0.3561215,0.017156000000000005,0.11016799999999999,-0.35688149999999996,0.035103999999999996,-0.126742,-0.6784414999999999,0.052205,0.118728,-0.7181415,0.053969
42,0.008266999999999998,0.7041065,-0.003214499999999995,-0.145992,0.49861649999999996,0.013228500000000004,-0.241412,0.7250365,-0.0412535,0.153288,0.4975365,0.018703500000000005,0.253128,0.7277264999999999,-0.0189825,-0.268152,0.9215464999999999,-0.08724149999999999,0.291388,0.9192465,-0.05934149999999999,-0.067193,-0.000977500000000001,0.0017995000000000025,0.067193,0.0009774999999999992,-0.0017994999999999955,-0.121252,-0.3556635,0.017406500000000005,0.110178,-0.35633349999999997,0.0349715,-0.126722,-0.6777135000000001,0.0525465,0.117968,-0.7216635,0.0531145
43,0.008232999999999997,0.7041369999999999,-0.0033525000000000013,-0.145956,0.49877699999999997,0.013282500000000003,-0.241256,0.724467,-0.0414145,0.153274,0.49751700000000004,0.018722500000000003,0.253424,0.728077,-0.019578500000000006,-0.267936,0.9210969999999999,-0.08767750000000002,0.291674,0.919547,-0.0598575,-0.06720200000000001,-0.0009569999999999995,0.0017705000000000012,0.06720200000000001,0.0009569999999999995,-0.0017705000000000012,-0.121136,-0.35529299999999997,0.0176315,0.110174,-0.35595299999999996,0.0348305,-0.126756,-0.677423,0.0528095,0.11774399999999999,-0.721593,0.0530545
44,0.008213,0.70414,-0.003521499999999997,-0.145948,0.49893999999999994,0.013443500000000004,-0.241088,0.72402,-0.041570499999999996,0.153262,0.49768,0.018903500000000004,0.253772,0.72837,-0.02022349999999999,-0.267818,0.92071,-0.0879355,0.292022,0.91981,-0.06057549999999999,-0.067212,-0.0009359999999999993,0.0017805000000000043,0.067212,0.0009359999999999993,-0.0017804999999999974,-0.120918,-0.35491,0.017864500000000005,0.110252,-0.35563,0.0346795,-0.126778,-0.6772400000000001,0.053060500000000003,0.117702,-0.72151,0.053035500000000006
45,0.008170500000000002,0.7041335,-0.0036855000000000013,-0.1459915,0.49909349999999997,0.0136745,-0.2410315,0.7241735,-0.041801500000000005,0.15319850000000002,0.49783350000000004,0.019133499999999998,0.2540885,0.7287735,-0.020928500000000003,-0.2677515,0.9203535,-0.0881655,0.2923585,0.9202335,-0.061455499999999996,-0.0672295,-0.0009254999999999992,0.0017954999999999985,0.0672295,0.000925500000000001,-0.0017955000000000054,-0.1206315,-0.3545565,0.018127499999999998,0.1103885,-0.3552865,0.03453149999999999,-0.1267815,-0.6771365,0.0533065,0.1176285,-0.7211665,0.0530135
46,0.008076000000000003,0.704128,-0.003678500000000001,-0.146088,0.49921800000000005,0.013908500000000004,-0.240978,0.724318,-0.0419395,0.153222,0.49828799999999995,0.019373500000000002,0.254392,0.729208,-0.0216265,-0.267768,0.920138,-0.0882725,0.29266200000000003,0.920718,-0.0623925,-0.067233,-0.0009200000000000007,0.0018185000000000007,0.067233,0.0009199999999999989,-0.0018185000000000007,-0.12033799999999999,-0.354352,0.0183805,0.110542,-0.354992,0.0344145,-0.126708,-0.677652,0.0535665,0.11753200000000001,-0.720832,0.0529805
47,0.007878,0.7041675,-0.0035945000000000005,-0.146293,0.49925749999999997,0.014134500000000001,-0.241143,0.7247475,-0.041787500000000005,0.153287,0.49882750000000003,0.0196695,0.254577,0.7296475,-0.022004499999999996,-0.267903,0.9200674999999999,-0.0881565,0.292787,0.9212374999999999,-0.0631165,-0.067243,-0.0009195000000000002,0.0018784999999999982,0.067243,0.0009195000000000002,-0.0018784999999999982,-0.120213,-0.3542125,0.018624500000000002,0.110607,-0.3547325,0.0343445,-0.126743,-0.6784925,0.0538015,0.117367,-0.7205525,0.0529935
48,0.007704499999999998,0.704175,-0.0035644999999999982,-0.14648950000000002,0.499225,0.014316499999999996,-0.2413595,0.7249150000000001,-0.041614500000000006,0.1533705,0.499345,0.019973499999999998,0.2547105,0.7301650000000001,-0.022019500000000004,-0.2680795,0.9200750000000001,-0.0880535,0.29291049999999996,0.921795,-0.0637935,-0.0672495,-0.0009189999999999997,0.0019635,0.0672495,0.0009190000000000014,-0.0019635,-0.1200495,-0.354115,0.0188175,0.1106805,-0.354535,0.0342645,-0.1269495,-0.678855,0.0539745,0.1172005,-0.720325,0.0531695
49,0.0075000000000000015,0.704158,-0.003596000000000002,-0.146724,0.499178,0.014537000000000001,-0.241614,0.724998,-0.041504000000000006,0.153366,0.499478,0.019937999999999997,0.254806,0.730478,-0.022102000000000004,-0.268304,0.920128,-0.08794300000000002,0.292926,0.922158,-0.064383,-0.067256,-0.0009129999999999989,0.0020869999999999986,0.067256,0.0009130000000000006,-0.0020869999999999986,-0.119904,-0.35400200000000004,0.018887,0.110716,-0.354312,0.03415,-0.127184,-0.679102,0.054085999999999995,0.11702599999999999,-0.7200920000000001,0.053284
50,0.0073364999999999975,0.704092,-0.003722999999999997,-0.14697849999999998,0.499102,0.014728000000000005,-0.2417185,0.724732,-0.041283,0.15328150000000001,0.499202,0.019769000000000002,0.2548715,0.7309220000000001,-0.022227999999999998,-0.2685485,0.920142,-0.08784600000000001,0.2929215,0.922632,-0.06490599999999999,-0.0672545,-0.000928,0.0021690000000000043,0.0672545,0.000928,-0.0021689999999999973,-0.11980850000000001,-0.354038,0.018853,0.11073150000000001,-0.354138,0.034048,-0.1274185,-0.679188,0.054017,0.11681149999999998,-0.7198979999999999,0.053561000000000004
51,0.007180000000000002,0.7040195,-0.0038404999999999967,-0.147276,0.4989795,0.014954500000000003,-0.241716,0.7243094999999999,-0.0410585,0.153224,0.49940949999999995,0.019928500000000002,0.254904,0.7312895,-0.022365499999999996,-0.268766,0.9201195,-0.0877385,0.292874,0.9229595,-0.0653685,-0.067245,-0.0009555000000000015,0.0022534999999999986,0.067245,0.0009554999999999998,-0.0022534999999999986,-0.11974599999999999,-0.35409050000000003,0.0188175,0.11077400000000001,-0.3539705,0.0339525,-0.127716,-0.6792305,0.0539035,0.116494,-0.7198705,0.0536285
52,0.006993999999999997,0.70393,-0.004001499999999998,-0.14765599999999998,0.49884,0.015184500000000004,-0.241646,0.7237899999999999,-0.0407295,0.153054,0.4997,0.020200500000000003,0.254864,0.73169,-0.022515499999999994,-0.269006,0.92014,-0.08763950000000001,0.292724,0.9233699999999999,-0.06573949999999999,-0.067243,-0.0009760000000000012,0.0023425000000000043,0.067243,0.0009759999999999994,-0.0023424999999999974,-0.119726,-0.35414999999999996,0.018740500000000007,0.11075399999999999,-0.35383,0.033857500000000006,-0.128066,-0.67935,0.053782500000000004,0.116094,-0.71985,0.0537875
53,0.006788999999999998,0.7038734999999999,-0.0041575000000000015,-0.14805400000000002,0.4987035,0.0153955,-0.24158400000000002,0.7233235,-0.040469500000000005,0.15288600000000002,0.49999350000000004,0.0204535,0.25485599999999997,0.7321835,-0.0227435,-0.26923400000000003,0.9201634999999999,-0.0875345,0.292516,0.9238434999999999,-0.0660445,-0.067244,-0.0009925000000000003,0.0024434999999999943,0.067244,0.0009925000000000003,-0.0024435000000000012,-0.119744,-0.3542065,0.0186355,0.110666,-0.3537065,0.0337795,-0.128444,-0.6797165000000001,0.053697499999999995,0.115756,-0.7197165,0.054031499999999996
54,0.006591500000000004,0.7038285,-0.004309500000000001,-0.1484205,0.4985585,0.015605500000000001,-0.2415005,0.7228385,-0.0402205,0.1527595,0.5000285,0.020477500000000003,0.2549395,0.7329385,-0.0231105,-0.2694705,0.9201885,-0.0874105,0.2923595,0.9246685,-0.0664005,-0.06723849999999999,-0.0009984999999999994,0.002541500000000002,0.06723849999999999,0.0009984999999999994,-0.002541500000000002,-0.1197705,-0.3542815,0.018480500000000004,0.1105295,-0.3536115,0.033683500000000005,-0.1288505,-0.6800115,0.0536165,0.1154395,-0.7196115,0.0542395
55,0.006405000000000001,0.7037800000000001,-0.0044895000000000004,-0.148799,0.49842000000000003,0.015781499999999997,-0.24145899999999998,0.72246,-0.03995950000000001,0.152641,0.50024,0.020565499999999994,0.255081,0.7335400000000001,-0.0235625,-0.269709,0.92018,-0.0873175,0.292201,0.92533,-0.0668175,-0.067244,-0.001007000000000001,0.002648499999999998,0.067244,0.0010069999999999992,-0.002648500000000005,-0.119799,-0.35436,0.018292499999999996,0.110371,-0.35354,0.03356049999999999,-0.12925899999999999,-0.68038,0.053475499999999995,0.115131,-0.7195199999999999,0.05438949999999999
56,0.006294499999999998,0.7036885,-0.004714000000000003,-0.1491465,0.4982885,0.015911999999999996,-0.2413565,0.7225885000000001,-0.03982100000000001,0.1524835,0.5004885,0.020689999999999993,0.2553235,0.7342885,-0.024186,-0.2699065,0.9202185,-0.08723199999999999,0.2921035,0.9262085,-0.067292,-0.0672355,-0.0010285,0.0027259999999999993,0.0672355,0.0010285,-0.002726000000000006,-0.1197765,-0.3544615,0.018070999999999997,0.1102235,-0.3535215,0.03339199999999999,-0.1294865,-0.6809415,0.053321999999999994,0.1148435,-0.7194714999999999,0.05452799999999999
57,0.006192999999999997,0.7035945,-0.0049949999999999925,-0.14949300000000001,0.4982245,0.015954000000000003,-0.241323,0.7227145,-0.03970599999999999,0.152277,0.5006845000000001,0.020783000000000003,0.255357,0.7349145,-0.02478699999999999,-0.270143,0.9203245000000001,-0.08720099999999999,0.292047,0.9268845,-0.067911,-0.067222,-0.0010615,0.002807000000000004,0.067222,0.0010615,-0.002806999999999997,-0.119833,-0.3545755,0.017872000000000006,0.110017,-0.3534655,0.033213000000000006,-0.129523,-0.6814954999999999,0.053164,0.114537,-0.7193755,0.05464000000000001
58,0.006167000000000002,0.7034855,-0.0053705,-0.14979199999999998,0.49815550000000003,0.0159565,-0.24131199999999997,0.7229155,-0.0396145,0.15212799999999999,0.5009155000000001,0.020867499999999997,0.255428,0.7354255000000001,-0.0254215,-0.270392,0.9204555,-0.08712850000000001,0.292048,0.9274455,-0.06866850000000001,-0.067203,-0.0010894999999999985,0.0028894999999999962,0.067203,0.0010895000000000002,-0.002889500000000003,-0.119892,-0.3546845,0.0176665,0.10982800000000001,-0.3533645,0.0330175,-0.129492,-0.6819445,0.0529805,0.114238,-0.7192545,0.0547205
59,0.006132999999999996,0.703374,-0.005728999999999998,-0.150078,0.49807399999999996,0.015939000000000002,-0.24129799999999998,0.722974,-0.039483000000000004,0.15202200000000002,0.500954,0.020844,0.25563199999999997,0.7358840000000001,-0.026227,-0.27063800000000005,0.9206240000000001,-0.087136,0.29214199999999996,0.927964,-0.069476,-0.067184,-0.0011179999999999992,0.002939999999999998,0.067184,0.001118000000000001,-0.002939999999999998,-0.11996799999999999,-0.354826,0.017465,0.10964199999999999,-0.353266,0.032792,-0.12942800000000002,-0.682476,0.05275,0.113922,-0.7191259999999999,0.054765
60,0.006111500000000002,0.7032705,-0.006095000000000003,-0.1501585,0.4980105,0.015916999999999994,-0.2412385,0.7226505,-0.039394,0.1519415,0.5009805,0.020789999999999996,0.2559515,0.7362305,-0.02705500000000001,-0.2709185,0.9208705,-0.08719600000000001,0.2923715,0.9283905,-0.070346,-0.06718350000000001,-0.0011444999999999997,0.0029839999999999936,0.06718350000000001,0.0011444999999999997,-0.0029840000000000005,-0.12002850000000001,-0.3549495,0.017271999999999996,0.10945150000000001,-0.3531495,0.032572,-0.12932849999999999,-0.6829495,0.052556,0.11362150000000001,-0.7189795,0.054757999999999994
61,0.0061340000000000006,0.703161,-0.0064034999999999995,-0.150188,0.49795100000000003,0.0158945,-0.24129799999999998,0.722251,-0.0394405,0.151962,0.500981,0.020748499999999996,0.25641200000000003,0.736691,-0.0279195,-0.271128,0.9210510000000001,-0.08725050000000001,0.292842,0.9288810000000001,-0.07136050000000001,-0.067177,-0.0011739999999999997,0.0030274999999999955,0.067177,0.0011739999999999997,-0.0030275000000000024,-0.120098,-0.35506899999999997,0.0171245,0.109282,-0.35306899999999997,0.0323925,-0.129138,-0.683449,0.0523635,0.113382,-0.7188789999999999,0.0548165
62,0.0061794999999999975,0.7030409999999999,-0.006735500000000005,-0.1502525,0.4978810000000001,0.015869499999999995,-0.2413825,0.721861,-0.03948750000000001,0.1519375,0.500941,0.020703499999999993,0.2568675,0.737221,-0.0287395,-0.27132249999999997,0.921021,-0.0872975,0.2934775,0.929341,-0.07251750000000001,-0.0671655,-0.001210000000000001,0.003071499999999998,0.0671655,0.0012099999999999993,-0.0030715000000000048,-0.1201825,-0.35517899999999997,0.016979499999999995,0.1090775,-0.352979,0.032216499999999995,-0.12902249999999998,-0.683609,0.052192499999999996,0.1131175,-0.7187490000000001,0.0550195
63,0.006299499999999996,0.702936,-0.007092000000000001,-0.15028350000000001,0.497846,0.015819,-0.2414235,0.721446,-0.03948000000000001,0.1519265,0.500896,0.020652999999999998,0.2572665,0.737296,-0.029316000000000002,-0.2714835,0.921116,-0.087428,0.29413649999999997,0.929316,-0.073608,-0.0671585,-0.0012449999999999996,0.0031090000000000007,0.0671585,0.0012449999999999996,-0.0031090000000000007,-0.1202535,-0.355304,0.016873,0.10890649999999999,-0.352894,0.03203399999999999,-0.1288935,-0.683784,0.052021,0.1128565,-0.718454,0.056186
64,0.006454000000000001,0.7028225,-0.007448000000000003,-0.150284,0.4978225,0.015756,-0.241414,0.7213025,-0.039559000000000004,0.151906,0.5011325,0.020794,0.25774600000000003,0.7373824999999999,-0.029917000000000006,-0.27167399999999997,0.9212524999999999,-0.087667,0.29482600000000003,0.9294224999999999,-0.07472700000000002,-0.067144,-0.0012674999999999995,0.003137000000000001,0.067144,0.0012675000000000013,-0.003137000000000001,-0.120334,-0.35538749999999997,0.016776,0.108746,-0.3528175,0.031848,-0.128744,-0.6839675000000001,0.051892,0.112716,-0.7184075000000001,0.056105999999999996
65,0.006610000000000001,0.702735,-0.007774499999999997,-0.15026299999999998,0.497775,0.015691500000000004,-0.241383,0.7211350000000001,-0.03967949999999999,0.151897,0.501305,0.020888500000000004,0.25819699999999995,0.7374350000000001,-0.030254500000000004,-0.271843,0.921245,-0.08800249999999998,0.295577,0.9293750000000001,-0.07579249999999998,-0.06712499999999999,-0.0012909999999999987,0.0031525000000000025,0.06712499999999999,0.0012909999999999987,-0.0031524999999999956,-0.12043299999999998,-0.35548500000000005,0.0166725,0.108597,-0.352775,0.031705500000000005,-0.128613,-0.684125,0.0517055,0.112597,-0.718375,0.0560085
66,0.006726500000000003,0.702657,-0.007974499999999995,-0.1500785,0.4977170000000001,0.015655500000000003,-0.24125850000000001,0.721027,-0.039766499999999996,0.1519415,0.5014770000000001,0.0210005,0.2586415,0.7377170000000001,-0.030465499999999993,-0.2719585,0.921247,-0.0884075,0.2962015,0.929567,-0.07664750000000001,-0.06711349999999999,-0.0013100000000000004,0.0031615000000000046,0.06711349999999999,0.0013099999999999987,-0.0031614999999999976,-0.1204885,-0.35557300000000003,0.0165555,0.1084815,-0.352803,0.0315915,-0.1286685,-0.684223,0.0515015,0.1125115,-0.718413,0.0559075
67,0.0068100000000000036,0.702603,-0.008053500000000005,-0.149886,0.497663,0.0156115,-0.24113600000000002,0.720923,-0.039843500000000004,0.151974,0.5016630000000001,0.0210985,0.259124,0.738033,-0.03067650000000001,-0.272086,0.921263,-0.0888545,0.296794,0.929783,-0.0773945,-0.067112,-0.0013310000000000006,0.0031594999999999956,0.067112,0.0013310000000000006,-0.0031595000000000026,-0.120536,-0.355667,0.0164215,0.108374,-0.35285700000000003,0.0315055,-0.128736,-0.684367,0.051275499999999995,0.11244399999999999,-0.718467,0.0557345
68,0.006874499999999999,0.7025509999999999,-0.008219499999999998,-0.1497015,0.497611,0.015470499999999998,-0.2410015,0.720731,-0.0400065,0.1519685,0.501871,0.021145499999999998,0.2595485,0.738421,-0.030823500000000004,-0.2722315,0.921311,-0.08941149999999999,0.2972885,0.930111,-0.07819150000000001,-0.0671085,-0.0013499999999999988,0.0031645000000000006,0.0671085,0.0013500000000000005,-0.0031645000000000006,-0.12055149999999999,-0.355779,0.0161815,0.10825850000000001,-0.35290900000000003,0.031329499999999996,-0.1288115,-0.684909,0.050722500000000004,0.11234849999999999,-0.718519,0.0555155
69,0.006890500000000001,0.702471,-0.008576499999999994,-0.1497905,0.49748100000000006,0.015123500000000005,-0.24108049999999998,0.720661,-0.0403675,0.15191949999999999,0.502121,0.021182500000000007,0.2599695,0.738761,-0.031158499999999992,-0.27249049999999997,0.921291,-0.0901215,0.2978695,0.930341,-0.0790315,-0.0671035,-0.0013749999999999995,0.0031385000000000024,0.0671035,0.0013750000000000012,-0.0031384999999999955,-0.1205805,-0.355939,0.015679500000000006,0.1080695,-0.352989,0.030962500000000004,-0.1288705,-0.685629,0.0499725,0.11207950000000001,-0.718599,0.05532750000000001
70,0.006869,0.7023925,-0.009135499999999998,-0.14992300000000003,0.49742250000000005,0.014609500000000004,-0.24118299999999998,0.7205825,-0.040930499999999995,0.151827,0.5023725,0.021043500000000003,0.26031699999999997,0.7386725,-0.0316975,-0.272813,0.9212724999999999,-0.09101450000000001,0.298357,0.9302524999999999,-0.07980449999999999,-0.067091,-0.0013994999999999997,0.003111500000000003,0.067091,0.0013994999999999997,-0.003111499999999996,-0.120623,-0.35621749999999996,0.014995500000000002,0.107857,-0.3531375,0.0304425,-0.12898300000000001,-0.6865275000000001,0.0490065,0.111747,-0.7187575,0.0549315
71,0.006815999999999999,0.7023045,-0.009716000000000002,-0.15005,0.49736449999999993,0.014024999999999996,-0.24123,0.7201145,-0.041391,0.15172,0.5025745,0.020770999999999998,0.26054,0.7385745,-0.032278,-0.27313,0.9211945,-0.09193,0.29872,0.9300545,-0.08042,-0.067081,-0.0014234999999999994,0.0030890000000000015,0.067081,0.0014234999999999994,-0.0030890000000000015,-0.12067,-0.35651550000000004,0.014256999999999999,0.10766,-0.3533355,0.029883999999999997,-0.12907,-0.6875555,0.047937999999999995,0.11144,-0.7189555,0.054384
72,0.006699499999999997,0.7022285,-0.010336499999999998,-0.1502215,0.4972685,0.013433500000000001,-0.2413115,0.7196285,-0.04192649999999999,0.1515785,0.5027385,0.020407500000000002,0.2607385,0.7382985000000001,-0.0328585,-0.2734515,0.9210185000000001,-0.0928455,0.2990485,0.9296785000000001,-0.0811355,-0.0670705,-0.0014464999999999999,0.0030575000000000047,0.0670705,0.0014464999999999999,-0.0030574999999999977,-0.1207415,-0.3568415,0.013454500000000001,0.1074385,-0.3535815,0.0292665,-0.1291415,-0.6886715,0.0467305,0.1110785,-0.7192115,0.0537125
73,0.006539,0.702157,-0.010991,-0.150295,0.497197,0.012831999999999996,-0.241445,0.719177,-0.04261,0.15140499999999998,0.502877,0.019910999999999998,0.26078500000000004,0.737857,-0.0331,-0.27380499999999997,0.920867,-0.09391000000000002,0.299325,0.929087,-0.08198,-0.067076,-0.001491000000000001,0.0029780000000000015,0.067076,0.001491000000000001,-0.0029780000000000015,-0.12084500000000001,-0.357213,0.012549999999999999,0.10717499999999999,-0.353863,0.02853,-0.129245,-0.689823,0.045391,0.110705,-0.719503,0.052822
74,0.006362999999999997,0.702137,-0.0116695,-0.150386,0.49709700000000007,0.012140499999999999,-0.241806,0.7190169999999999,-0.043646500000000005,0.15126399999999998,0.5030669999999999,0.0193565,0.26080400000000004,0.737077,-0.033225500000000005,-0.27415599999999996,0.9207069999999999,-0.09504049999999999,0.299564,0.9281969999999999,-0.0828405,-0.067075,-0.0015399999999999997,0.0028994999999999993,0.067075,0.0015399999999999997,-0.0028994999999999993,-0.120936,-0.357583,0.0115735,0.10696399999999999,-0.354243,0.0277125,-0.129376,-0.6911630000000001,0.0439705,0.11044399999999999,-0.719453,0.0517675
75,0.0061779999999999995,0.7020959999999999,-0.012380999999999996,-0.150601,0.49701599999999996,0.011365,-0.241961,0.718556,-0.044556,0.151089,0.5032359999999999,0.018701000000000002,0.26076900000000003,0.7361559999999999,-0.03344799999999999,-0.27452099999999996,0.9205559999999999,-0.096241,0.299839,0.927156,-0.083731,-0.067082,-0.0015890000000000019,0.002820000000000003,0.067082,0.0015890000000000001,-0.002819999999999996,-0.121031,-0.357964,0.010507000000000002,0.106759,-0.354634,0.026786,-0.129501,-0.692694,0.042486,0.11023900000000002,-0.719604,0.049645
76,0.005986499999999999,0.7020775,-0.013142500000000001,-0.15081850000000002,0.49693750000000003,0.0105395,-0.2421685,0.7182975,-0.0455405,0.1509015,0.5033875,0.0179945,0.2607215,0.7353675,-0.033964499999999995,-0.2749285,0.9204075,-0.0975025,0.3000915,0.9262775,-0.0846425,-0.06708650000000001,-0.0016354999999999998,0.0027615,0.06708650000000001,0.0016355000000000015,-0.0027615,-0.12114849999999999,-0.3583725,0.009379499999999999,0.1065715,-0.3550425,0.0256545,-0.1296285,-0.6942725,0.0409555,0.1101515,-0.7186525,0.048445499999999996
77,0.005791500000000005,0.702089,-0.013909000000000005,-0.1510405,0.49688899999999997,0.009699,-0.2425105,0.718159,-0.046690999999999996,0.1506895,0.503309,0.017216,0.2605995,0.7344189999999999,-0.034530000000000005,-0.2754105,0.920369,-0.09883499999999999,0.3003995,0.9252589999999999,-0.085515,-0.0671065,-0.0016539999999999992,0.0026609999999999967,0.0671065,0.0016539999999999992,-0.0026610000000000036,-0.1212905,-0.35873099999999997,0.008245999999999996,0.10642950000000001,-0.355451,0.024513999999999998,-0.12980049999999999,-0.6955610000000001,0.039674999999999995,0.11014950000000001,-0.717441,0.047157
78,0.0056335,0.7021244999999999,-0.0147785,-0.1512365,0.49682450000000006,0.008788499999999998,-0.24281650000000002,0.7180945,-0.0479305,0.1505535,0.5032145,0.0163095,0.2603935,0.7339745,-0.0351385,-0.27586649999999996,0.9202745,-0.1004405,0.30055350000000003,0.9247044999999999,-0.08661049999999999,-0.0671275,-0.0016805000000000014,0.0025774999999999965,0.0671275,0.001680499999999998,-0.0025775000000000034,-0.12141650000000001,-0.3591155,0.007129499999999997,0.1064735,-0.35610549999999996,0.0233275,-0.1300265,-0.6968955,0.0383405,0.10984349999999998,-0.7175855,0.0456315
79,0.005477999999999997,0.70216,-0.015627999999999996,-0.151385,0.49678999999999995,0.007928000000000004,-0.243095,0.71826,-0.049108,0.150405,0.50315,0.015445000000000004,0.260355,0.73347,-0.03576,-0.27630499999999997,0.92013,-0.102061,0.300765,0.9240499999999999,-0.087691,-0.067174,-0.0016910000000000015,0.0024370000000000017,0.067174,0.001690999999999998,-0.0024369999999999947,-0.12154500000000001,-0.35943,0.006084000000000006,0.10657499999999999,-0.35673999999999995,0.022202000000000003,-0.130215,-0.69819,0.037083000000000005,0.10989499999999998,-0.71611,0.044528000000000005
80,0.005348499999999999,0.70219,-0.0166315,-0.1515295,0.4968,0.007066500000000003,-0.2434195,0.71874,-0.0503325,0.1503705,0.50309,0.014605500000000004,0.2603405,0.73323,-0.036766499999999994,-0.2767395,0.92,-0.10379150000000001,0.30094049999999994,0.92362,-0.08878149999999999,-0.0672315,-0.0016949999999999986,0.002314500000000004,0.0672315,0.001695000000000002,-0.002314499999999997,-0.1216195,-0.35973,0.0049055,0.1067705,-0.35753,0.020874500000000004,-0.1303795,-0.69934,0.0358525,0.10996049999999999,-0.7145,0.0434335
81,0.005207,0.702116,-0.017903499999999996,-0.151672,0.496886,0.006024500000000002,-0.24374200000000001,0.719216,-0.0519705,0.150338,0.502996,0.013590500000000002,0.260308,0.7325659999999999,-0.0380325,-0.277182,0.919886,-0.1057785,0.301138,0.9227559999999999,-0.09010850000000001,-0.067291,-0.0016969999999999989,0.002180500000000002,0.067291,0.0016970000000000006,-0.002180499999999995,-0.121692,-0.360054,0.0036225000000000007,0.10703800000000001,-0.358394,0.0190985,-0.130592,-0.7003940000000001,0.0344925,0.109998,-0.7128040000000001,0.0421715
82,0.005067500000000006,0.702034,-0.0192545,-0.1518935,0.49683399999999994,0.004776500000000003,-0.24410349999999997,0.7189840000000001,-0.053841499999999994,0.1503265,0.5029640000000001,0.012493500000000001,0.2603165,0.732414,-0.0393755,-0.2775835,0.9194340000000001,-0.10837349999999998,0.3014365,0.922564,-0.09152349999999998,-0.0673375,-0.0016770000000000014,0.002085499999999997,0.0673375,0.001676999999999998,-0.002085499999999997,-0.1217135,-0.360476,0.0022775000000000017,0.10742650000000001,-0.35943600000000003,0.0168235,-0.1307635,-0.701286,0.033016500000000004,0.11007650000000001,-0.711036,0.0406255
83,0.004969500000000002,0.701986,-0.020963000000000002,-0.15206550000000002,0.496846,0.003145000000000002,-0.24453550000000002,0.718846,-0.056652999999999995,0.15030449999999998,0.502956,0.010987,0.26044449999999997,0.732136,-0.041073,-0.2780155,0.918966,-0.111877,0.3019145,0.9221159999999999,-0.093697,-0.0674035,-0.0016699999999999996,0.0020809999999999995,0.0674035,0.0016700000000000013,-0.0020809999999999995,-0.1216555,-0.361234,0.0004390000000000019,0.1078745,-0.36066400000000004,0.013728,-0.1309155,-0.702424,0.031047,0.11019450000000001,-0.709334,0.038452
84,0.004800499999999999,0.701986,-0.022781499999999996,-0.15223450000000002,0.496846,0.001405500000000004,-0.24467450000000002,0.7187359999999999,-0.05972849999999999,0.1502655,0.502956,0.009357500000000005,0.2605155,0.7317359999999999,-0.0430005,-0.27842449999999996,0.918536,-0.11594949999999998,0.3023455,0.921716,-0.09626950000000001,-0.0674595,-0.0016699999999999996,0.001994500000000003,0.0674595,0.0016700000000000013,-0.0019944999999999963,-0.1215045,-0.362134,-0.0018874999999999933,0.10839549999999999,-0.362064,0.010249500000000005,-0.1310345,-0.703264,0.028867500000000004,0.11044549999999999,-0.707694,0.03586450000000001
85,0.004643000000000001,0.7018759999999999,-0.024974000000000003,-0.152471,0.496846,-0.0005510000000000029,-0.244781,0.718456,-0.063051,0.150219,0.502896,0.007507,0.260609,0.731316,-0.04577,-0.278811,0.917166,-0.12035099999999999,0.302679,0.9212859999999999,-0.099551,-0.067537,-0.0016699999999999996,0.0018740000000000007,0.067537,0.0016700000000000013,-0.0018740000000000007,-0.121251,-0.36337400000000003,-0.004858000000000001,0.108929,-0.363454,0.006238999999999998,-0.131111,-0.7041540000000001,0.026416,0.110709,-0.706034,0.032982
86,0.004527,0.7015565,-0.027436500000000003,-0.152673,0.4968665,-0.002663499999999999,-0.24487299999999998,0.7181664999999999,-0.0665955,0.15018700000000001,0.5028064999999999,0.0055014999999999994,0.260717,0.7311965,-0.049104499999999995,-0.279133,0.9156365,-0.1251195,0.30293699999999996,0.9211665,-0.1037795,-0.067601,-0.0016595000000000013,0.0017744999999999983,0.067601,0.0016594999999999978,-0.0017744999999999983,-0.120893,-0.3647435,-0.008375500000000001,0.109487,-0.3649335,0.0017835000000000004,-0.131153,-0.7050235,0.0236965,0.110757,-0.7057735,0.029738499999999998
87,0.0044475,0.700831,-0.030545,-0.1527725,0.497011,-0.005219999999999999,-0.2449625,0.716961,-0.07083400000000001,0.15013749999999998,0.5028509999999999,0.0030349999999999995,0.2608175,0.7303609999999999,-0.05318400000000001,-0.2793025,0.913951,-0.131096,0.3031475,0.920021,-0.10905600000000001,-0.0676675,-0.0016930000000000018,0.0016690000000000003,0.0676675,0.001693,-0.0016690000000000003,-0.1204025,-0.366479,-0.012812,0.10999750000000001,-0.36602900000000005,-0.003429999999999999,-0.1310725,-0.705669,0.020348,0.1108675,-0.7055790000000001,0.025820000000000003
88,0.004343499999999997,0.699702,-0.034143,-0.1528275,0.49715200000000004,-0.007994000000000001,-0.2450375,0.715572,-0.075299,0.1501525,0.5029020000000001,0.00022199999999999998,0.2609125,0.729322,-0.057554999999999995,-0.27935750000000004,0.912132,-0.13748899999999997,0.3033125,0.918662,-0.11475899999999999,-0.0677555,-0.0017489999999999988,0.001680000000000001,0.0677555,0.0017490000000000006,-0.0016799999999999975,-0.11980750000000001,-0.36824799999999996,-0.017757000000000002,0.1105325,-0.367048,-0.009103,-0.1309175,-0.706238,0.016736,0.11117250000000001,-0.705338,0.021529
89,0.004191499999999997,0.698456,-0.0380935,-0.15280349999999998,0.49732600000000005,-0.0110625,-0.2448535,0.713046,-0.0799945,0.1502365,0.503156,-0.0028435000000000023,0.2610865,0.728326,-0.0623215,-0.27934349999999997,0.910286,-0.1442745,0.3035765,0.917266,-0.12123450000000001,-0.06783449999999999,-0.0018079999999999988,0.0017175000000000003,0.06783449999999999,0.0018080000000000006,-0.0017175000000000003,-0.1190535,-0.369844,-0.0233155,0.1111165,-0.367784,-0.0150465,-0.1306435,-0.706644,0.012714499999999998,0.11167650000000001,-0.704914,0.016979499999999998
90,0.004019500000000002,0.6971265,-0.042215,-0.1527315,0.4974165,-0.014256000000000005,-0.2448515,0.7110065000000001,-0.084843,0.1503985,0.5035765000000001,-0.006065000000000001,0.2613485,0.7272464999999999,-0.067412,-0.2792415,0.9083764999999999,-0.151453,0.3039285,0.9157964999999999,-0.12798299999999999,-0.0678395,-0.0018554999999999995,0.0016889999999999995,0.0678395,0.0018554999999999995,-0.001689000000000003,-0.1181115,-0.3710935,-0.029559000000000002,0.11176849999999999,-0.3682635,-0.021248000000000003,-0.1302915,-0.7068135,0.008398,0.1122985,-0.7042435,0.012346999999999999
91,0.0036929999999999984,0.695488,-0.04695300000000001,-0.15263700000000002,0.49763799999999997,-0.017845000000000003,-0.24485700000000002,0.708918,-0.090432,0.14981299999999997,0.5006980000000001,-0.010511,0.261383,0.7256680000000001,-0.07319200000000001,-0.279177,0.906918,-0.15925199999999998,0.303933,0.9132180000000001,-0.137142,-0.06783600000000001,-0.0018599999999999988,0.0015890000000000001,0.06783600000000001,0.0018600000000000005,-0.0015890000000000001,-0.116936,-0.371972,-0.03691,0.112503,-0.368052,-0.028308999999999997,-0.129837,-0.7065119999999999,0.0032319999999999988,0.112963,-0.7028719999999999,0.007155
92,0.0031309999999999984,0.6936070000000001,-0.052014000000000005,-0.15258000000000002,0.49765699999999996,-0.021751999999999997,-0.24480000000000002,0.705627,-0.09641,0.14919,0.49848699999999996,-0.015153,0.26064000000000004,0.7216570000000001,-0.079543,-0.27914,0.9050170000000001,-0.16839,0.30350000000000005,0.908397,-0.14603,-0.06784899999999999,-0.0018829999999999993,0.001445,0.06784899999999999,0.001883000000000001,-0.0014449999999999984,-0.115477,-0.372863,-0.045202000000000006,0.11326,-0.367703,-0.036254999999999996,-0.12925,-0.7054229999999999,-0.002182999999999999,0.1136,-0.7011229999999999,0.0015590000000000014
93,0.002590999999999996,0.69157,-0.057248499999999994,-0.152478,0.49796999999999997,-0.0258445,-0.244628,0.70213,-0.1024715,0.148632,0.4965,-0.0199755,0.259972,0.7173900000000001,-0.0858625,-0.279158,0.90295,-0.17772149999999998,0.302882,0.9034300000000001,-0.1550515,-0.067933,-0.001856,0.0013265000000000004,0.067933,0.001856,-0.0013264999999999996,-0.11388500000000001,-0.37419,-0.0536745,0.11402199999999998,-0.36717000000000005,-0.0443255,-0.128548,-0.70395,-0.0078125,0.114342,-0.6992499999999999,-0.0042515
94,0.002053999999999997,0.689922,-0.063121,-0.152377,0.49766200000000005,-0.030392000000000002,-0.244287,0.699572,-0.109461,0.147843,0.493692,-0.02537,0.259183,0.712172,-0.092427,-0.279077,0.902552,-0.188721,0.30255299999999996,0.899162,-0.164941,-0.068138,-0.001798,0.0011129999999999998,0.068138,0.0017980000000000001,-0.0011129999999999998,-0.111994,-0.375208,-0.063119,0.115043,-0.366288,-0.053596,-0.127577,-0.701118,-0.013888,0.11527300000000001,-0.695988,-0.010706
95,0.0014450000000000018,0.688172,-0.0691295,-0.15217899999999998,0.497082,-0.0351725,-0.243799,0.6973220000000001,-0.1170075,0.14711100000000002,0.491312,-0.0309195,0.25837099999999996,0.707682,-0.0990445,-0.278949,0.902502,-0.2001175,0.301911,0.895522,-0.1748775,-0.068322,-0.001737,0.0009425,0.068322,0.0017369999999999998,-0.0009425,-0.110041,-0.375908,-0.0727975,0.11616100000000001,-0.365128,-0.0631945,-0.126379,-0.6975279999999999,-0.0202755,0.11625100000000002,-0.692048,-0.0172405
96,0.0007875,0.6868225,-0.0746825,-0.1519905,0.4961225,-0.0397025,-0.2433205,0.6959424999999999,-0.12431550000000001,0.1463895,0.4891825,-0.0361135,0.25758949999999997,0.7047525,-0.1053755,-0.2788705,0.9027725,-0.21088549999999998,0.30098949999999997,0.8918324999999999,-0.1841155,-0.0685045,-0.0016424999999999999,0.0007745,0.0685045,0.0016424999999999999,-0.0007745,-0.10818249999999999,-0.3757875,-0.0820495,0.11719949999999998,-0.3637575,-0.07259750000000001,-0.1251605,-0.6932875000000001,-0.0263075,0.1171295,-0.6875875,-0.0234345
97,0.0001805000000000001,0.685425,-0.07993299999999999,-0.1517615,0.495355,-0.044119000000000005,-0.24300149999999998,0.694655,-0.131754,0.14573850000000002,0.486595,-0.04123399999999999,0.25695850000000003,0.702415,-0.111814,-0.2787415,0.903185,-0.222134,0.3002985,0.888945,-0.194084,-0.0687345,-0.0015370000000000002,0.000562,0.0687345,0.0015370000000000002,-0.000562,-0.10621549999999999,-0.375535,-0.09132799999999999,0.11839850000000002,-0.362225,-0.08187499999999999,-0.1238215,-0.688595,-0.032255,0.1179585,-0.682615,-0.029558
98,-0.0002925000000000011,0.6845525,-0.085073,-0.15139049999999998,0.4942425,-0.048568,-0.2425805,0.6938925,-0.13950400000000002,0.1452195,0.48402249999999997,-0.046244999999999994,0.2564295,0.6995225,-0.11823399999999999,-0.2785305,0.9043725,-0.23364400000000002,0.29971949999999997,0.8847225000000001,-0.20358400000000001,-0.0690055,-0.0013265000000000013,0.0004310000000000008,0.0690055,0.0013265000000000013,-0.0004309999999999991,-0.1042005,-0.3747475,-0.100365,0.1197095,-0.36028750000000004,-0.091163,-0.12231049999999999,-0.6830275,-0.037958,0.11889950000000002,-0.6767575,-0.035615999999999995
99,-0.0006975000000000037,0.683064,-0.090203,-0.15097950000000002,0.49370400000000003,-0.052902,-0.2423295,0.692814,-0.14743,0.1447705,0.481264,-0.051122,0.2560105,0.695874,-0.1245,-0.2782695,0.905724,-0.24541,0.29907049999999996,0.8801340000000001,-0.21275,-0.0692525,-0.001122999999999999,0.000390999999999999,0.0692525,0.001122999999999999,-0.000390999999999999,-0.10221150000000001,-0.37425600000000003,-0.109213,0.1209905,-0.358116,-0.099964,-0.1207695,-0.677126,-0.043698,0.11989049999999998,-0.6707259999999999,-0.04154
100,-0.0015165000000000005,0.681458,-0.0948275,-0.1507085,0.493508,-0.05678949999999999,-0.24194849999999998,0.691818,-0.1547115,0.1445815,0.481808,-0.05472149999999999,0.2550415,0.6913980000000001,-0.13019150000000002,-0.27749850000000004,0.9070980000000001,-0.25665150000000003,0.2980015,0.8755980000000001,-0.2196015,-0.0694295,-0.0009459999999999955,0.0003914999999999995,0.0694295,0.0009460000000000024,-0.0003914999999999995,-0.10091249999999999,-0.374302,-0.11766449999999999,0.1216815,-0.357132,-0.1083415,-0.1199685,-0.671172,-0.0488655,0.1203515,-0.664972,-0.0469315
101,-0.0019029999999999984,0.6802125000000001,-0.097914,-0.15047699999999997,0.4920125,-0.061114,-0.241597,0.6918925,-0.16140900000000002,0.144173,0.4822325,-0.05812,0.254583,0.6902425000000001,-0.135029,-0.276977,0.9099824999999999,-0.266659,0.297113,0.8740524999999999,-0.226379,-0.069424,-0.0007925000000000015,0.00028699999999999906,0.069424,0.0007924999999999946,-0.00028699999999999906,-0.10012599999999999,-0.3687575,-0.125499,0.12216300000000001,-0.3523975,-0.115694,-0.119267,-0.6641975,-0.053692000000000004,0.12009299999999999,-0.6588075,-0.051724
102,-0.0018350000000000033,0.6789875,-0.100921,-0.149901,0.4906375,-0.065277,-0.24088099999999998,0.6919675,-0.168172,0.143979,0.4815675,-0.061638,0.254719,0.6896675,-0.139932,-0.276081,0.9130775,-0.27674200000000004,0.296739,0.8729875,-0.233332,-0.069545,-0.0006875000000000006,0.00029900000000000065,0.069545,0.0006875000000000006,-0.00029900000000000065,-0.09908700000000001,-0.3615625,-0.133152,0.12312900000000002,-0.3466925,-0.123463,-0.118231,-0.6565425,-0.058339,0.120089,-0.6519525,-0.056278999999999996
103,-0.0010630000000000032,0.67777,-0.10942800000000001,-0.148826,0.48863999999999996,-0.07497500000000001,-0.239686,0.69254,-0.180331,0.144094,0.48089000000000004,-0.071048,0.255754,0.6910700000000001,-0.151381,-0.274636,0.9099200000000001,-0.290661,0.297004,0.8735700000000001,-0.24588100000000002,-0.06972300000000001,-0.00045100000000000695,0.0007169999999999954,0.06972300000000001,0.0004509999999999931,-0.0007170000000000024,-0.097445,-0.34869000000000006,-0.146241,0.125154,-0.33573,-0.13731100000000002,-0.11682600000000001,-0.64461,-0.068263,0.12032399999999999,-0.64066,-0.06592400000000001
104,-0.00033000000000000217,0.673222,-0.1193415,-0.147363,0.487842,-0.0850755,-0.238143,0.690102,-0.1926215,0.144127,0.481012,-0.0810025,0.256767,0.6935020000000001,-0.1638415,-0.27286299999999997,0.9029320000000001,-0.3046015,0.297487,0.876252,-0.2592715,-0.069841,-0.00043599999999999195,0.0007144999999999999,0.069841,0.00043600000000000583,-0.0007144999999999999,-0.09525700000000001,-0.334708,-0.1628115,0.127137,-0.322998,-0.15367150000000002,-0.115563,-0.630578,-0.07825950000000001,0.12043699999999999,-0.627788,-0.0759425
105,0.0003154999999999981,0.6696675,-0.12871,-0.1457185,0.4876175,-0.09490599999999999,-0.2365885,0.6889575,-0.204696,0.1441015,0.4812275,-0.090694,0.25779149999999995,0.6957475,-0.175946,-0.27100850000000004,0.8968675,-0.31785599999999997,0.2985015,0.8809275,-0.272876,-0.0699025,-0.00031749999999999834,0.0007050000000000042,0.0699025,0.00031749999999999834,-0.0007049999999999973,-0.0931515,-0.3207525,-0.178746,0.1291315,-0.3099125,-0.169416,-0.11423849999999999,-0.6162625,-0.087784,0.1204115,-0.6146025,-0.085494
106,0.0010954999999999993,0.667395,-0.1383705,-0.1437145,0.486485,-0.1047085,-0.2349845,0.688525,-0.2166135,0.1439955,0.480735,-0.1003365,0.2588355,0.696945,-0.1877235,-0.2688045,0.891365,-0.3307835,0.29956550000000004,0.883595,-0.2857735,-0.06998650000000001,-0.00013499999999999623,0.0006415000000000032,0.06998650000000001,0.00013499999999999623,-0.0006414999999999962,-0.0912165,-0.306475,-0.1944335,0.1311155,-0.296075,-0.1849935,-0.1129345,-0.601295,-0.09722149999999999,0.12038549999999998,-0.600665,-0.0948185
107,0.0020795000000000015,0.667575,-0.14818199999999998,-0.14101650000000002,0.485785,-0.11458199999999999,-0.2328365,0.688215,-0.22857499999999997,0.1439935,0.480385,-0.10997699999999999,0.26021350000000004,0.6987049999999999,-0.199195,-0.2657865,0.886255,-0.343975,0.30101350000000004,0.8887849999999999,-0.298935,-0.07002649999999999,-8.500000000000174e-05,0.0004839999999999983,0.07002649999999999,8.500000000000174e-05,-0.0004839999999999983,-0.08917549999999999,-0.290925,-0.21030500000000002,0.1334535,-0.28107499999999996,-0.20076499999999997,-0.1112265,-0.585045,-0.106522,0.12069349999999998,-0.5851550000000001,-0.103877
108,0.003270999999999998,0.6685300000000001,-0.1577915,-0.13805299999999998,0.4849,-0.12431249999999999,-0.230333,0.68862,-0.2402945,0.14420699999999997,0.47962000000000005,-0.11964949999999999,0.261727,0.69864,-0.2104945,-0.262263,0.88173,-0.3573845,0.302707,0.89149,-0.31207450000000003,-0.070031,4.999999999999449e-05,0.00027050000000000685,0.070031,-4.999999999999449e-05,-0.00027049999999999297,-0.087246,-0.27461,-0.22585449999999999,0.136017,-0.26532,-0.21683449999999999,-0.109353,-0.56794,-0.1153895,0.121207,-0.56862,-0.11262849999999999
109,0.004818499999999998,0.66912,-0.167466,-0.1348855,0.48181,-0.134873,-0.2276755,0.6892199999999999,-0.252942,0.1441945,0.47816000000000003,-0.129896,0.2632745,0.70044,-0.221922,-0.2581655,0.87923,-0.371952,0.30430450000000003,0.89724,-0.324712,-0.0700575,7.00000000000145e-05,0.00010899999999999799,0.0700575,-6.999999999998674e-05,-0.00010899999999999799,-0.08548249999999999,-0.25551999999999997,-0.241612,0.1385945,-0.24684999999999996,-0.23316199999999998,-0.10748550000000001,-0.5486500000000001,-0.124173,0.12172450000000001,-0.5496300000000001,-0.12148
110,0.006127499999999996,0.669355,-0.1772285,-0.1317405,0.48087500000000005,-0.1448835,-0.22502049999999998,0.689005,-0.2654075,0.1440095,0.475865,-0.1401725,0.26496949999999997,0.701715,-0.2332475,-0.2534305,0.8754850000000001,-0.3869575,0.30625949999999996,0.9033450000000001,-0.33797750000000004,-0.07004350000000001,7.499999999999174e-05,-0.0002405000000000046,0.07004350000000001,-7.499999999999174e-05,0.00024049999999999072,-0.0837155,-0.236055,-0.25715750000000004,0.1411595,-0.228695,-0.2493875,-0.1056105,-0.529455,-0.13285750000000002,0.12261949999999999,-0.5298849999999999,-0.1302795
111,0.007451499999999998,0.6697,-0.186772,-0.1285905,0.47957,-0.15503899999999998,-0.2226505,0.6874100000000001,-0.277705,0.1438995,0.47483000000000003,-0.150217,0.2664795,0.70173,-0.24443499999999999,-0.2483905,0.87115,-0.402075,0.30848949999999997,0.90584,-0.351545,-0.07005549999999999,6.0000000000004494e-05,-0.0007149999999999934,0.07005549999999999,-5.999999999997674e-05,0.0007150000000000073,-0.0819415,-0.21632999999999997,-0.272705,0.1436195,-0.21065,-0.265015,-0.1038105,-0.50993,-0.14132999999999998,0.1235095,-0.50978,-0.139042
112,0.008487499999999997,0.66903,-0.190587,-0.12610749999999998,0.48028000000000004,-0.159134,-0.2207675,0.68485,-0.28373000000000004,0.1440225,0.47514999999999996,-0.153849,0.2678025,0.70049,-0.2487,-0.2445975,0.87129,-0.41206,0.3105625,0.90464,-0.35743,-0.07005449999999999,-4.000000000001225e-05,-0.0014000000000000123,0.07005449999999999,4.000000000001225e-05,0.0013999999999999985,-0.0805595,-0.20054999999999998,-0.28156000000000003,0.1450725,-0.19657,-0.27316,-0.1024175,-0.49501000000000006,-0.144059,0.12425249999999999,-0.49438000000000004,-0.14186700000000002
113,0.0094845,0.6710400000000001,-0.193507,-0.1241965,0.47976,-0.16273100000000001,-0.2190565,0.68467,-0.28943,0.1441035,0.47504,-0.156781,0.2688335,0.6973400000000001,-0.25186,-0.2405465,0.8750600000000001,-0.42165,0.3125835,0.90127,-0.36178,-0.0700235,-0.00013999999999997348,-0.0017800000000000038,0.0700235,0.000140000000000029,0.00177999999999999,-0.0795355,-0.18634999999999996,-0.28645,0.14636349999999998,-0.18451999999999996,-0.27835,-0.1011265,-0.48166,-0.14611000000000002,0.1249435,-0.47990999999999995,-0.143995
114,0.010516499999999996,0.6716949999999999,-0.197233,-0.1222005,0.47651499999999997,-0.16736299999999998,-0.21687050000000002,0.683845,-0.295805,0.14429949999999997,0.47200499999999995,-0.160696,0.2706495,0.694155,-0.256095,-0.23564050000000003,0.877875,-0.43293499999999996,0.3147695,0.8991549999999999,-0.366455,-0.0701495,-0.0002950000000000452,-0.0022049999999999986,0.0701495,0.0002949999999999897,0.0022049999999999986,-0.0782905,-0.169055,-0.292465,0.1478895,-0.16880500000000004,-0.284575,-0.0997705,-0.4656450000000001,-0.14894,0.1258695,-0.4625250000000001,-0.146878
115,0.011660500000000004,0.6712100000000001,-0.200486,-0.1202685,0.47329,-0.172229,-0.2145385,0.68092,-0.30202,0.1446715,0.47021999999999997,-0.164538,0.2719815,0.6918500000000001,-0.26028,-0.2310285,0.87949,-0.44382999999999995,0.3169515,0.89889,-0.37058,-0.0704125,-0.0005299999999999749,-0.0026400000000000035,0.0704125,0.0005300000000000304,0.0026400000000000035,-0.0773575,-0.15021999999999996,-0.29837,0.1493515,-0.14997,-0.2905,-0.0984685,-0.44926999999999995,-0.151495,0.1268015,-0.44498000000000004,-0.14941
116,0.0119655,0.6676249999999999,-0.203324,-0.11914050000000001,0.470335,-0.176672,-0.21262050000000002,0.678725,-0.30801,0.14500949999999999,0.467225,-0.168562,0.2731495,0.6888449999999999,-0.26437,-0.22722050000000002,0.879825,-0.45371,0.3185995,0.893655,-0.3741,-0.07069049999999999,-0.0006950000000000012,-0.003140000000000004,0.07069049999999999,0.0006950000000000012,0.00313999999999999,-0.0773615,-0.13815500000000003,-0.30381,0.1504095,-0.13804500000000003,-0.2959,-0.0975905,-0.43328500000000003,-0.153921,0.1272895,-0.42837500000000006,-0.152083
117,0.012140000000000001,0.66262,-0.206148,-0.118282,0.46773,-0.18104599999999998,-0.210852,0.67533,-0.31388499999999997,0.144918,0.46531999999999996,-0.172402,0.27385800000000005,0.68885,-0.26714499999999997,-0.224012,0.87815,-0.46247499999999997,0.319778,0.892,-0.377695,-0.070989,-0.0010499999999999954,-0.003585000000000005,0.070989,0.0010499999999999954,0.003585000000000005,-0.07756199999999999,-0.12682,-0.309025,0.151218,-0.12672,-0.30079500000000003,-0.096862,-0.41769999999999996,-0.156304,0.127608,-0.41257,-0.154715
118,0.012365000000000001,0.659355,-0.20848,-0.11746799999999999,0.465405,-0.184703,-0.209648,0.6723250000000001,-0.317485,0.145362,0.46303500000000003,-0.175493,0.27430200000000005,0.687315,-0.26953499999999997,-0.221548,0.8729250000000001,-0.46874499999999997,0.32081200000000004,0.889535,-0.380645,-0.07133600000000001,-0.0012349999999999861,-0.004155000000000006,0.07133600000000001,0.0012350000000000416,0.004154999999999992,-0.077712,-0.11583499999999997,-0.313165,0.152012,-0.11506499999999997,-0.30452500000000005,-0.096078,-0.40207499999999996,-0.158287,0.127922,-0.397045,-0.156781
119,0.012675500000000001,0.6555249999999999,-0.20990599999999998,-0.1168165,0.463315,-0.18750899999999998,-0.2080865,0.670775,-0.320455,0.1457635,0.46125499999999997,-0.177796,0.2747335,0.683265,-0.27215500000000004,-0.2198465,0.8688849999999999,-0.471185,0.3215735,0.884925,-0.382885,-0.0716895,-0.0012550000000000061,-0.0045449999999999935,0.0716895,0.0012550000000000061,0.004545000000000007,-0.0777235,-0.10508499999999998,-0.316265,0.1526635,-0.10403499999999999,-0.307335,-0.0955365,-0.38713500000000006,-0.159578,0.1280635,-0.382125,-0.158088
120,0.013118499999999996,0.65222,-0.21109899999999998,-0.11619650000000001,0.460263,-0.18992199999999998,-0.20645650000000002,0.6711199999999999,-0.32304499999999997,0.1461835,0.459864,-0.179898,0.2749935,0.6771400000000001,-0.274475,-0.2185965,0.86652,-0.47240499999999996,0.3221735,0.8838299999999999,-0.384635,-0.0720285,-0.0015600000000000058,-0.004805000000000004,0.0720285,0.0015600000000000058,0.004805000000000004,-0.07748850000000002,-0.09327000000000002,-0.318695,0.1532335,-0.09222000000000002,-0.309415,-0.09505650000000002,-0.37120000000000003,-0.16079,0.1281035,-0.36678000000000005,-0.158854
121,0.013463499999999996,0.64937,-0.211803,-0.1157335,0.456775,-0.192093,-0.2047635,0.6679200000000001,-0.325105,0.1464565,0.45712200000000003,-0.18165399999999998,0.27492649999999996,0.67257,-0.276245,-0.21773350000000002,0.86446,-0.47273499999999996,0.3225965,0.88305,-0.38614499999999996,-0.0723685,-0.0017699999999999938,-0.004955000000000001,0.0723685,0.0017699999999999938,0.004955000000000001,-0.0773205,-0.08084999999999998,-0.320725,0.15364650000000002,-0.07979999999999998,-0.310865,-0.09470350000000001,-0.35462000000000005,-0.161577,0.1279965,-0.35097,-0.159178
122,0.013415000000000002,0.6477900000000001,-0.21326099999999998,-0.115676,0.45384500000000005,-0.194832,-0.203666,0.66678,-0.32691499999999996,0.146594,0.45338600000000007,-0.184581,0.274524,0.66973,-0.27881500000000004,-0.217686,0.86022,-0.473635,0.32264400000000004,0.8827400000000001,-0.388685,-0.072348,-0.0017499999999999738,-0.005324999999999996,0.072348,0.0017500000000000293,0.005324999999999996,-0.077317,-0.06672999999999996,-0.32364499999999996,0.15373399999999998,-0.06581999999999993,-0.31281499999999995,-0.094716,-0.33624999999999994,-0.163208,0.127524,-0.33341999999999994,-0.160294
123,0.013271999999999996,0.64593,-0.213914,-0.11552599999999999,0.453899,-0.196367,-0.203036,0.66468,-0.32693,0.146654,0.451886,-0.186568,0.27415399999999995,0.66606,-0.28044,-0.217726,0.8563700000000001,-0.47368,0.322584,0.87868,-0.39021,-0.07237099999999999,-0.0015899999999999803,-0.00537,0.07237099999999999,0.0015900000000000358,0.00537,-0.07730400000000001,-0.05571999999999999,-0.32536,0.153664,-0.054629999999999956,-0.3135,-0.094746,-0.32118,-0.164487,0.127024,-0.31918,-0.160461
124,0.013244500000000006,0.643775,-0.214524,-0.11545649999999999,0.455638,-0.197473,-0.2021065,0.664345,-0.326855,0.14670350000000001,0.45058,-0.188413,0.2739535,0.661285,-0.28230500000000003,-0.2177865,0.854055,-0.47363500000000003,0.3225035,0.8745149999999999,-0.39190499999999995,-0.07242950000000001,-0.0012650000000000161,-0.005394999999999997,0.07242950000000001,0.0012650000000000161,0.005395000000000011,-0.0773015,-0.045084999999999986,-0.327275,0.1536035,-0.04378500000000002,-0.313925,-0.0947665,-0.30656500000000003,-0.165186,0.1265735,-0.305205,-0.160466
125,0.012826499999999998,0.640485,-0.214899,-0.1159405,0.454254,-0.198711,-0.2020005,0.662745,-0.326745,0.1462995,0.44945,-0.18998700000000002,0.27352950000000004,0.657895,-0.28364500000000004,-0.2191505,0.8530150000000001,-0.473065,0.32164950000000003,0.873865,-0.393905,-0.0726945,-0.0013250000000000206,-0.005515000000000006,0.0726945,0.0013250000000000206,0.005514999999999992,-0.0777475,-0.034194999999999975,-0.329015,0.15310949999999998,-0.032474999999999976,-0.31398499999999996,-0.0952405,-0.29163500000000003,-0.165639,0.1258495,-0.29031500000000005,-0.16039799999999999
126,0.011253999999999997,0.640395,-0.21476499999999998,-0.117898,0.453758,-0.19922600000000001,-0.20361800000000002,0.661165,-0.3256,0.14479199999999998,0.448337,-0.19069,0.271762,0.656865,-0.28425,-0.222938,0.855755,-0.47030000000000005,0.319122,0.875035,-0.39498999999999995,-0.07285900000000001,-0.0010550000000000281,-0.005600000000000008,0.07285900000000001,0.0010549999999999726,0.005599999999999994,-0.079675,-0.020565,-0.32979,0.151172,-0.018394999999999995,-0.31325000000000003,-0.097168,-0.27390499999999995,-0.165199,0.12365199999999998,-0.27278500000000006,-0.15945700000000002
127,0.009571500000000004,0.6379250000000001,-0.214352,-0.12002750000000001,0.45434800000000003,-0.199125,-0.20545750000000002,0.658895,-0.32406999999999997,0.1432525,0.44765600000000005,-0.19108399999999998,0.26995250000000004,0.655095,-0.28500000000000003,-0.22743750000000001,0.856635,-0.46604999999999996,0.31625250000000005,0.873165,-0.39586999999999994,-0.0729445,-0.0008349999999999747,-0.005659999999999998,0.0729445,0.0008350000000000302,0.005660000000000012,-0.0817195,-0.009284999999999988,-0.3302,0.1491525,-0.006034999999999957,-0.31235,-0.0987075,-0.258595,-0.164161,0.1212725,-0.257155,-0.158186
128,0.007947,0.63615,-0.21363700000000002,-0.122195,0.45428599999999997,-0.198829,-0.20758500000000002,0.65594,-0.32211,0.141625,0.447289,-0.191255,0.268515,0.65579,-0.28554999999999997,-0.23213499999999998,0.85321,-0.46064,0.313585,0.87198,-0.39628,-0.072973,-0.0008599999999999719,-0.005610000000000004,0.072973,0.0008599999999999719,0.00560999999999999,-0.083787,0.0019200000000000328,-0.33022,0.147125,0.006309999999999982,-0.31122,-0.100145,-0.24377000000000004,-0.163006,0.118875,-0.24196000000000006,-0.156678
129,0.006237000000000003,0.633785,-0.21302700000000002,-0.124505,0.455565,-0.198067,-0.209975,0.652195,-0.3199,0.139845,0.44648,-0.191024,0.266405,0.659665,-0.28618,-0.236845,0.849255,-0.45559,0.310705,0.870765,-0.39644,-0.073025,-0.0005549999999999722,-0.00544,0.073025,0.0005549999999999722,0.00544,-0.085986,0.01177499999999998,-0.32985,0.14510499999999998,0.017614999999999992,-0.31004,-0.10162299999999999,-0.23041500000000004,-0.161797,0.116485,-0.22814500000000004,-0.15505000000000002
130,0.004422499999999999,0.6315149999999999,-0.211877,-0.1270015,0.45679499999999995,-0.19708,-0.2123915,0.6522749999999999,-0.317745,0.1377985,0.4465449999999999,-0.190513,0.2649185,0.662275,-0.28681500000000004,-0.2415715,0.8463849999999999,-0.450845,0.3076585,0.870555,-0.396415,-0.07301350000000001,-0.0003750000000000142,-0.005045000000000008,0.07301350000000001,0.0003749999999999032,0.005044999999999994,-0.08828449999999999,0.0205749999999999,-0.329135,0.1431085,0.028184999999999905,-0.308715,-0.1032585,-0.21811500000000006,-0.160505,0.1137685,-0.2152250000000001,-0.152737
131,0.002508499999999997,0.6286390000000001,-0.21083200000000002,-0.1295235,0.45797800000000005,-0.19621100000000002,-0.2148135,0.65083,-0.315835,0.13562649999999998,0.44699900000000004,-0.189676,0.2630665,0.6633600000000001,-0.28754500000000005,-0.2462335,0.84582,-0.448225,0.3046465,0.8671500000000001,-0.396235,-0.0729385,-0.00020999999999993246,-0.004695000000000005,0.0729385,0.00021000000000004349,0.004694999999999991,-0.0906015,0.027310000000000056,-0.32820499999999997,0.1412565,0.03673000000000004,-0.307445,-0.1048355,-0.20824999999999994,-0.159167,0.11058649999999999,-0.20477,-0.149978
132,0.0005190000000000021,0.626144,-0.21005000000000001,-0.132045,0.458719,-0.195498,-0.217535,0.649589,-0.314345,0.133515,0.44771000000000005,-0.188964,0.261095,0.6650200000000001,-0.287205,-0.250865,0.84465,-0.446255,0.301695,0.86554,-0.396065,-0.07280700000000001,-0.00019999999999997797,-0.004354999999999998,0.07280700000000001,0.00019999999999997797,0.004354999999999998,-0.092951,0.033950000000000036,-0.327485,0.139465,0.04517000000000004,-0.306335,-0.106129,-0.19867,-0.157557,0.10736500000000002,-0.19414999999999993,-0.147465
133,-0.0013090000000000011,0.6240559999999999,-0.209589,-0.134443,0.458545,-0.19506600000000002,-0.219783,0.648014,-0.313745,0.131447,0.4479949999999999,-0.188515,0.259897,0.667565,-0.28759500000000005,-0.255323,0.842495,-0.444965,0.298987,0.8635249999999999,-0.395995,-0.07268,-0.0003049999999999997,-0.004095000000000001,0.07268,0.0003049999999999997,0.004095000000000001,-0.09514800000000001,0.04009499999999999,-0.32704500000000003,0.137857,0.05312499999999998,-0.305505,-0.106985,-0.18965500000000002,-0.156245,0.104017,-0.18427500000000008,-0.14489200000000002
134,-0.0024195000000000032,0.623472,-0.20927400000000002,-0.13601850000000001,0.4607,-0.19488300000000003,-0.22155850000000002,0.6465380000000001,-0.313195,0.13018149999999998,0.44911,-0.188316,0.2594015,0.6694800000000001,-0.288245,-0.2582485,0.83926,-0.444025,0.2973415,0.86195,-0.395825,-0.07265350000000001,-0.000140000000000029,-0.003915000000000002,0.07265350000000001,0.000140000000000029,0.003914999999999988,-0.0965665,0.04478000000000004,-0.326855,0.1371115,0.05935999999999997,-0.30483499999999997,-0.1069195,-0.18272999999999995,-0.155062,0.1012915,-0.17643999999999993,-0.14203300000000002
135,-0.002327999999999995,0.6209439999999999,-0.208848,-0.13638,0.46092999999999995,-0.194695,-0.22232000000000002,0.645775,-0.31303000000000003,0.13003,0.44963999999999993,-0.188116,0.26014,0.667883,-0.28884,-0.25962,0.83349,-0.44333,0.29703,0.85771,-0.39564,-0.072618,-0.000260000000000038,-0.0037800000000000056,0.072618,0.00025999999999992696,0.0037799999999999917,-0.096774,0.04657,-0.32666,0.13757,0.06262999999999996,-0.30416,-0.10545099999999999,-0.17896,-0.15377600000000002,0.10013000000000001,-0.17174,-0.13947800000000002
136,-0.002225000000000003,0.6199939999999999,-0.208329,-0.136667,0.46148999999999996,-0.194586,-0.223057,0.6452359999999999,-0.31295,0.12989299999999998,0.45094999999999996,-0.187974,0.260363,0.667581,-0.28885,-0.260297,0.8311,-0.44326,0.29675300000000004,0.8549199999999999,-0.39558,-0.072572,-0.00041000000000002146,-0.0036500000000000005,0.072572,0.00040999999999991044,0.0036500000000000005,-0.096905,0.0486899999999999,-0.32611,0.138073,0.06563999999999992,-0.30354000000000003,-0.10433,-0.17554000000000003,-0.15299400000000002,0.099683,-0.16753000000000007,-0.13803500000000002
137,-0.0022140000000000007,0.6191780000000001,-0.207839,-0.136841,0.4617150000000001,-0.194268,-0.223681,0.6444310000000001,-0.31288499999999997,0.129749,0.45179500000000006,-0.18770199999999998,0.260459,0.6668620000000001,-0.288775,-0.260841,0.8319150000000001,-0.443205,0.29649899999999996,0.8525150000000001,-0.395445,-0.072512,-0.0004649999999999377,-0.0036149999999999932,0.072512,0.0004650000000000487,0.003615000000000007,-0.09703999999999999,0.05023500000000014,-0.325565,0.138489,0.06798500000000007,-0.30296500000000004,-0.103207,-0.17241499999999987,-0.152576,0.099549,-0.1642149999999999,-0.137038
138,-0.002187999999999999,0.618733,-0.20739800000000003,-0.137159,0.46150500000000005,-0.193884,-0.22414900000000001,0.643942,-0.313375,0.129661,0.45235500000000006,-0.187453,0.260641,0.66638,-0.28881500000000004,-0.261309,0.832195,-0.44320499999999996,0.296221,0.851405,-0.39553499999999997,-0.072453,-0.0005450000000000177,-0.0036250000000000032,0.072453,0.0005450000000000177,0.0036249999999999893,-0.09715599999999999,0.051405000000000034,-0.325075,0.13886099999999998,0.06974500000000006,-0.302425,-0.10200999999999999,-0.16905499999999996,-0.15230300000000002,0.099521,-0.16152499999999992,-0.136169
139,-0.0022510000000000013,0.618738,-0.206985,-0.137422,0.46092500000000003,-0.19353199999999998,-0.224542,0.6436630000000001,-0.313845,0.129508,0.452905,-0.187196,0.260658,0.6660900000000001,-0.288655,-0.261722,0.832125,-0.443595,0.296108,0.8509150000000001,-0.395625,-0.072404,-0.0006849999999999357,-0.0036349999999999993,0.072404,0.0006850000000000467,0.0036349999999999993,-0.09718500000000001,0.05229499999999998,-0.324665,0.139108,0.07104500000000002,-0.301925,-0.101011,-0.16663499999999998,-0.152225,0.099148,-0.159725,-0.13577
140,-0.002293500000000002,0.619453,-0.20670699999999997,-0.1375935,0.45943000000000006,-0.193067,-0.2248235,0.643831,-0.31416,0.1294165,0.45314000000000004,-0.18695799999999999,0.26055649999999997,0.66593,-0.28828,-0.2620035,0.83181,-0.44484,0.29602649999999997,0.8516300000000001,-0.39563,-0.0723545,-0.0008699999999999264,-0.0036399999999999905,0.0723545,0.0008700000000000374,0.0036400000000000043,-0.0971465,0.05248000000000008,-0.32455,0.1392065,0.07157000000000002,-0.30156,-0.1007965,-0.1664699999999999,-0.152215,0.0988665,-0.15882999999999992,-0.135656
141,-0.0022779999999999988,0.619453,-0.206353,-0.137596,0.45943000000000006,-0.193017,-0.224826,0.643831,-0.31411,0.129384,0.45314000000000004,-0.186667,0.260514,0.66593,-0.28759999999999997,-0.262006,0.83181,-0.44479,0.296224,0.8516300000000001,-0.39557,-0.072357,-0.0008699999999999264,-0.003589999999999996,0.072357,0.0008700000000000374,0.00359000000000001,-0.09695999999999999,0.05248000000000008,-0.32449,0.13931400000000002,0.07141000000000008,-0.3015,-0.100799,-0.16752999999999996,-0.152165,0.09886400000000001,-0.1587599999999999,-0.135606
142,-0.002291999999999999,0.619453,-0.206087,-0.137583,0.45943000000000006,-0.19297999999999998,-0.224813,0.643831,-0.31411,0.129347,0.45314000000000004,-0.186449,0.260307,0.66593,-0.28679,-0.261993,0.83181,-0.44479,0.296297,0.8516300000000001,-0.39529,-0.07234399999999999,-0.0008699999999999264,-0.003589999999999996,0.07234399999999999,0.0008700000000000374,0.00359000000000001,-0.09673499999999999,0.05248000000000008,-0.32448,0.13938699999999998,0.0712600000000001,-0.3015,-0.100771,-0.16745,-0.152457,0.09906699999999999,-0.15869999999999995,-0.135596
143,-0.0023265000000000004,0.6197760000000001,-0.206089,-0.1376395,0.45943000000000006,-0.192984,-0.2247995,0.643831,-0.31409,0.1292905,0.45314000000000004,-0.18621,0.2597505,0.66593,-0.28557,-0.26213949999999997,0.83181,-0.44558,0.2960705,0.8539800000000001,-0.39518,-0.07233049999999999,-0.0008699999999999264,-0.003589999999999996,0.07233049999999999,0.0008700000000000374,0.00359000000000001,-0.0960705,0.05248000000000008,-0.32445,0.13940049999999998,0.0712600000000001,-0.3015,-0.10065450000000001,-0.16626999999999992,-0.15320699999999998,0.0998105,-0.15867999999999993,-0.135992
144,-0.0009449999999999997,0.624586,-0.205479,-0.13620000000000002,0.45892499999999997,-0.19253399999999998,-0.22318,0.643697,-0.31372999999999995,0.13067,0.45252499999999996,-0.185618,0.25993,0.667582,-0.28371,-0.26088,0.829085,-0.4452,0.29722,0.858915,-0.39466,-0.07244,-0.0006850000000000467,-0.003919999999999993,0.07244,0.0006849999999999357,0.003920000000000007,-0.09265,0.048705,-0.32465,0.14086,0.06731500000000001,-0.30145999999999995,-0.099095,-0.16951500000000008,-0.154202,0.10210000000000001,-0.16263500000000009,-0.137678
145,0.00036500000000000074,0.629271,-0.204714,-0.134526,0.4571550000000001,-0.191772,-0.222086,0.642464,-0.312855,0.131904,0.45085500000000006,-0.184883,0.260224,0.668644,-0.281495,-0.259786,0.8257050000000001,-0.444645,0.298124,0.865615,-0.394005,-0.072436,-0.0006249999999999867,-0.004275000000000001,0.072436,0.0006250000000000977,0.004275000000000001,-0.08923099999999999,0.04287500000000011,-0.324925,0.14216399999999998,0.06119500000000011,-0.301545,-0.09812,-0.1753849999999999,-0.155171,0.10455400000000001,-0.168755,-0.139848
146,0.001750500000000002,0.6330049999999999,-0.203525,-0.1326275,0.45630999999999994,-0.190574,-0.2207675,0.6441749999999999,-0.3104,0.1332625,0.45088999999999996,-0.18368299999999999,0.26050249999999997,0.6709299999999999,-0.27885,-0.2588275,0.8311499999999999,-0.44187,0.2990525,0.8719899999999999,-0.39261999999999997,-0.0723525,-0.0007600000000000939,-0.004390000000000005,0.0723525,0.0007599999999999829,0.004390000000000005,-0.0858125,0.030389999999999917,-0.32483,0.1435725,0.0478599999999999,-0.3017,-0.0971195,-0.18875000000000008,-0.15612700000000002,0.1073725,-0.1821600000000001,-0.142328
147,0.0031794999999999983,0.637976,-0.201971,-0.1306725,0.45664299999999997,-0.18894299999999997,-0.2190925,0.6491199999999999,-0.30769,0.1347175,0.45092899999999997,-0.182116,0.2613275,0.67387,-0.27664999999999995,-0.2574925,0.83491,-0.43843,0.2999375,0.87876,-0.39027,-0.0722165,-0.0007300000000000084,-0.004219999999999988,0.0722165,0.0007300000000000084,0.0042200000000000015,-0.08272650000000001,0.01576999999999995,-0.32458,0.1449775,0.03228999999999993,-0.30189,-0.0963045,-0.20488000000000006,-0.156466,0.1098975,-0.19810000000000005,-0.144256
148,0.004460000000000004,0.6437950000000001,-0.199988,-0.128875,0.4574380000000001,-0.18702,-0.217445,0.6534950000000002,-0.30423500000000003,0.13600500000000001,0.4532230000000001,-0.18020799999999998,0.261675,0.6792150000000001,-0.273575,-0.256365,0.8379750000000001,-0.433315,0.30062500000000003,0.8853850000000001,-0.38673500000000005,-0.072081,-0.0007349999999999302,-0.004014999999999991,0.072081,0.0007350000000000412,0.004015000000000005,-0.08019499999999999,-0.0006749999999998701,-0.324345,0.146175,0.014165000000000094,-0.302085,-0.09582399999999999,-0.2240749999999999,-0.156146,0.111655,-0.21698499999999987,-0.14518599999999998
149,0.005806499999999997,0.64949,-0.197495,-0.1269855,0.458643,-0.184667,-0.2156555,0.65683,-0.29949,0.13740449999999998,0.454243,-0.177906,0.2621745,0.68337,-0.2701,-0.2548555,0.8400799999999999,-0.42758,0.3016645,0.89218,-0.38215,-0.0719045,-0.0005300000000000304,-0.0036500000000000005,0.0719045,0.0005300000000000304,0.0036500000000000005,-0.0779735,-0.017859999999999987,-0.32408,0.1474145,-0.005639999999999978,-0.3024,-0.0954335,-0.24582000000000004,-0.155334,0.1134845,-0.23838000000000004,-0.145723
150,0.007211999999999998,0.65753,-0.1944895,-0.124994,0.460356,-0.18189450000000001,-0.21377400000000002,0.6591,-0.2941205,0.138846,0.456397,-0.17512850000000002,0.262606,0.68791,-0.26561049999999997,-0.253474,0.8404499999999999,-0.4195805,0.30271600000000004,0.89949,-0.3764905,-0.071709,-0.00039000000000000146,-0.003329500000000013,0.071709,0.00039000000000000146,0.003329499999999999,-0.07603299999999999,-0.03723000000000004,-0.3232005,0.148706,-0.027690000000000048,-0.3024905,-0.09507000000000002,-0.27097,-0.1540735,0.11535599999999999,-0.26264000000000004,-0.1458395
151,0.008291000000000001,0.66462,-0.1905555,-0.12332299999999999,0.462104,-0.1782185,-0.21241300000000002,0.6593100000000001,-0.2865455,0.13999699999999998,0.458259,-0.1713315,0.262647,0.6931,-0.2598555,-0.25332299999999996,0.8398300000000001,-0.4086755,0.303167,0.90688,-0.3698855,-0.07144600000000001,-0.00028000000000000247,-0.002964500000000009,0.07144600000000001,0.00028000000000000247,0.002964499999999995,-0.07494799999999999,-0.05869000000000002,-0.3209155,0.149497,-0.05181000000000002,-0.3014755,-0.09486900000000001,-0.29808999999999997,-0.1520475,0.116707,-0.28984999999999994,-0.1450745
152,0.009143000000000002,0.6722650000000001,-0.1856485,-0.121813,0.46558200000000005,-0.1743785,-0.211893,0.661435,-0.2779255,0.141177,0.460977,-0.16704249999999998,0.262527,0.698855,-0.2535955,-0.252433,0.840735,-0.39725550000000004,0.303537,0.9162250000000001,-0.36256550000000004,-0.07111400000000001,5.000000000032756e-06,-0.0027085000000000026,0.07111400000000001,-4.999999999977245e-06,0.0027085000000000026,-0.07408799999999999,-0.08170499999999992,-0.3172055,0.150117,-0.07753499999999997,-0.2995055,-0.09431,-0.32767499999999994,-0.1492085,0.117837,-0.319445,-0.1438755
153,0.0090555,0.677025,-0.1806325,-0.12123149999999999,0.46753,-0.17040450000000001,-0.2121215,0.667555,-0.2690715,0.1413385,0.46306400000000003,-0.1627715,0.26181849999999995,0.701735,-0.24760150000000003,-0.25254150000000003,0.8486750000000001,-0.38542150000000003,0.3030985,0.922425,-0.3544915,-0.0711175,3.500000000000725e-05,-0.0021204999999999974,0.0711175,-3.500000000000725e-05,0.0021204999999999974,-0.0742565,-0.10153499999999999,-0.3134915,0.1497485,-0.09931499999999999,-0.2966215,-0.09486449999999999,-0.35440499999999997,-0.14575950000000001,0.1179385,-0.346175,-0.1409605
154,0.009245500000000004,0.6788700000000001,-0.1724095,-0.1211125,0.47248,-0.16442649999999998,-0.21177249999999997,0.67118,-0.2582815,0.1418775,0.46871,-0.15671649999999998,0.2611375,0.7056800000000001,-0.2394015,-0.2525425,0.8597600000000001,-0.37164149999999996,0.30244750000000004,0.92643,-0.34322149999999996,-0.0710775,4.999999999999449e-05,-0.0013804999999999928,0.0710775,-4.999999999999449e-05,0.0013805000000000067,-0.0747195,-0.12326999999999999,-0.3080215,0.1493875,-0.12308999999999998,-0.2911415,-0.09551549999999999,-0.38614000000000004,-0.1405515,0.11802750000000001,-0.37807,-0.1360485
155,0.009322499999999996,0.6824300000000001,-0.162945,-0.1214395,0.4767600000000001,-0.157642,-0.2122995,0.67698,-0.24788,0.1423005,0.47209,-0.149975,0.2604205,0.70998,-0.23057,-0.2525895,0.8616400000000001,-0.35597999999999996,0.30169050000000003,0.93006,-0.33074,-0.07108149999999999,0.00035000000000001696,-0.000908000000000006,0.07108149999999999,-0.00034999999999996145,0.000908000000000006,-0.07637750000000001,-0.13985999999999998,-0.30173,0.14906049999999998,-0.14139999999999997,-0.28493,-0.0963505,-0.41237999999999997,-0.134742,0.1180705,-0.40618,-0.130165
156,0.008746000000000002,0.68502,-0.153298,-0.12245199999999999,0.48043,-0.14993499999999998,-0.21307199999999998,0.67839,-0.236613,0.14212799999999998,0.47586000000000006,-0.143288,0.259058,0.7142900000000001,-0.221313,-0.253812,0.86367,-0.339683,0.299908,0.9364800000000001,-0.318903,-0.070782,0.00042000000000003146,-0.0007049999999999973,0.070782,-0.00041999999999997595,0.0007049999999999973,-0.080325,-0.15521999999999997,-0.29402300000000003,0.148048,-0.15865999999999997,-0.27853300000000003,-0.097847,-0.43792999999999993,-0.128909,0.117378,-0.43370999999999993,-0.124091
157,0.008484999999999998,0.685265,-0.14313199999999998,-0.12317900000000001,0.483125,-0.142208,-0.214119,0.679445,-0.225274,0.142121,0.476915,-0.136346,0.25797099999999995,0.716375,-0.211724,-0.256549,0.865455,-0.323694,0.297961,0.941885,-0.306254,-0.070517,0.0005350000000000077,-0.0005129999999999996,0.070517,-0.0005350000000000077,0.0005129999999999996,-0.084624,-0.16924500000000003,-0.285944,0.147111,-0.17322500000000002,-0.271664,-0.099554,-0.461395,-0.123031,0.116841,-0.45887500000000003,-0.118204
158,0.008124000000000003,0.686045,-0.132594,-0.12412000000000001,0.488045,-0.133597,-0.21474,0.680675,-0.212302,0.14234000000000002,0.480985,-0.129037,0.2564,0.7168650000000001,-0.201282,-0.25711,0.8676050000000001,-0.306572,0.2965,0.944115,-0.29355200000000004,-0.070044,0.0005350000000000077,-0.00032799999999999496,0.070044,-0.0005350000000000077,0.0003280000000000019,-0.08932399999999999,-0.18506499999999998,-0.27632199999999996,0.14588,-0.18906499999999998,-0.263502,-0.101656,-0.48594499999999996,-0.116119,0.11626,-0.484795,-0.11185
159,0.008002,0.685735,-0.1216235,-0.12499299999999999,0.49148499999999995,-0.1247605,-0.214893,0.682785,-0.1987735,0.142487,0.482765,-0.1213225,0.254837,0.7191449999999999,-0.19048349999999997,-0.258823,0.8716849999999999,-0.2879035,0.295147,0.943635,-0.2797835,-0.069386,0.0006549999999999889,-0.00018750000000000017,0.069386,-0.0006550000000000167,0.00018750000000000017,-0.09381500000000001,-0.19794500000000004,-0.2649335,0.14474700000000001,-0.20143500000000003,-0.2532935,-0.103747,-0.507555,-0.1086435,0.11593700000000001,-0.507455,-0.1053515
160,0.007925000000000001,0.684985,-0.11104699999999999,-0.125755,0.49473500000000004,-0.116251,-0.214755,0.686885,-0.18590099999999998,0.142645,0.48389499999999996,-0.114195,0.253225,0.7201449999999999,-0.18029099999999998,-0.259245,0.877555,-0.271451,0.293965,0.9422649999999999,-0.265341,-0.068741,0.0008849999999999969,-0.00010500000000000093,0.068741,-0.0008849999999999969,0.00010500000000000093,-0.098069,-0.209105,-0.252961,0.14363499999999998,-0.21216500000000002,-0.24278100000000002,-0.105865,-0.526675,-0.10173499999999999,0.11562499999999999,-0.5277050000000001,-0.099294
161,0.007831500000000002,0.68159,-0.1009165,-0.1265655,0.49667,-0.1078605,-0.2152055,0.68804,-0.1735685,0.1425745,0.48655000000000004,-0.1070035,0.25151450000000003,0.72051,-0.1697585,-0.2611455,0.8867200000000001,-0.2541285,0.29298450000000004,0.9453,-0.25105849999999996,-0.0682575,0.0009700000000000264,5.6500000000000994e-05,0.0682575,-0.0009699999999999986,-5.6500000000000994e-05,-0.1020885,-0.21825,-0.2400685,0.1425745,-0.22083999999999998,-0.2312585,-0.10805150000000001,-0.54314,-0.0950395,0.1155045,-0.54536,-0.09332950000000001
162,0.007844,0.6800649999999999,-0.0907485,-0.12733,0.499065,-0.0995855,-0.21709,0.6858249999999999,-0.1611305,0.14265,0.489635,-0.09999150000000001,0.24991,0.7212749999999999,-0.1596805,-0.26349,0.8908449999999999,-0.2364905,0.29211,0.9482349999999999,-0.2373105,-0.067792,0.0008549999999999947,0.00023050000000000154,0.067792,-0.0008550000000000224,-0.00023049999999999807,-0.10582899999999999,-0.227395,-0.2269605,0.14174,-0.22963500000000003,-0.2192005,-0.110205,-0.558945,-0.08863650000000001,0.11565,-0.5623549999999999,-0.0877795
163,0.007831499999999998,0.6806800000000001,-0.084119,-0.1278095,0.49978,-0.09284300000000001,-0.2195595,0.68749,-0.15003,0.1424905,0.4898,-0.094361,0.2486105,0.72175,-0.15127,-0.2663395,0.89398,-0.21994,0.2914705,0.95077,-0.22626,-0.06748950000000001,0.0009000000000000119,0.0004030000000000006,0.06748950000000001,-0.0008999999999999841,-0.0004030000000000006,-0.10868549999999999,-0.23324,-0.21511999999999998,0.1413605,-0.23507,-0.20845,-0.1124695,-0.56957,-0.08477,0.11612050000000002,-0.57304,-0.083807
164,0.008058500000000003,0.68028,-0.07830200000000001,-0.12841049999999998,0.50167,-0.086726,-0.2224205,0.68483,-0.139831,0.1425295,0.49094000000000004,-0.089617,0.2475095,0.72121,-0.143341,-0.2686205,0.8997700000000001,-0.20678100000000002,0.2907695,0.9538800000000001,-0.215891,-0.0673105,0.0009600000000000025,0.0006679999999999985,0.0673105,-0.0009600000000000025,-0.0006680000000000019,-0.1107545,-0.23806000000000002,-0.204581,0.1415595,-0.23951999999999998,-0.19829100000000002,-0.11453050000000001,-0.57829,-0.08154700000000001,0.1171795,-0.58131,-0.080888
165,0.008483999999999998,0.67963,-0.072851,-0.12869,0.5029,-0.081227,-0.22412,0.69138,-0.130601,0.14278,0.49151,-0.085058,0.24702999999999997,0.72157,-0.135571,-0.27101000000000003,0.9099700000000001,-0.19403099999999998,0.29035,0.95419,-0.204861,-0.067036,0.0011600000000000082,0.0009699999999999986,0.067036,-0.0011599999999999944,-0.0009700000000000004,-0.11252100000000001,-0.24228,-0.194361,0.14202,-0.24322,-0.188131,-0.11653000000000001,-0.58565,-0.077336,0.11845,-0.58811,-0.07663400000000001
166,0.008521499999999998,0.6865455,-0.06835250000000001,-0.1294185,0.5041355,-0.0758945,-0.2259285,0.6982555,-0.1222955,0.14284149999999998,0.49213550000000006,-0.0805225,0.24617150000000002,0.7215855,-0.12788549999999999,-0.2726985,0.9206055,-0.18225550000000001,0.2900815,0.9553855,-0.19481549999999997,-0.0668875,0.0013385000000000064,0.0012434999999999998,0.0668875,-0.0013384999999999925,-0.0012434999999999998,-0.1135185,-0.2491845,-0.18410549999999998,0.14106149999999998,-0.25057450000000003,-0.1785355,-0.11806849999999999,-0.5957245,-0.0729745,0.11838150000000001,-0.5982445000000001,-0.0721965
167,0.008617,0.6921075,-0.064527,-0.13003199999999998,0.5050675,-0.071349,-0.22705199999999998,0.7077374999999999,-0.114619,0.142768,0.4904575,-0.07658699999999999,0.245618,0.7253775,-0.12032899999999999,-0.275032,0.9319175,-0.170549,0.290348,0.9591075,-0.185029,-0.06694,0.00151649999999999,0.0012810000000000009,0.06694,-0.001516500000000004,-0.0012809999999999992,-0.114242,-0.25441250000000004,-0.174719,0.140318,-0.2559325,-0.169039,-0.119292,-0.6036125,-0.06922,0.11847799999999999,-0.6060525,-0.068371
168,0.008208000000000003,0.6946775,-0.055775000000000005,-0.131021,0.5054175,-0.06191,-0.228811,0.7158275,-0.103015,0.14244900000000002,0.4890875,-0.067785,0.244759,0.7259575,-0.108485,-0.277621,0.9414475,-0.156365,0.290059,0.9623075,-0.170945,-0.067018,0.0015425000000000022,0.001575,0.067018,-0.0015425000000000022,-0.001575,-0.115281,-0.26206250000000003,-0.160105,0.13928900000000002,-0.2644225,-0.154305,-0.120701,-0.6132425,-0.060573,0.118109,-0.6158825,-0.059669
169,0.0068635000000000015,0.6960185,-0.046740000000000004,-0.1329515,0.5044385,-0.051232,-0.23191150000000002,0.7191985,-0.091916,0.1426385,0.4909085,-0.057449,0.24358849999999999,0.7246285,-0.096006,-0.2813315,0.9454985,-0.14133600000000002,0.2894385,0.9607685,-0.15651600000000002,-0.0671215,0.0009684999999999971,0.001972,0.0671215,-0.0009685000000000041,-0.001972,-0.11701149999999999,-0.2744215,-0.14247600000000002,0.1363385,-0.2774815,-0.136076,-0.1230715,-0.6269515,-0.048519999999999994,0.1166485,-0.6297015,-0.047653
170,0.0054985,0.6993255,-0.0379615,-0.1345925,0.5037555,-0.0409925,-0.2340825,0.7234755,-0.0811105,0.1428175,0.4904455,-0.0475075,0.2426075,0.7236355,-0.0842185,-0.2848925,0.9451555,-0.1275185,0.2879475,0.9519655,-0.1422485,-0.0672085,0.0004274999999999973,0.002422500000000001,0.0672085,-0.00042750000000000427,-0.0024224999999999976,-0.11836250000000001,-0.2865245,-0.1256185,0.1333275,-0.2896245,-0.1186585,-0.1253225,-0.6393445,-0.0366975,0.11503749999999999,-0.6420445,-0.0358595
171,0.003995499999999999,0.7004645,-0.029377500000000004,-0.1362055,0.5029245,-0.0311345,-0.2375555,0.7279045,-0.0707385,0.1429545,0.49091450000000003,-0.0377015,0.2417145,0.7235045,-0.0727795,-0.2872555,0.9456445,-0.11443450000000001,0.2864245,0.9446145,-0.12761450000000002,-0.0672605,-1.1500000000004562e-05,0.0026984999999999995,0.0672605,1.1499999999997623e-05,-0.0026984999999999995,-0.1192755,-0.2973355,-0.1093245,0.1301945,-0.3005255,-0.1017145,-0.12732549999999998,-0.6504455,-0.024733500000000002,0.11348449999999999,-0.6530055,-0.023702499999999998
172,0.002531000000000002,0.7028385,-0.0212445,-0.137983,0.5023385,-0.021662499999999994,-0.24132299999999998,0.7325085,-0.061102500000000004,0.143077,0.4918585,-0.02831349999999999,0.240837,0.7234585,-0.0619185,-0.289513,0.9454085000000001,-0.10164150000000001,0.28485699999999997,0.9385385,-0.11324150000000001,-0.067274,-0.00045249999999999804,0.0028385000000000007,0.067274,0.0004525000000000015,-0.0028385000000000007,-0.11999699999999999,-0.30705150000000003,-0.0935515,0.12698700000000002,-0.3102515,-0.0851015,-0.129043,-0.6608014999999999,-0.012980499999999999,0.111877,-0.6634315,-0.011908499999999995
173,0.0011740000000000014,0.705602,-0.013639499999999992,-0.139855,0.5009520000000001,-0.012543499999999992,-0.244585,0.736552,-0.051589499999999996,0.143295,0.492332,-0.019115499999999994,0.240105,0.723172,-0.0514235,-0.291665,0.9432119999999999,-0.08874949999999998,0.283385,0.9329419999999999,-0.09959950000000001,-0.06729199999999999,-0.0008819999999999991,0.0029035000000000033,0.06729199999999999,0.0008820000000000008,-0.0029034999999999964,-0.12049199999999999,-0.315998,-0.0778295,0.123585,-0.319708,-0.06871949999999999,-0.130625,-0.671378,-0.0012434999999999946,0.110265,-0.674058,0.0001825000000000021
