sb224sc-HT22-VT27/4dt907/src/data/kinect_good_vs_bad_not_preprocessed_A13_mediapipe/G26.csv
FrameNo,nose_3d_x,nose_3d_y,nose_3d_z,left_shoulder_3d_x,left_shoulder_3d_y,left_shoulder_3d_z,left_elbow_3d_x,left_elbow_3d_y,left_elbow_3d_z,right_shoulder_3d_x,right_shoulder_3d_y,right_shoulder_3d_z,right_elbow_3d_x,right_elbow_3d_y,right_elbow_3d_z,left_wrist_3d_x,left_wrist_3d_y,left_wrist_3d_z,right_wrist_3d_x,right_wrist_3d_y,right_wrist_3d_z,left_hip_3d_x,left_hip_3d_y,left_hip_3d_z,right_hip_3d_x,right_hip_3d_y,right_hip_3d_z,left_knee_3d_x,left_knee_3d_y,left_knee_3d_z,right_knee_3d_x,right_knee_3d_y,right_knee_3d_z,left_ankle_3d_x,left_ankle_3d_y,left_ankle_3d_z,right_ankle_3d_x,right_ankle_3d_y,right_ankle_3d_z
0,0.0189605,0.7550095,0.008874999999999997,-0.1509335,0.4671895,0.010704999999999996,-0.2011035,0.2339495,-0.018546,0.1690365,0.4594895,0.019620999999999996,0.2147265,0.2434395,0.0016599999999999948,-0.2509935,0.0468145,-0.10687900000000002,0.2408565,0.0448265,-0.068949,-0.0680495,0.0010505000000000002,0.00047399999999999526,0.0680495,-0.0010504999999999994,-0.0004740000000000022,-0.1273635,-0.3272805,0.010242999999999999,0.1124365,-0.3277705,0.034555999999999996,-0.1340935,-0.6415805,0.036821999999999994,0.1199265,-0.6146805,0.054592999999999996
1,0.018944500000000003,0.754706,0.009694999999999999,-0.15094649999999998,0.466836,0.010409999999999999,-0.2184765,0.249476,-0.035028000000000004,0.1680335,0.460586,0.01939,0.22749350000000002,0.257196,-0.013384,-0.2784165,0.07661699999999999,-0.14538299999999998,0.2672935,0.071812,-0.11154299999999999,-0.0682245,0.0009919999999999998,0.00037399999999999933,0.0682245,-0.0009919999999999998,-0.00037399999999999933,-0.1277865,-0.32707400000000003,0.009751,0.1118835,-0.327554,0.034228,-0.1348965,-0.6384139999999999,0.037284,0.1207335,-0.6109239999999999,0.054428000000000004
2,0.0185575,0.7541395000000001,0.011021999999999997,-0.1505885,0.4677495,0.006589999999999995,-0.2537385,0.29538949999999997,-0.074257,0.1655815,0.4630395,0.015874999999999997,0.2526515,0.27788949999999996,-0.055061,-0.3311085,0.1630595,-0.224797,0.3201415,0.1464695,-0.211677,-0.0684095,0.0008705000000000006,0.000557999999999996,0.0684095,-0.0008704999999999997,-0.0005580000000000029,-0.1285785,-0.3261505,0.009372999999999996,0.1110915,-0.32741050000000005,0.033457999999999995,-0.1349185,-0.6409404999999999,0.035196,0.1217415,-0.6043105,0.053286
3,0.018399500000000003,0.75352,0.012238500000000003,-0.1495535,0.46947,0.006681500000000003,-0.2740935,0.32426,-0.0962665,0.1645665,0.46348,0.013777500000000002,0.27827650000000004,0.30090999999999996,-0.0744765,-0.3642535,0.22767,-0.26605650000000003,0.3519165,0.2063,-0.25385650000000004,-0.0685205,0.0008709999999999998,0.0006635000000000009,0.0685205,-0.0008709999999999998,-0.0006634999999999974,-0.1291735,-0.32641000000000003,0.009068500000000004,0.11046650000000001,-0.32792000000000004,0.032545500000000005,-0.1354535,-0.6425500000000001,0.034313500000000004,0.1219165,-0.60393,0.052276500000000004
4,0.018137999999999998,0.7536349999999999,0.014257499999999996,-0.14799099999999998,0.469515,0.005776499999999997,-0.294721,0.360705,-0.1342215,0.16196899999999997,0.466335,0.011938499999999998,0.297149,0.349775,-0.11409150000000001,-0.394481,0.27310500000000004,-0.3032715,0.392739,0.245755,-0.2763815,-0.068634,0.0008299999999999996,0.0010694999999999975,0.068634,-0.00083,-0.001069500000000001,-0.129471,-0.32687499999999997,0.008747499999999998,0.110129,-0.327895,0.0321665,-0.13554100000000002,-0.643765,0.0336085,0.121949,-0.603905,0.05133649999999999
5,0.017672499999999997,0.753075,0.0144785,-0.14709150000000001,0.470005,0.005076500000000001,-0.3048015,0.393505,-0.1232415,0.16032849999999998,0.468205,0.010349500000000001,0.3050885,0.377805,-0.12625150000000002,-0.3932915,0.350515,-0.3147815,0.3980085,0.314965,-0.3102815,-0.0687625,0.0007880000000000001,0.0016555000000000007,0.0687625,-0.0007880000000000001,-0.0016555000000000007,-0.12958150000000002,-0.327665,0.0082815,0.1096885,-0.328415,0.0312395,-0.1354715,-0.642855,0.0322685,0.1220285,-0.604305,0.0497585
6,0.017300500000000003,0.7517335,0.014294999999999999,-0.1471575,0.4698335,0.004397999999999999,-0.30892749999999997,0.4313135,-0.135218,0.1598425,0.4709135,0.01013,0.3110525,0.4053435,-0.133328,-0.3989275,0.4114835,-0.343128,0.4088125,0.3841835,-0.32391800000000004,-0.0688465,0.0007335,0.0019999999999999983,0.0688465,-0.0007335,-0.0020000000000000018,-0.12987749999999998,-0.3279365,0.008527999999999997,0.10927250000000001,-0.3288965,0.031003,-0.13613750000000002,-0.6446565,0.031134,0.1214625,-0.6043765,0.048783999999999994
7,0.017012,0.7499665,0.015151999999999997,-0.14888,0.4709065,0.0033129999999999965,-0.29805000000000004,0.4558365,-0.11798700000000001,0.16449999999999998,0.4730965,0.009472999999999999,0.30512,0.4424765,-0.119677,-0.38032,0.4730965,-0.286277,0.38986,0.43916649999999996,-0.29688699999999996,-0.068748,0.0006495,0.001958999999999999,0.068748,-0.0006495000000000001,-0.0019590000000000024,-0.12946000000000002,-0.32881350000000004,0.008854999999999998,0.10915,-0.3301835,0.031313999999999995,-0.13605,-0.6430435,0.031816,0.11921,-0.6111635,0.049361
8,0.01672,0.748421,0.015809999999999998,-0.149075,0.472251,0.002765,-0.299785,0.488511,-0.118264,0.16450499999999998,0.475411,0.008465,0.307705,0.477061,-0.12380400000000001,-0.380615,0.533301,-0.28650400000000004,0.392325,0.5009410000000001,-0.297204,-0.068734,0.0006319999999999997,0.002166999999999999,0.068734,-0.0006320000000000002,-0.002166999999999999,-0.129485,-0.329699,0.008941000000000001,0.108835,-0.331349,0.031214,-0.136245,-0.643949,0.031682,0.118745,-0.612799,0.049127000000000004
9,0.016434500000000005,0.7466480000000001,0.016118999999999998,-0.1490985,0.47381799999999996,0.002246999999999999,-0.30008850000000004,0.518358,-0.118321,0.16464150000000002,0.47803799999999996,0.007559,0.3075215,0.5083380000000001,-0.12386100000000001,-0.3809185,0.5944980000000001,-0.286561,0.39202149999999997,0.560928,-0.297261,-0.06868250000000001,0.0005909999999999995,0.0022139999999999972,0.06868250000000001,-0.0005909999999999999,-0.0022140000000000007,-0.1295085,-0.330772,0.009104999999999999,0.1085315,-0.33274200000000004,0.031156999999999997,-0.1364385,-0.6460119999999999,0.031629,0.1183515,-0.615132,0.049067
10,0.016181000000000004,0.7447005,0.016109,-0.149157,0.4755405,0.001982000000000001,-0.300397,0.5469405,-0.118333,0.165023,0.48081050000000003,0.006482000000000002,0.307213,0.5377305,-0.12387300000000001,-0.381227,0.6489505,-0.286573,0.391713,0.6170105,-0.297273,-0.06859499999999999,0.0005455,0.0022180000000000012,0.06859499999999999,-0.0005455,-0.0022180000000000012,-0.129477,-0.3319595,0.009184999999999999,0.10822300000000001,-0.3343195,0.031145,-0.136647,-0.6480495,0.031621,0.117983,-0.6185695,0.048981
11,0.015958499999999994,0.742781,0.016100500000000004,-0.1492225,0.477331,0.0017175000000000037,-0.3007025,0.573531,-0.1178745,0.1654975,0.483581,0.005424500000000002,0.3069275,0.5658810000000001,-0.12388450000000001,-0.3800725,0.701121,-0.2809145,0.3914275,0.6686810000000001,-0.2972845,-0.06850049999999999,0.00046900000000000067,0.0022215000000000013,0.06850049999999999,-0.0004689999999999998,-0.0022214999999999978,-0.1294225,-0.333199,0.009187500000000001,0.10793749999999999,-0.335889,0.0311335,-0.1369125,-0.6500189999999999,0.0316105,0.1175475,-0.6221589999999999,0.0488445
12,0.015726500000000004,0.7403635000000001,0.0161485,-0.1493845,0.4802835,0.0015715,-0.2978445,0.6004135,-0.11080149999999998,0.16616550000000002,0.4861435,0.0044364999999999995,0.3064655,0.5916735000000001,-0.1212315,-0.3739445,0.7487135,-0.2658915,0.38768549999999996,0.7194535000000001,-0.2902015,-0.06835949999999999,0.00043849999999999965,0.002283500000000001,0.06835949999999999,-0.00043849999999999965,-0.002283500000000001,-0.12938449999999999,-0.33494650000000004,0.0092455,0.1076155,-0.33805650000000004,0.0311695,-0.1372545,-0.6525964999999999,0.0316445,0.11698549999999999,-0.6268465,0.0486855
13,0.015511999999999998,0.7376100000000001,0.016408,-0.149607,0.48339,0.0017099999999999997,-0.293817,0.62446,-0.10446899999999999,0.166873,0.48861000000000004,0.003731999999999999,0.304903,0.6185400000000001,-0.117099,-0.36767700000000003,0.7902100000000001,-0.24811899999999998,0.382623,0.76321,-0.277679,-0.068179,0.00041000000000000064,0.0023350000000000003,0.068179,-0.0004099999999999989,-0.0023350000000000003,-0.129407,-0.33717,0.009572,0.107393,-0.34035,0.031225,-0.137627,-0.65601,0.03188,0.116463,-0.6369499999999999,0.048361
14,0.0154025,0.7348185,0.0164905,-0.1496205,0.4866385,0.0022355000000000014,-0.2890705,0.6462485,-0.0961235,0.1671395,0.49044850000000006,0.0033895000000000036,0.3017995,0.6419585,-0.1108935,-0.3601405,0.8261685,-0.2249535,0.3759195,0.8015585000000001,-0.2607835,-0.0680005,0.00035349999999999965,0.0023215000000000006,0.0680005,-0.0003535000000000031,-0.002321499999999997,-0.1293705,-0.3393015,0.009982500000000002,0.1072095,-0.3424815,0.0313145,-0.1380005,-0.6595015,0.0323215,0.1160895,-0.6472815,0.0482345
15,0.015392499999999996,0.7321920000000001,0.016399999999999998,-0.1493965,0.48983200000000005,0.0029269999999999956,-0.2834765,0.662902,-0.087506,0.16691350000000002,0.49188200000000004,0.0032989999999999964,0.2974935,0.6600320000000001,-0.10351600000000001,-0.35269649999999997,0.854372,-0.204606,0.3685835,0.830172,-0.241446,-0.0678555,0.00027299999999999894,0.0022349999999999974,0.0678555,-0.00027299999999999894,-0.002235000000000001,-0.1293665,-0.34127799999999997,0.010410999999999997,0.1070835,-0.344058,0.031368,-0.13837649999999999,-0.663168,0.032854999999999995,0.1157135,-0.656948,0.048428
16,0.015465,0.729552,0.0160605,-0.14909899999999998,0.49293200000000004,0.003695500000000001,-0.278209,0.679332,-0.0789065,0.166541,0.493262,0.0032825000000000007,0.292111,0.674752,-0.0950765,-0.345029,0.876402,-0.18345650000000002,0.359931,0.853602,-0.21998649999999997,-0.067701,0.00018699999999999967,0.002141500000000001,0.067701,-0.00018699999999999967,-0.0021414999999999976,-0.129379,-0.343468,0.0109205,0.106951,-0.345638,0.0314125,-0.138849,-0.667548,0.033474500000000004,0.115311,-0.666098,0.048682500000000004
17,0.015570000000000004,0.7272155,0.015422500000000002,-0.14869899999999997,0.4956955,0.0043465,-0.27380899999999997,0.6916255,-0.0706985,0.16612100000000002,0.4942555,0.003474500000000002,0.287521,0.6862555,-0.0867485,-0.33924899999999997,0.8946355,-0.1657885,0.35086100000000003,0.8685955000000001,-0.1982585,-0.067563,6.350000000000106e-05,0.0021405,0.067563,-6.350000000000106e-05,-0.0021404999999999966,-0.129359,-0.3453045,0.011383500000000001,0.106851,-0.34694450000000004,0.0313685,-0.13932899999999998,-0.6717145,0.033973500000000004,0.114501,-0.6745245,0.048585500000000004
18,0.0157695,0.7250145,0.014497500000000003,-0.1480845,0.4981545,0.005208500000000001,-0.2688645,0.7030244999999999,-0.0623015,0.1657055,0.4943545,0.003703500000000002,0.2829855,0.6974444999999999,-0.07760249999999999,-0.3330245,0.9086044999999999,-0.1459625,0.3420255,0.8841344999999999,-0.1760825,-0.0674415,-2.6499999999998747e-05,0.002155500000000001,0.0674415,2.6500000000002216e-05,-0.0021554999999999977,-0.1292645,-0.34711549999999997,0.011820500000000001,0.1068455,-0.3480555,0.031203500000000002,-0.13979450000000002,-0.6757955,0.0344285,0.11430549999999999,-0.6805755,0.048532500000000006
19,0.016037499999999996,0.7229615,0.013389500000000002,-0.1472705,0.5002915,0.0061435,-0.2636905,0.7125515,-0.0542435,0.1653195,0.49396149999999994,0.0041945,0.2784195,0.7075914999999999,-0.0689515,-0.3264505,0.9207615,-0.1265715,0.3335795,0.8961915,-0.15419149999999998,-0.0673425,-9.649999999999936e-05,0.002215500000000002,0.0673425,9.650000000000283e-05,-0.002215500000000002,-0.1290805,-0.3486885,0.0122635,0.1068995,-0.3490685,0.0309935,-0.1402205,-0.6798985000000001,0.0348135,0.1142495,-0.6856185,0.0486375
20,0.016343,0.7207399999999999,0.012208,-0.146233,0.50261,0.0074140000000000005,-0.258783,0.7198,-0.046387,0.164797,0.49332999999999994,0.004646000000000001,0.273717,0.71587,-0.059981999999999994,-0.32010299999999997,0.92824,-0.10896399999999999,0.32526700000000003,0.90515,-0.132324,-0.067244,-0.00013099999999999917,0.002263000000000001,0.067244,0.00013099999999999917,-0.002263000000000001,-0.128873,-0.35044,0.012730000000000002,0.10700699999999999,-0.35028000000000004,0.030784,-0.140613,-0.6841900000000001,0.035181,0.114327,-0.6906,0.048718
21,0.0166955,0.7190939999999999,0.010995999999999999,-0.14526150000000002,0.5038039999999999,0.00867,-0.2558815,0.723634,-0.041149,0.1642785,0.49278400000000006,0.004989999999999998,0.2695985,0.7214839999999999,-0.052622999999999996,-0.3149615,0.933974,-0.095921,0.3182885,0.909744,-0.11463099999999998,-0.0671915,-0.0002020000000000008,0.0023689999999999996,0.0671915,0.0002020000000000008,-0.002369000000000003,-0.1286515,-0.351666,0.013066999999999999,0.10719849999999999,-0.35087599999999997,0.03052,-0.14093150000000002,-0.687196,0.035478,0.11449849999999999,-0.6967760000000001,0.04868
22,0.017074,0.7177205,0.009868499999999999,-0.14419700000000002,0.5048805000000001,0.0100925,-0.252817,0.7278405,-0.0357625,0.163603,0.4923604999999999,0.005271499999999998,0.265613,0.7243005,-0.044882500000000006,-0.309777,0.9390305,-0.0839855,0.311633,0.9152705,-0.09742550000000001,-0.067148,-0.0002365000000000006,0.0024544999999999983,0.067148,0.0002365000000000006,-0.0024544999999999983,-0.12839699999999998,-0.3526595,0.0132655,0.107303,-0.35152950000000005,0.0302995,-0.14121699999999998,-0.6894895,0.0356915,0.114513,-0.7000595,0.0487915
23,0.0173995,0.716635,0.008917000000000001,-0.14334449999999999,0.505645,0.011272,-0.2498245,0.731835,-0.030826,0.1629755,0.49205499999999996,0.005583000000000001,0.2621755,0.7271650000000001,-0.037943,-0.3048745,0.9433450000000001,-0.073929,0.3058155,0.920475,-0.08277899999999999,-0.0671175,-0.0002459999999999962,0.002544000000000001,0.0671175,0.00024600000000000316,-0.0025439999999999977,-0.1281845,-0.353585,0.013356,0.1073955,-0.352185,0.030092,-0.1414445,-0.6914849999999999,0.035837,0.1143555,-0.703685,0.048797
24,0.0176475,0.715647,0.008152500000000003,-0.1426995,0.506057,0.012324500000000002,-0.24713949999999998,0.735237,-0.026424499999999997,0.1623805,0.49167700000000003,0.005876500000000003,0.2588505,0.730407,-0.031468499999999996,-0.3000395,0.946997,-0.0647595,0.3006005,0.925617,-0.0698285,-0.0670955,-0.0002370000000000011,0.002608500000000003,0.0670955,0.0002370000000000011,-0.0026084999999999997,-0.1279295,-0.35424300000000003,0.013416500000000005,0.1074605,-0.353113,0.029990500000000003,-0.14164949999999998,-0.6931930000000001,0.0359545,0.1141605,-0.706783,0.048835500000000004
25,0.0177765,0.714815,0.007600500000000003,-0.1421375,0.506135,0.013267500000000002,-0.2447575,0.737295,-0.0225425,0.1618325,0.49133499999999997,0.0061335000000000035,0.2563525,0.733845,-0.026284499999999995,-0.29520749999999996,0.950475,-0.055870500000000003,0.2964325,0.931085,-0.058568499999999996,-0.0670955,-0.00022500000000000298,0.0026575000000000036,0.0670955,0.00022499999999999604,-0.0026575,-0.1277275,-0.354745,0.013456500000000003,0.1075025,-0.353815,0.029921500000000004,-0.1418575,-0.694645,0.036071500000000006,0.1139125,-0.7075049999999999,0.0490765
26,0.017834499999999996,0.7140865000000001,0.007120499999999998,-0.1416985,0.5058865,0.014058500000000002,-0.2423685,0.7389765,-0.018855499999999997,0.1613015,0.4910365,0.0064075,0.2539515,0.7366065,-0.021435500000000003,-0.2907985,0.9532865,-0.048423499999999994,0.2930715,0.9366565,-0.0496095,-0.0671085,-0.00018950000000000217,0.0026774999999999993,0.0671085,0.00018949999999999523,-0.0026774999999999993,-0.12761850000000002,-0.35531349999999995,0.0134915,0.10749149999999999,-0.35451350000000004,0.0298305,-0.1420785,-0.6959934999999999,0.0361515,0.1136615,-0.7082035,0.049188499999999996
27,0.017778499999999996,0.71343,0.006843500000000006,-0.14137750000000002,0.5055799999999999,0.014765500000000004,-0.24056750000000002,0.7402799999999999,-0.0160885,0.1607625,0.49084,0.006644500000000005,0.25164250000000005,0.7374299999999999,-0.017407499999999992,-0.2870775,0.95428,-0.0431725,0.2897425,0.9393199999999999,-0.0426985,-0.0671325,-0.00014100000000000223,0.002645500000000002,0.0671325,0.00014100000000000223,-0.002645499999999995,-0.1275675,-0.35558,0.013520500000000005,0.1073625,-0.35517,0.029783500000000004,-0.1423175,-0.69711,0.036181500000000005,0.11337249999999999,-0.7086600000000001,0.04931050000000001
28,0.0176625,0.7128555,0.0067475,-0.1410825,0.5053155,0.015452500000000001,-0.2387925,0.7410755,-0.013747500000000003,0.1602575,0.49069549999999995,0.0069275,0.2493275,0.7380154999999999,-0.0135025,-0.28364249999999996,0.9553554999999999,-0.0386415,0.2863975,0.9417854999999999,-0.036692499999999996,-0.0671585,-9.949999999999543e-05,0.0025705000000000033,0.0671585,9.950000000000236e-05,-0.0025705000000000033,-0.1275825,-0.3557845,0.0135465,0.1072075,-0.3556945,0.0297925,-0.1425625,-0.6980945000000001,0.0362195,0.1130075,-0.7089945,0.0494505
29,0.017514000000000002,0.7125535,0.006732999999999996,-0.141027,0.5047935,0.015878999999999997,-0.23705700000000002,0.7419034999999999,-0.011542000000000004,0.159823,0.4904435,0.007202999999999998,0.247093,0.7386634999999999,-0.010034000000000001,-0.280277,0.9565134999999999,-0.034512,0.28324299999999997,0.9442335,-0.032125,-0.067189,-4.950000000000093e-05,0.002486999999999996,0.067189,4.950000000000093e-05,-0.002487000000000003,-0.12761699999999998,-0.3557265,0.013548999999999995,0.107013,-0.3558765,0.029860999999999995,-0.14280700000000002,-0.6988565,0.036248999999999997,0.112613,-0.7090965,0.04960099999999999
30,0.0173215,0.712199,0.006813,-0.14094649999999997,0.5043489999999999,0.016315,-0.23542649999999998,0.742549,-0.009373,0.1593635,0.49014899999999995,0.007563,0.24483349999999998,0.739089,-0.006973,-0.2769665,0.957479,-0.030779999999999995,0.2795935,0.946859,-0.027950999999999997,-0.0672295,-7.000000000000062e-06,0.0023960000000000023,0.0672295,7.000000000000062e-06,-0.0023960000000000023,-0.1276565,-0.35564100000000004,0.013505,0.1067935,-0.35603100000000004,0.029942,-0.14305649999999998,-0.699631,0.036276,0.1121835,-0.709701,0.049673
31,0.017135,0.7120405,0.006863000000000001,-0.140973,0.5040405,0.016406,-0.234253,0.7430705,-0.007602999999999999,0.159077,0.4897505,0.007731000000000002,0.242747,0.7393805,-0.004414999999999995,-0.273953,0.9584805000000001,-0.027382999999999998,0.276167,0.9490105,-0.025030999999999998,-0.067296,3.449999999999981e-05,0.0023050000000000015,0.067296,-3.449999999999981e-05,-0.0023050000000000015,-0.127683,-0.35527949999999997,0.013381,0.10660700000000001,-0.3559595,0.029992,-0.143253,-0.7002295,0.036250000000000004,0.11182700000000001,-0.7100895,0.049716
32,0.017004999999999996,0.7117924999999999,0.0069110000000000005,-0.14097300000000001,0.5036925,0.016502,-0.233323,0.7434025,-0.005914000000000003,0.158827,0.4893625,0.007944,0.240927,0.7393925,-0.002241,-0.271473,0.9594924999999999,-0.024147000000000002,0.27280699999999997,0.9510925,-0.022363,-0.067352,8.049999999999724e-05,0.0021829999999999974,0.067352,-8.050000000000418e-05,-0.0021829999999999974,-0.127723,-0.3549375,0.013259,0.10647699999999999,-0.3559275,0.030052000000000002,-0.14339300000000002,-0.7007875,0.036246,0.11168700000000001,-0.7104775000000001,0.049828
33,0.016955500000000002,0.7115695,0.006970500000000001,-0.14095249999999998,0.5034095000000001,0.016678500000000002,-0.2326925,0.7436395,-0.0044864999999999974,0.1586475,0.4890095,0.008178500000000002,0.2393075,0.7391395000000001,-0.0003464999999999996,-0.2697525,0.9602395,-0.021547499999999997,0.26974750000000003,0.9528395,-0.0205385,-0.0673935,0.0001275000000000026,0.002059499999999999,0.0673935,-0.00012749999999999567,-0.002059499999999999,-0.1277225,-0.3547305,0.0131475,0.10642750000000001,-0.3558705,0.0301305,-0.1434625,-0.7013105,0.0362345,0.1113875,-0.7122005,0.0499565
34,0.016910500000000002,0.7113855,0.007017500000000003,-0.14092249999999998,0.5029555,0.016785500000000005,-0.2324725,0.7436355,-0.002996499999999999,0.1585075,0.4884955,0.008374500000000003,0.23784750000000002,0.7388855,0.0012065000000000062,-0.2689125,0.9607554999999999,-0.0195445,0.2669375,0.9539555,-0.019561499999999996,-0.06739049999999999,0.00017249999999999904,0.001974500000000004,0.06739049999999999,-0.00017250000000000598,-0.001974499999999997,-0.1277225,-0.3545745,0.013044500000000004,0.1064175,-0.3559045,0.030202500000000004,-0.1434725,-0.7017645,0.036195500000000005,0.11114750000000001,-0.7130545,0.0499795
35,0.016800499999999996,0.711167,0.0070905,-0.1409205,0.502617,0.0168685,-0.23253050000000003,0.743667,-0.0017415,0.15834949999999998,0.48803699999999994,0.008511500000000002,0.2366295,0.738657,0.002298500000000002,-0.2686805,0.9610270000000001,-0.0179845,0.2642495,0.9551270000000001,-0.0188085,-0.0673875,0.0002070000000000058,0.0019035000000000024,0.0673875,-0.00020699999999999885,-0.0019035000000000024,-0.12772050000000001,-0.35447300000000004,0.0129475,0.1063595,-0.355943,0.0302685,-0.1434805,-0.702183,0.0360905,0.1109395,-0.713703,0.0499635
36,0.016624,0.7110165,0.007110999999999999,-0.140925,0.5024665,0.016987,-0.232575,0.7437865,-0.0005210000000000006,0.158175,0.48766649999999995,0.008636000000000001,0.23555500000000001,0.7385065000000001,0.0031209999999999988,-0.268735,0.9614765000000001,-0.016535,0.261915,0.9561765,-0.018563000000000003,-0.067387,0.00021150000000000335,0.0018270000000000022,0.067387,-0.0002114999999999964,-0.0018270000000000022,-0.127715,-0.3544735,0.012871,0.106265,-0.3560735,0.030342,-0.143485,-0.7025134999999999,0.035958,0.11078500000000001,-0.7141535,0.049985
37,0.0163515,0.710883,0.007193999999999999,-0.14084750000000001,0.502333,0.017134,-0.2325375,0.743893,0.0006630000000000039,0.1580425,0.48733299999999996,0.008778000000000001,0.23473249999999998,0.738413,0.0036850000000000008,-0.2687075,0.961743,-0.015149999999999997,0.2599425,0.9570430000000001,-0.018595,-0.0674425,0.00021999999999999797,0.0017380000000000034,0.0674425,-0.00022000000000000491,-0.0017379999999999965,-0.1276875,-0.35452700000000004,0.012785000000000001,0.1061625,-0.35618700000000003,0.030415,-0.14340750000000002,-0.702827,0.035875,0.11077250000000001,-0.714387,0.04997
38,0.0161015,0.7107815,0.007324999999999998,-0.1406795,0.5022314999999999,0.01731,-0.23250949999999998,0.7439714999999999,0.0017739999999999978,0.1579705,0.48700150000000003,0.00893,0.23420049999999998,0.7382814999999999,0.004073,-0.2685595,0.9621414999999999,-0.014211000000000001,0.25845049999999997,0.9575414999999999,-0.01874,-0.0674945,0.00022250000000000048,0.0016499999999999987,0.0674945,-0.00022250000000000048,-0.0016499999999999987,-0.1276295,-0.3545985,0.012701999999999998,0.1061405,-0.3562885,0.030506,-0.1432195,-0.7030285000000001,0.035796999999999995,0.1108805,-0.7146285,0.049995
39,0.0159405,0.710693,0.007363500000000002,-0.14046950000000002,0.502153,0.017490500000000003,-0.2326295,0.744013,0.002632500000000003,0.1581105,0.48676300000000006,0.008960500000000003,0.2341005,0.738193,0.004013500000000003,-0.26840949999999997,0.9622529999999999,-0.013791499999999998,0.2579505,0.957453,-0.018944499999999996,-0.0675665,0.00022199999999999998,0.0016535000000000022,0.0675665,-0.00022199999999999998,-0.0016534999999999953,-0.1274895,-0.354647,0.0125375,0.1062805,-0.356377,0.030548500000000003,-0.1428795,-0.703117,0.035625500000000004,0.1111705,-0.714907,0.0498275
40,0.01575,0.7105965,0.007444500000000007,-0.14030600000000001,0.5021765,0.017681500000000006,-0.233026,0.7440865,0.003359500000000005,0.15831399999999998,0.4865665,0.008949500000000006,0.234134,0.7380865,0.003766500000000006,-0.26856599999999997,0.9622465000000001,-0.013634499999999994,0.257734,0.9573465,-0.019201499999999996,-0.067615,0.00019750000000000323,0.001626500000000003,0.067615,-0.0001974999999999963,-0.001626499999999996,-0.127356,-0.3547335,0.012362500000000005,0.10642399999999999,-0.3564835,0.030528500000000007,-0.142476,-0.7032235,0.0353945,0.111524,-0.7151735,0.049592500000000005
41,0.015525,0.7105039999999999,0.007546999999999998,-0.140153,0.502224,0.017883,-0.233603,0.744134,0.003907000000000001,0.158557,0.48639400000000005,0.008899999999999998,0.234267,0.7379939999999999,0.003518999999999998,-0.269213,0.9621540000000001,-0.013914000000000003,0.257717,0.9572539999999999,-0.019889000000000004,-0.067666,0.00017099999999999754,0.0016260000000000024,0.067666,-0.00017100000000000448,-0.0016260000000000024,-0.127213,-0.354786,0.012201999999999998,0.106577,-0.35670599999999997,0.030483999999999997,-0.142063,-0.703316,0.035243,0.111907,-0.7154060000000001,0.049354999999999996
42,0.015264000000000003,0.7104185000000001,0.007710000000000002,-0.14,0.5023785000000001,0.017989000000000005,-0.23435,0.7441685,0.004322000000000003,0.15882,0.4862685,0.008812000000000004,0.23453,0.7379585,0.003249000000000002,-0.27024,0.9620885000000001,-0.014234999999999998,0.2579,0.9570885,-0.021112,-0.067711,0.00013649999999999773,0.0016229999999999994,0.067711,-0.00013649999999999773,-0.0016229999999999994,-0.12704,-0.35483149999999997,0.012050000000000002,0.10676,-0.3569715,0.030428000000000004,-0.14163,-0.7032915,0.035176000000000006,0.11231,-0.7156815,0.049178
43,0.014980999999999998,0.710342,0.007846500000000003,-0.13989300000000002,0.502522,0.0180665,-0.234913,0.744112,0.0042635,0.159107,0.486182,0.0086835,0.23479699999999998,0.737962,0.0029375000000000026,-0.271323,0.9620320000000001,-0.0145905,0.258187,0.956532,-0.0225345,-0.06772,0.00010700000000000293,0.0015765000000000015,0.06772,-0.00010700000000000293,-0.0015765000000000015,-0.126863,-0.354888,0.011915500000000002,0.10692700000000001,-0.357238,0.0303205,-0.14120300000000002,-0.703198,0.0351215,0.11272700000000001,-0.715958,0.0489685
44,0.014652000000000002,0.7103025000000001,0.007936499999999999,-0.139781,0.5026725000000001,0.018130499999999997,-0.23547099999999999,0.7440925,0.004005499999999999,0.159399,0.4861325,0.008551499999999997,0.235089,0.7379925,0.0025014999999999968,-0.272251,0.9618125,-0.0149585,0.25856900000000005,0.9557125,-0.024098500000000002,-0.067733,8.74999999999973e-05,0.0015494999999999988,0.067733,-8.750000000000424e-05,-0.0015495000000000023,-0.126691,-0.3549175,0.011776499999999999,0.10707900000000001,-0.3574675,0.030210499999999998,-0.140751,-0.7030375,0.0350585,0.113149,-0.7162175,0.0487205
45,0.014334499999999997,0.7102885000000001,0.007997999999999998,-0.1396585,0.5027985,0.018151,-0.2359385,0.7440885,0.003688999999999998,0.1596815,0.48609850000000004,0.008413999999999998,0.2354215,0.7380585000000001,0.0019969999999999988,-0.2728085,0.9614085,-0.015616000000000005,0.2590715,0.9547085000000001,-0.02574,-0.0677645,8.350000000000024e-05,0.0015689999999999975,0.0677645,-8.350000000000024e-05,-0.001569000000000001,-0.1265385,-0.3549215,0.011639999999999998,0.1072315,-0.3577615,0.030105999999999997,-0.1403385,-0.7028314999999999,0.035035,0.1135715,-0.7165214999999999,0.048474
46,0.014125500000000003,0.710281,0.00793,-0.13954149999999998,0.502921,0.018118000000000002,-0.2362715,0.743991,0.0033739999999999985,0.1599585,0.486051,0.00824,0.2357585,0.738121,0.0014009999999999995,-0.2730015,0.960901,-0.016394,0.2595985,0.9535009999999999,-0.027294,-0.0677745,7.599999999999968e-05,0.0015709999999999995,0.0677745,-7.600000000000662e-05,-0.001571000000000003,-0.12636150000000002,-0.354929,0.011487999999999998,0.10735850000000001,-0.358159,0.030137999999999998,-0.1399315,-0.702159,0.035054,0.1139685,-0.716939,0.048236
47,0.013941499999999999,0.7102845000000001,0.007759000000000002,-0.1394225,0.5029945,0.018013,-0.2365325,0.7438845000000001,0.003028000000000003,0.1602475,0.48601449999999996,0.008016000000000002,0.2361575,0.7381845,0.0006620000000000029,-0.2730725,0.9604045000000001,-0.017522999999999997,0.26014750000000003,0.9519044999999999,-0.029119,-0.0677965,5.8500000000002994e-05,0.0015990000000000032,0.0677965,-5.8500000000002994e-05,-0.0015989999999999963,-0.1261625,-0.3549155,0.011282000000000004,0.10750749999999999,-0.3585255,0.030126000000000003,-0.1395425,-0.7015454999999999,0.035032,0.11438749999999999,-0.7173354999999999,0.04790900000000001
48,0.013706500000000003,0.710296,0.007559,-0.1393165,0.503036,0.017824,-0.2368265,0.7438060000000001,0.0025959999999999976,0.1604535,0.48598600000000003,0.007800999999999999,0.2364635,0.7382460000000001,-9.40000000000038e-05,-0.2730765,0.959606,-0.019081,0.26059350000000003,0.9502360000000001,-0.031081000000000004,-0.0677905,4.400000000000237e-05,0.0015689999999999975,0.0677905,-4.399999999999543e-05,-0.001569000000000001,-0.1260465,-0.354924,0.011099999999999999,0.10752350000000001,-0.358854,0.030137999999999998,-0.1392765,-0.700934,0.035051,0.1146935,-0.717684,0.047566
49,0.013478,0.710287,0.007261,-0.139185,0.503097,0.017621,-0.237095,0.743717,0.0019370000000000012,0.160585,0.48588699999999996,0.007568000000000002,0.236715,0.738247,-0.0008849999999999969,-0.272995,0.958877,-0.020731,0.261135,0.948407,-0.033136000000000006,-0.067798,3.0000000000002247e-05,0.001568,0.067798,-3.0000000000002247e-05,-0.001568,-0.125945,-0.35486300000000004,0.01092,0.107515,-0.35922299999999996,0.030159000000000002,-0.139055,-0.700383,0.035033,0.11494499999999999,-0.7180730000000001,0.047187
50,0.013283,0.7102725000000001,0.006966,-0.139044,0.5031825000000001,0.017403000000000002,-0.237324,0.7435225000000001,0.0009949999999999994,0.16070600000000002,0.4857925,0.007324000000000001,0.236956,0.7382125,-0.0018179999999999967,-0.272724,0.9579425000000001,-0.022604000000000003,0.26179600000000003,0.9467025,-0.03526700000000001,-0.067802,1.8499999999997685e-05,0.0015650000000000004,0.067802,-1.8499999999997685e-05,-0.0015650000000000004,-0.125834,-0.3548075,0.010742000000000002,0.107516,-0.3595875,0.030169,-0.138824,-0.6999875,0.034972,0.115176,-0.7184475,0.046789
51,0.013108499999999995,0.7102385,0.0066925000000000005,-0.1389445,0.5032285000000001,0.0171965,-0.2375445,0.7432285000000001,-0.00022050000000000194,0.1608255,0.48570849999999993,0.007088500000000001,0.2371455,0.7381585,-0.0028065000000000034,-0.2724345,0.9568885,-0.0246515,0.2624355,0.9452285,-0.0371945,-0.06780649999999999,1.3499999999999623e-05,0.001570499999999999,0.06780649999999999,-1.3499999999999623e-05,-0.0015705000000000024,-0.1257845,-0.3547615,0.010557500000000001,0.1075055,-0.3599815,0.0301545,-0.1386145,-0.6997614999999999,0.0348325,0.1154655,-0.7185015,0.0464055
52,0.012952499999999999,0.7102345,0.006422999999999998,-0.1389575,0.5033945,0.017141999999999998,-0.2376775,0.7423545,-0.0015740000000000025,0.16093249999999998,0.48564450000000003,0.006863000000000001,0.2373325,0.7381345,-0.0037899999999999982,-0.2721075,0.9557644999999999,-0.026874,0.26307250000000004,0.9439745,-0.03892899999999999,-0.0678375,1.2499999999998623e-05,0.001618999999999999,0.0678375,-1.2499999999998623e-05,-0.001618999999999999,-0.1257075,-0.3546855,0.010356,0.10754249999999999,-0.3603655,0.030107,-0.1384575,-0.6995255,0.034679,0.1157425,-0.7185255,0.046047000000000005
53,0.012864,0.710213,0.006048500000000002,-0.139021,0.503553,0.016974500000000003,-0.237771,0.741483,-0.0030174999999999993,0.161059,0.485583,0.006614500000000002,0.237539,0.738093,-0.0048015,-0.271771,0.954623,-0.029138499999999998,0.263739,0.942893,-0.0406205,-0.06786400000000001,2.1000000000000185e-05,0.001685500000000003,0.06786400000000001,-2.1000000000000185e-05,-0.0016854999999999995,-0.125601,-0.35463700000000004,0.010126500000000004,0.107659,-0.360767,0.030011500000000003,-0.138291,-0.699367,0.0344855,0.116009,-0.7185670000000001,0.0456545
54,0.0127175,0.7101885,0.0055014999999999994,-0.1391215,0.5035185,0.0167475,-0.23789149999999998,0.7406885,-0.004533499999999999,0.16114850000000003,0.48552850000000003,0.006394499999999997,0.23768850000000002,0.7380085,-0.005851499999999999,-0.2715115,0.9536784999999999,-0.031286499999999995,0.2643685,0.9419685,-0.042151499999999995,-0.0678785,2.1500000000000685e-05,0.0017245000000000003,0.0678785,-2.1500000000000685e-05,-0.0017245000000000003,-0.1255215,-0.35457150000000004,0.009906499999999999,0.10775850000000001,-0.3610915,0.029880499999999997,-0.1381615,-0.6994315,0.0342675,0.1162585,-0.7188315000000001,0.0453675
55,0.012517999999999998,0.7101649999999999,0.0048819999999999975,-0.139252,0.503485,0.016512,-0.238022,0.739865,-0.006152000000000001,0.161188,0.48549500000000007,0.006217,0.237838,0.737875,-0.006868000000000003,-0.271302,0.952745,-0.03350900000000001,0.265008,0.9411649999999999,-0.04357,-0.067895,2.8000000000000247e-05,0.0017579999999999991,0.067895,-2.8000000000000247e-05,-0.0017579999999999991,-0.125452,-0.35450499999999996,0.009729999999999999,0.107908,-0.361325,0.029706999999999997,-0.138052,-0.699465,0.034092,0.11656799999999999,-0.7187950000000001,0.045268
56,0.012310999999999996,0.710108,0.0042915,-0.139421,0.503428,0.0163325,-0.238111,0.739028,-0.007653500000000004,0.161199,0.48545800000000006,0.006076499999999999,0.237969,0.737728,-0.007839500000000003,-0.271091,0.9520080000000001,-0.0357205,0.265609,0.940638,-0.044771500000000006,-0.067891,2.8000000000000247e-05,0.0017455000000000005,0.067891,-2.8000000000000247e-05,-0.0017455000000000005,-0.125411,-0.35443199999999997,0.009603500000000001,0.108009,-0.361582,0.029582499999999998,-0.137991,-0.699502,0.0339665,0.116759,-0.719162,0.0451295
57,0.01209,0.7100645,0.0036780000000000007,-0.139607,0.5033445,0.016152,-0.23816700000000002,0.7382245000000001,-0.009285000000000002,0.161183,0.48539450000000006,0.005944999999999999,0.238083,0.7375545,-0.008774999999999998,-0.270937,0.9515444999999999,-0.037789,0.266223,0.9401545,-0.045875,-0.067886,3.750000000000281e-05,0.001746000000000001,0.067886,-3.750000000000281e-05,-0.001746000000000001,-0.125337,-0.35438549999999996,0.009491,0.10808300000000001,-0.36188549999999997,0.029474999999999998,-0.137907,-0.6995855,0.033836,0.116983,-0.7195155,0.044763
58,0.011849500000000002,0.7100165,0.003068999999999999,-0.13978749999999998,0.5032464999999999,0.015961999999999997,-0.23819749999999998,0.7374164999999999,-0.010920000000000003,0.1612025,0.48534649999999996,0.005828,0.2381725,0.7373965,-0.009634,-0.2707975,0.9508764999999999,-0.039867,0.2668025,0.9397264999999999,-0.046766,-0.06788050000000001,4.350000000000187e-05,0.0017579999999999991,0.06788050000000001,-4.349999999999493e-05,-0.0017579999999999991,-0.12527749999999999,-0.3543835,0.009368999999999999,0.1081625,-0.3621935,0.029303,-0.1377975,-0.7001934999999999,0.033614,0.11720250000000002,-0.7196834999999999,0.044323
59,0.0115675,0.7099485,0.0024055000000000014,-0.1399615,0.5031285,0.015710500000000002,-0.2381715,0.7365985,-0.012504500000000002,0.1612085,0.48527850000000006,0.005704500000000001,0.2382485,0.7372085,-0.010391499999999998,-0.27067149999999995,0.9502185,-0.0419805,0.2672985,0.9393385,-0.0473105,-0.0678745,5.250000000000393e-05,0.0017655000000000032,0.0678745,-5.2499999999996994e-05,-0.0017654999999999997,-0.1252315,-0.3544215,0.009192500000000003,0.1082685,-0.3625315,0.029081500000000003,-0.1377515,-0.7007715,0.0333725,0.1174185,-0.7200515,0.043853500000000004
60,0.011259499999999997,0.709906,0.0016695000000000008,-0.14014949999999998,0.503026,0.015416500000000001,-0.2381595,0.7359060000000001,-0.0139625,0.1612005,0.485206,0.0055625000000000015,0.2383705,0.737026,-0.0111045,-0.2705795,0.950116,-0.04406449999999999,0.2678505,0.938826,-0.0479825,-0.06786249999999999,5.099999999999549e-05,0.0017555000000000001,0.06786249999999999,-5.100000000000243e-05,-0.0017555000000000001,-0.1251895,-0.354414,0.008970500000000003,0.10843049999999999,-0.362844,0.0288085,-0.13770949999999998,-0.701454,0.0330415,0.1175705,-0.720434,0.0434325
61,0.01097,0.70989,0.0009475000000000004,-0.14022,0.50297,0.015099500000000002,-0.23817,0.73575,-0.015295499999999997,0.16115,0.48521000000000003,0.0054015,0.23853,0.73693,-0.011782500000000001,-0.27054,0.94959,-0.0459775,0.26853,0.93819,-0.0487395,-0.067856,4.599999999999743e-05,0.0017455000000000005,0.067856,-4.600000000000437e-05,-0.0017455000000000005,-0.12516,-0.35442,0.0087465,0.10862,-0.3631,0.028518500000000002,-0.13769,-0.70203,0.0327045,0.11758,-0.72084,0.0430235
62,0.010686000000000003,0.7099615,0.0001265000000000016,-0.140237,0.5029515,0.014812500000000001,-0.238157,0.7356715,-0.0166855,0.161083,0.4852415,0.005244499999999999,0.238773,0.7368815,-0.012470500000000002,-0.270547,0.9491115,-0.0477675,0.269343,0.9374215,-0.049512499999999994,-0.067855,4.049999999999887e-05,0.0017285000000000009,0.067855,-4.049999999999887e-05,-0.0017285000000000009,-0.12511699999999998,-0.3544485,0.0085275,0.108833,-0.36334849999999996,0.0281225,-0.137637,-0.7024885,0.0323425,0.117593,-0.7200485,0.0425755
63,0.010395499999999998,0.710112,-0.0007939999999999996,-0.1402545,0.5029319999999999,0.014490000000000001,-0.23809450000000001,0.7355919999999999,-0.018096,0.16099549999999999,0.48528200000000005,0.005053000000000002,0.2390455,0.7368119999999999,-0.013182,-0.27055450000000003,0.9487019999999999,-0.049876000000000004,0.2702555,0.936662,-0.05037899999999999,-0.06785450000000001,3.999999999999837e-05,0.0017120000000000017,0.06785450000000001,-3.999999999999837e-05,-0.0017119999999999982,-0.1250345,-0.354468,0.008299,0.10906550000000001,-0.363598,0.027583,-0.13757450000000002,-0.702948,0.03194,0.1176055,-0.7183080000000001,0.042039
64,0.010102,0.7102449999999999,-0.0018315000000000033,-0.140263,0.502695,0.0138845,-0.238043,0.7355649999999999,-0.019568500000000003,0.160917,0.48530500000000004,0.004789499999999999,0.239447,0.736725,-0.013991500000000004,-0.27055300000000004,0.9482649999999999,-0.0519905,0.271267,0.935955,-0.0514335,-0.06784799999999999,3.099999999999631e-05,0.0016544999999999997,0.06784799999999999,-3.100000000000325e-05,-0.0016545000000000032,-0.124943,-0.354495,0.0079755,0.109317,-0.363965,0.026820499999999997,-0.137453,-0.703505,0.031461499999999996,0.117587,-0.7164050000000001,0.041431499999999996
65,0.009770500000000005,0.710425,-0.0029695,-0.14030949999999998,0.502485,0.013235499999999999,-0.23802949999999998,0.7355649999999999,-0.021179500000000004,0.1608005,0.485365,0.004421499999999998,0.23985050000000002,0.736675,-0.014894500000000005,-0.2706095,0.9477749999999999,-0.0541195,0.2722305,0.9353149999999999,-0.052545499999999995,-0.06784950000000001,3.099999999999631e-05,0.001561499999999997,0.06784950000000001,-3.100000000000325e-05,-0.0015615000000000004,-0.1248695,-0.354545,0.007518499999999997,0.10951050000000001,-0.364645,0.025731499999999997,-0.13733949999999998,-0.703975,0.0308755,0.1175805,-0.714415,0.040458499999999994
66,0.009441500000000005,0.710545,-0.004316499999999997,-0.1403545,0.502385,0.012598499999999999,-0.2379645,0.735525,-0.022867500000000002,0.1606855,0.48542500000000005,0.0039945000000000015,0.24034550000000002,0.736625,-0.016027499999999997,-0.27067450000000004,0.9470449999999999,-0.05635950000000001,0.2733755,0.934615,-0.054039500000000004,-0.0678565,3.099999999999631e-05,0.0015095000000000004,0.0678565,-3.100000000000325e-05,-0.0015095000000000004,-0.1247745,-0.354695,0.006922500000000002,0.10970550000000001,-0.365485,0.0243725,-0.1372245,-0.704175,0.0302195,0.1173155,-0.7138950000000001,0.0393635
67,0.009139499999999998,0.710527,-0.006052999999999996,-0.1403915,0.502367,0.011672000000000002,-0.23781149999999998,0.735057,-0.025030999999999998,0.1605885,0.485457,0.003283000000000001,0.2408785,0.736547,-0.017521000000000002,-0.27071150000000005,0.945837,-0.059461999999999994,0.2746185,0.933887,-0.056035999999999996,-0.0678955,4.800000000000637e-05,0.0014840000000000027,0.0678955,-4.799999999999943e-05,-0.0014839999999999992,-0.1246215,-0.355043,0.005944000000000001,0.1098885,-0.366753,0.022384,-0.1371115,-0.704433,0.029298,0.11689849999999999,-0.712083,0.037970000000000004
68,0.008888500000000002,0.7105225,-0.008052500000000004,-0.14043650000000002,0.5023725,0.0105905,-0.23763649999999997,0.7345725,-0.027387500000000002,0.1604735,0.4854725,0.002346499999999998,0.2414635,0.7364425,-0.0194495,-0.2707765,0.9446125,-0.0628375,0.27597350000000004,0.9331524999999999,-0.0585435,-0.0679545,4.250000000000087e-05,0.0014764999999999986,0.0679545,-4.250000000000087e-05,-0.0014765000000000021,-0.1244465,-0.3554375,0.0046245,0.1100435,-0.3680775,0.0200665,-0.1369165,-0.7044275,0.0279735,0.11647350000000001,-0.7094875,0.0362885
69,0.008747,0.710506,-0.010403000000000003,-0.140457,0.502356,0.009219999999999999,-0.237417,0.734036,-0.030303999999999998,0.160383,0.485486,0.0011210000000000005,0.242063,0.735016,-0.021920000000000002,-0.27092700000000003,0.943396,-0.067035,0.27745299999999995,0.931676,-0.061717999999999995,-0.068029,2.9000000000001247e-05,0.0014930000000000013,0.068029,-2.9000000000001247e-05,-0.0014930000000000013,-0.124237,-0.35582400000000003,0.002787999999999999,0.110203,-0.36964400000000003,0.017229,-0.136697,-0.704454,0.026338,0.11622299999999999,-0.706804,0.03411
70,0.008751499999999997,0.710504,-0.013316499999999998,-0.1404635,0.5024040000000001,0.007450499999999999,-0.23712350000000001,0.733414,-0.0337335,0.1603265,0.485534,-0.0004154999999999992,0.2429665,0.7329840000000001,-0.025026499999999997,-0.2708935,0.942134,-0.0720325,0.2789965,0.930094,-0.06559050000000001,-0.0681065,2.1000000000000185e-05,0.0016725000000000004,0.0681065,-2.1000000000000185e-05,-0.0016725000000000004,-0.1239935,-0.35646599999999995,0.000338500000000002,0.1103765,-0.371266,0.0137885,-0.1364035,-0.704576,0.024216500000000002,0.1159765,-0.707096,0.0314715
71,0.0088255,0.7102615000000001,-0.0167985,-0.14043650000000002,0.5024615,0.005153499999999998,-0.2367165,0.7326715,-0.0379725,0.1603135,0.4856215,-0.0025185000000000034,0.2438635,0.7310015000000001,-0.028785500000000006,-0.2707065,0.9404315000000001,-0.0782995,0.28072349999999996,0.9284315000000001,-0.07040950000000001,-0.0681735,2.1500000000000685e-05,0.0017594999999999972,0.0681735,-2.1500000000000685e-05,-0.0017595000000000006,-0.1236865,-0.35730850000000003,-0.0030865000000000024,0.1105835,-0.3726785,0.009253499999999998,-0.13594650000000003,-0.7046884999999999,0.021430499999999998,0.1158835,-0.7043885,0.0282025
72,0.008946500000000007,0.7094615,-0.0211585,-0.14032450000000002,0.5027515,0.0020545000000000008,-0.2359545,0.7314015,-0.0432965,0.1603055,0.48576150000000007,-0.005442499999999999,0.2450255,0.7289015,-0.033673499999999995,-0.2704545,0.9388315,-0.0861125,0.2828055,0.9266215,-0.07685349999999999,-0.0682315,2.6499999999998747e-05,0.0018974999999999999,0.0682315,-2.6499999999998747e-05,-0.0018974999999999999,-0.12321449999999999,-0.3587285,-0.0084725,0.11089550000000001,-0.3739985,0.0027615,-0.1353745,-0.7045985,0.0176105,0.1159255,-0.7016884999999999,0.0234085
73,0.009096999999999994,0.7081155,-0.026000000000000002,-0.140179,0.5030655,-0.0013909999999999999,-0.235099,0.7301455,-0.049032,0.160391,0.48586549999999995,-0.008653000000000001,0.24645100000000003,0.7267855,-0.039143000000000004,-0.270169,0.9368355,-0.09434600000000001,0.284901,0.9246755,-0.083786,-0.0683,2.0499999999999685e-05,0.0020659999999999984,0.0683,-2.0499999999999685e-05,-0.002066000000000002,-0.12263900000000001,-0.3603345,-0.014526,0.11124099999999999,-0.3751745,-0.004182000000000002,-0.13470900000000002,-0.7044745,0.013392,0.116101,-0.6992445,0.018163
74,0.009307499999999995,0.7063185,-0.03106,-0.1399775,0.5035284999999999,-0.005058,-0.23398750000000001,0.7285085,-0.05509900000000001,0.1605025,0.4860185,-0.012062,0.24797249999999998,0.7248285,-0.044657,-0.2696575,0.9348084999999999,-0.103065,0.2870725,0.9227584999999999,-0.091005,-0.0683575,4.549999999999693e-05,0.002175,0.0683575,-4.550000000000387e-05,-0.002175,-0.1218775,-0.3619415,-0.021254,0.1116325,-0.37581149999999997,-0.01165,-0.1339875,-0.7042315,0.008777,0.1162925,-0.6987515000000001,0.012725
75,0.0096205,0.7042095,-0.036270500000000004,-0.13973750000000001,0.5040795,-0.0088095,-0.23266750000000003,0.7262295,-0.06132750000000001,0.1605525,0.4861495,-0.0157275,0.2494425,0.7230295,-0.0502725,-0.2688675,0.9329995,-0.1120065,0.2891425,0.9210095,-0.0982065,-0.0684155,7.750000000000118e-05,0.0021975000000000007,0.0684155,-7.750000000000118e-05,-0.0021975,-0.1209975,-0.3636605,-0.028854499999999998,0.1120525,-0.3760305,-0.0195535,-0.13319750000000002,-0.7037805,0.0038305000000000006,0.1165025,-0.6980205,0.006909500000000001
76,0.010058499999999996,0.701578,-0.0413805,-0.13940850000000002,0.504698,-0.0126105,-0.23121850000000002,0.724108,-0.0674355,0.1606215,0.486348,-0.019432500000000002,0.2509115,0.721198,-0.0559455,-0.2677485,0.931398,-0.12075549999999999,0.2913015,0.9193479999999999,-0.1054955,-0.0684485,0.0001419999999999963,0.0021074999999999996,0.0684485,-0.00014200000000000323,-0.0021075,-0.12000849999999999,-0.365132,-0.0369035,0.11257149999999999,-0.37575200000000003,-0.027716499999999998,-0.13227850000000002,-0.703012,-0.0013955,0.11687149999999999,-0.6969920000000001,0.0010244999999999994
77,0.010505999999999998,0.698806,-0.046517,-0.13922,0.505416,-0.016477,-0.22989,0.7215860000000001,-0.073552,0.16065,0.486696,-0.023251,0.25234999999999996,0.716536,-0.06156600000000001,-0.26639,0.929936,-0.129531,0.29342999999999997,0.918036,-0.11274100000000001,-0.068481,0.00017700000000000354,0.0020109999999999998,0.068481,-0.0001769999999999966,-0.0020109999999999998,-0.11889000000000001,-0.366854,-0.045576000000000005,0.1132,-0.37530399999999997,-0.036332,-0.13136,-0.702124,-0.006732000000000001,0.11741,-0.695624,-0.004902
78,0.010998500000000001,0.6957530000000001,-0.051628,-0.13893450000000002,0.505363,-0.020516999999999997,-0.22860450000000002,0.719143,-0.079722,0.1604155,0.48672299999999996,-0.026879999999999998,0.25375549999999997,0.7131930000000001,-0.067064,-0.2647645,0.928513,-0.138302,0.2954955,0.917913,-0.119832,-0.0685295,0.00016599999999999948,0.002024,0.0685295,-0.00016599999999999948,-0.002024,-0.11767449999999999,-0.368387,-0.054547000000000005,0.1139455,-0.37472700000000003,-0.045419,-0.1303645,-0.700867,-0.012258,0.11817549999999999,-0.694137,-0.010912
79,0.011387500000000005,0.69285,-0.05640100000000001,-0.1386565,0.50559,-0.024418,-0.2274965,0.71664,-0.085795,0.1600935,0.48689000000000004,-0.030226,0.2549735,0.71037,-0.072089,-0.26304649999999996,0.92729,-0.14669400000000002,0.29761350000000003,0.91795,-0.126694,-0.06857250000000001,0.00019500000000000073,0.0018600000000000005,0.06857250000000001,-0.00019500000000000073,-0.0018600000000000005,-0.11623649999999999,-0.37006,-0.063713,0.1148535,-0.37446,-0.054707000000000006,-0.1293265,-0.69957,-0.017632000000000002,0.11920350000000002,-0.69306,-0.016769
80,0.011878499999999998,0.6900795,-0.061055,-0.1382955,0.5055495,-0.028379,-0.2263255,0.7145995,-0.091988,0.1595545,0.4864495,-0.033496,0.2563645,0.7077195000000001,-0.077061,-0.2610555,0.9270095,-0.15571500000000002,0.2996645,0.9140395,-0.133355,-0.0686215,0.00029950000000000115,0.0017330000000000002,0.0686215,-0.00029950000000000115,-0.0017330000000000002,-0.1142155,-0.3716505,-0.073189,0.1160945,-0.3743405,-0.064479,-0.1281055,-0.6970905,-0.023139,0.1205145,-0.6908305,-0.022844999999999997
81,0.012388500000000005,0.687501,-0.0649345,-0.13783949999999998,0.505101,-0.0317795,-0.22534949999999998,0.713441,-0.0974925,0.1587905,0.48607100000000003,-0.0361885,0.2577705,0.705311,-0.08110149999999999,-0.2589995,0.926701,-0.1638985,0.30153050000000003,0.910581,-0.1385885,-0.06872349999999999,0.0004129999999999967,0.0016275000000000005,0.06872349999999999,-0.0004129999999999967,-0.0016275000000000005,-0.11197949999999998,-0.373069,-0.0815095,0.11739050000000001,-0.374169,-0.0730255,-0.1267695,-0.693919,-0.0279995,0.12178050000000001,-0.688089,-0.0279295
82,0.012923999999999998,0.6856679999999999,-0.06844,-0.137319,0.5047579999999999,-0.035094,-0.22439900000000002,0.712598,-0.10294400000000001,0.158031,0.485648,-0.038609,0.258951,0.702718,-0.08474200000000001,-0.256759,0.927338,-0.17228000000000002,0.303291,0.9070579999999999,-0.14336000000000002,-0.06886400000000001,0.0005360000000000018,0.0014750000000000006,0.06886400000000001,-0.0005359999999999983,-0.0014749999999999989,-0.109709,-0.374162,-0.08968000000000001,0.118721,-0.37330199999999997,-0.081351,-0.125189,-0.6899120000000001,-0.033098,0.12302099999999999,-0.6842820000000001,-0.033034999999999995
83,0.013542500000000002,0.6839535,-0.07203899999999999,-0.1369215,0.5040635,-0.038643,-0.2235015,0.7110535,-0.108793,0.1573485,0.4852735000000001,-0.041243,0.2600985,0.6997935,-0.088565,-0.25521150000000004,0.9286234999999999,-0.18145699999999998,0.3051885,0.9033335,-0.14826699999999998,-0.0690465,0.0005894999999999997,0.0013380000000000024,0.0690465,-0.0005894999999999997,-0.001337999999999999,-0.1074315,-0.3746865,-0.09845399999999999,0.1202385,-0.37238649999999995,-0.09028900000000001,-0.1236015,-0.6849065000000001,-0.038402,0.12427850000000001,-0.6791365,-0.038678000000000004
84,0.0140945,0.6819995,-0.0753465,-0.1365835,0.5030494999999999,-0.0420885,-0.2227135,0.7102195,-0.1147715,0.1566565,0.4849595,-0.043831499999999995,0.26134650000000004,0.6975994999999999,-0.0923185,-0.25324349999999995,0.9301995,-0.1909315,0.3072165,0.8999794999999999,-0.1529515,-0.0692345,0.0006485000000000015,0.0012125000000000018,0.0692345,-0.0006484999999999998,-0.0012124999999999983,-0.1052435,-0.3749605,-0.1070265,0.1217365,-0.3711605,-0.0991155,-0.1221535,-0.6794205000000001,-0.043678499999999995,0.1250365,-0.6732405,-0.04421749999999999
85,0.0145305,0.6811875,-0.07878399999999999,-0.1362795,0.5019874999999999,-0.045743,-0.2218195,0.7102075,-0.121111,0.1559205,0.4846575,-0.046601000000000004,0.26262050000000003,0.6952674999999999,-0.09610199999999999,-0.25240949999999995,0.9307274999999999,-0.20015,0.30942050000000004,0.8969975,-0.15771000000000002,-0.06940950000000001,0.0007835000000000003,0.0011430000000000017,0.06940950000000001,-0.0007834999999999995,-0.0011429999999999982,-0.10317950000000001,-0.3742525,-0.115524,0.12328049999999999,-0.3693525,-0.107903,-0.12094949999999999,-0.6729525000000001,-0.048942,0.12572049999999999,-0.6660125,-0.049703
86,0.014599500000000003,0.680311,-0.082015,-0.1359885,0.500911,-0.049249,-0.2208485,0.710221,-0.12738,0.1550215,0.48401099999999997,-0.049151,0.2639015,0.696181,-0.099735,-0.25150849999999997,0.930921,-0.209735,0.31155150000000004,0.893741,-0.162215,-0.06960150000000001,0.0008610000000000002,0.0009700000000000021,0.06960150000000001,-0.0008609999999999998,-0.0009699999999999986,-0.1012085,-0.37294900000000003,-0.1238,0.12492149999999999,-0.367229,-0.116357,-0.1198485,-0.6658689999999999,-0.053804,0.1264515,-0.658099,-0.055066
87,0.014570500000000005,0.6797015,-0.0851115,-0.1357065,0.5007615,-0.0526275,-0.2199665,0.7103115,-0.1333495,0.1544835,0.48372149999999997,-0.0519095,0.26520350000000004,0.6970014999999999,-0.1032155,-0.2505765,0.9309514999999999,-0.2192695,0.3134035,0.8900414999999999,-0.1664195,-0.0697995,0.0009995000000000004,0.0006634999999999974,0.0697995,-0.0009995000000000004,-0.0006634999999999974,-0.0992865,-0.3714885,-0.1318905,0.12655349999999999,-0.36469850000000004,-0.1242615,-0.1188665,-0.6583785,-0.058415499999999995,0.12720350000000002,-0.6503385,-0.0601795
88,0.014355999999999999,0.6789265,-0.0886555,-0.134996,0.49909650000000005,-0.0566285,-0.21915600000000002,0.7102265,-0.1400575,0.153504,0.4829065,-0.055001499999999995,0.266374,0.6984265,-0.1073525,-0.249056,0.9320364999999999,-0.2306375,0.315274,0.8869865,-0.17110750000000002,-0.069995,0.0009415000000000014,0.0004215000000000052,0.069995,-0.0009414999999999979,-0.00042149999999999826,-0.09754099999999999,-0.3628135,-0.1409875,0.128124,-0.35665349999999996,-0.1325915,-0.117756,-0.6487535,-0.0635925,0.127694,-0.6408835,-0.0655175
89,0.013912500000000005,0.6776965,-0.09188099999999999,-0.1343565,0.4984365,-0.060342,-0.21849649999999998,0.7097265,-0.146064,0.1526535,0.48154650000000004,-0.057951,0.2674135,0.6993265000000001,-0.11155699999999999,-0.2480365,0.9328565,-0.241114,0.3169235,0.8878065,-0.175514,-0.0701585,0.0009004999999999985,0.00016499999999999848,0.0701585,-0.0009004999999999985,-0.00016499999999999848,-0.0963525,-0.35293349999999996,-0.149364,0.12959350000000003,-0.3473235,-0.140994,-0.1168065,-0.6394235,-0.068337,0.12788349999999998,-0.6318334999999999,-0.070181
90,0.013503500000000005,0.6772005,-0.099749,-0.1337335,0.4988205,-0.06887399999999999,-0.21780349999999998,0.7094604999999999,-0.156519,0.15214650000000002,0.48129049999999995,-0.06562799999999999,0.2684065,0.7015605,-0.120526,-0.24698349999999997,0.9346504999999999,-0.255739,0.3182065,0.8898805,-0.184749,-0.0702835,0.0010394999999999988,2.4000000000003185e-05,0.0702835,-0.0010394999999999988,-2.3999999999996247e-05,-0.0952075,-0.34068950000000003,-0.162329,0.13110650000000001,-0.33575950000000004,-0.153799,-0.11576349999999999,-0.6284795,-0.077621,0.1278665,-0.6213095000000001,-0.07922399999999999
91,0.013335500000000004,0.6789609999999999,-0.10769999999999999,-0.1327625,0.497031,-0.07747899999999999,-0.2171425,0.706471,-0.16717500000000002,0.1517675,0.482151,-0.07349,0.2695575,0.705761,-0.130094,-0.24599249999999998,0.9351809999999999,-0.270115,0.3195675,0.8935909999999999,-0.19516499999999998,-0.0702565,0.0008629999999999957,-0.00038599999999999746,0.0702565,-0.0008630000000000027,0.00038599999999999746,-0.0933695,-0.326859,-0.177895,0.1329275,-0.322399,-0.169475,-0.1145725,-0.615469,-0.08659,0.1278875,-0.608939,-0.088078
92,0.012967500000000002,0.6804625000000001,-0.11529,-0.1316215,0.4965225,-0.08562900000000001,-0.21657149999999997,0.7056425000000001,-0.177204,0.1512285,0.48306250000000006,-0.08100600000000001,0.2702885,0.7100925,-0.13944,-0.2454715,0.9334025,-0.283454,0.32071849999999996,0.8977325,-0.20522400000000002,-0.0702305,0.0007935000000000025,-0.0007090000000000013,0.0702305,-0.0007934999999999887,0.0007089999999999944,-0.0917345,-0.3135475,-0.192224,0.1346485,-0.30918749999999995,-0.183834,-0.1135115,-0.6026174999999999,-0.095001,0.1276585,-0.5967574999999999,-0.095888
93,0.012727500000000003,0.683074,-0.12297849999999999,-0.1303605,0.495234,-0.09385349999999999,-0.2159505,0.706214,-0.18707649999999998,0.1506295,0.483334,-0.08859849999999998,0.2710195,0.713354,-0.14888649999999998,-0.2449905,0.927084,-0.2965765,0.3217795,0.900984,-0.2154565,-0.0702345,0.0006560000000000038,-0.0009914999999999924,0.0702345,-0.0006560000000000038,0.0009915000000000063,-0.0901225,-0.300096,-0.20616649999999997,0.1363695,-0.295636,-0.19800649999999997,-0.11248049999999998,-0.588736,-0.10332349999999998,0.1275195,-0.583656,-0.1035555
94,0.012489000000000004,0.684725,-0.13089599999999998,-0.12929,0.49388499999999996,-0.10228599999999999,-0.21474,0.706075,-0.197814,0.14977000000000001,0.48289499999999996,-0.096617,0.2718,0.7150449999999999,-0.15857,-0.24464000000000002,0.9242549999999999,-0.310224,0.32259,0.903785,-0.22605399999999998,-0.070301,0.0004849999999999993,-0.0012069999999999997,0.070301,-0.0004849999999999993,0.0012069999999999997,-0.088556,-0.285625,-0.220404,0.13822,-0.28147500000000003,-0.21250399999999997,-0.11177999999999999,-0.573625,-0.111709,0.12742,-0.569415,-0.11146299999999999
95,0.0123195,0.6858099999999999,-0.138877,-0.1280775,0.49229,-0.11068800000000001,-0.2136475,0.70766,-0.208736,0.1489725,0.48268999999999995,-0.10475000000000001,0.2725425,0.71414,-0.16847800000000002,-0.2443075,0.9223199999999999,-0.323106,0.3233825,0.9072,-0.237006,-0.0703565,0.00028000000000000247,-0.0013350000000000029,0.0703565,-0.00028000000000000247,0.0013350000000000029,-0.0871145,-0.27059999999999995,-0.23442600000000002,0.14001249999999998,-0.26702000000000004,-0.22694599999999998,-0.1110975,-0.55799,-0.120189,0.12730249999999999,-0.5548700000000001,-0.119465
96,0.012278999999999998,0.686215,-0.146604,-0.12668400000000002,0.490985,-0.118896,-0.21269400000000002,0.706495,-0.219583,0.14818599999999998,0.483085,-0.112717,0.273096,0.713345,-0.178394,-0.24387400000000004,0.920815,-0.335493,0.324226,0.910715,-0.248203,-0.070322,0.00013499999999999623,-0.0014440000000000008,0.070322,-0.00013499999999999623,0.0014440000000000008,-0.085615,-0.25539500000000004,-0.248543,0.141806,-0.252475,-0.241423,-0.11025399999999999,-0.542435,-0.128475,0.127616,-0.539675,-0.12725599999999998
97,0.012432499999999999,0.6863250000000001,-0.15538449999999998,-0.1252795,0.49043499999999995,-0.1280625,-0.21141949999999998,0.704905,-0.2308305,0.1478805,0.482745,-0.12152949999999998,0.27348049999999996,0.7126250000000001,-0.1886375,-0.2429895,0.921755,-0.3471305,0.3247605,0.9122450000000001,-0.2598905,-0.0702895,3.500000000000725e-05,-0.0018994999999999984,0.0702895,-3.500000000000725e-05,0.0018995000000000123,-0.08410150000000001,-0.23658500000000002,-0.2627205,0.1436705,-0.23388499999999998,-0.25639049999999997,-0.10950950000000001,-0.523145,-0.1371415,0.1282005,-0.520295,-0.13557049999999998
98,0.012347499999999999,0.686635,-0.164127,-0.12393150000000001,0.489575,-0.137213,-0.2100915,0.704575,-0.24219,0.1472485,0.481395,-0.130621,0.2737285,0.712105,-0.198531,-0.24172149999999998,0.917775,-0.35824,0.3251885,0.913415,-0.27122999999999997,-0.0702475,2.4999999999997247e-05,-0.0021899999999999975,0.0702475,-2.4999999999997247e-05,0.0021899999999999975,-0.0826275,-0.216415,-0.27703,0.14545850000000002,-0.214425,-0.27032999999999996,-0.1087815,-0.503105,-0.14560099999999998,0.1287885,-0.500295,-0.143638
99,0.0122015,0.6864399999999999,-0.168148,-0.12259650000000001,0.48789,-0.141679,-0.2090465,0.70473,-0.24861,0.14643350000000002,0.47942,-0.134833,0.2738235,0.71069,-0.203528,-0.24106650000000002,0.91303,-0.36453,0.3254535,0.91442,-0.2778,-0.0703265,-0.00012000000000000899,-0.0027299999999999963,0.0703265,0.00011999999999998123,0.00273000000000001,-0.0813475,-0.19711,-0.28629,0.1471735,-0.19644,-0.27925,-0.10803650000000001,-0.48416,-0.14929599999999998,0.1293135,-0.48117000000000004,-0.14681
100,0.011990500000000003,0.682725,-0.171827,-0.1218765,0.489075,-0.14583600000000002,-0.20839649999999998,0.701445,-0.254725,0.14557350000000002,0.47689499999999996,-0.138695,0.2737035,0.707395,-0.20772400000000002,-0.2403365,0.905565,-0.370745,0.32548350000000004,0.914665,-0.28354500000000005,-0.07057050000000001,-5.0000000000050004e-06,-0.002935000000000007,0.07057050000000001,4.999999999977245e-06,0.002934999999999993,-0.0806045,-0.178695,-0.292635,0.14865350000000002,-0.17960500000000001,-0.284975,-0.1073665,-0.467155,-0.15266400000000002,0.1297035,-0.463805,-0.14966800000000002
101,0.011941499999999997,0.6795549999999999,-0.175947,-0.12115650000000001,0.48417499999999997,-0.150705,-0.20765650000000002,0.699165,-0.26086,0.1448735,0.47361499999999995,-0.143028,0.2736935,0.704175,-0.212055,-0.23956650000000002,0.8976449999999999,-0.37701,0.3256035,0.916495,-0.2903,-0.0709365,-0.0003350000000000297,-0.003349999999999992,0.0709365,0.0003349999999999742,0.0033500000000000058,-0.0798195,-0.15793500000000005,-0.29935999999999996,0.1501635,-0.15826500000000004,-0.29116,-0.1067065,-0.44784500000000005,-0.15609,0.1300035,-0.4441550000000001,-0.152573
102,0.0118645,0.67547,-0.179713,-0.12041849999999998,0.48146,-0.15524,-0.2068085,0.69572,-0.267295,0.1442015,0.47108,-0.147165,0.2735515,0.70156,-0.216587,-0.2387885,0.89508,-0.382945,0.3256715,0.91327,-0.296855,-0.0712665,-0.0005800000000000249,-0.003845000000000001,0.0712665,0.0005800000000000249,0.003845000000000001,-0.0790155,-0.13655,-0.305805,0.1516215,-0.13682,-0.296985,-0.1060185,-0.42862,-0.159101,0.1303515,-0.42464,-0.15515299999999999
103,0.011401000000000001,0.6714800000000001,-0.183288,-0.119999,0.47830000000000006,-0.159828,-0.206689,0.69238,-0.272855,0.143621,0.46836000000000005,-0.150774,0.27280099999999996,0.6955800000000001,-0.220453,-0.23874900000000002,0.8923300000000001,-0.389545,0.32528100000000004,0.9118900000000001,-0.302325,-0.071769,-0.0008599999999999719,-0.004364999999999994,0.071769,0.0008600000000000274,0.004364999999999994,-0.078501,-0.12194999999999995,-0.311285,0.152561,-0.12118999999999996,-0.30167499999999997,-0.105479,-0.40847,-0.161545,0.13028099999999998,-0.40454999999999997,-0.156942
104,0.011125499999999997,0.667495,-0.18678199999999998,-0.1196935,0.475565,-0.164146,-0.2065135,0.6855549999999999,-0.277825,0.1431365,0.465295,-0.15409199999999998,0.2720965,0.692655,-0.22380499999999998,-0.2388035,0.889715,-0.397015,0.3248665,0.910635,-0.307575,-0.0721865,-0.0010350000000000081,-0.004884999999999987,0.0721865,0.0010350000000000081,0.0048850000000000005,-0.07803750000000001,-0.107205,-0.316345,0.1532965,-0.10531499999999999,-0.305965,-0.10500350000000001,-0.388045,-0.163815,0.1300965,-0.38429500000000005,-0.15847399999999998
105,0.010761499999999998,0.663755,-0.18984,-0.11971649999999999,0.473045,-0.16796,-0.2065365,0.680415,-0.28208500000000003,0.1424535,0.461655,-0.15693100000000001,0.2713135,0.689975,-0.22646500000000003,-0.2391565,0.885925,-0.40444500000000005,0.32397349999999997,0.905725,-0.312155,-0.0724205,-0.0010749999999999926,-0.005665000000000003,0.0724205,0.0010749999999999926,0.005665000000000003,-0.0776845,-0.09203500000000003,-0.320355,0.15390349999999997,-0.089175,-0.309245,-0.1046665,-0.36755499999999997,-0.165581,0.1297835,-0.364085,-0.159559
106,0.010303000000000001,0.660765,-0.19180799999999998,-0.11968699999999999,0.470005,-0.170705,-0.20635699999999998,0.677335,-0.2854,0.141693,0.459005,-0.158803,0.270543,0.6886950000000001,-0.22848,-0.23956699999999997,0.877985,-0.41067,0.323023,0.903875,-0.31555,-0.072723,-0.0011750000000000371,-0.005809999999999996,0.072723,0.0011749999999999816,0.00581000000000001,-0.077489,-0.08014500000000002,-0.32279,0.154273,-0.07643500000000003,-0.31073,-0.104457,-0.350985,-0.166463,0.129323,-0.34789500000000007,-0.159612
107,0.010096500000000001,0.6583300000000001,-0.19376899999999997,-0.11967549999999999,0.46693300000000004,-0.173155,-0.2059555,0.67337,-0.289255,0.1413745,0.45931800000000006,-0.160132,0.2699245,0.68632,-0.23047499999999999,-0.24001550000000002,0.8719600000000001,-0.416545,0.32212450000000004,0.90305,-0.319095,-0.0728695,-0.0014599999999999613,-0.005814999999999987,0.0728695,0.0014600000000000168,0.005815000000000015,-0.0771545,-0.06798999999999994,-0.324875,0.1544745,-0.06313999999999997,-0.31132499999999996,-0.1042455,-0.33455999999999997,-0.16716699999999998,0.1288945,-0.3315199999999999,-0.15964
108,0.0098215,0.6561349999999999,-0.196068,-0.11980650000000001,0.46334699999999995,-0.17580199999999999,-0.2057965,0.668765,-0.29349499999999995,0.1412135,0.45811999999999997,-0.16175399999999998,0.2695335,0.684385,-0.232715,-0.24057649999999997,0.867065,-0.422385,0.3211135,0.9021549999999999,-0.323065,-0.0729205,-0.001725000000000032,-0.005814999999999987,0.0729205,0.0017249999999999766,0.005815000000000015,-0.07629949999999999,-0.054505000000000026,-0.327125,0.1545335,-0.04883500000000002,-0.312185,-0.1038465,-0.31664500000000007,-0.16796899999999998,0.1282935,-0.313735,-0.15953399999999998
109,0.009565000000000004,0.6551,-0.198105,-0.11996200000000001,0.459481,-0.178205,-0.205952,0.6701699999999999,-0.29739000000000004,0.141208,0.456631,-0.163103,0.269138,0.6827799999999999,-0.23462,-0.240962,0.8661,-0.42800000000000005,0.319998,0.8996299999999999,-0.32634,-0.07297100000000001,-0.0017699999999999938,-0.0061400000000000066,0.07297100000000001,0.0017699999999999938,0.0061400000000000066,-0.075125,-0.04078999999999999,-0.32883,0.154568,-0.03461000000000003,-0.31263,-0.10347200000000001,-0.29844,-0.168474,0.12784800000000002,-0.29550000000000004,-0.159245
110,0.009231500000000002,0.65333,-0.19902199999999998,-0.12021849999999998,0.459873,-0.179477,-0.2062385,0.66599,-0.30036,0.1411115,0.45666799999999996,-0.163297,0.2687315,0.6815899999999999,-0.23595,-0.2414885,0.86884,-0.43311,0.3195115,0.89679,-0.32845,-0.0730935,-0.0015600000000000058,-0.006779999999999994,0.0730935,0.0015599999999999503,0.006779999999999994,-0.0736195,-0.028210000000000013,-0.32971,0.1545015,-0.020850000000000035,-0.31191,-0.10326849999999999,-0.28118,-0.168118,0.1275915,-0.27778,-0.157879
111,0.008774500000000005,0.65113,-0.199271,-0.12085449999999999,0.459499,-0.179989,-0.2067945,0.6626,-0.30185,0.14063550000000002,0.457383,-0.16256400000000001,0.2682755,0.68036,-0.23614000000000002,-0.24224449999999997,0.8688199999999999,-0.43717000000000006,0.3187455,0.90008,-0.32998,-0.0732155,-0.0014600000000000168,-0.007460000000000008,0.0732155,0.0014600000000000168,0.007459999999999994,-0.07263449999999999,-0.015490000000000004,-0.33011,0.1542155,-0.007050000000000001,-0.31037000000000003,-0.10345449999999999,-0.26402000000000003,-0.166886,0.12688549999999998,-0.26026000000000005,-0.155759
112,0.008191999999999998,0.64931,-0.198897,-0.12173300000000001,0.459154,-0.179788,-0.207863,0.65991,-0.302325,0.139967,0.45787300000000003,-0.16144599999999998,0.267617,0.68381,-0.236335,-0.243353,0.8630800000000001,-0.43959499999999996,0.317997,0.9021,-0.33120499999999997,-0.07323199999999999,-0.0012899999999999578,-0.008004999999999998,0.07323199999999999,0.0012900000000000134,0.008004999999999998,-0.07203300000000001,-0.004249999999999976,-0.330215,0.153707,0.005200000000000038,-0.308645,-0.103603,-0.24900999999999995,-0.16530299999999998,0.125997,-0.24507999999999996,-0.153542
113,0.0073934999999999956,0.64896,-0.197631,-0.12272650000000002,0.45872300000000005,-0.179142,-0.2090765,0.65986,-0.302595,0.1391335,0.45898900000000004,-0.15975299999999998,0.2668335,0.68716,-0.23591499999999999,-0.2444365,0.85781,-0.440165,0.3172335,0.89841,-0.331375,-0.0731305,-0.0011999999999999789,-0.008444999999999994,0.0731305,0.0012000000000000344,0.008445000000000008,-0.07167950000000001,0.007130000000000025,-0.329845,0.1530535,0.017430000000000057,-0.30622499999999997,-0.10377650000000001,-0.23409999999999997,-0.16283799999999998,0.1250635,-0.23014,-0.150613
114,0.006334000000000002,0.648495,-0.19553399999999999,-0.12407399999999999,0.45793100000000003,-0.17786,-0.210504,0.6609050000000001,-0.30267999999999995,0.138266,0.46049100000000004,-0.157357,0.265886,0.690455,-0.23523,-0.245734,0.8540650000000001,-0.43920000000000003,0.316226,0.899035,-0.33055999999999996,-0.072918,-0.0012349999999999861,-0.00882999999999999,0.072918,0.0012350000000000416,0.008830000000000005,-0.071592,0.019035000000000024,-0.32906,0.152246,0.03037500000000004,-0.30322,-0.104054,-0.21921499999999994,-0.15942199999999998,0.123886,-0.21476499999999998,-0.14663099999999998
115,0.005576000000000003,0.64712,-0.19331500000000001,-0.12535200000000002,0.458217,-0.176077,-0.21150200000000002,0.66072,-0.30255,0.13756800000000002,0.462035,-0.154755,0.265558,0.69147,-0.2343,-0.246942,0.85075,-0.43825000000000003,0.315258,0.89789,-0.32968,-0.072605,-0.0011100000000000554,-0.009220000000000006,0.072605,0.0011099999999999444,0.009219999999999992,-0.071663,0.029320000000000013,-0.32824,0.15149800000000002,0.04152,-0.30033,-0.10430199999999999,-0.20631,-0.15594000000000002,0.122778,-0.20115000000000005,-0.142715
116,0.0049605,0.64551,-0.1908975,-0.1265335,0.45823,-0.1743205,-0.2129535,0.6599900000000001,-0.3014615,0.1368865,0.462951,-0.1522175,0.2653065,0.69367,-0.23334149999999998,-0.2480735,0.8499300000000001,-0.4371115,0.3143665,0.89632,-0.32851149999999996,-0.0723555,-0.0009500000000000064,-0.00957849999999999,0.0723555,0.0009500000000000064,0.009578500000000004,-0.0719215,0.03846000000000005,-0.32712149999999995,0.1508365,0.05153000000000002,-0.2973715,-0.1045135,-0.19477,-0.1524895,0.1217465,-0.18887999999999994,-0.1388685
117,0.004384499999999998,0.6435749999999999,-0.1884015,-0.1275825,0.45901999999999993,-0.1725565,-0.2142525,0.659055,-0.30045750000000004,0.1363275,0.4649439999999999,-0.1497225,0.2653975,0.6950449999999999,-0.23243750000000002,-0.2489925,0.8479649999999999,-0.43608749999999996,0.3140275,0.8937149999999999,-0.3269675,-0.0722005,-0.0008950000000000902,-0.009652500000000008,0.0722005,0.0008949999999999791,0.009652499999999994,-0.0726715,0.04560499999999995,-0.3258875,0.15034750000000002,0.05982499999999996,-0.2947675,-0.1047925,-0.1856850000000001,-0.1494335,0.12085749999999999,-0.17915500000000006,-0.13538450000000002
118,0.0037515,0.6410950000000001,-0.185949,-0.1286025,0.45918100000000006,-0.170759,-0.21554250000000003,0.6577050000000001,-0.299254,0.1357875,0.46670600000000007,-0.14725,0.2652975,0.6961550000000001,-0.231654,-0.2498325,0.845545,-0.434794,0.3136875,0.892055,-0.325324,-0.0720215,-0.0010249999999999426,-0.009756,0.0720215,0.0010250000000000536,0.009756,-0.0734345,0.05189500000000008,-0.324684,0.1498375,0.06749500000000008,-0.29217400000000004,-0.1049725,-0.17737499999999995,-0.146243,0.1199875,-0.17058499999999988,-0.132018
119,0.0033324999999999995,0.639135,-0.1841545,-0.1294755,0.460164,-0.1693535,-0.2166555,0.65967,-0.2988045,0.1352745,0.467575,-0.1454615,0.2656445,0.69675,-0.2311745,-0.2505355,0.84179,-0.4336445,0.3134945,0.88882,-0.3237145,-0.0718415,-0.0010200000000000209,-0.009785500000000003,0.0718415,0.0010200000000000209,0.009785500000000003,-0.0740375,0.05657000000000001,-0.3238945,0.1494745,0.07299000000000005,-0.2903745,-0.1049655,-0.17149999999999999,-0.1436565,0.1193045,-0.16464,-0.1294555
120,0.003148000000000005,0.638021,-0.1828665,-0.130119,0.46081199999999994,-0.1685035,-0.217509,0.66043,-0.2989995,0.135071,0.46767299999999995,-0.1442805,0.266001,0.6973799999999999,-0.2310995,-0.250989,0.83978,-0.4331195,0.313501,0.88501,-0.3223195,-0.071748,-0.0009500000000000064,-0.009780499999999998,0.071748,0.0009500000000000064,0.009780499999999998,-0.07441,0.060149999999999926,-0.3232395,0.149231,0.07732999999999995,-0.2893795,-0.10458899999999999,-0.16700000000000004,-0.1413045,0.11896100000000001,-0.16011000000000009,-0.1274795
121,0.002916999999999999,0.636881,-0.1815675,-0.13077300000000003,0.461841,-0.1674765,-0.218283,0.6605,-0.2992355,0.13471699999999998,0.468935,-0.1431775,0.266417,0.69774,-0.2308055,-0.251343,0.84171,-0.43241549999999995,0.313717,0.88071,-0.3209955,-0.071688,-0.0009900000000000464,-0.009864499999999998,0.071688,0.0009900000000000464,0.009864499999999998,-0.075069,0.06302000000000002,-0.32263549999999996,0.14898699999999998,0.08078999999999997,-0.2884655,-0.104033,-0.16335,-0.1390165,0.118567,-0.15646000000000004,-0.1255985
122,0.0027289999999999953,0.6349330000000001,-0.18077100000000002,-0.131383,0.4626420000000001,-0.16670000000000001,-0.21888300000000002,0.6600550000000001,-0.299435,0.134397,0.4699070000000001,-0.142448,0.266807,0.697775,-0.230875,-0.25165299999999996,0.842635,-0.432045,0.31345700000000004,0.8814250000000001,-0.32020499999999996,-0.071653,-0.0009949999999999681,-0.009785000000000002,0.071653,0.0009950000000000792,0.009785000000000002,-0.07614699999999999,0.06509500000000007,-0.32237499999999997,0.14878699999999997,0.0832750000000001,-0.288095,-0.10344300000000001,-0.16056499999999996,-0.137205,0.118207,-0.15402499999999997,-0.124248
123,0.002646500000000003,0.633565,-0.18067850000000002,-0.1316655,0.46309900000000004,-0.1667275,-0.2191755,0.65941,-0.2997425,0.1343145,0.470327,-0.1423795,0.26718450000000005,0.69757,-0.2311125,-0.25179549999999995,0.8428800000000001,-0.4318425,0.31341450000000004,0.8815,-0.32005249999999996,-0.0716715,-0.001040000000000041,-0.0097275,0.0716715,0.001040000000000041,0.0097275,-0.0768235,0.06636000000000003,-0.3225525,0.1487645,0.08462000000000003,-0.2882225,-0.1027355,-0.15869999999999995,-0.1360705,0.1181145,-0.15268000000000004,-0.1239045
124,0.002732499999999999,0.634265,-0.18057,-0.1319555,0.463446,-0.166794,-0.2194355,0.65952,-0.29978400000000005,0.1342345,0.47087100000000004,-0.142377,0.2674845,0.6979299999999999,-0.231044,-0.2519155,0.84361,-0.43178400000000006,0.3133245,0.88211,-0.319834,-0.07169049999999999,-0.0010900000000000354,-0.009706000000000006,0.07169049999999999,0.0010900000000000354,0.009705999999999992,-0.07742750000000001,0.06763000000000002,-0.32274400000000003,0.1487445,0.08595999999999998,-0.288374,-0.10199549999999999,-0.15671999999999997,-0.13498000000000002,0.1179945,-0.15152999999999994,-0.12357600000000002
125,0.0025524999999999953,0.634355,-0.17983149999999998,-0.1323735,0.462971,-0.16632249999999998,-0.2196335,0.65961,-0.2992005,0.1339765,0.47076700000000005,-0.1418905,0.26743649999999997,0.6980200000000001,-0.2304905,-0.25211350000000005,0.8437000000000001,-0.4312005,0.31321649999999995,0.8822000000000001,-0.31907050000000003,-0.0716235,-0.0011799999999999589,-0.010039499999999993,0.0716235,0.0011800000000000699,0.010039500000000007,-0.0782525,0.06772000000000006,-0.32299049999999996,0.1486665,0.08596000000000004,-0.28821050000000004,-0.10157350000000001,-0.1558799999999999,-0.1336465,0.1177165,-0.15154,-0.1228025
126,0.0024384999999999954,0.634355,-0.17992550000000002,-0.1324135,0.462971,-0.1663235,-0.2196335,0.65961,-0.2992005,0.1338665,0.47076700000000005,-0.14198149999999998,0.26743649999999997,0.6980200000000001,-0.2304905,-0.25210350000000004,0.8437000000000001,-0.4312005,0.3133165,0.8822000000000001,-0.31894049999999996,-0.0716235,-0.0011799999999999589,-0.010039499999999993,0.0716235,0.0011800000000000699,0.010039500000000007,-0.0790815,0.06760000000000005,-0.3230305,0.14864650000000001,0.08576000000000006,-0.2881205,-0.10166350000000002,-0.1554899999999999,-0.1336495,0.1176565,-0.15162999999999993,-0.12275749999999999
127,0.002504499999999997,0.634355,-0.179973,-0.13240449999999998,0.462971,-0.16638,-0.2196245,0.65961,-0.299211,0.13375549999999997,0.47076700000000005,-0.142066,0.2674455,0.6980200000000001,-0.23050099999999998,-0.2520445,0.8437000000000001,-0.431091,0.3134255,0.8822000000000001,-0.318831,-0.0716325,-0.0011799999999999589,-0.010028999999999996,0.0716325,0.0011800000000000699,0.01002900000000001,-0.0799695,0.06763000000000002,-0.322851,0.1485955,0.08558000000000004,-0.287941,-0.1019645,-0.15498,-0.13367199999999999,0.1175655,-0.15171999999999997,-0.12277199999999999
128,0.0025809999999999948,0.6356740000000001,-0.18014249999999998,-0.13239299999999998,0.462916,-0.1665245,-0.219623,0.660285,-0.2989905,0.13376699999999997,0.470712,-0.1421365,0.267457,0.698225,-0.2304805,-0.252023,0.8437950000000001,-0.43016049999999995,0.313487,0.882575,-0.31855049999999996,-0.071643,-0.0012349999999999861,-0.010029499999999997,0.071643,0.0012349999999999861,0.01002950000000001,-0.080879,0.06782500000000002,-0.3227005,0.148567,0.08536500000000002,-0.2877605,-0.102343,-0.15471499999999994,-0.1337275,0.117477,-0.15186500000000003,-0.1228155
129,0.002799499999999996,0.637197,-0.18063600000000002,-0.13222250000000002,0.461318,-0.16700399999999999,-0.21931250000000002,0.66008,-0.298214,0.1339375,0.46953500000000004,-0.142704,0.2676675,0.6977500000000001,-0.230894,-0.2518225,0.84284,-0.42880399999999996,0.3138175,0.8821300000000001,-0.31890399999999997,-0.0715405,-0.0012400000000000189,-0.010205999999999993,0.0715405,0.0012400000000000189,0.010206000000000007,-0.08167550000000001,0.06637000000000004,-0.322924,0.1487175,0.08330000000000004,-0.28799399999999997,-0.10218250000000001,-0.15583999999999998,-0.13417400000000002,0.11758749999999998,-0.1538299999999999,-0.123178
130,0.004243499999999997,0.6396440000000001,-0.183026,-0.1311955,0.4575590000000001,-0.168882,-0.2181055,0.6572150000000001,-0.299585,0.1349445,0.46499200000000007,-0.144781,0.2683945,0.6949250000000001,-0.23245500000000002,-0.25088550000000004,0.8394250000000001,-0.42905499999999996,0.31505449999999996,0.882595,-0.320455,-0.07159750000000001,-0.0012649999999999606,-0.009745000000000004,0.07159750000000001,0.0012650000000000716,0.009745000000000004,-0.08162649999999999,0.0598550000000001,-0.323255,0.1498245,0.0760550000000001,-0.289295,-0.10113549999999999,-0.16242499999999993,-0.13727,0.1185245,-0.16126499999999988,-0.124939
131,0.005724500000000003,0.642675,-0.18535000000000001,-0.1300955,0.45846299999999995,-0.171024,-0.2170155,0.6547649999999999,-0.299383,0.1359345,0.461665,-0.146963,0.26933450000000003,0.693305,-0.23361300000000002,-0.24997550000000002,0.835525,-0.427863,0.3162245,0.8834949999999999,-0.32139300000000004,-0.0716505,-0.0009449999999999736,-0.009017000000000011,0.0716505,0.0009449999999999736,0.009016999999999997,-0.0817235,0.050815,-0.323403,0.15078450000000002,0.06603499999999995,-0.290813,-0.10043550000000001,-0.17203500000000005,-0.139983,0.1193545,-0.17161500000000007,-0.126679
132,0.007083500000000003,0.64425,-0.1871715,-0.1288675,0.456867,-0.1727605,-0.2155475,0.65065,-0.2975705,0.13680250000000002,0.46045400000000003,-0.14926250000000002,0.27010249999999997,0.69316,-0.2345005,-0.2492675,0.83767,-0.4248005,0.31706249999999997,0.88744,-0.3216605,-0.0715925,-0.0014800000000000368,-0.008459500000000009,0.0715925,0.0014800000000000368,0.008459499999999995,-0.0819435,0.038270000000000026,-0.3231805,0.1516125,0.05232999999999999,-0.2918505,-0.1001475,-0.1854,-0.1420615,0.1200225,-0.18564999999999998,-0.1279685
133,0.009060000000000002,0.64678,-0.18824399999999997,-0.12729500000000002,0.45687,-0.17385499999999998,-0.214035,0.65356,-0.294575,0.137765,0.458345,-0.15132299999999999,0.27066500000000004,0.69274,-0.234945,-0.248735,0.8383400000000001,-0.421195,0.31849500000000003,0.88672,-0.321195,-0.07136300000000001,-0.0011799999999999589,-0.008124999999999993,0.07136300000000001,0.0011799999999999589,0.008125000000000007,-0.082088,0.020079999999999987,-0.321855,0.152535,0.032420000000000004,-0.292035,-0.100685,-0.20550999999999997,-0.14324699999999999,0.120755,-0.20623999999999998,-0.12846
134,0.011121499999999998,0.6515949999999999,-0.1886215,-0.1256485,0.45647,-0.17428549999999998,-0.2136185,0.653655,-0.2917285,0.1387515,0.458059,-0.1522905,0.2712615,0.6930449999999999,-0.2342085,-0.2484885,0.836805,-0.4163885,0.3197515,0.887145,-0.3198785,-0.0711275,-0.0012350000000000416,-0.008141499999999996,0.0711275,0.0012349999999999861,0.008141499999999996,-0.08236650000000001,-0.0010550000000000281,-0.3197685,0.1532915,0.00967499999999999,-0.2910585,-0.1014785,-0.23013499999999998,-0.1435265,0.1213715,-0.23139500000000002,-0.1285795
135,0.012603999999999999,0.65724,-0.187323,-0.124534,0.45674,-0.173758,-0.213564,0.65239,-0.287592,0.13936600000000002,0.458347,-0.153061,0.271406,0.69407,-0.23331200000000002,-0.249064,0.83405,-0.411212,0.320556,0.89105,-0.318492,-0.07081599999999999,-0.0012800000000000034,-0.008157999999999999,0.07081599999999999,0.0012800000000000034,0.008157999999999999,-0.083154,-0.023529999999999995,-0.317512,0.15357600000000002,-0.014670000000000016,-0.289562,-0.102804,-0.25697000000000003,-0.143705,0.12148600000000001,-0.25882000000000005,-0.12864799999999998
136,0.014199999999999997,0.66214,-0.18582949999999998,-0.12324500000000001,0.45813,-0.1730485,-0.212945,0.65113,-0.2832225,0.140615,0.458974,-0.15341149999999998,0.27170500000000003,0.69632,-0.23184249999999998,-0.249295,0.83894,-0.40617250000000005,0.321505,0.89723,-0.31661249999999996,-0.07049,-0.0011400000000000299,-0.008347499999999994,0.07049,0.0011399999999999744,0.008347500000000008,-0.08418300000000001,-0.049760000000000026,-0.31501250000000003,0.15391500000000002,-0.042830000000000035,-0.2877925,-0.10416500000000001,-0.28969999999999996,-0.1437615,0.121795,-0.29203999999999997,-0.1285535
137,0.015908000000000005,0.66769,-0.184446,-0.12182799999999999,0.460646,-0.172238,-0.211888,0.6572,-0.27878000000000003,0.142462,0.461098,-0.153376,0.27219200000000005,0.69978,-0.2304,-0.24884799999999999,0.84477,-0.40085,0.322052,0.90074,-0.31482,-0.07026199999999999,-0.0009300000000000419,-0.007690000000000002,0.07026199999999999,0.0009299999999999864,0.007690000000000002,-0.08544299999999999,-0.07797000000000004,-0.31121,0.154262,-0.07271,-0.28566,-0.10536799999999999,-0.32622000000000007,-0.14377299999999998,0.122302,-0.32918000000000003,-0.128557
138,0.017395999999999995,0.670725,-0.182727,-0.120845,0.465105,-0.170678,-0.21187499999999998,0.6609050000000001,-0.273768,0.144335,0.46479500000000007,-0.15298,0.272325,0.703485,-0.228528,-0.24871500000000002,0.849005,-0.394218,0.322505,0.904775,-0.312338,-0.070087,-0.0008449999999999847,-0.0066879999999999995,0.070087,0.0008450000000000402,0.0066879999999999995,-0.087466,-0.10711499999999996,-0.306488,0.15452500000000002,-0.10342499999999999,-0.282788,-0.105975,-0.365985,-0.14319900000000002,0.122875,-0.36899499999999996,-0.128216
139,0.018431500000000003,0.67266,-0.180499,-0.1199615,0.471,-0.168846,-0.21159150000000002,0.66642,-0.269099,0.1462485,0.47075,-0.152143,0.27238850000000003,0.70931,-0.226389,-0.24841149999999998,0.85488,-0.386309,0.32267850000000003,0.90739,-0.309589,-0.0699855,-0.0006900000000000239,-0.005738999999999994,0.0699855,0.0006899999999999684,0.005739000000000008,-0.0898235,-0.13207000000000002,-0.302149,0.1546185,-0.12908000000000003,-0.278629,-0.1068015,-0.40173000000000003,-0.141931,0.1234085,-0.40449,-0.12764799999999998
140,0.0190955,0.6755599999999999,-0.1767505,-0.1194845,0.4727,-0.16576950000000001,-0.2118545,0.67033,-0.2624595,0.1479655,0.47765,-0.1495705,0.2722255,0.71351,-0.22268949999999998,-0.24934449999999997,0.85991,-0.3764595,0.3223755,0.9121900000000001,-0.3044395,-0.0698405,-0.0009500000000000064,-0.004768499999999995,0.0698405,0.0009500000000000064,0.004768499999999995,-0.0926345,-0.15588000000000002,-0.2961995,0.1544855,-0.15322000000000002,-0.2728995,-0.1079345,-0.43624999999999997,-0.13920949999999999,0.12367550000000001,-0.43885,-0.12558350000000001
141,0.019436000000000002,0.680865,-0.170267,-0.11972500000000001,0.47935500000000003,-0.16129100000000002,-0.21248499999999998,0.676635,-0.253819,0.149265,0.482875,-0.145031,0.27257499999999996,0.715755,-0.216779,-0.250685,0.859785,-0.364619,0.322415,0.913555,-0.297329,-0.069454,-0.00028500000000000747,-0.0038720000000000004,0.069454,0.00028500000000000747,0.0038720000000000004,-0.096135,-0.176595,-0.286679,0.15421500000000002,-0.17356499999999997,-0.264059,-0.109395,-0.46875500000000003,-0.13503199999999999,0.12396499999999999,-0.47058500000000003,-0.12254899999999999
142,0.018514999999999997,0.68414,-0.1610565,-0.120893,0.48287,-0.1547485,-0.21460300000000002,0.6749400000000001,-0.2426295,0.149837,0.48759,-0.1386325,0.272117,0.7176400000000001,-0.2090595,-0.253153,0.85973,-0.3516995,0.321577,0.91774,-0.2877795,-0.068852,-0.0004899999999999904,-0.0034005000000000007,0.068852,0.0004900000000000182,0.0034005000000000007,-0.10023299999999999,-0.19291999999999998,-0.2747895,0.153087,-0.18939,-0.2536095,-0.111153,-0.49631000000000003,-0.1283155,0.12368699999999999,-0.49707,-0.11761849999999999
143,0.017351,0.6850149999999999,-0.15154099999999998,-0.12212,0.486365,-0.147616,-0.21628,0.6797949999999999,-0.23162899999999997,0.15031,0.490185,-0.132396,0.27172999999999997,0.719225,-0.20088899999999998,-0.25592,0.8686849999999999,-0.337939,0.32069,0.919945,-0.277759,-0.06834,-0.0002550000000000052,-0.003147999999999998,0.06834,0.0002550000000000052,0.003147999999999998,-0.10429000000000001,-0.206455,-0.262349,0.15182,-0.202195,-0.242419,-0.11295000000000001,-0.519865,-0.12217,0.12344,-0.5190950000000001,-0.112678
144,0.0161375,0.6847349999999999,-0.14124350000000002,-0.1236265,0.490455,-0.1393335,-0.2184965,0.682955,-0.22095150000000002,0.1508035,0.493205,-0.1254595,0.2711435,0.7235149999999999,-0.19153150000000002,-0.2584465,0.876025,-0.3204615,0.31950350000000005,0.923195,-0.2667115,-0.0678695,9.499999999998399e-05,-0.002662500000000005,0.0678695,-9.500000000001174e-05,0.002662499999999998,-0.1080765,-0.219725,-0.24772149999999998,0.1504835,-0.21482500000000004,-0.2292615,-0.1146265,-0.5425249999999999,-0.1158865,0.1238835,-0.5410650000000001,-0.1076185
145,0.014982,0.684035,-0.132025,-0.12472499999999999,0.495055,-0.131374,-0.220155,0.687175,-0.21013199999999999,0.150895,0.49538499999999996,-0.11879,0.270415,0.725865,-0.183402,-0.261955,0.877925,-0.304642,0.318305,0.922775,-0.257092,-0.06744,0.0002950000000000036,-0.002140999999999997,0.06744,-0.0002950000000000036,0.002140999999999997,-0.111405,-0.22905499999999998,-0.233172,0.149175,-0.22415500000000002,-0.216202,-0.116215,-0.559085,-0.11065,0.124295,-0.557875,-0.10300999999999999
146,0.013811,0.6816795,-0.123796,-0.126441,0.4979695,-0.124588,-0.22414099999999998,0.6884495,-0.20042100000000002,0.150509,0.4966995,-0.113431,0.269159,0.7273795,-0.176151,-0.266491,0.8820295,-0.29085099999999997,0.317079,0.9248395,-0.24795099999999998,-0.06700800000000001,0.00032550000000000634,-0.001687000000000001,0.06700800000000001,-0.00032549999999999246,0.001687000000000001,-0.11439099999999999,-0.23646050000000002,-0.21930100000000002,0.147799,-0.2317805,-0.20275100000000001,-0.118391,-0.5720405,-0.106304,0.12470899999999999,-0.5710205,-0.098893
147,0.01298,0.686647,-0.1183495,-0.127762,0.500267,-0.1193695,-0.227442,0.692627,-0.19238149999999998,0.150398,0.496937,-0.1092565,0.268868,0.729017,-0.16968149999999999,-0.270712,0.8881870000000001,-0.2786215,0.316658,0.926747,-0.2399615,-0.066824,0.00038499999999999646,-0.0012365000000000015,0.066824,-0.00038499999999999646,0.0012365000000000015,-0.116242,-0.24161299999999997,-0.2068215,0.146668,-0.23750299999999996,-0.1904115,-0.120322,-0.581013,-0.1029995,0.12520799999999999,-0.580603,-0.09586549999999999
148,0.011905999999999998,0.6932045,-0.11333950000000001,-0.12933,0.5029144999999999,-0.1144605,-0.23056,0.6982645,-0.1843975,0.15002,0.4981445,-0.10537650000000001,0.26838,0.7308445,-0.1638175,-0.27452000000000004,0.8950145,-0.2674375,0.31573,0.9291645000000001,-0.23189749999999998,-0.066681,0.0003505000000000036,-0.0007655000000000023,0.066681,-0.00035049999999999665,0.0007654999999999954,-0.11819,-0.2464155,-0.19424750000000002,0.14500999999999997,-0.24392550000000002,-0.17849749999999998,-0.1224,-0.5896555,-0.1000025,0.12578,-0.5902455,-0.0930355
149,0.0109925,0.6981145,-0.108836,-0.1308725,0.5050145,-0.10991000000000001,-0.2327925,0.7053244999999999,-0.177363,0.1496175,0.4969545,-0.101899,0.2678975,0.7330144999999999,-0.158523,-0.2777725,0.9046244999999999,-0.256533,0.31499750000000004,0.9288744999999999,-0.22495300000000001,-0.0665895,0.00042149999999999826,-0.00026800000000000435,0.0665895,-0.00042149999999999826,0.0002679999999999974,-0.11937249999999999,-0.2538755,-0.181763,0.1428575,-0.2525955,-0.166323,-0.12369250000000001,-0.6008255,-0.097567,0.1254175,-0.6008555,-0.090608
150,0.010312000000000003,0.7032115,-0.1054515,-0.13222299999999998,0.5056515,-0.1052095,-0.23506300000000002,0.7116115000000001,-0.17122349999999997,0.149387,0.49640150000000005,-0.0984645,0.26705700000000004,0.7365815,-0.1542635,-0.281283,0.9126515000000001,-0.2459735,0.314217,0.9300715,-0.21824349999999998,-0.066465,0.0004554999999999976,0.00012050000000000255,0.066465,-0.00045550000000000104,-0.00012050000000000255,-0.120323,-0.26162850000000004,-0.1708635,0.14041700000000001,-0.26262850000000004,-0.1553335,-0.124823,-0.6110485,-0.09541849999999999,0.12491700000000001,-0.6110585,-0.0876155
151,0.009749500000000001,0.7090569999999999,-0.098856,-0.1335175,0.507277,-0.09761500000000001,-0.2372875,0.718797,-0.16256,0.1494025,0.496477,-0.092213,0.2664525,0.740267,-0.14691,-0.2848875,0.922607,-0.23260999999999998,0.3134725,0.932537,-0.20865,-0.06641849999999999,0.0005789999999999997,0.00034,0.06641849999999999,-0.0005790000000000014,-0.00034,-0.12127750000000001,-0.269123,-0.15604,0.1378125,-0.272523,-0.14009,-0.1261475,-0.620723,-0.088629,0.1242625,-0.620343,-0.079574
152,0.009150999999999996,0.7117654999999999,-0.089018,-0.13525399999999999,0.5080055,-0.08602699999999999,-0.23958400000000002,0.7196454999999999,-0.150316,0.14879599999999998,0.4955655,-0.08219499999999999,0.26579600000000003,0.7409955,-0.135826,-0.288014,0.9234555,-0.215586,0.312996,0.9331355,-0.19624599999999998,-0.066399,0.0006015,0.00018699999999999967,0.066399,-0.0006015,-0.00018699999999999967,-0.121934,-0.2807445,-0.135466,0.13395600000000002,-0.2861845,-0.119042,-0.12769400000000003,-0.6342145,-0.076189,0.123486,-0.6335945000000001,-0.06687599999999999
153,0.008587499999999998,0.7151735,-0.079778,-0.1366985,0.5075235,-0.07575899999999999,-0.2414385,0.7243735,-0.137826,0.1488715,0.49368349999999994,-0.072755,0.2654015,0.7386135,-0.12487599999999999,-0.2905585,0.9283035,-0.200596,0.3123315,0.9295435,-0.184526,-0.0665995,0.0005254999999999999,8.000000000001062e-06,0.0665995,-0.0005254999999999999,-7.999999999997592e-06,-0.1220385,-0.2901765,-0.116372,0.1296215,-0.2957165,-0.09834100000000001,-0.12924850000000002,-0.6436365000000001,-0.063543,0.1228515,-0.6428865,-0.053654
154,0.007991000000000002,0.7184205,-0.0702705,-0.137839,0.5054005,-0.0657895,-0.243399,0.7278205,-0.1250545,0.149001,0.49224049999999997,-0.0633045,0.264791,0.7373105,-0.1135815,-0.291549,0.9307005,-0.1838945,0.311621,0.9278205,-0.1721445,-0.066677,0.0004025000000000001,-8.950000000000277e-05,0.066677,-0.0004025000000000001,8.94999999999993e-05,-0.122309,-0.2984595,-0.09644350000000002,0.125011,-0.3041095,-0.07645550000000001,-0.13086899999999999,-0.6519195,-0.0503265,0.12216099999999999,-0.6512495,-0.0397145
155,0.007417499999999995,0.722184,-0.0606635,-0.13893450000000002,0.5046039999999999,-0.0558185,-0.24412450000000002,0.726704,-0.1122875,0.1489955,0.49069399999999996,-0.0541675,0.26413549999999997,0.735774,-0.1024345,-0.29242450000000003,0.930784,-0.1672375,0.3109355,0.926634,-0.1601675,-0.0667385,0.0004390000000000019,-0.0001724999999999999,0.0667385,-0.0004389999999999984,0.00017250000000000078,-0.1225745,-0.305066,-0.0771905,0.12053549999999999,-0.31136600000000003,-0.0555815,-0.13224450000000001,-0.658426,-0.0369235,0.12144549999999998,-0.6579160000000001,-0.025683499999999998
156,0.007004500000000004,0.7212120000000001,-0.050968,-0.13986649999999998,0.503282,-0.045939,-0.24471649999999998,0.7258420000000001,-0.099269,0.14909350000000002,0.489932,-0.044956,0.2633735,0.734442,-0.091195,-0.2931665,0.931652,-0.150672,0.3101735,0.925732,-0.14760199999999998,-0.0667825,0.0004569999999999991,-0.000207,0.0667825,-0.0004569999999999991,0.000207,-0.1227365,-0.311868,-0.05836,0.1163135,-0.320558,-0.035096,-0.1333665,-0.6663479999999999,-0.023260000000000003,0.1202935,-0.6654779999999999,-0.011288
157,0.006695000000000003,0.7192775,-0.041315000000000004,-0.14057399999999998,0.5023275,-0.036074,-0.24526399999999998,0.7247175,-0.086288,0.149266,0.4893675,-0.035795,0.262696,0.7331675000000001,-0.079954,-0.293844,0.9327375,-0.13457899999999998,0.30941599999999997,0.9247875000000001,-0.135509,-0.06677999999999999,0.0005314999999999973,-0.00023399999999999983,0.06677999999999999,-0.0005314999999999973,0.00023399999999999983,-0.122944,-0.3196325,-0.040233000000000005,0.112516,-0.32989250000000003,-0.015446,-0.13430399999999998,-0.6749525,-0.009553999999999998,0.11920599999999999,-0.6731925,0.002561
158,0.006500500000000001,0.7176535,-0.032378000000000004,-0.1412585,0.5014735,-0.026551,-0.2450385,0.7236235,-0.07349699999999999,0.14956149999999999,0.4891635,-0.026896,0.26210150000000004,0.7320635,-0.069011,-0.29407849999999996,0.9325635,-0.119513,0.30851150000000005,0.9240235,-0.123543,-0.0667825,0.0005785000000000026,-0.00022199999999999998,0.0667825,-0.0005785000000000026,0.00022199999999999998,-0.1229585,-0.3276165,-0.02308,0.10938149999999999,-0.3394865,0.0030340000000000002,-0.1352485,-0.6833265,0.0039000000000000007,0.1178615,-0.6810665,0.015588
159,0.006534,0.714761,-0.022645,-0.142003,0.499521,-0.017611999999999996,-0.244783,0.722631,-0.0609,0.149837,0.487881,-0.017678,0.261677,0.729961,-0.057880999999999995,-0.294283,0.933141,-0.105402,0.307687,0.922041,-0.11194200000000001,-0.066786,0.0005920000000000022,-0.0002579999999999978,0.066786,-0.0005919999999999953,0.0002580000000000013,-0.122933,-0.335519,-0.006774999999999996,0.10678699999999999,-0.348719,0.020544000000000003,-0.13611299999999998,-0.691469,0.017188000000000002,0.116757,-0.6884290000000001,0.02816
160,0.0069689999999999995,0.7120595000000001,-0.016760999999999998,-0.142407,0.4982095000000001,-0.012351,-0.24428699999999998,0.7218395000000001,-0.052779,0.15048299999999998,0.4874495,-0.012094,0.261683,0.7284195,-0.050733999999999994,-0.294237,0.9331295000000001,-0.094945,0.30733299999999997,0.9206495,-0.10439499999999999,-0.066803,0.0005815000000000056,-0.0002710000000000004,0.066803,-0.0005814999999999987,0.0002710000000000004,-0.122607,-0.3426905,0.004264,0.104883,-0.35680049999999996,0.032621,-0.136417,-0.6986205,0.025124,0.116153,-0.6946105,0.035158999999999996
161,0.007671499999999998,0.7122995000000001,-0.014801500000000002,-0.1422595,0.4982095000000001,-0.011333500000000003,-0.24375950000000002,0.7232895,-0.048620500000000004,0.1509305,0.4885695,-0.010703500000000005,0.2619205,0.7289695,-0.04773550000000001,-0.29388949999999997,0.9337395000000001,-0.0888515,0.3072605,0.9214895000000001,-0.1005615,-0.06682650000000001,0.0005815000000000056,3.249999999999781e-05,0.06682650000000001,-0.0005814999999999987,-3.250000000000128e-05,-0.12257950000000001,-0.3428205,0.008465499999999997,0.1043705,-0.3579205,0.037858499999999996,-0.1364495,-0.6986705,0.0272175,0.1162405,-0.6952205,0.0374575
162,0.0083435,0.7122995000000001,-0.0132245,-0.1422495,0.4982095000000001,-0.010471500000000002,-0.2433095,0.7240795,-0.045547500000000005,0.1515705,0.4895995000000001,-0.009070500000000002,0.2618605,0.7293595,-0.0451245,-0.2935895,0.9356295,-0.0846905,0.3069905,0.9221495000000001,-0.0972705,-0.06686349999999999,0.0005815000000000056,0.0002654999999999984,0.06686349999999999,-0.0005814999999999987,-0.00026550000000000185,-0.1226295,-0.3429305,0.011533499999999999,0.10429050000000001,-0.3583805,0.0408645,-0.1365895,-0.6987605,0.0289705,0.1162105,-0.6958305,0.0393135
163,0.008996,0.7122995000000001,-0.012159500000000004,-0.14228,0.4982095000000001,-0.009800500000000004,-0.2429,0.7243195,-0.04353750000000001,0.15218,0.49055950000000004,-0.0076425000000000035,0.2619,0.7293595,-0.0431555,-0.29340999999999995,0.9364795,-0.0822665,0.30694000000000005,0.9221495000000001,-0.0947365,-0.066868,0.0005815000000000056,0.00037449999999999983,0.066868,-0.0005814999999999987,-0.00037449999999999983,-0.12263,-0.34312050000000005,0.012791499999999999,0.10425,-0.3583805,0.0419885,-0.13663,-0.6988905,0.0300215,0.11617,-0.6963604999999999,0.040307499999999996
164,0.009669500000000001,0.712705,-0.0112055,-0.1420995,0.49826499999999996,-0.009190499999999997,-0.2424795,0.724955,-0.0418955,0.15267050000000001,0.490965,-0.006264499999999999,0.26184050000000003,0.729765,-0.041509500000000005,-0.29329950000000005,0.9376749999999999,-0.0802185,0.30687050000000005,0.922555,-0.0928785,-0.0668725,0.0006019999999999984,0.00047849999999999976,0.0668725,-0.0006019999999999984,-0.00047849999999999976,-0.1226695,-0.342855,0.013430500000000001,0.1042305,-0.358015,0.0425385,-0.1369595,-0.698485,0.030745500000000002,0.1163405,-0.696265,0.0411865
165,0.010419499999999998,0.7129905000000001,-0.0104765,-0.1419275,0.4982705,-0.008647499999999995,-0.2420275,0.7254505,-0.040792499999999995,0.15341249999999998,0.49182049999999994,-0.004850500000000001,0.2619325,0.7300705000000001,-0.040389499999999995,-0.29321749999999996,0.9382005000000001,-0.07913049999999999,0.3068425,0.9228605000000001,-0.0920905,-0.0668755,0.0005985000000000018,0.0005715000000000026,0.0668755,-0.0005985000000000018,-0.0005714999999999991,-0.1226775,-0.3427795,0.013638500000000001,0.10430249999999999,-0.3577095,0.0427505,-0.1371375,-0.6981795,0.031183500000000003,0.11645249999999999,-0.6963695,0.0418655
166,0.011164999999999998,0.7131275,-0.010188999999999997,-0.141866,0.49824749999999995,-0.008182999999999996,-0.24168599999999998,0.7258675,-0.040522,0.154074,0.4930375,-0.0034249999999999975,0.26200399999999996,0.7303575,-0.040129,-0.29332600000000003,0.9384875,-0.078871,0.30664399999999997,0.9231475,-0.091841,-0.066817,0.0005925000000000027,0.0006409999999999992,0.066817,-0.0005924999999999958,-0.0006409999999999992,-0.122876,-0.3426825,0.013888000000000001,0.10448400000000001,-0.35743250000000004,0.043015,-0.137436,-0.6979225,0.031573000000000004,0.116344,-0.6965525,0.042464
167,0.011838999999999999,0.7131065000000001,-0.009842999999999998,-0.141923,0.4981364999999999,-0.007764,-0.241543,0.7261365000000001,-0.040197,0.154627,0.49422649999999996,-0.0020760000000000015,0.262237,0.7305565,-0.039801,-0.29349299999999995,0.9386865000000001,-0.078566,0.306767,0.9233465000000001,-0.091516,-0.066754,0.0005894999999999997,0.0007020000000000012,0.066754,-0.0005894999999999997,-0.0007019999999999978,-0.123243,-0.3427235,0.014193,0.10449699999999999,-0.35717350000000003,0.043335,-0.137823,-0.6978135,0.031922,0.116057,-0.6964834999999999,0.042924000000000004
168,0.0125205,0.7130205,-0.009479999999999999,-0.1420485,0.4980905,-0.0074140000000000005,-0.2414285,0.7264805,-0.039856,0.1548715,0.4952805,-0.0011530000000000012,0.2626715,0.7307405,-0.03944700000000001,-0.2935885,0.9388705,-0.07823100000000001,0.3072515,0.9233505,-0.091161,-0.0667035,0.0005874999999999977,0.0007950000000000006,0.0667035,-0.0005875000000000047,-0.0007950000000000006,-0.1236685,-0.34284950000000003,0.014513,0.1043915,-0.3569195,0.043504,-0.1383585,-0.6978195,0.032256,0.1155615,-0.6964795,0.043251
169,0.013388500000000001,0.7126985,-0.0090795,-0.1422735,0.4981485,-0.006966499999999997,-0.24120350000000002,0.7265385,-0.03953849999999999,0.1549565,0.4962185,-0.00022149999999999948,0.2639165,0.7307985,-0.0392685,-0.2934635,0.9384985,-0.0783135,0.30851649999999997,0.9231885,-0.0914635,-0.0666535,0.0005995000000000028,0.0008114999999999997,0.0666535,-0.0005995000000000028,-0.0008114999999999997,-0.1241835,-0.3432915,0.0147525,0.1042165,-0.3568415,0.043409500000000004,-0.13907350000000002,-0.6980815,0.0326305,0.11486650000000001,-0.6967115,0.0436275
170,0.014332499999999998,0.7123085,-0.009113,-0.14256449999999998,0.4981485,-0.006585999999999998,-0.2409345,0.7265085,-0.03997099999999999,0.1550355,0.4970785,0.0005399999999999988,0.2652355,0.7306385,-0.039465,-0.2931745,0.9373785,-0.079932,0.3101055,0.9229885,-0.09288199999999999,-0.06660250000000001,0.0005995000000000028,0.0007980000000000001,0.06660250000000001,-0.0005995000000000028,-0.0007980000000000001,-0.12475449999999999,-0.3438015,0.014898,0.1039755,-0.3568415,0.043057,-0.1398845,-0.6984315,0.032991,0.1140755,-0.6970115,0.043989
171,0.015446999999999999,0.71195,-0.009490499999999999,-0.142882,0.49817,-0.0061874999999999986,-0.240732,0.72634,-0.0413565,0.154818,0.49739,0.0009424999999999989,0.266818,0.73055,-0.0400135,-0.292732,0.93585,-0.0827145,0.311868,0.9228500000000001,-0.09469449999999999,-0.066553,0.0006209999999999966,0.0007754999999999984,0.066553,-0.0006210000000000035,-0.0007754999999999984,-0.125332,-0.34436,0.0150185,0.103718,-0.35681999999999997,0.042527499999999996,-0.140732,-0.69876,0.0333685,0.113258,-0.69735,0.0443675
172,0.016589499999999997,0.7117435,-0.010119,-0.1427835,0.4986235,-0.005760999999999999,-0.2404035,0.7262735,-0.043434,0.1557365,0.49836349999999996,0.0014239999999999982,0.2689365,0.7305735,-0.04124900000000001,-0.2920435,0.9338035,-0.086369,0.31415649999999995,0.9227635,-0.097509,-0.0664865,0.000615499999999998,0.0007600000000000003,0.0664865,-0.0006155000000000049,-0.0007600000000000003,-0.1260135,-0.3447565,0.015150999999999998,0.1033065,-0.35667649999999995,0.041952,-0.1417135,-0.6989365000000001,0.033759,0.1122965,-0.6976065,0.044767
173,0.017719999999999996,0.7114495,-0.011104999999999997,-0.142408,0.4989895,-0.005473999999999993,-0.240118,0.7257295,-0.046356999999999995,0.157032,0.49870950000000003,0.002019000000000007,0.271482,0.7303295,-0.04281199999999999,-0.291238,0.9311195,-0.090914,0.316742,0.9220794999999999,-0.10108400000000001,-0.066385,0.0005835000000000007,0.0007190000000000044,0.066385,-0.0005835000000000007,-0.0007189999999999974,-0.12684800000000002,-0.3451305,0.015301000000000006,0.10283199999999999,-0.3565805,0.041053000000000006,-0.142918,-0.6991005,0.03421400000000001,0.111082,-0.6979105,0.04517500000000001
174,0.018857500000000003,0.7108570000000001,-0.01259699999999999,-0.1417185,0.49890700000000004,-0.005459999999999993,-0.2403485,0.725327,-0.051602999999999996,0.1585715,0.49887699999999996,0.002736000000000006,0.2752115,0.7272369999999999,-0.04471399999999999,-0.2902885,0.928207,-0.098594,0.3200315,0.918437,-0.10554399999999999,-0.0662875,0.000559999999999998,0.0005450000000000038,0.0662875,-0.0005600000000000049,-0.0005449999999999969,-0.1280585,-0.345733,0.015574000000000008,0.1020915,-0.356513,0.03970100000000001,-0.1447485,-0.699093,0.034982000000000006,0.1092515,-0.698383,0.045686000000000004
