sb224sc-HT22-VT27/4dt907/src/data/kinect_good_vs_bad_not_preprocessed_A13_mediapipe/G29.csv
FrameNo,nose_3d_x,nose_3d_y,nose_3d_z,left_shoulder_3d_x,left_shoulder_3d_y,left_shoulder_3d_z,left_elbow_3d_x,left_elbow_3d_y,left_elbow_3d_z,right_shoulder_3d_x,right_shoulder_3d_y,right_shoulder_3d_z,right_elbow_3d_x,right_elbow_3d_y,right_elbow_3d_z,left_wrist_3d_x,left_wrist_3d_y,left_wrist_3d_z,right_wrist_3d_x,right_wrist_3d_y,right_wrist_3d_z,left_hip_3d_x,left_hip_3d_y,left_hip_3d_z,right_hip_3d_x,right_hip_3d_y,right_hip_3d_z,left_knee_3d_x,left_knee_3d_y,left_knee_3d_z,right_knee_3d_x,right_knee_3d_y,right_knee_3d_z,left_ankle_3d_x,left_ankle_3d_y,left_ankle_3d_z,right_ankle_3d_x,right_ankle_3d_y,right_ankle_3d_z
0,0.019722000000000003,0.7444325,0.008923500000000004,-0.147234,0.4738025,0.004155500000000006,-0.321384,0.4805725,-0.1245975,0.164746,0.47626250000000003,0.012026500000000002,0.34037599999999996,0.4822325,-0.12233749999999999,-0.40440400000000004,0.5216325,-0.3158375,0.413576,0.5335125000000001,-0.31867749999999995,-0.069806,0.0008424999999999999,0.0013625000000000026,0.069806,-0.0008425000000000004,-0.0013624999999999957,-0.12473400000000001,-0.3288975,0.009623500000000004,0.10933599999999999,-0.3207575,0.029658500000000004,-0.13869399999999998,-0.6158875,0.0426245,0.123396,-0.6087675,0.0662115
1,0.019406,0.7416575,0.008996000000000004,-0.150019,0.4762275,0.0030900000000000025,-0.32371900000000003,0.5379375000000001,-0.12718400000000002,0.16967100000000002,0.48063750000000005,0.011581000000000004,0.339881,0.5565675,-0.112944,-0.406599,0.6398775,-0.316704,0.411581,0.6639575,-0.319944,-0.069474,0.00046850000000000006,0.0016439999999999996,0.069474,-0.00046849999999999995,-0.0016439999999999996,-0.124449,-0.33026249999999996,0.008085000000000002,0.109831,-0.32311249999999997,0.029388000000000004,-0.139229,-0.6132825,0.039836,0.121841,-0.6244725,0.062779
2,0.019411,0.7394935,0.008653999999999995,-0.151277,0.4777735,0.002034999999999995,-0.327057,0.5639135000000001,-0.11894100000000002,0.172203,0.48329350000000004,0.010648999999999995,0.339723,0.5821535,-0.11425100000000002,-0.401837,0.6964335,-0.308151,0.400173,0.7063035,-0.29146099999999997,-0.069266,0.0005105000000000001,0.0021379999999999975,0.069266,-0.0005105,-0.002138000000000001,-0.124137,-0.3312865,0.007130999999999995,0.10992299999999999,-0.3253565,0.028675999999999997,-0.13894700000000001,-0.6163565,0.038908,0.12207300000000001,-0.6269165,0.061748
3,0.0196515,0.7373585,0.008291,-0.1517205,0.4797585,0.0007960000000000016,-0.3117905,0.5940084999999999,-0.11721899999999999,0.1736395,0.4855085,0.009424000000000002,0.3360395,0.6088884999999999,-0.110539,-0.3930205,0.7408085,-0.292019,0.3896595,0.7536185,-0.271449,-0.0689435,0.0002854999999999993,0.0022590000000000006,0.0689435,-0.00028550000000000016,-0.002258999999999997,-0.1235105,-0.33347150000000003,0.006435,0.1104595,-0.3284415,0.028293000000000002,-0.1382805,-0.6186915000000001,0.037855,0.1223295,-0.6324015000000001,0.061331
4,0.019839000000000002,0.7348199999999999,0.0081495,-0.151455,0.48255,-0.0006564999999999974,-0.306895,0.6157999999999999,-0.1137795,0.174015,0.48989,0.007644500000000002,0.333025,0.63354,-0.1071395,-0.387185,0.79072,-0.2840795,0.378605,0.7888799999999999,-0.2531195,-0.06870899999999999,3.800000000000071e-05,0.0019275000000000021,0.06870899999999999,-3.799999999999984e-05,-0.0019274999999999987,-0.123555,-0.33748,0.006176500000000001,0.11091500000000001,-0.33114,0.027907500000000002,-0.137565,-0.62229,0.0373075,0.122755,-0.63553,0.0608775
5,0.020045,0.7330884999999999,0.008452999999999995,-0.151311,0.4852785,-0.0012770000000000004,-0.299441,0.6318284999999999,-0.10571,0.17349900000000001,0.4927685,0.006902999999999996,0.312809,0.6506885,-0.09283000000000001,-0.377251,0.8149985,-0.25771,0.36654899999999996,0.8268785,-0.22995,-0.06853999999999999,-0.00010050000000000163,0.001741999999999997,0.06853999999999999,0.0001004999999999999,-0.0017420000000000005,-0.12321099999999999,-0.3396515,0.006355999999999997,0.111209,-0.3332215,0.028103999999999997,-0.13697099999999998,-0.6248215,0.03738999999999999,0.122969,-0.6354515000000001,0.061492
6,0.019512000000000005,0.7299175,0.0079445,-0.151087,0.4947975,-0.0029605000000000013,-0.295797,0.6583575,-0.09058150000000001,0.171793,0.4970375,0.008088499999999998,0.309083,0.6820975,-0.0780815,-0.358707,0.8636275,-0.2072215,0.344093,0.8967675,-0.1973015,-0.068232,-0.00045050000000000125,0.0007325000000000005,0.068232,0.0004504999999999995,-0.0007325000000000005,-0.12257699999999999,-0.3411625,0.006812499999999999,0.110373,-0.3365725,0.0281595,-0.136607,-0.6528525,0.0363465,0.123933,-0.6362725,0.0619915
7,0.019450500000000003,0.726027,0.007676499999999999,-0.1494955,0.495047,0.0035945000000000005,-0.2849755,0.670357,-0.0798905,0.1664545,0.495047,0.0118955,0.2958945,0.6843670000000001,-0.06816050000000001,-0.3532455,0.865557,-0.19172050000000002,0.3377245,0.867877,-0.1727705,-0.0682275,-0.0004049999999999991,0.00036549999999999777,0.0682275,0.0004050000000000026,-0.00036549999999999777,-0.1220455,-0.34269299999999997,0.007987500000000002,0.10923450000000001,-0.339653,0.0290915,-0.1349055,-0.658303,0.0396845,0.12430449999999998,-0.635903,0.0639005
8,0.019439,0.7234265000000001,0.007400999999999998,-0.149397,0.49837649999999994,0.004522999999999999,-0.279007,0.6858665,-0.07137199999999999,0.165303,0.4959265,0.012296999999999999,0.286453,0.6981765000000001,-0.058116999999999995,-0.344047,0.8877665,-0.16936199999999998,0.326803,0.8871865,-0.150972,-0.068065,-0.0005264999999999992,0.0001460000000000003,0.068065,0.0005265000000000027,-0.0001460000000000003,-0.121557,-0.34435350000000003,0.007968,0.108823,-0.3419835,0.029068,-0.134107,-0.6667135,0.039612,0.124423,-0.6387735,0.064057
9,0.019428,0.721047,0.007051999999999996,-0.149147,0.5015569999999999,0.0056719999999999965,-0.273487,0.699117,-0.062746,0.163573,0.496287,0.012816999999999999,0.277353,0.7093269999999999,-0.048176,-0.33519699999999997,0.9047569999999999,-0.147082,0.316813,0.903137,-0.130392,-0.067935,-0.0006250000000000006,-0.00015800000000000536,0.067935,0.0006250000000000006,0.00015799999999999842,-0.12109700000000001,-0.345783,0.007997999999999998,0.108373,-0.344063,0.029052999999999995,-0.13311699999999999,-0.675833,0.039546,0.124693,-0.640023,0.064562
10,0.019338499999999995,0.7187845,0.006766499999999995,-0.1487125,0.5043645,0.007064499999999998,-0.2687725,0.7106645,-0.0547005,0.1617475,0.4964045,0.013501499999999996,0.27035750000000003,0.7186045,-0.03954350000000001,-0.3272525,0.9192145,-0.1269915,0.3078075,0.9147945000000001,-0.1115515,-0.06783449999999999,-0.0006884999999999981,-0.0005245000000000041,0.06783449999999999,0.0006885000000000016,0.0005244999999999972,-0.12070250000000002,-0.3472955,0.008021499999999997,0.10779749999999999,-0.34599549999999996,0.029128499999999995,-0.1322225,-0.6847955,0.039625499999999994,0.12491750000000001,-0.6411355,0.06519649999999999
11,0.019208999999999997,0.716728,0.0065719999999999945,-0.148218,0.506258,0.008831999999999993,-0.264428,0.719238,-0.047988,0.16023199999999999,0.495688,0.014290999999999995,0.26364200000000004,0.724318,-0.032292,-0.32108800000000004,0.928428,-0.111806,0.30094200000000004,0.921078,-0.095756,-0.067741,-0.0006999999999999992,-0.0008220000000000033,0.067741,0.0006999999999999992,0.0008219999999999963,-0.120398,-0.348762,0.007857999999999993,0.107222,-0.347692,0.029290999999999994,-0.131548,-0.690462,0.03991599999999999,0.124972,-0.642272,0.06590399999999999
12,0.019038,0.714929,0.006504499999999996,-0.147732,0.508109,0.010906499999999996,-0.26112199999999997,0.7258490000000001,-0.041745500000000005,0.15901800000000002,0.494459,0.015178499999999998,0.258438,0.729229,-0.025955500000000006,-0.315172,0.935469,-0.0972485,0.295628,0.9252090000000001,-0.0835085,-0.067658,-0.0007139999999999994,-0.0009905000000000053,0.067658,0.0007139999999999994,0.0009904999999999983,-0.120082,-0.350031,0.007631499999999996,0.10664799999999999,-0.34914100000000003,0.029531499999999995,-0.131192,-0.695211,0.04031149999999999,0.124938,-0.643251,0.0667055
13,0.018655500000000002,0.7134115,0.006663499999999996,-0.1471305,0.5096115,0.013228499999999997,-0.25745049999999997,0.7304015,-0.0357755,0.1580195,0.4929015,0.016281499999999997,0.2535695,0.7312115,-0.0193585,-0.3084805,0.9414315,-0.0838885,0.2899895,0.9291915,-0.0706185,-0.06758249999999999,-0.0007165000000000019,-0.0010525000000000048,0.06758249999999999,0.0007165000000000019,0.0010524999999999979,-0.1198505,-0.35120850000000003,0.007415499999999995,0.1060795,-0.3503685,0.029828499999999994,-0.13094050000000002,-0.6997585000000001,0.0411845,0.12482949999999998,-0.6441285,0.06755649999999999
14,0.018176000000000005,0.712377,0.007233999999999997,-0.14671399999999998,0.510617,0.015332000000000002,-0.254564,0.733057,-0.031424,0.15765600000000002,0.491437,0.017452,0.250056,0.733027,-0.014282000000000003,-0.303184,0.944297,-0.076038,0.286296,0.9293170000000001,-0.061718,-0.06754299999999999,-0.0006920000000000051,-0.0009899999999999978,0.06754299999999999,0.0006919999999999982,0.0009899999999999978,-0.11977399999999999,-0.352603,0.007461000000000002,0.10572600000000001,-0.35112299999999996,0.030157,-0.130714,-0.703233,0.042122,0.124726,-0.645473,0.068424
15,0.0177145,0.711678,0.0078465,-0.1463765,0.511398,0.0170725,-0.2522065,0.735158,-0.028517499999999994,0.1575635,0.49031800000000003,0.0184775,0.2475235,0.733398,-0.0101445,-0.2983765,0.9457380000000001,-0.0704755,0.28357350000000003,0.929608,-0.05508949999999999,-0.0675385,-0.0006989999999999982,-0.0008755000000000013,0.0675385,0.0006990000000000052,0.0008755000000000013,-0.11967649999999999,-0.35358199999999995,0.007439500000000002,0.10552349999999999,-0.351672,0.030489500000000003,-0.1308065,-0.701952,0.0431315,0.12463350000000001,-0.6464719999999999,0.0692075
16,0.017302499999999995,0.71109,0.008503000000000004,-0.1459355,0.5118900000000001,0.018586000000000002,-0.2494555,0.73595,-0.025982000000000005,0.1574845,0.48931,0.019339000000000002,0.2468545,0.73337,-0.008077,-0.2931755,0.94688,-0.065211,0.2813945,0.93013,-0.049329,-0.06754550000000001,-0.0006559999999999969,-0.0007959999999999981,0.06754550000000001,0.0006559999999999969,0.0007959999999999981,-0.11956550000000002,-0.35438,0.007505999999999999,0.10543449999999999,-0.35208999999999996,0.030875,-0.1312555,-0.70048,0.044082,0.12452450000000001,-0.64737,0.070004
17,0.016924,0.7106110000000001,0.009203499999999996,-0.14546900000000001,0.5121610000000001,0.019936499999999996,-0.24661899999999998,0.736621,-0.0235345,0.15741100000000002,0.48849099999999995,0.020132499999999998,0.246241,0.7329110000000001,-0.006024500000000002,-0.28802900000000003,0.947921,-0.0604205,0.27941099999999996,0.931141,-0.044354500000000005,-0.067552,-0.0006089999999999984,-0.0007225000000000009,0.067552,0.0006090000000000054,0.0007225000000000009,-0.119449,-0.355159,0.007677499999999997,0.105401,-0.352419,0.0312695,-0.13153900000000002,-0.6995990000000001,0.045004499999999996,0.12441100000000001,-0.6481189999999999,0.0707705
18,0.016503,0.7101970000000001,0.009921500000000007,-0.145073,0.512267,0.021104500000000005,-0.244063,0.7372270000000001,-0.021298499999999998,0.157427,0.48769700000000005,0.020815500000000008,0.245577,0.7321070000000001,-0.0039254999999999915,-0.283603,0.948727,-0.056042499999999995,0.277597,0.9317770000000001,-0.03983249999999999,-0.067564,-0.000560999999999999,-0.0006494999999999973,0.067564,0.0005610000000000059,0.0006495000000000042,-0.119423,-0.35593299999999994,0.007961500000000003,0.105297,-0.352673,0.03159750000000001,-0.131993,-0.699623,0.045846500000000005,0.12426699999999999,-0.648783,0.0714955
19,0.0160275,0.7099,0.010631499999999995,-0.1448085,0.51243,0.022143499999999997,-0.24181850000000002,0.73787,-0.019053500000000008,0.1580715,0.48697999999999997,0.021530499999999998,0.2449515,0.73214,-0.001753500000000005,-0.27964849999999997,0.9496,-0.051950500000000004,0.27597150000000004,0.93313,-0.0357135,-0.0675715,-0.0005369999999999958,-0.0005544999999999994,0.0675715,0.0005370000000000028,0.0005544999999999994,-0.11947849999999999,-0.35663999999999996,0.008400499999999998,0.1051215,-0.35279,0.031904499999999995,-0.1324285,-0.70065,0.0466435,0.12406149999999999,-0.6493599999999999,0.0722115
20,0.015532500000000001,0.7097305,0.0112615,-0.1446245,0.5124305,0.0229365,-0.23995450000000002,0.7385805,-0.017001500000000003,0.15878550000000002,0.4863605,0.0221285,0.24431550000000002,0.7321405,0.00029349999999999515,-0.27627450000000003,0.9504205,-0.0483185,0.2745555,0.9346705000000001,-0.031981499999999996,-0.0675875,-0.000504499999999998,-0.0004555000000000045,0.0675875,0.0005045000000000049,0.0004554999999999976,-0.1196245,-0.3572295,0.009052499999999998,0.1049455,-0.35277949999999997,0.0321085,-0.13289450000000003,-0.7012195,0.0473955,0.12381550000000001,-0.6497795,0.0728235
21,0.015045,0.709735,0.011775,-0.14445799999999998,0.512275,0.02358,-0.238468,0.739375,-0.014892999999999997,0.159532,0.48583499999999996,0.022555000000000002,0.243772,0.732155,0.002269,-0.27343799999999996,0.9513550000000001,-0.044253,0.273202,0.936695,-0.028198,-0.067607,-0.0004730000000000012,-0.00035600000000000215,0.067607,0.0004730000000000012,0.00035600000000000215,-0.119828,-0.357865,0.009614999999999999,0.104822,-0.352515,0.032206,-0.133718,-0.699355,0.048317,0.12355200000000001,-0.6501049999999999,0.073297
22,0.014794500000000002,0.7098755,0.012060000000000001,-0.1444145,0.5121555,0.023960000000000002,-0.2379145,0.7402854999999999,-0.013055999999999998,0.1601755,0.48536550000000006,0.022705000000000003,0.2434755,0.7320055,0.003727000000000001,-0.2721045,0.9522155,-0.040834999999999996,0.27217549999999996,0.9389955,-0.025151999999999994,-0.06761049999999999,-0.00042149999999999826,-0.00027699999999999947,0.06761049999999999,0.00042149999999999826,0.0002770000000000064,-0.1199645,-0.3580845,0.009914000000000006,0.10482549999999999,-0.3520545,0.032206000000000005,-0.1342845,-0.6995745,0.049024000000000005,0.12339550000000002,-0.6501445,0.073575
23,0.014616999999999998,0.710036,0.012226999999999995,-0.144378,0.512186,0.024230999999999996,-0.238188,0.741196,-0.011308000000000006,0.160682,0.48514599999999997,0.022826999999999993,0.24324199999999999,0.731896,0.005068999999999997,-0.271768,0.953086,-0.03775100000000001,0.27139199999999997,0.941136,-0.022883,-0.067602,-0.00036199999999999427,-0.0002390000000000031,0.067602,0.0003620000000000012,0.00023899999999999616,-0.120038,-0.358194,0.010089999999999995,0.104902,-0.35171399999999997,0.032239,-0.134618,-0.699694,0.04959299999999999,0.12329200000000001,-0.650124,0.07373199999999999
24,0.014446,0.7101770000000001,0.012357500000000007,-0.144398,0.512217,0.024375500000000005,-0.238458,0.742117,-0.009566499999999999,0.161092,0.484907,0.022925500000000005,0.243012,0.731827,0.006360500000000005,-0.272068,0.954597,-0.034367499999999995,0.270692,0.9430270000000001,-0.0210495,-0.06758700000000001,-0.0003029999999999977,-0.0001964999999999953,0.06758700000000001,0.0003029999999999977,0.00019650000000000223,-0.12012799999999998,-0.358293,0.010405500000000005,0.10500200000000001,-0.351433,0.0322915,-0.13519799999999998,-0.699193,0.050105500000000004,0.12321200000000002,-0.6501129999999999,0.0738655
25,0.014310000000000003,0.710368,0.012432499999999999,-0.14445899999999998,0.512268,0.024427499999999998,-0.238679,0.742938,-0.007963499999999998,0.16138100000000002,0.48473800000000006,0.0229095,0.243011,0.731818,0.007402499999999999,-0.272389,0.956108,-0.0315955,0.270241,0.9446779999999999,-0.019682500000000006,-0.06757099999999999,-0.0002740000000000034,-0.00015149999999999886,0.06757099999999999,0.00027399999999999647,0.00015149999999999886,-0.120199,-0.358182,0.010868499999999996,0.10514100000000001,-0.351222,0.0323175,-0.13568899999999998,-0.699222,0.0503495,0.12316100000000002,-0.6499820000000001,0.0739365
26,0.014194500000000002,0.710555,0.012478999999999997,-0.14453049999999998,0.512345,0.024443,-0.2388805,0.7436550000000001,-0.006447000000000001,0.1615895,0.48458500000000004,0.022877,0.2430995,0.731815,0.008333,-0.2726805,0.957655,-0.029116000000000003,0.2700195,0.945785,-0.018767999999999993,-0.06754950000000001,-0.00026099999999999735,-0.0001280000000000031,0.06754950000000001,0.00026099999999999735,0.0001280000000000031,-0.12026049999999999,-0.357955,0.01131,0.10529949999999999,-0.351005,0.032347,-0.13618049999999998,-0.699045,0.050606,0.12311950000000002,-0.649785,0.073976
27,0.014091500000000003,0.710755,0.012545999999999995,-0.1446035,0.512405,0.024474999999999997,-0.2393135,0.744255,-0.005040000000000003,0.1617765,0.484405,0.022844999999999997,0.2432065,0.731835,0.009126999999999996,-0.27295349999999996,0.958915,-0.02688900000000001,0.26989650000000004,0.946385,-0.018195000000000003,-0.0675235,-0.00026099999999999735,-0.00010900000000000493,0.0675235,0.00026099999999999735,0.00010899999999999799,-0.1203235,-0.357695,0.011783999999999996,0.1054465,-0.350815,0.032375999999999995,-0.13626349999999998,-0.699525,0.050774,0.12307649999999999,-0.649555,0.07400699999999999
28,0.014039000000000003,0.7109354999999999,0.012628,-0.14465699999999998,0.5124555,0.024553000000000002,-0.240097,0.7447055,-0.003943000000000002,0.16192299999999998,0.4842355,0.022808000000000002,0.24328300000000003,0.7317955,0.009670999999999999,-0.273887,0.9599255,-0.025135000000000005,0.269833,0.9463955,-0.018041,-0.067506,-0.0002505000000000007,-9.900000000000186e-05,0.067506,0.0002504999999999938,9.900000000000186e-05,-0.120367,-0.3574345,0.012178000000000001,0.10562300000000001,-0.3506745,0.032399,-0.13631700000000002,-0.6995145,0.050859,0.12306299999999999,-0.6493745,0.074031
29,0.013974499999999997,0.7111145000000001,0.012680000000000004,-0.14473650000000002,0.5125245,0.024619000000000002,-0.2410465,0.7450445,-0.003129,0.1619835,0.48406449999999995,0.022736,0.2433235,0.7318145,0.010030999999999998,-0.2751365,0.9607445,-0.024061,0.2697935,0.9464145,-0.018068,-0.06749250000000001,-0.0002334999999999976,-6.400000000000156e-05,0.06749250000000001,0.00023350000000000454,6.400000000000156e-05,-0.12039649999999999,-0.35722550000000003,0.012499000000000003,0.10577349999999999,-0.3505255,0.032386,-0.13635650000000002,-0.6997154999999999,0.050832,0.12305349999999998,-0.6492454999999999,0.074042
30,0.013913499999999999,0.711243,0.012685500000000002,-0.1448315,0.512593,0.024686500000000004,-0.2418615,0.745073,-0.002951499999999996,0.16203849999999997,0.4838930000000001,0.022648500000000002,0.2433885,0.731873,0.010096500000000001,-0.2759415,0.9610629999999999,-0.024169499999999997,0.2697885,0.946433,-0.018105499999999997,-0.0674795,-0.0002160000000000009,-2.5499999999997747e-05,0.0674795,0.0002160000000000009,2.5500000000004686e-05,-0.1204215,-0.357017,0.012754500000000002,0.10589849999999999,-0.350497,0.032371500000000004,-0.1360515,-0.702337,0.0509535,0.12303850000000001,-0.649097,0.0740295
31,0.0138205,0.71136,0.012640000000000005,-0.1449475,0.51267,0.024765000000000006,-0.24249749999999998,0.7451,-0.003043999999999998,0.1620725,0.48378000000000004,0.022562000000000006,0.24347249999999998,0.7319,0.010066000000000005,-0.2766575,0.9610899999999999,-0.024271,0.2698925,0.94645,-0.018133999999999997,-0.0674675,-0.0002030000000000018,1.3000000000006062e-05,0.0674675,0.0002030000000000018,-1.2999999999999123e-05,-0.1204575,-0.35685,0.012963000000000002,0.1060025,-0.35046,0.03236,-0.1357375,-0.70462,0.051078000000000005,0.1230325,-0.64896,0.074016
32,0.0136925,0.7114699999999999,0.012579499999999993,-0.1450845,0.51274,0.024757499999999995,-0.2430345,0.74517,-0.0031415000000000054,0.16206549999999997,0.48368999999999995,0.022472499999999996,0.2435755,0.73199,0.010026499999999994,-0.2774045,0.9611599999999999,-0.024385500000000004,0.2702255,0.9460999999999999,-0.018447500000000006,-0.0674575,-0.0001999999999999988,3.749999999999587e-05,0.0674575,0.0001999999999999988,-3.750000000000281e-05,-0.1204745,-0.35659,0.013175499999999993,0.1061055,-0.35036,0.032333499999999994,-0.13544450000000002,-0.70657,0.051186499999999996,0.1230255,-0.64876,0.0739975
33,0.013543000000000006,0.7115874999999999,0.012477500000000002,-0.14521699999999998,0.5128575,0.0246865,-0.243557,0.7452875,-0.0032765000000000016,0.162063,0.48360749999999997,0.0223445,0.243803,0.7322075,0.009958500000000002,-0.278087,0.9612774999999999,-0.024722499999999994,0.270713,0.9453775,-0.0193165,-0.067453,-0.00021050000000000235,0.00010149999999999743,0.067453,0.00021050000000000235,-0.00010149999999999743,-0.120487,-0.35623249999999995,0.013290500000000004,0.10622300000000001,-0.35021250000000004,0.0322785,-0.13508699999999998,-0.7082425,0.0512925,0.123023,-0.6485925,0.0739235
34,0.01335,0.7117335,0.012327499999999998,-0.14535199999999998,0.5129735,0.0245775,-0.244062,0.7452635,-0.003562500000000003,0.162058,0.4835634999999999,0.0222185,0.24413800000000002,0.7325435,0.009738499999999997,-0.278802,0.9613934999999999,-0.0257675,0.271448,0.9443135,-0.020734500000000003,-0.06744700000000001,-0.0002334999999999976,0.00016050000000000092,0.06744700000000001,0.00023350000000000454,-0.00016050000000000092,-0.12049199999999999,-0.35584649999999995,0.0133915,0.106318,-0.3500765,0.032189499999999996,-0.134882,-0.7084165,0.051366499999999995,0.123028,-0.6484665000000001,0.0738185
35,0.013118999999999999,0.7118875,0.011793499999999998,-0.14549199999999998,0.5130575,0.0243735,-0.244412,0.7448175,-0.004767500000000001,0.16206800000000002,0.48357749999999994,0.021988499999999998,0.244648,0.7330075,0.009002499999999997,-0.279612,0.9612075,-0.027908500000000003,0.27243799999999996,0.9426975000000001,-0.0225495,-0.06745200000000001,-0.00027749999999999997,0.0002715000000000009,0.06745200000000001,0.00027749999999999997,-0.0002715000000000009,-0.12046200000000001,-0.3554625,0.013422499999999997,0.10639799999999999,-0.3499225,0.0319865,-0.134692,-0.7084125,0.0513285,0.12303800000000001,-0.6483525,0.0736175
36,0.012807999999999996,0.7119805,0.0109965,-0.145641,0.5131305,0.0241185,-0.244701,0.7442805,-0.006361499999999999,0.16203900000000002,0.48364050000000003,0.021674500000000003,0.245169,0.7334605000000001,0.007966500000000001,-0.280271,0.9600805000000001,-0.030914499999999998,0.273509,0.9410105,-0.024438500000000002,-0.067463,-0.00032550000000000634,0.0003855000000000039,0.067463,0.0003254999999999994,-0.00038549999999999696,-0.12041100000000002,-0.3552295,0.0133705,0.10644899999999999,-0.3497895,0.031727500000000006,-0.134751,-0.7083395,0.0510755,0.12306900000000001,-0.6482795,0.0733665
37,0.0124955,0.7120464999999999,0.010135499999999992,-0.1457975,0.5131665,0.023837499999999994,-0.24483749999999999,0.7436265,-0.008197500000000003,0.1620125,0.4836765,0.021327499999999992,0.2457225,0.7338865,0.006834499999999993,-0.28079750000000003,0.9589165,-0.034183500000000006,0.27465249999999997,0.9392965,-0.026489500000000013,-0.06747349999999999,-0.0003615000000000007,0.00046149999999999664,0.06747349999999999,0.0003615000000000007,-0.0004615000000000036,-0.1203575,-0.3551935,0.013134499999999993,0.10648250000000001,-0.3496935,0.03145149999999999,-0.13476749999999998,-0.7079635000000001,0.0506325,0.12306250000000002,-0.6482735000000001,0.0730995
38,0.0121805,0.7120935,0.009174000000000002,-0.1459545,0.5131735000000001,0.023500999999999998,-0.2449145,0.7429135,-0.010299000000000003,0.1619155,0.4836835,0.02096,0.2462855,0.7342935,0.0055689999999999976,-0.2812945,0.9576735000000001,-0.037634,0.27579549999999997,0.9381135,-0.028543,-0.0674905,-0.00036850000000000077,0.0005199999999999996,0.0674905,0.00036850000000000077,-0.0005199999999999996,-0.1202845,-0.35536650000000003,0.012863,0.1065155,-0.3496465,0.031118,-0.1347845,-0.7076564999999999,0.050038,0.1230455,-0.6484264999999999,0.072801
39,0.011859499999999999,0.7121945000000001,0.008035499999999994,-0.1461245,0.5131845,0.023104499999999997,-0.2449245,0.7422145,-0.012611500000000005,0.1618155,0.4836945,0.020559499999999998,0.2468455,0.7347145,0.004230499999999998,-0.2817245,0.9565145,-0.041177500000000006,0.27700549999999996,0.9370145,-0.030664499999999997,-0.0675065,-0.00037950000000000483,0.0005744999999999986,0.0675065,0.0003794999999999979,-0.0005745000000000056,-0.1202245,-0.35535550000000005,0.012569499999999997,0.1065355,-0.3496555,0.030670499999999996,-0.13467449999999997,-0.7069155,0.049492499999999995,0.12292550000000001,-0.6485955,0.0724495
40,0.011571000000000001,0.712314,0.006718999999999996,-0.146254,0.513204,0.022625,-0.244854,0.741434,-0.015203000000000001,0.161686,0.48369399999999996,0.020090999999999998,0.247466,0.735114,0.0025470000000000007,-0.281984,0.955184,-0.045511,0.278286,0.936324,-0.033172,-0.067519,-0.00039000000000000146,0.0006089999999999984,0.067519,0.00039000000000000146,-0.0006089999999999984,-0.120144,-0.355616,0.012221999999999997,0.106566,-0.349666,0.03003,-0.13464399999999999,-0.705796,0.048806,0.122786,-0.648796,0.07200999999999999
41,0.011314500000000003,0.7124265000000001,0.0053285,-0.1464085,0.5135965,0.022040500000000005,-0.2448185,0.7406565,-0.017866499999999993,0.1616115,0.48407649999999997,0.019427500000000004,0.24823150000000002,0.7359565,0.0004865000000000008,-0.2819585,0.9538465,-0.049709500000000004,0.2795615,0.9359065000000001,-0.0360075,-0.06751650000000001,-0.0004185000000000022,0.0006615000000000024,0.06751650000000001,0.0004185000000000022,-0.0006614999999999954,-0.12000849999999999,-0.3561035,0.011666500000000003,0.1065915,-0.3496935,0.029285500000000003,-0.1346685,-0.7053435,0.0479095,0.1226315,-0.6490334999999999,0.0714905
42,0.011063500000000002,0.7125475,0.0038575,-0.1465985,0.5139674999999999,0.021435499999999996,-0.2448485,0.7400275,-0.020293500000000006,0.1614815,0.4844675,0.018771499999999997,0.24884150000000002,0.7367674999999999,-0.0015685000000000004,-0.2818485,0.9527475,-0.053720500000000004,0.2807715,0.9355875,-0.0390065,-0.0675135,-0.0004674999999999957,0.0006634999999999974,0.0675135,0.00046750000000000264,-0.0006635000000000044,-0.1198585,-0.3568125,0.0109355,0.10668150000000001,-0.3498725,0.028492499999999997,-0.1347585,-0.7045925000000001,0.0468585,0.1224115,-0.6494825000000001,0.0708055
43,0.010823500000000002,0.7126945,0.0022664999999999977,-0.1468275,0.5142844999999999,0.0207615,-0.2448775,0.7394045,-0.022861500000000007,0.1613125,0.4848945,0.0180795,0.24948250000000002,0.7377545,-0.0039385000000000045,-0.28179750000000003,0.9516344999999999,-0.0575595,0.2819425,0.9354245,-0.0419485,-0.0675155,-0.0005225000000000021,0.0006764999999999965,0.0675155,0.0005224999999999952,-0.0006765000000000035,-0.11966750000000001,-0.35762550000000004,0.009919499999999998,0.10687250000000001,-0.35025550000000005,0.027546499999999998,-0.1348275,-0.7039755,0.045773499999999995,0.1218525,-0.6512955,0.0696525
44,0.010553,0.712832,0.0007165000000000019,-0.14716800000000002,0.514622,0.0200785,-0.24485800000000002,0.738962,-0.025044499999999997,0.161032,0.485352,0.0174085,0.24996199999999996,0.738602,-0.0064525,-0.281878,0.9506519999999999,-0.06125850000000001,0.283002,0.935172,-0.0450155,-0.067525,-0.0005720000000000031,0.0006084999999999979,0.067525,0.0005720000000000031,-0.0006084999999999979,-0.119528,-0.35869799999999996,0.008497499999999998,0.107152,-0.35113799999999995,0.0262185,-0.13513799999999998,-0.7034980000000001,0.0446745,0.12072200000000001,-0.655348,0.0680795
45,0.010241500000000002,0.7129655,-0.0007184999999999969,-0.1475075,0.5149455000000001,0.0193845,-0.2448075,0.7385355,-0.0270185,0.1607925,0.4857455,0.0167585,0.2504225,0.7393155,-0.0089015,-0.2819975,0.9497955,-0.0647815,0.28398249999999997,0.9348355,-0.048006499999999994,-0.0675375,-0.0005835000000000007,0.0005324999999999983,0.0675375,0.0005835000000000007,-0.0005324999999999983,-0.1194675,-0.3599445,0.006955500000000003,0.1074625,-0.3521445,0.0247025,-0.1353375,-0.7031044999999999,0.0432935,0.11944250000000001,-0.6598244999999999,0.0664485
46,0.009863000000000004,0.713004,-0.0022614999999999996,-0.147755,0.515254,0.0184635,-0.244635,0.738174,-0.029323500000000002,0.16051500000000002,0.48605400000000004,0.016048500000000004,0.250835,0.7398939999999999,-0.011576499999999997,-0.28198500000000004,0.9487939999999999,-0.06843049999999999,0.285025,0.934364,-0.0510825,-0.067553,-0.0005920000000000022,0.0005375000000000033,0.067553,0.0005920000000000022,-0.0005374999999999963,-0.119545,-0.36153599999999997,0.005223499999999999,0.107835,-0.35386599999999996,0.0227935,-0.135705,-0.7027460000000001,0.041668500000000004,0.118035,-0.6646160000000001,0.06438150000000001
47,0.009448999999999997,0.713006,-0.004001499999999998,-0.148048,0.515336,0.0173185,-0.244418,0.737716,-0.03185450000000001,0.160152,0.48614599999999997,0.0151805,0.251212,0.740196,-0.014371500000000002,-0.28166800000000003,0.947676,-0.0725275,0.286302,0.9341160000000001,-0.054933499999999996,-0.067576,-0.0005939999999999973,0.0005345000000000003,0.067576,0.0005940000000000042,-0.0005345000000000003,-0.119728,-0.36352399999999996,0.0031204999999999983,0.10828199999999999,-0.356224,0.0205185,-0.13611800000000002,-0.702614,0.0397685,0.116502,-0.669464,0.061926499999999995
48,0.009046499999999999,0.7130235,-0.006011499999999996,-0.1483755,0.5153535,0.015801500000000003,-0.2442055,0.7370935000000001,-0.03526749999999999,0.1597645,0.48616349999999997,0.014004500000000003,0.2516145,0.7402135,-0.017697499999999998,-0.2813255,0.9461535,-0.0776355,0.2874745,0.9340435,-0.0591115,-0.0676185,-0.0005915000000000017,0.00043350000000000333,0.0676185,0.0005915000000000017,-0.0004334999999999964,-0.12005550000000001,-0.36551649999999997,0.0005205000000000001,0.1087745,-0.3581665,0.017684500000000002,-0.1366755,-0.7025965,0.037749500000000005,0.1149545,-0.6745265,0.0588525
49,0.008663,0.713143,-0.008294500000000003,-0.148729,0.515473,0.014041499999999995,-0.244049,0.7363729999999999,-0.0390635,0.159381,0.48628299999999997,0.012650499999999995,0.251991,0.7403329999999999,-0.021176500000000008,-0.281079,0.944823,-0.0825655,0.288621,0.9341229999999999,-0.0635555,-0.067691,-0.0005700000000000011,0.0004104999999999942,0.067691,0.0005700000000000011,-0.00041050000000000114,-0.120479,-0.367317,-0.002395500000000002,0.109301,-0.359907,0.014561499999999995,-0.137199,-0.7024670000000001,0.03561349999999999,0.113591,-0.679647,0.055397499999999995
50,0.008366000000000002,0.7131615,-0.011278499999999997,-0.148995,0.5157715,0.0118305,-0.243815,0.7358015,-0.043645500000000004,0.159085,0.48658149999999994,0.0108445,0.25238499999999997,0.7406314999999999,-0.0250465,-0.28073499999999996,0.9431615,-0.08869149999999999,0.289805,0.9342815,-0.0685615,-0.067784,-0.0005235000000000031,0.0002715000000000009,0.067784,0.0005234999999999962,-0.0002715000000000009,-0.120845,-0.3687185,-0.0059574999999999975,0.109935,-0.3620185,0.010621500000000002,-0.137705,-0.7021685,0.0328725,0.112655,-0.6850084999999999,0.0510595
51,0.008181500000000001,0.7125999999999999,-0.015104,-0.1491925,0.51616,0.008978,-0.2432725,0.73393,-0.049196,0.1586475,0.48708,0.008426,0.25305750000000005,0.7411399999999999,-0.029899000000000002,-0.2803025,0.9405000000000001,-0.09651300000000002,0.29103749999999995,0.9343699999999999,-0.074523,-0.0678855,-0.000447999999999997,-8.000000000001062e-06,0.0678855,0.00044800000000000395,8.000000000001062e-06,-0.1210825,-0.36966,-0.010887,0.1107675,-0.36392,0.004566000000000001,-0.1380525,-0.70228,0.029242,0.1119475,-0.68988,0.045770000000000005
52,0.008031,0.711524,-0.019562499999999997,-0.149351,0.516544,0.005524500000000002,-0.24264100000000002,0.7315740000000001,-0.05537449999999999,0.158189,0.487654,0.005402500000000001,0.25355900000000003,0.7408140000000001,-0.035284499999999996,-0.279811,0.9378340000000001,-0.10530949999999999,0.292159,0.933674,-0.0812595,-0.067997,-0.0003480000000000011,-0.00034849999999999465,0.067997,0.0003480000000000011,0.0003485000000000016,-0.121281,-0.37025600000000003,-0.016731499999999996,0.111629,-0.365666,-0.0024464999999999973,-0.138321,-0.702106,0.024876500000000003,0.11165900000000001,-0.6931459999999999,0.0400505
53,0.008140999999999999,0.7096875,-0.024839,-0.148926,0.5149875,0.0008649999999999977,-0.241756,0.7285875,-0.062652,0.157994,0.4881175,0.0018499999999999975,0.25418399999999997,0.7374475,-0.041039000000000006,-0.279156,0.9354975,-0.11538300000000001,0.29304399999999997,0.9304175,-0.088903,-0.068157,-0.00028650000000000203,-0.0007060000000000018,0.068157,0.0002864999999999951,0.0007059999999999983,-0.12140599999999999,-0.3698625,-0.024266000000000003,0.11280399999999999,-0.3661925,-0.010882000000000003,-0.13838599999999998,-0.7010125,0.019408,0.11169399999999999,-0.6933825,0.033146999999999996
54,0.008322,0.707861,-0.030483499999999997,-0.148363,0.513201,-0.004295500000000001,-0.240763,0.7256509999999999,-0.0705755,0.157867,0.48840100000000003,-0.0020125000000000004,0.25480699999999995,0.7349509999999999,-0.0473475,-0.27838300000000005,0.933711,-0.1260655,0.29399699999999995,0.927551,-0.0976355,-0.068413,-0.0002559999999999993,-0.0010384999999999978,0.068413,0.0002559999999999993,0.0010385000000000012,-0.121533,-0.368729,-0.0328415,0.114197,-0.366009,-0.020229499999999997,-0.138503,-0.699119,0.0132485,0.11179700000000001,-0.692389,0.0257405
55,0.008592999999999996,0.7057694999999999,-0.03642,-0.147772,0.5117595,-0.009631,-0.239642,0.7227395,-0.07880799999999999,0.157718,0.48847949999999996,-0.006072000000000001,0.25534799999999996,0.7314895,-0.053931,-0.277482,0.9323895,-0.13702999999999999,0.294998,0.9248795,-0.10683000000000001,-0.068701,-0.00022750000000000548,-0.001415000000000003,0.068701,0.00022749999999999854,0.0014149999999999996,-0.121702,-0.3676705,-0.042605000000000004,0.115688,-0.36470050000000004,-0.029972,-0.13861199999999999,-0.6966405,0.006792999999999999,0.111868,-0.6904205,0.018161
56,0.009119500000000003,0.7032744999999999,-0.0440325,-0.1467735,0.5092945,-0.016745500000000003,-0.23807350000000002,0.7193944999999999,-0.0897185,0.1576565,0.48853450000000004,-0.0122685,0.2565065,0.7284345,-0.06313150000000001,-0.2758835,0.9321845,-0.1516985,0.2960165,0.9239744999999999,-0.1193985,-0.0689685,-0.00018649999999999917,-0.0017634999999999994,0.0689685,0.00018649999999999917,0.0017634999999999994,-0.12177349999999999,-0.3649055,-0.0557685,0.1174765,-0.36343549999999997,-0.0436775,-0.1384835,-0.6910255000000001,-0.0016965,0.1122065,-0.6849255000000001,0.0084555
57,0.009690999999999998,0.7002965,-0.051460500000000006,-0.14574600000000001,0.5072765,-0.0237105,-0.23644600000000002,0.7161565,-0.09997149999999999,0.157294,0.48794650000000006,-0.0183485,0.257574,0.7247565,-0.0723075,-0.27411599999999997,0.9325965,-0.1662715,0.296954,0.9231665,-0.1326615,-0.069194,-0.0001454999999999998,-0.0019854999999999994,0.069194,0.0001454999999999998,0.0019855000000000003,-0.121796,-0.36186349999999995,-0.06927549999999999,0.11908400000000001,-0.36225349999999995,-0.0575325,-0.13834600000000002,-0.6846734999999999,-0.010224500000000001,0.112594,-0.6784835,-0.0010155
58,0.010363500000000005,0.6973145000000001,-0.059533499999999996,-0.1444145,0.5048045,-0.0314155,-0.2346045,0.7136745,-0.1111415,0.1569655,0.4878145,-0.0250365,0.2586055,0.7195445,-0.0823305,-0.2720845,0.9341145000000001,-0.18322149999999998,0.2981455,0.9233645,-0.14861149999999998,-0.0693845,3.249999999999954e-05,-0.0022814999999999997,0.0693845,-3.250000000000041e-05,0.0022814999999999997,-0.12154449999999999,-0.3569255,-0.08469850000000001,0.12046550000000002,-0.3584355,-0.0730465,-0.1380545,-0.6755154999999999,-0.0200415,0.1131555,-0.6695055,-0.0117395
59,0.011248000000000001,0.6936095,-0.0693995,-0.14296999999999999,0.5018695,-0.0404495,-0.23237999999999998,0.7120195,-0.1258965,0.15666999999999998,0.4865195,-0.0331175,0.25991000000000003,0.7161595,-0.0959245,-0.26919,0.9375795,-0.2045765,0.29976,0.9259594999999999,-0.1692165,-0.069616,0.0001805000000000001,-0.0023194999999999995,0.069616,-0.0001805000000000001,0.0023195000000000004,-0.12087,-0.3434805,-0.1036325,0.12194999999999999,-0.3463605,-0.0921305,-0.13746000000000003,-0.6576205,-0.0316775,0.11386,-0.6532305,-0.0237145
60,0.012505499999999996,0.6906495,-0.08293700000000001,-0.1411055,0.4998595,-0.053366,-0.2300655,0.7093295000000001,-0.144039,0.1566445,0.4858195,-0.045079999999999995,0.2615145,0.7113595,-0.11310200000000001,-0.2656355,0.9342995000000001,-0.22846899999999998,0.30155449999999995,0.9213295,-0.193409,-0.0698805,0.00033350000000000046,-0.0024449999999999993,0.0698805,-0.0003334999999999935,0.0024450000000000027,-0.11966550000000001,-0.3290705,-0.125829,0.1237345,-0.3333805,-0.11424100000000001,-0.1363155,-0.6387005,-0.04682,0.1145645,-0.6369805,-0.039002999999999996
61,0.013902499999999998,0.6909274999999999,-0.09697449999999999,-0.13796850000000002,0.4968675,-0.06672449999999999,-0.2275985,0.7103775,-0.1625385,0.1562415,0.4853775,-0.0577295,0.26304150000000004,0.7091274999999999,-0.1305665,-0.26199849999999997,0.9314574999999999,-0.2526685,0.3033015,0.9218675,-0.2185885,-0.07013649999999999,0.000392499999999997,-0.0026105000000000017,0.07013649999999999,-0.00039250000000000396,0.0026105000000000017,-0.1178785,-0.31029249999999997,-0.1510785,0.12583149999999999,-0.3158125,-0.1393885,-0.13507850000000002,-0.6164225000000001,-0.0623035,0.1153015,-0.6162825000000001,-0.0546445
62,0.015213499999999998,0.6907915,-0.1100685,-0.13526950000000001,0.49571149999999997,-0.0788165,-0.2252595,0.7117315,-0.1803975,0.15569049999999998,0.48483149999999997,-0.0695985,0.2646505,0.7087315,-0.14774749999999998,-0.2585595,0.9282414999999999,-0.2755275,0.3047005,0.9231415,-0.24260749999999998,-0.07035649999999999,0.0004854999999999998,-0.002752499999999998,0.07035649999999999,-0.0004854999999999998,0.002752500000000005,-0.11600949999999999,-0.2924785,-0.1743575,0.12777049999999998,-0.29819850000000003,-0.1628575,-0.1339595,-0.5945885000000001,-0.07643549999999999,0.1158805,-0.5959785000000001,-0.0686565
63,0.0162205,0.69018,-0.1228505,-0.13257249999999998,0.49434999999999996,-0.0907445,-0.2228125,0.71286,-0.1982025,0.1552775,0.48373,-0.0812275,0.2660575,0.70697,-0.1648325,-0.2552225,0.92452,-0.2977725,0.3060175,0.92232,-0.2664025,-0.07049250000000001,0.0006099999999999994,-0.0029194999999999985,0.07049250000000001,-0.0006099999999999994,0.0029195000000000054,-0.11415249999999999,-0.27436,-0.1969525,0.12916750000000002,-0.28082,-0.18561249999999999,-0.1329125,-0.572,-0.0899385,0.1161575,-0.57489,-0.0822815
64,0.017119499999999996,0.689685,-0.135558,-0.12946649999999998,0.49156500000000003,-0.102861,-0.2205365,0.712735,-0.215948,0.15500350000000002,0.48294499999999996,-0.09295199999999999,0.2672435,0.705185,-0.18168800000000002,-0.25212650000000003,0.920945,-0.320658,0.3072035,0.921705,-0.290068,-0.07065250000000001,0.0007449999999999957,-0.003036999999999998,0.07065250000000001,-0.0007449999999999957,0.003036999999999998,-0.1124465,-0.255725,-0.218748,0.1301335,-0.26332500000000003,-0.208018,-0.1318365,-0.548505,-0.102918,0.11609349999999999,-0.5528850000000001,-0.095534
65,0.0178895,0.6896300000000001,-0.14677,-0.1266865,0.49073,-0.113468,-0.21859650000000003,0.71363,-0.230909,0.1546035,0.48184000000000005,-0.103655,0.2685035,0.70214,-0.196159,-0.24945650000000003,0.91695,-0.340639,0.30805350000000004,0.91782,-0.310479,-0.0708505,0.0009399999999999964,-0.0031149999999999928,0.0708505,-0.0009399999999999964,0.0031150000000000067,-0.1110365,-0.23707999999999999,-0.237429,0.13025350000000002,-0.24428000000000002,-0.226939,-0.1307065,-0.52628,-0.11377799999999999,0.1155035,-0.53237,-0.106764
66,0.0185045,0.688765,-0.1586525,-0.1246195,0.48831499999999994,-0.1248745,-0.2168495,0.713075,-0.2461255,0.1541105,0.481745,-0.1152215,0.2691705,0.698935,-0.2104655,-0.2471495,0.911755,-0.3613155,0.3084705,0.9149849999999999,-0.3312855,-0.07104650000000001,0.0008549999999999947,-0.003432499999999991,0.07104650000000001,-0.0008549999999999947,0.003432500000000005,-0.1097195,-0.215795,-0.2563955,0.1299605,-0.22193500000000002,-0.2463755,-0.1293395,-0.501895,-0.1243415,0.11471049999999999,-0.509405,-0.1179215
67,0.018839500000000002,0.68792,-0.16982150000000001,-0.12239549999999999,0.48541999999999996,-0.1355595,-0.2154055,0.70966,-0.2606275,0.1534345,0.48139,-0.1263555,0.2698745,0.69777,-0.2244075,-0.24527549999999998,0.9052,-0.3796075,0.30846450000000003,0.90776,-0.3501775,-0.0713155,0.0005300000000000027,-0.0036355,0.0713155,-0.0005300000000000027,0.0036355,-0.10851549999999999,-0.1949,-0.2734275,0.1293145,-0.20091,-0.2642375,-0.1278455,-0.47947000000000006,-0.1334325,0.1138045,-0.48740000000000006,-0.1277655
68,0.018804499999999995,0.68622,-0.178638,-0.1207115,0.48315,-0.144478,-0.2147715,0.70087,-0.27120999999999995,0.1526785,0.48324,-0.13530499999999998,0.2700885,0.69322,-0.2342,-0.2445515,0.89148,-0.39211999999999997,0.30778849999999996,0.89847,-0.36363999999999996,-0.0716385,6.0000000000004494e-05,-0.004059999999999994,0.0716385,-5.999999999997674e-05,0.004060000000000008,-0.10740150000000001,-0.18167,-0.28632,0.12837849999999998,-0.18727,-0.27793,-0.1264515,-0.46489,-0.140344,0.1130485,-0.47136,-0.13553099999999998
69,0.018344500000000003,0.6850149999999999,-0.184052,-0.1189215,0.47899499999999995,-0.150102,-0.21463149999999998,0.697295,-0.278505,0.1510185,0.480005,-0.14092300000000002,0.2694585,0.691175,-0.24049500000000001,-0.24428149999999998,0.8847349999999999,-0.400825,0.3066085,0.897905,-0.373185,-0.0719365,-7.500000000004725e-05,-0.004235000000000003,0.0719365,7.499999999999174e-05,0.004234999999999989,-0.10663149999999999,-0.16686500000000004,-0.29517499999999997,0.1271485,-0.17195500000000002,-0.287285,-0.12527149999999998,-0.44898499999999997,-0.143454,0.11240850000000001,-0.452685,-0.139567
70,0.017889,0.680685,-0.188445,-0.11852,0.476175,-0.155084,-0.21454,0.691215,-0.285165,0.14958,0.477045,-0.145604,0.26846,0.687495,-0.246185,-0.24407,0.8784150000000001,-0.408905,0.30498,0.892455,-0.380925,-0.072247,-0.00013499999999999623,-0.004205,0.072247,0.00013499999999999623,0.004205,-0.10613,-0.15559499999999998,-0.29995499999999997,0.1259,-0.159825,-0.29279499999999997,-0.12421,-0.435165,-0.145533,0.11171,-0.437125,-0.14252599999999999
71,0.017437500000000005,0.67655,-0.193333,-0.1184155,0.47239,-0.160848,-0.2145355,0.6858,-0.29198,0.1481345,0.47303999999999996,-0.150904,0.2669445,0.68329,-0.25265000000000004,-0.2437955,0.8729,-0.41662,0.3032645,0.8880699999999999,-0.38919000000000004,-0.07249749999999999,-0.000260000000000038,-0.004250000000000004,0.07249749999999999,0.00025999999999998247,0.004250000000000004,-0.1055655,-0.13897000000000004,-0.30483,0.1249045,-0.14266000000000006,-0.2983,-0.12300549999999999,-0.42006,-0.147783,0.11114450000000001,-0.42013,-0.145454
72,0.017062499999999998,0.67364,-0.198617,-0.1181965,0.46873,-0.166962,-0.2147965,0.68052,-0.298985,0.1467635,0.47043999999999997,-0.156408,0.2651135,0.67957,-0.258815,-0.24390650000000003,0.86811,-0.425685,0.30161350000000003,0.88441,-0.397375,-0.0727805,-0.00040000000000001146,-0.0043249999999999955,0.0727805,0.00040000000000001146,0.0043249999999999955,-0.1049965,-0.12198999999999999,-0.309485,0.1242835,-0.12481000000000003,-0.303595,-0.1218065,-0.40447999999999995,-0.150052,0.11071349999999999,-0.40274,-0.148648
73,0.016811500000000007,0.669465,-0.204349,-0.1177575,0.466185,-0.172841,-0.21452749999999998,0.675495,-0.306255,0.1455025,0.466945,-0.16206099999999998,0.26360249999999996,0.676445,-0.265255,-0.2440275,0.8630950000000001,-0.434605,0.2999725,0.880355,-0.404965,-0.0728095,-0.0005450000000000177,-0.004464999999999997,0.0728095,0.0005450000000000177,0.004465000000000011,-0.1042975,-0.109925,-0.31371499999999997,0.12417250000000002,-0.112545,-0.308315,-0.1204575,-0.388945,-0.152217,0.11056250000000001,-0.385545,-0.151698
74,0.015620499999999995,0.664385,-0.209734,-0.11766750000000001,0.463085,-0.17854599999999998,-0.21422750000000002,0.669135,-0.313255,0.1440825,0.463555,-0.167667,0.26175249999999994,0.673705,-0.271965,-0.2443375,0.857535,-0.444095,0.2981125,0.877595,-0.413095,-0.0729635,-0.0006049999999999667,-0.0046650000000000025,0.0729635,0.0006050000000000222,0.0046650000000000025,-0.1037675,-0.09629499999999996,-0.317255,0.1241025,-0.09828500000000001,-0.311915,-0.1194075,-0.37133499999999997,-0.154074,0.11021249999999999,-0.36650499999999997,-0.154123
75,0.014458500000000003,0.659795,-0.21448899999999999,-0.1174515,0.460101,-0.183474,-0.2138315,0.663235,-0.32008000000000003,0.14287850000000002,0.459545,-0.17265,0.25988849999999997,0.6707650000000001,-0.27832,-0.2448615,0.850725,-0.45257000000000003,0.2965485,0.874595,-0.42068,-0.0730155,-0.0005649999999999822,-0.0045499999999999985,0.0730155,0.0005649999999999822,0.0045499999999999985,-0.10326149999999999,-0.08396500000000001,-0.31956,0.12412849999999999,-0.085235,-0.31396999999999997,-0.1185215,-0.35554500000000006,-0.155523,0.1097885,-0.34964500000000004,-0.155636
76,0.013198000000000001,0.655275,-0.21800999999999998,-0.118134,0.45896899999999996,-0.18725199999999997,-0.21428399999999997,0.6596249999999999,-0.32563,0.14155600000000002,0.455505,-0.176316,0.256596,0.665305,-0.28298,-0.245604,0.842895,-0.45955999999999997,0.294406,0.874255,-0.42596999999999996,-0.073055,-0.00020500000000001073,-0.0044299999999999895,0.073055,0.00020499999999995522,0.004430000000000003,-0.103164,-0.07121500000000003,-0.32045999999999997,0.123936,-0.07195499999999999,-0.31484999999999996,-0.117984,-0.33894500000000005,-0.155806,0.109206,-0.332515,-0.15581299999999998
77,0.011885500000000002,0.65249,-0.221715,-0.1192625,0.457165,-0.19147,-0.21492250000000002,0.6612899999999999,-0.331025,0.14017749999999998,0.45032,-0.180189,0.2530275,0.66313,-0.287715,-0.24656250000000002,0.8420799999999999,-0.467255,0.29223750000000004,0.8714500000000001,-0.431885,-0.07302349999999999,0.00012000000000000899,-0.004165000000000002,0.07302349999999999,-0.00012000000000000899,0.004165000000000002,-0.1032825,-0.056879999999999986,-0.321235,0.12350749999999999,-0.05753999999999998,-0.315685,-0.1176825,-0.3205,-0.156087,0.1084175,-0.31416999999999995,-0.156148
78,0.010769999999999995,0.648975,-0.22513,-0.120549,0.456044,-0.19533299999999998,-0.215729,0.659565,-0.33624,0.13969099999999998,0.44901399999999997,-0.183804,0.250491,0.660345,-0.29262,-0.247309,0.8428249999999999,-0.47534,0.290501,0.8678349999999999,-0.43762999999999996,-0.073116,0.0002849999999999797,-0.00406999999999999,0.073116,-0.0002850000000000352,0.004070000000000004,-0.103329,-0.04388500000000001,-0.32194,0.123201,-0.04427500000000001,-0.31611,-0.117339,-0.303285,-0.15637299999999998,0.10774099999999999,-0.297505,-0.156605
79,0.009625500000000004,0.6452249999999999,-0.228235,-0.12178649999999999,0.454424,-0.198628,-0.21710649999999998,0.655945,-0.341045,0.1394535,0.44805799999999996,-0.187274,0.2486835,0.657215,-0.29788499999999996,-0.2483765,0.8413349999999999,-0.482815,0.2882035,0.864365,-0.44338500000000003,-0.0731825,0.0004149999999999987,-0.004144999999999996,0.0731825,-0.0004149999999999987,0.00414500000000001,-0.10335649999999999,-0.02864500000000003,-0.32242499999999996,0.1229435,-0.028884999999999994,-0.316405,-0.1169365,-0.283635,-0.156532,0.10709350000000001,-0.27840500000000007,-0.156781
80,0.008662000000000003,0.642295,-0.23063499999999998,-0.12297999999999999,0.45356699999999994,-0.20115,-0.21815,0.6520349999999999,-0.345105,0.13946000000000003,0.447331,-0.189962,0.24678,0.6552749999999999,-0.301405,-0.24923,0.8375349999999999,-0.489935,0.28608,0.861105,-0.447775,-0.0732,0.0005049999999999777,-0.004224999999999993,0.0732,-0.0005050000000000332,0.0042250000000000065,-0.10336999999999999,-0.014445000000000041,-0.322605,0.12269000000000001,-0.014505000000000046,-0.316555,-0.11624999999999999,-0.26512500000000006,-0.15650899999999998,0.10642,-0.26010500000000003,-0.156577
81,0.0078395,0.637745,-0.23202,-0.1237655,0.45262500000000006,-0.20263,-0.2192555,0.6479550000000001,-0.34739,0.13957450000000002,0.44598800000000005,-0.192111,0.24539450000000002,0.653165,-0.30449,-0.24999549999999998,0.832975,-0.49564,0.28413449999999996,0.858195,-0.45262,-0.07318749999999999,0.0005550000000000277,-0.0041100000000000025,0.07318749999999999,-0.0005549999999999722,0.0041100000000000025,-0.1033955,-0.0013949999999999796,-0.32249,0.12244450000000001,-0.0010949999999999571,-0.31636,-0.11628550000000001,-0.248475,-0.156304,0.10526450000000001,-0.24292499999999995,-0.155042
82,0.006992500000000004,0.63461,-0.23245,-0.1248155,0.451362,-0.203602,-0.22055550000000002,0.6446799999999999,-0.34817,0.13962449999999998,0.446239,-0.193551,0.2441645,0.65113,-0.30679,-0.2506855,0.82841,-0.4999,0.2822745,0.85522,-0.45663,-0.0731035,0.00037999999999999146,-0.004100000000000006,0.0731035,-0.00037999999999999146,0.0040999999999999925,-0.1035555,0.011179999999999968,-0.32227,0.1222245,0.012179999999999969,-0.31587,-0.1163955,-0.23241000000000006,-0.155994,0.1038245,-0.2263,-0.15321400000000002
83,0.006746999999999996,0.63192,-0.23241,-0.12571,0.4501570000000001,-0.203902,-0.22193000000000002,0.6416600000000001,-0.34858,0.13949,0.44686300000000007,-0.194102,0.24313,0.64814,-0.30781000000000003,-0.2516,0.82396,-0.50179,0.28057,0.8525200000000002,-0.45892999999999995,-0.072938,0.000180000000000069,-0.0039899999999999936,0.072938,-0.00017999999999995797,0.003990000000000007,-0.10392,0.021310000000000107,-0.32191000000000003,0.12197999999999999,0.02266000000000007,-0.31513,-0.11661,-0.21936999999999995,-0.15562399999999998,0.10189999999999999,-0.21338999999999986,-0.151008
84,0.006519999999999998,0.62946,-0.231935,-0.12659700000000002,0.45044700000000004,-0.203698,-0.223357,0.6386000000000001,-0.348215,0.139293,0.44799600000000006,-0.19400499999999998,0.242443,0.64645,-0.308425,-0.252597,0.8211200000000001,-0.502735,0.278983,0.84865,-0.460005,-0.072775,0.0001300000000000745,-0.0038649999999999934,0.072775,-0.00012999999999996348,0.0038650000000000073,-0.10458700000000001,0.031230000000000036,-0.321005,0.121703,0.032930000000000015,-0.314165,-0.116947,-0.20955000000000001,-0.15501399999999999,0.100053,-0.20099999999999996,-0.14813199999999999
85,0.0062865,0.62696,-0.23151499999999997,-0.1272205,0.4496279999999999,-0.20332,-0.2245505,0.63577,-0.347875,0.1392195,0.44886999999999994,-0.193751,0.2422695,0.64701,-0.30864499999999995,-0.2535505,0.8194699999999999,-0.5035149999999999,0.27801950000000003,0.84521,-0.46075499999999997,-0.0725915,-0.000140000000000029,-0.003724999999999992,0.0725915,0.00013999999999991797,0.003725000000000006,-0.1054705,0.03970999999999997,-0.319975,0.12141950000000001,0.04188999999999993,-0.313095,-0.1174405,-0.20156000000000007,-0.15442699999999998,0.09796950000000001,-0.1899900000000001,-0.14504799999999998
86,0.005985499999999998,0.624773,-0.23141,-0.12764150000000002,0.44929700000000006,-0.203243,-0.22574149999999998,0.632737,-0.348,0.1392385,0.44960100000000003,-0.193679,0.24200850000000002,0.64587,-0.30906999999999996,-0.2543815,0.81652,-0.50393,0.2771285,0.84395,-0.46079000000000003,-0.0724385,-0.00021999999999999797,-0.00358,0.0724385,0.00021999999999999797,0.00358,-0.1066615,0.04578000000000004,-0.3192,0.1210585,0.04859000000000002,-0.31218999999999997,-0.11822150000000001,-0.19519999999999993,-0.15381499999999998,0.0963485,-0.18191999999999997,-0.142704
87,0.006038999999999999,0.623464,-0.23115,-0.127966,0.44957400000000003,-0.203205,-0.22655599999999998,0.631144,-0.34826999999999997,0.13939400000000002,0.45082900000000004,-0.19358599999999998,0.241684,0.6449750000000001,-0.30901999999999996,-0.255096,0.8129850000000001,-0.50392,0.276544,0.842355,-0.46075999999999995,-0.072213,-0.0004750000000000032,-0.0035099999999999992,0.072213,0.0004750000000000032,0.0035099999999999992,-0.107936,0.05052500000000004,-0.31833,0.120754,0.054015000000000035,-0.31128,-0.11907599999999999,-0.18991499999999994,-0.153408,0.094916,-0.17544499999999996,-0.14076
88,0.006416,0.623411,-0.23071999999999998,-0.127966,0.449785,-0.203205,-0.226596,0.631368,-0.34775,0.13986400000000002,0.450504,-0.193545,0.242584,0.64496,-0.30894,-0.255096,0.8107500000000001,-0.50392,0.276544,0.84251,-0.46075999999999995,-0.072213,-0.0004899999999999904,-0.0035099999999999992,0.072213,0.0004899999999999904,0.0035099999999999992,-0.108736,0.051049999999999984,-0.31742000000000004,0.120924,0.05502000000000001,-0.3104,-0.11962600000000001,-0.18972,-0.153054,0.09396099999999999,-0.17411,-0.139006
89,0.0069725000000000065,0.623676,-0.230035,-0.1279245,0.4498599999999999,-0.202961,-0.2266445,0.631633,-0.346485,0.1402855,0.450769,-0.193508,0.2434255,0.6451749999999999,-0.308865,-0.2550345,0.810675,-0.503915,0.2766055,0.8427749999999999,-0.460745,-0.07215150000000001,-0.0004350000000000742,-0.0035049999999999942,0.07215150000000001,0.0004349999999999632,0.003505000000000008,-0.10946449999999999,0.050614999999999966,-0.316615,0.1212655,0.05471499999999996,-0.309575,-0.12011449999999999,-0.19091500000000006,-0.152911,0.0933155,-0.17416500000000001,-0.137496
90,0.007545500000000002,0.623676,-0.22932999999999998,-0.1277125,0.4498599999999999,-0.20253,-0.2267525,0.631633,-0.34535,0.1404275,0.450769,-0.193377,0.2440775,0.6451749999999999,-0.30862,-0.2550525,0.810675,-0.5037499999999999,0.2765575,0.8427749999999999,-0.46025,-0.0721535,-0.0004350000000000742,-0.003479999999999997,0.0721535,0.0004349999999999632,0.003480000000000011,-0.1102725,0.05039499999999997,-0.31598,0.12163750000000001,0.054434999999999956,-0.30879,-0.1206525,-0.19181500000000007,-0.15298399999999998,0.0931785,-0.17440500000000003,-0.13705099999999998
91,0.008667999999999997,0.623676,-0.229115,-0.127171,0.4498599999999999,-0.202792,-0.226181,0.631633,-0.345095,0.140889,0.450769,-0.193502,0.245089,0.6451749999999999,-0.307545,-0.254681,0.810675,-0.503515,0.277999,0.8427749999999999,-0.46047499999999997,-0.072101,-0.0004350000000000742,-0.0036349999999999993,0.072101,0.0004349999999999632,0.0036349999999999993,-0.110821,0.05039499999999997,-0.316285,0.122309,0.054434999999999956,-0.308535,-0.120921,-0.192145,-0.153714,0.093392,-0.17456500000000008,-0.137532
92,0.0099115,0.624551,-0.22884,-0.1263285,0.4498599999999999,-0.202925,-0.2251085,0.631921,-0.3441,0.14142149999999998,0.45077799999999996,-0.19355,0.24627149999999998,0.6451749999999999,-0.30658,-0.2538685,0.810675,-0.50277,0.2797315,0.843625,-0.4602,-0.0721215,-0.0004350000000000742,-0.004040000000000002,0.0721215,0.0004349999999999632,0.004040000000000002,-0.1111185,0.05039499999999997,-0.3168,0.12346149999999999,0.054434999999999956,-0.30819,-0.1214485,-0.192925,-0.15438,0.0937805,-0.17474500000000004,-0.138068
93,0.011097,0.6267590000000001,-0.228645,-0.125561,0.450719,-0.20259,-0.223701,0.630831,-0.344345,0.141859,0.451898,-0.192681,0.247259,0.64349,-0.305515,-0.25256100000000004,0.80813,-0.501975,0.281739,0.8449500000000001,-0.45954500000000004,-0.071976,-0.00046000000000001595,-0.004405000000000006,0.071976,0.00046000000000001595,0.004405000000000006,-0.111281,0.046640000000000015,-0.317175,0.125039,0.05068,-0.307825,-0.121181,-0.19667999999999997,-0.154742,0.094168,-0.17877999999999994,-0.138403
94,0.012650499999999997,0.629331,-0.22878500000000002,-0.1237685,0.45298999999999995,-0.20238899999999999,-0.2215185,0.62976,-0.34279499999999996,0.1427215,0.45319,-0.192129,0.24872149999999998,0.6451549999999999,-0.30439499999999997,-0.25073850000000003,0.811475,-0.501015,0.2842715,0.8502749999999999,-0.459175,-0.07205349999999999,-0.00031500000000006523,-0.0045550000000000035,0.07205349999999999,0.0003149999999999542,0.0045550000000000035,-0.11103850000000001,0.04090499999999997,-0.317875,0.1274815,0.04458499999999993,-0.30832499999999996,-0.12047850000000002,-0.20292500000000002,-0.155619,0.09527449999999998,-0.18545500000000004,-0.13902799999999998
95,0.0141825,0.634065,-0.22815000000000002,-0.12203649999999999,0.45519600000000005,-0.20147900000000002,-0.21935649999999998,0.629035,-0.33952000000000004,0.14357350000000002,0.45430400000000004,-0.19079200000000002,0.24987350000000003,0.648575,-0.30268,-0.2487265,0.8139050000000001,-0.49915,0.28679350000000003,0.8537950000000001,-0.4578,-0.0721115,-0.0002750000000000252,-0.0045600000000000085,0.0721115,0.0002750000000000252,0.004559999999999995,-0.1109465,0.033345000000000014,-0.31787,0.1302335,0.036485000000000045,-0.30808,-0.11980650000000001,-0.21162499999999995,-0.15593600000000002,0.0967825,-0.19469499999999995,-0.138889
96,0.015688500000000005,0.639605,-0.22747,-0.12038349999999999,0.45816799999999996,-0.200361,-0.2168635,0.6373949999999999,-0.33582,0.1444265,0.45563,-0.18934299999999998,0.2507865,0.652305,-0.30051,-0.2466735,0.820465,-0.49604,0.2892965,0.856895,-0.45564,-0.0719935,-0.00016499999999997073,-0.0045499999999999985,0.0719935,0.00016499999999997073,0.0045499999999999985,-0.1110335,0.02363499999999996,-0.31862,0.13318649999999999,0.02559499999999998,-0.30766,-0.11923349999999999,-0.22089500000000006,-0.156593,0.0987865,-0.20689500000000005,-0.139627
97,0.016917500000000002,0.646695,-0.22587,-0.1194795,0.459048,-0.198824,-0.2143695,0.642325,-0.33162,0.1452205,0.456145,-0.18719,0.2515605,0.655945,-0.29699,-0.2457295,0.8270150000000001,-0.4897,0.2917905,0.865175,-0.45026999999999995,-0.0718355,-1.4999999999987246e-05,-0.004629999999999995,0.0718355,1.4999999999987246e-05,0.004630000000000009,-0.1109195,0.00525500000000001,-0.31874,0.1375205,0.0062650000000000206,-0.30667,-0.1187695,-0.24099499999999996,-0.15716799999999997,0.1009905,-0.23034500000000002,-0.140311
98,0.018004,0.652975,-0.223565,-0.11854999999999999,0.461763,-0.19687100000000002,-0.21183000000000002,0.644325,-0.325965,0.14615999999999998,0.459833,-0.184894,0.25246999999999997,0.661065,-0.292975,-0.24526,0.834835,-0.483025,0.29436999999999997,0.872465,-0.444675,-0.07171,-9.500000000001174e-05,-0.004824999999999996,0.07171,9.499999999995623e-05,0.004824999999999996,-0.11076,-0.01625500000000002,-0.318365,0.14209,-0.01575500000000002,-0.305475,-0.11816000000000002,-0.26553499999999997,-0.157453,0.10318,-0.25746500000000005,-0.140819
99,0.0188525,0.6597,-0.22049000000000002,-0.1173495,0.46395899999999995,-0.194432,-0.2112195,0.6445,-0.31867,0.1470105,0.46252199999999993,-0.18220799999999998,0.25357050000000003,0.66687,-0.28837,-0.2450895,0.8418699999999999,-0.47404999999999997,0.2959705,0.8797599999999999,-0.43838,-0.0715755,-3.0000000000030003e-05,-0.004960000000000006,0.0715755,2.999999999997449e-05,0.004959999999999992,-0.1107195,-0.03875000000000006,-0.31757,0.1465505,-0.03857000000000005,-0.30395,-0.1177195,-0.29212000000000005,-0.15701,0.1052805,-0.28641000000000005,-0.140858
100,0.0190205,0.66697,-0.21594,-0.11672550000000001,0.46713099999999996,-0.190317,-0.21069549999999998,0.64582,-0.30994,0.1474345,0.465975,-0.178261,0.2539845,0.6727,-0.28261000000000003,-0.2449355,0.8504099999999999,-0.46238,0.2967645,0.88618,-0.42774,-0.0715915,-0.00012000000000000899,-0.004779999999999993,0.0715915,0.00011999999999995348,0.0047800000000000065,-0.11126549999999999,-0.06348000000000004,-0.31550999999999996,0.1503545,-0.06377000000000005,-0.30082,-0.1178755,-0.32395000000000007,-0.15528599999999998,0.1068145,-0.32081000000000004,-0.139604
101,0.019093500000000003,0.673625,-0.210641,-0.1162025,0.47004500000000005,-0.185965,-0.21017249999999998,0.649675,-0.30003,0.1478375,0.469065,-0.173849,0.2542875,0.6796850000000001,-0.2764,-0.2448225,0.860115,-0.45027,0.2970975,0.891605,-0.41611,-0.0716005,-0.00017499999999998073,-0.004680000000000004,0.0716005,0.00017500000000003624,0.004680000000000004,-0.1118625,-0.08707499999999996,-0.31298,0.1538475,-0.08806499999999995,-0.29706,-0.11819249999999999,-0.355495,-0.153103,0.1083375,-0.354545,-0.137829
102,0.019258499999999998,0.676695,-0.20266699999999999,-0.1156955,0.473805,-0.180539,-0.20945550000000002,0.6582049999999999,-0.28793,0.14854450000000002,0.47348499999999993,-0.168575,0.25427449999999996,0.6892149999999999,-0.26865,-0.2460755,0.869925,-0.43474,0.29663449999999997,0.8971049999999999,-0.40127,-0.0715915,-0.00022500000000003073,-0.0047800000000000065,0.0715915,0.00022499999999997522,0.004779999999999993,-0.1124555,-0.11028500000000002,-0.30821,0.1569445,-0.11119500000000004,-0.29098999999999997,-0.1188455,-0.387375,-0.149582,0.1101545,-0.38773500000000005,-0.135096
103,0.018678499999999997,0.6803250000000001,-0.1926975,-0.1166055,0.475615,-0.1736335,-0.2100855,0.6637850000000001,-0.2751255,0.1486545,0.478665,-0.1616885,0.25362450000000003,0.6958150000000001,-0.2586255,-0.2477455,0.871015,-0.41472549999999997,0.2957345,0.902325,-0.3843055,-0.07119349999999999,-0.0002849999999999797,-0.004764499999999991,0.07119349999999999,0.0002850000000000352,0.004764500000000005,-0.11370550000000001,-0.13514500000000002,-0.3007555,0.15894450000000002,-0.13511499999999999,-0.2821055,-0.1203855,-0.421635,-0.1446155,0.11154449999999999,-0.422125,-0.1308875
104,0.0178385,0.682195,-0.18215900000000002,-0.1178185,0.47775500000000004,-0.165969,-0.2117585,0.6685749999999999,-0.262061,0.1484815,0.483045,-0.154113,0.2527115,0.7014549999999999,-0.247581,-0.25044849999999996,0.8719250000000001,-0.393251,0.2945415,0.907705,-0.36636100000000005,-0.0708245,-0.0003549999999999942,-0.004579,0.0708245,0.0003549999999999942,0.004579,-0.1152685,-0.159155,-0.29203100000000004,0.1603215,-0.157955,-0.271851,-0.1220885,-0.45500500000000005,-0.139041,0.1127515,-0.455285,-0.12588
105,0.016851000000000005,0.6842699999999999,-0.17111300000000002,-0.11937699999999998,0.479,-0.158426,-0.21343700000000002,0.66502,-0.24921700000000002,0.148433,0.48593,-0.146451,0.25190300000000004,0.70739,-0.23650700000000002,-0.25360699999999997,0.87264,-0.372877,0.293343,0.91316,-0.348127,-0.07042799999999999,-0.00040000000000001146,-0.004296999999999995,0.07042799999999999,0.0003999999999999837,0.004296999999999995,-0.11690699999999998,-0.18105000000000004,-0.282097,0.161333,-0.17870000000000003,-0.26076699999999997,-0.12373699999999999,-0.4859,-0.133347,0.113843,-0.4862000000000001,-0.12066
106,0.016139,0.6848,-0.160458,-0.120674,0.4835,-0.150754,-0.215204,0.66557,-0.23632699999999998,0.148486,0.49073,-0.138786,0.251156,0.71259,-0.22594699999999998,-0.256764,0.8755499999999999,-0.355077,0.292606,0.91988,-0.332327,-0.070086,-0.0005400000000000127,-0.003906999999999994,0.070086,0.0005399999999999849,0.003907000000000008,-0.118324,-0.19552000000000003,-0.27091699999999996,0.160906,-0.19193,-0.248147,-0.125334,-0.50737,-0.127154,0.114596,-0.50697,-0.114586
107,0.015789499999999998,0.68611,-0.15018700000000001,-0.12166350000000001,0.48591,-0.143602,-0.21670350000000002,0.67319,-0.22445199999999998,0.1488265,0.49219,-0.131288,0.25034649999999997,0.71766,-0.215582,-0.2604935,0.8853500000000001,-0.337632,0.2918265,0.92763,-0.316652,-0.0696695,-0.00041999999999997595,-0.0037879999999999997,0.0696695,0.0004200000000000037,0.0037879999999999997,-0.1193535,-0.20618999999999998,-0.258942,0.1603965,-0.20199,-0.23538199999999998,-0.1267435,-0.5249299999999999,-0.121085,0.1158765,-0.52406,-0.108987
108,0.015643,0.6857150000000001,-0.139756,-0.12229799999999999,0.488375,-0.136168,-0.217388,0.680105,-0.213646,0.149172,0.496475,-0.12343799999999999,0.249302,0.7209749999999999,-0.204706,-0.263628,0.8941749999999999,-0.321826,0.291042,0.933705,-0.301126,-0.06942499999999999,-0.0005150000000000154,-0.003831000000000001,0.06942499999999999,0.0005149999999999877,0.003831000000000001,-0.12015799999999999,-0.21697500000000003,-0.245546,0.159872,-0.21193499999999998,-0.22144599999999998,-0.128038,-0.5422750000000001,-0.114795,0.117232,-0.540205,-0.103045
109,0.015316499999999997,0.6834849999999999,-0.1311005,-0.12363950000000001,0.489395,-0.1298175,-0.2178495,0.686035,-0.2038285,0.1491705,0.5000450000000001,-0.11679049999999999,0.2481105,0.724545,-0.1950685,-0.2668195,0.9020650000000001,-0.3081385,0.2901905,0.9389750000000001,-0.2892185,-0.06915550000000001,-0.0006549999999999889,-0.004106499999999999,0.06915550000000001,0.0006550000000000028,0.004106499999999999,-0.12127950000000001,-0.223615,-0.2336585,0.1588405,-0.21863499999999997,-0.2089685,-0.1296395,-0.553105,-0.11040449999999999,0.1186905,-0.5506850000000001,-0.0980985
110,0.015019999999999999,0.6803875,-0.1218805,-0.124629,0.4918275,-0.1230285,-0.218749,0.6871175,-0.1942875,0.149801,0.5052775,-0.10946249999999999,0.24687099999999998,0.7250575,-0.18476749999999997,-0.269559,0.9066675000000001,-0.2934675,0.289361,0.9446075,-0.2765975,-0.068829,-0.0007524999999999893,-0.004117500000000003,0.068829,0.0007525000000000032,0.004117500000000003,-0.122229,-0.23166250000000002,-0.22078750000000003,0.157341,-0.2266025,-0.1953475,-0.131329,-0.5646325,-0.1051415,0.119971,-0.5623325,-0.0922165
111,0.014620500000000002,0.680769,-0.115027,-0.1254945,0.492999,-0.117367,-0.2198045,0.685089,-0.18681399999999998,0.15022549999999998,0.507779,-0.103402,0.2456255,0.725069,-0.175674,-0.2717045,0.913569,-0.282244,0.28839549999999997,0.950159,-0.266374,-0.06851750000000001,-0.0006550000000000028,-0.003983,0.06851750000000001,0.0006550000000000028,0.0039829999999999935,-0.12297449999999999,-0.237771,-0.20946399999999998,0.1558255,-0.23340099999999997,-0.183234,-0.1328645,-0.574231,-0.099661,0.12089549999999999,-0.5726110000000001,-0.08651900000000001
112,0.014739000000000002,0.6849995,-0.1101685,-0.125897,0.49565950000000003,-0.1126965,-0.221417,0.6854895,-0.1809955,0.150823,0.5078495,-0.0981435,0.24492300000000003,0.7245495,-0.16821550000000002,-0.27338700000000005,0.9225095,-0.2737455,0.28795299999999996,0.9506595,-0.25665550000000004,-0.068508,-0.0005315000000000042,-0.0038264999999999966,0.068508,0.0005314999999999973,0.0038265000000000035,-0.123357,-0.2454505,-0.1987155,0.154613,-0.24171050000000002,-0.1718955,-0.133477,-0.5836005000000001,-0.09502250000000001,0.120283,-0.5837205,-0.0818805
113,0.014920000000000003,0.6886245,-0.105644,-0.126355,0.49757450000000003,-0.108467,-0.223245,0.6868945,-0.175769,0.151515,0.5091745,-0.093348,0.244285,0.7244745,-0.161469,-0.27443500000000004,0.9326344999999999,-0.265439,0.287705,0.9521445,-0.246829,-0.068489,-0.0003604999999999997,-0.0036379999999999954,0.068489,0.0003604999999999997,0.0036380000000000023,-0.12376499999999999,-0.25343550000000004,-0.187449,0.153365,-0.2504155,-0.160449,-0.134085,-0.5932455,-0.09081600000000001,0.119675,-0.5949255,-0.07767399999999999
114,0.014674,0.6914645,-0.0957235,-0.127584,0.4988545,-0.0989975,-0.22442399999999998,0.6882245,-0.1650145,0.151596,0.5111345,-0.0833585,0.243516,0.7253145000000001,-0.1496445,-0.276124,0.9389845,-0.25162450000000003,0.28760600000000003,0.9568645,-0.2319945,-0.068525,-0.00026149999999999785,-0.0032855000000000037,0.068525,0.0002615000000000048,0.0032854999999999968,-0.124674,-0.2624155,-0.17009449999999998,0.151166,-0.2596755,-0.1427745,-0.13517400000000002,-0.6036455,-0.0806685,0.11852599999999999,-0.6064155,-0.0671765
115,0.013778499999999999,0.6928610000000001,-0.0854925,-0.1296745,0.498541,-0.08856249999999999,-0.2268745,0.693521,-0.1537115,0.1515155,0.510341,-0.07280049999999999,0.24338549999999998,0.7275010000000001,-0.1375115,-0.2785045,0.9404710000000001,-0.2374015,0.2865255,0.952411,-0.2169615,-0.0684835,-0.0004720000000000002,-0.0032144999999999986,0.0684835,0.0004720000000000002,0.003214500000000002,-0.1250745,-0.275399,-0.1499615,0.1461655,-0.273269,-0.1236015,-0.1368345,-0.6178589999999999,-0.0673745,0.11653550000000001,-0.620969,-0.0542355
116,0.012874499999999997,0.6942125,-0.075384,-0.1318395,0.49873249999999997,-0.078088,-0.2294395,0.6945525,-0.142955,0.1518905,0.5100724999999999,-0.062291,0.2434305,0.7283125,-0.12584499999999998,-0.28050949999999997,0.9342325,-0.223025,0.2856605,0.9486625,-0.202425,-0.0685075,-0.0006844999999999993,-0.0031249999999999993,0.0685075,0.0006845000000000011,0.003125000000000001,-0.1253195,-0.2890375,-0.130605,0.1411705,-0.28740750000000004,-0.104819,-0.1383695,-0.6320175,-0.05402,0.1145305,-0.6351275000000001,-0.041447
117,0.011736999999999997,0.6964245,-0.0657435,-0.133769,0.49911449999999996,-0.0682075,-0.232739,0.6972345,-0.1325495,0.15190099999999998,0.5081245,-0.0525095,0.243381,0.7296345000000001,-0.1147895,-0.282659,0.9296445,-0.2086795,0.284881,0.9470345,-0.1884495,-0.068518,-0.0008235000000000002,-0.0029674999999999997,0.068518,0.0008235,0.0029675,-0.125529,-0.3011355,-0.1120295,0.13594099999999998,-0.29950550000000004,-0.0868815,-0.140039,-0.6441155,-0.0409915,0.112231,-0.6472255,-0.0289155
118,0.0105635,0.6994295,-0.0562755,-0.1354845,0.5001695,-0.058442499999999994,-0.2354145,0.6991995,-0.12192650000000001,0.1519255,0.5070495,-0.0428165,0.2433755,0.7302595000000001,-0.1040665,-0.28480449999999996,0.9249095,-0.19517649999999998,0.28419550000000005,0.9462395,-0.17473650000000002,-0.0684885,-0.0009335000000000003,-0.0029055,0.0684885,0.0009335000000000003,0.0029055000000000005,-0.12577449999999998,-0.31256049999999996,-0.0931775,0.1306455,-0.3109305,-0.0689185,-0.1417845,-0.6555405,-0.027888499999999997,0.10973549999999999,-0.6595305,-0.0163335
119,0.009564999999999997,0.703168,-0.047509499999999996,-0.137132,0.500368,-0.0490365,-0.23772200000000002,0.703408,-0.11168650000000001,0.151438,0.505008,-0.033767500000000006,0.24369799999999997,0.732868,-0.09418649999999999,-0.286212,0.922048,-0.1801865,0.283668,0.9457180000000001,-0.1618765,-0.068352,-0.0010550000000000004,-0.0030004999999999997,0.068352,0.0010550000000000004,0.0030004999999999997,-0.125772,-0.32151199999999996,-0.0751005,0.124888,-0.319882,-0.0515645,-0.143512,-0.664992,-0.015360500000000003,0.106538,-0.670072,-0.0031525000000000025
120,0.008813999999999995,0.7070415,-0.0392075,-0.138648,0.5006315,-0.0398475,-0.239828,0.7079115,-0.1017835,0.151072,0.5035315,-0.0250275,0.24419200000000002,0.7357515,-0.0844735,-0.287488,0.9195215,-0.1656235,0.283372,0.9461514999999999,-0.1494735,-0.068221,-0.001223499999999999,-0.003023500000000002,0.068221,0.001223499999999999,0.0030234999999999984,-0.125478,-0.33016850000000003,-0.057362500000000004,0.119142,-0.3294285,-0.0345895,-0.145148,-0.6748585,-0.0027325000000000023,0.10325200000000001,-0.6810385,0.009881499999999998
121,0.007976000000000004,0.706222,-0.031529,-0.140196,0.500512,-0.030913000000000003,-0.242116,0.712982,-0.092322,0.15065399999999998,0.5026919999999999,-0.016788000000000004,0.24468399999999998,0.738872,-0.07498200000000001,-0.288886,0.917632,-0.152372,0.283084,0.947962,-0.13763199999999998,-0.06806000000000001,-0.0013210000000000027,-0.0030900000000000025,0.06806000000000001,0.0013210000000000027,0.003089999999999999,-0.125126,-0.339408,-0.04102600000000001,0.11347399999999999,-0.33837799999999996,-0.018995000000000005,-0.146336,-0.684378,0.010668999999999998,0.099444,-0.691168,0.022718999999999996
122,0.0071324999999999965,0.706022,-0.024141499999999996,-0.1417875,0.500512,-0.022232499999999995,-0.2446175,0.7179719999999999,-0.08269750000000001,0.1501625,0.501552,-0.008898499999999997,0.24521250000000003,0.742292,-0.06565750000000001,-0.29045750000000004,0.915642,-0.14012750000000002,0.2828225,0.950902,-0.1265975,-0.0679175,-0.0014199999999999977,-0.0032324999999999993,0.0679175,0.0014200000000000046,0.0032324999999999993,-0.1246485,-0.349128,-0.02608649999999999,0.10821249999999999,-0.347648,-0.004452499999999998,-0.1477375,-0.694038,0.023323500000000004,0.0956825,-0.701178,0.035016500000000006
123,0.006932500000000005,0.7061660000000001,-0.022344999999999997,-0.1428095,0.5009060000000001,-0.019131999999999996,-0.2467595,0.723386,-0.07864,0.1502505,0.500826,-0.006558999999999995,0.2458105,0.743976,-0.06204,-0.2915495,0.914146,-0.13351000000000002,0.2827905,0.951276,-0.12147999999999999,-0.0677835,-0.0015550000000000008,-0.0035159999999999983,0.0677835,0.0015550000000000008,0.0035160000000000052,-0.1235115,-0.358344,-0.018246,0.1040005,-0.35626399999999997,0.003253000000000006,-0.1482495,-0.702564,0.028637000000000003,0.0926605,-0.709834,0.040315000000000004
124,0.0075280000000000034,0.7076005000000001,-0.021024,-0.143,0.5015705,-0.017999,-0.24736,0.7239205000000001,-0.075231,0.15037,0.5018105,-0.005596999999999998,0.24629,0.7449205,-0.059541,-0.29215,0.9157705,-0.127691,0.28339,0.9525705000000001,-0.117221,-0.067678,-0.0014494999999999994,-0.003477000000000001,0.067678,0.0014494999999999994,0.003477000000000001,-0.12287,-0.35927950000000003,-0.013899000000000002,0.10249000000000001,-0.3572995,0.008239999999999997,-0.14846,-0.7039295,0.030337999999999997,0.09206,-0.7105994999999999,0.043033
125,0.008171999999999999,0.7086795,-0.019724,-0.143225,0.5020895,-0.016634000000000003,-0.247945,0.7239495,-0.071871,0.150505,0.5026895,-0.004465000000000004,0.246955,0.7458794999999999,-0.057118,-0.292965,0.9169895,-0.12146100000000001,0.284005,0.9530295,-0.11250099999999999,-0.06758700000000001,-0.0014085,-0.0033219999999999986,0.06758700000000001,0.0014085,0.0033219999999999986,-0.12236,-0.36012049999999995,-0.008945000000000002,0.10086499999999998,-0.3583505,0.014151999999999998,-0.148685,-0.7049805,0.032275,0.091425,-0.7111805,0.046253999999999997
126,0.008806499999999998,0.7093395,-0.018380999999999995,-0.1434415,0.5024795,-0.015287999999999996,-0.24851150000000002,0.7239495,-0.06863,0.1506285,0.5034195,-0.0033419999999999978,0.24759849999999997,0.7467595,-0.054473,-0.29394149999999997,0.9183695,-0.11545,0.2845085,0.9530295,-0.10797999999999999,-0.0675095,-0.0014085,-0.0031149999999999997,0.0675095,0.0014085,0.0031149999999999997,-0.12196549999999999,-0.3609205,-0.004355999999999999,0.0992985,-0.35949050000000005,0.019900000000000004,-0.1488915,-0.7057905,0.034066,0.09092850000000001,-0.7116105,0.049204000000000005
127,0.009454500000000001,0.7098895,-0.016604499999999994,-0.1433555,0.5029595,-0.013884499999999994,-0.2489055,0.7240194999999999,-0.0642185,0.1507945,0.5039095,-0.0022454999999999975,0.24841449999999998,0.7475394999999999,-0.0508855,-0.29449549999999997,0.9202794999999999,-0.1092685,0.2856645,0.9531795,-0.1014385,-0.0673545,-0.0012585000000000027,-0.002843499999999999,0.0673545,0.0012584999999999957,0.0028435000000000057,-0.12169250000000001,-0.3616505,-0.0001784999999999981,0.0978945,-0.3604505,0.025523500000000005,-0.1491055,-0.7062805000000001,0.035799500000000005,0.0906245,-0.7117605,0.0520885
128,0.010055000000000005,0.7100695,-0.015095499999999998,-0.143139,0.5031995,-0.0127325,-0.249249,0.7241995,-0.0604835,0.150971,0.5041395000000001,-0.0013695000000000027,0.24912099999999998,0.7479995,-0.0476745,-0.295059,0.9222895,-0.10424349999999999,0.286741,0.9533595,-0.09574349999999998,-0.067212,-0.001078500000000003,-0.0025924999999999976,0.067212,0.0010784999999999961,0.0025924999999999976,-0.121849,-0.36215050000000004,0.0031745000000000037,0.096931,-0.36112049999999996,0.0301645,-0.149219,-0.7061005,0.0372925,0.090451,-0.7115805,0.054267499999999996
129,0.010528000000000003,0.710351,-0.013888499999999998,-0.142913,0.5034909999999999,-0.0116495,-0.249573,0.7244809999999999,-0.05700550000000001,0.151167,0.504451,-0.0005235000000000031,0.249827,0.748351,-0.044685499999999996,-0.295643,0.9240809999999999,-0.09982950000000002,0.287747,0.953341,-0.09064950000000002,-0.067051,-0.0008739999999999998,-0.002395500000000002,0.067051,0.0008739999999999998,0.002395500000000002,-0.122093,-0.36228899999999997,0.006137499999999997,0.096177,-0.361529,0.034430499999999996,-0.149283,-0.7058190000000001,0.038274499999999996,0.090297,-0.711299,0.056237499999999996
130,0.010969999999999994,0.710733,-0.012839000000000003,-0.14266700000000002,0.5038729999999999,-0.010797000000000008,-0.24993700000000002,0.724603,-0.053828,0.15137299999999998,0.504833,0.00021699999999999497,0.250543,0.748733,-0.042032,-0.29638699999999996,0.925913,-0.09583799999999999,0.288793,0.9529229999999999,-0.08633800000000001,-0.06689400000000001,-0.0006929999999999992,-0.0021820000000000034,0.06689400000000001,0.0006929999999999992,0.0021819999999999964,-0.122312,-0.362017,0.008832999999999994,0.095583,-0.361637,0.038342999999999995,-0.149347,-0.7054370000000001,0.039171,0.09015299999999998,-0.710917,0.058039999999999994
131,0.0113725,0.7112,-0.011914000000000001,-0.14245249999999998,0.50435,-0.010001000000000003,-0.2504425,0.72505,-0.051222000000000004,0.1515975,0.50531,0.0009689999999999976,0.25126750000000003,0.74921,-0.039407,-0.2974925,0.92778,-0.092295,0.2898375,0.9518800000000001,-0.08248500000000002,-0.0667425,-0.0005510000000000029,-0.0019920000000000007,0.0667425,0.0005510000000000029,0.0019919999999999938,-0.1225245,-0.36158999999999997,0.01142,0.0951275,-0.36157,0.041901999999999995,-0.1494625,-0.70469,0.040258999999999996,0.0901875,-0.71007,0.059785
132,0.0117115,0.711373,-0.0111075,-0.14229350000000002,0.504863,-0.009335500000000004,-0.2508535,0.725203,-0.0491195,0.1518065,0.505823,0.0016885000000000025,0.2519465,0.749723,-0.0369045,-0.2986335,0.929653,-0.08906650000000002,0.2908265,0.950463,-0.07890649999999999,-0.0666195,-0.00040699999999999764,-0.0017925000000000024,0.0666195,0.00040699999999999764,0.0017925000000000024,-0.1228345,-0.361097,0.0137695,0.0948365,-0.361467,0.0450405,-0.1497035,-0.703257,0.0411875,0.09024650000000001,-0.708937,0.0614625
133,0.012003500000000004,0.711511,-0.010440500000000005,-0.1421945,0.505241,-0.008697500000000004,-0.25118450000000003,0.725521,-0.0477435,0.1519555,0.506331,0.002391499999999998,0.2525255,0.750231,-0.03478850000000001,-0.2996745,0.931181,-0.0864985,0.2917255,0.948821,-0.07587850000000002,-0.0665265,-0.00030000000000000165,-0.0016305,0.0665265,0.0002999999999999947,0.0016305,-0.1232325,-0.360549,0.015601499999999997,0.0945755,-0.361249,0.0474545,-0.1499845,-0.701799,0.042060499999999994,0.0903255,-0.707539,0.0629625
134,0.012271000000000004,0.7115975,-0.010156999999999992,-0.142088,0.5055275,-0.008336999999999997,-0.251248,0.7258575,-0.04711599999999999,0.152072,0.5068375,0.002907000000000007,0.252992,0.7506775,-0.033235,-0.300348,0.9322075000000001,-0.085507,0.29254199999999997,0.9468675000000001,-0.073377,-0.06645999999999999,-0.00024350000000000066,-0.001577999999999996,0.06645999999999999,0.00024350000000000066,0.001578000000000003,-0.123664,-0.3600025,0.016677000000000004,0.09440200000000001,-0.3608325,0.048614000000000004,-0.150198,-0.7003625,0.042696000000000005,0.09043200000000001,-0.7062824999999999,0.06381
135,0.012654499999999999,0.711617,-0.009861500000000002,-0.1419985,0.505727,-0.007990499999999998,-0.2514785,0.726427,-0.046875499999999994,0.1522015,0.507337,0.0033494999999999983,0.2534715,0.751097,-0.0321445,-0.30095849999999996,0.9327770000000001,-0.0853055,0.2934215,0.9448070000000001,-0.07201550000000001,-0.0663775,-0.00019500000000000073,-0.001518499999999999,0.0663775,0.0001949999999999938,0.001518499999999999,-0.12417349999999999,-0.359423,0.0176295,0.0942615,-0.360333,0.0492605,-0.1504585,-0.699013,0.0433195,0.0904915,-0.7051029999999999,0.0644955
136,0.013082000000000003,0.7115955,-0.00956350000000001,-0.14196,0.5059655000000001,-0.007677500000000004,-0.25178,0.7269655,-0.0466425,0.15232,0.5077655,0.003761499999999994,0.25394,0.7514855,-0.03184350000000001,-0.30126000000000003,0.9333155000000001,-0.08506550000000002,0.29366,0.9450255000000001,-0.07173550000000001,-0.06629499999999999,-0.00015049999999999786,-0.0014395000000000033,0.06629499999999999,0.00015049999999999786,0.0014394999999999963,-0.12465200000000001,-0.3588945,0.018361499999999992,0.09423999999999999,-0.3598845,0.04951849999999999,-0.15073,-0.6977945,0.04389149999999999,0.09054999999999999,-0.7041445,0.0648725
137,0.013548000000000001,0.7116275,-0.009251000000000002,-0.141993,0.5062774999999999,-0.007286000000000001,-0.251973,0.7272675,-0.046322999999999996,0.15238700000000002,0.5082375,0.0042099999999999985,0.25442699999999996,0.7518475,-0.031463,-0.301483,0.9339075,-0.084756,0.293917,0.9453075,-0.071376,-0.066204,-0.00011249999999999455,-0.0013989999999999975,0.066204,0.00011250000000000149,0.0013989999999999975,-0.125049,-0.3584925,0.019019,0.094317,-0.3594225,0.049862000000000004,-0.151093,-0.6965925000000001,0.044507,0.090527,-0.7032625,0.065223
138,0.013967499999999994,0.7116895000000001,-0.009063500000000009,-0.1418705,0.5065995000000001,-0.006824500000000004,-0.2523105,0.7275995000000001,-0.04640050000000001,0.1528695,0.5084995,0.004703499999999992,0.2551895,0.7521295,-0.031019500000000005,-0.3020505,0.9344095,-0.0847685,0.2947795,0.9453595,-0.0709285,-0.0661235,-9.05000000000003e-05,-0.0013625000000000026,0.0661235,9.049999999999336e-05,0.0013624999999999957,-0.1255155,-0.3580505,0.019663499999999993,0.0943895,-0.35887050000000004,0.0502445,-0.1516205,-0.6954604999999999,0.04517549999999999,0.0903495,-0.7024104999999999,0.06558349999999999
139,0.014594000000000003,0.7116684999999999,-0.008981999999999997,-0.141559,0.5068984999999999,-0.00639,-0.25282899999999997,0.7278585,-0.047042,0.15365099999999998,0.5086185,0.005259,0.25660099999999997,0.7518484999999999,-0.030598,-0.302599,0.9333184999999999,-0.08701099999999999,0.296671,0.9447185,-0.072731,-0.066059,-7.349999999999718e-05,-0.00136,0.066059,7.350000000000412e-05,0.00136,-0.125975,-0.3575215,0.020152,0.094441,-0.3583415,0.050527,-0.152249,-0.6943815,0.045825,0.090031,-0.7017015000000001,0.065963
140,0.015349999999999999,0.7116945,-0.009032499999999999,-0.141255,0.5072745,-0.005970499999999997,-0.253425,0.7256945,-0.04865749999999999,0.15468500000000002,0.5085745,0.005871500000000002,0.25953499999999996,0.7506545,-0.031106499999999995,-0.30312500000000003,0.9308945,-0.0913285,0.29993499999999995,0.9429845,-0.07600849999999999,-0.065999,-5.4499999999998994e-05,-0.0013644999999999977,0.065999,5.4499999999998994e-05,0.0013645000000000046,-0.126601,-0.3569255,0.0205145,0.09446500000000001,-0.3578155,0.0503795,-0.153015,-0.6936855,0.046193500000000005,0.089475,-0.7010055000000001,0.0663315
141,0.016244000000000005,0.7118785000000001,-0.009148999999999997,-0.140981,0.5075985000000001,-0.005543999999999993,-0.254221,0.7225585,-0.05105,0.15623900000000002,0.5086185000000001,0.006762000000000004,0.26421900000000004,0.7473585,-0.032410999999999995,-0.303381,0.9270585,-0.09829299999999999,0.304869,0.9388885,-0.08100299999999999,-0.065936,-2.7499999999999747e-05,-0.0013909999999999964,0.065936,2.7499999999999747e-05,0.0013910000000000033,-0.12750699999999998,-0.3561915,0.020890000000000002,0.094269,-0.35729150000000004,0.049835000000000004,-0.154051,-0.6927614999999999,0.046556,0.088699,-0.7001315,0.06655
142,0.017236999999999995,0.7122685,-0.009361999999999995,-0.140369,0.5076785,-0.005169999999999994,-0.255649,0.7162185,-0.054883,0.158801,0.5085185,0.007832000000000006,0.270501,0.7398085,-0.034126000000000004,-0.30357900000000004,0.9217585,-0.108183,0.311231,0.9308485,-0.08755299999999999,-0.065907,2.4499999999996747e-05,-0.0014249999999999957,0.065907,-2.4500000000003685e-05,0.0014250000000000027,-0.128676,-0.3553415,0.021258000000000003,0.093951,-0.3567015,0.048670000000000005,-0.155369,-0.6916315,0.046912,0.087621,-0.6990015,0.066494
143,0.0183665,0.7128175,-0.009774500000000005,-0.1398615,0.5076775,-0.004866500000000003,-0.2566815,0.7089975,-0.0598795,0.1613485,0.5081875,0.008560499999999999,0.27765850000000003,0.7307175,-0.033640500000000004,-0.3037415,0.9146675,-0.1212295,0.3194285,0.9197474999999999,-0.0961095,-0.0659185,9.950000000000236e-05,-0.001510500000000005,0.0659185,-9.950000000000236e-05,0.001510499999999998,-0.1299295,-0.35447249999999997,0.021464499999999994,0.0936885,-0.35608249999999997,0.046814499999999995,-0.1570415,-0.6905425000000001,0.047264499999999994,0.0862085,-0.6979025,0.0661535
144,0.019847500000000004,0.714184,-0.010478500000000002,-0.13745849999999998,0.5058440000000001,-0.0055295,-0.2588485,0.693714,-0.0642465,0.1644415,0.5078940000000001,0.009440500000000004,0.2883715,0.713224,-0.0320705,-0.3037585,0.902494,-0.1402865,0.33021150000000005,0.899964,-0.1070265,-0.06603149999999999,0.0003270000000000009,-0.0018014999999999975,0.06603149999999999,-0.0003270000000000009,0.0018015000000000045,-0.1320015,-0.352836,0.0213645,0.09275149999999999,-0.35475599999999996,0.044242500000000004,-0.1598885,-0.6884359999999999,0.047593500000000004,0.0837515,-0.6954859999999999,0.0656205
145,0.022371000000000002,0.7160255,-0.011594,-0.13583,0.5043755,-0.006391999999999995,-0.261958,0.6709655,-0.070233,0.167732,0.5072855,0.010391000000000004,0.296712,0.6881754999999999,-0.030643000000000004,-0.302138,0.8775455,-0.162773,0.341932,0.8707254999999999,-0.11645299999999999,-0.066162,0.0005604999999999985,-0.0021739999999999954,0.066162,-0.0005604999999999985,0.0021740000000000023,-0.134019,-0.35104450000000004,0.020258,0.091712,-0.3538645,0.040926000000000004,-0.163848,-0.6856045000000001,0.047792,0.080272,-0.6922845,0.064797
146,0.025335500000000004,0.7195674999999999,-0.013408500000000004,-0.1331225,0.5009275,-0.008975500000000004,-0.2669455,0.6345974999999999,-0.0758405,0.1700445,0.5044675,0.012305499999999997,0.3004945,0.6475075,-0.028311500000000003,-0.2993955,0.8328774999999999,-0.18657050000000003,0.34955450000000005,0.8207375,-0.12216049999999999,-0.0665145,0.0008955000000000005,-0.002661500000000004,0.0665145,-0.000895499999999997,0.002661499999999997,-0.1356365,-0.35013249999999996,0.014455499999999996,0.08811449999999998,-0.35053249999999997,0.0382415,-0.1707655,-0.6801125,0.0478935,0.0733945,-0.6863625,0.06477949999999999
147,0.028543499999999992,0.7231314999999999,-0.015323500000000004,-0.1312365,0.4971815,-0.011703499999999999,-0.2689685,0.5887515,-0.0775035,0.1713015,0.5015014999999999,0.014537500000000002,0.2998515,0.5990614999999999,-0.022165500000000005,-0.2953185,0.7715515,-0.2095935,0.34963150000000004,0.7515915,-0.1196235,-0.06685150000000001,0.0012094999999999988,-0.0030625000000000027,0.06685150000000001,-0.0012094999999999988,0.0030624999999999958,-0.1349155,-0.3497885,0.004338500000000002,0.08431149999999998,-0.3477685,0.035957499999999996,-0.1762285,-0.6740785,0.0467145,0.0659315,-0.6800685000000001,0.0647345
148,0.03141000000000001,0.7266330000000001,-0.017015999999999996,-0.130126,0.49314299999999994,-0.014359000000000004,-0.270386,0.539613,-0.07763,0.171624,0.49790299999999993,0.017576,0.296074,0.5466730000000001,-0.013305000000000004,-0.292096,0.7038030000000001,-0.21597000000000002,0.34600400000000003,0.675123,-0.11639000000000002,-0.06722399999999999,0.0015779999999999995,-0.0035610000000000017,0.067224,-0.0015780000000000013,0.0035610000000000017,-0.13366099999999997,-0.34941700000000003,-0.0077060000000000045,0.079484,-0.345447,0.034496,-0.181446,-0.6684169999999999,0.045833,0.05575400000000001,-0.6739269999999999,0.065533
149,0.03409100000000001,0.7301059999999999,-0.0186095,-0.129087,0.488696,-0.017188499999999995,-0.26951899999999995,0.491636,-0.0756365,0.171021,0.493636,0.020514500000000005,0.289621,0.494516,-0.004883499999999999,-0.288329,0.629076,-0.2173165,0.339721,0.591386,-0.11270649999999999,-0.06755099999999999,0.0018869999999999998,-0.0042714999999999975,0.067551,-0.0018869999999999998,0.0042715000000000045,-0.131344,-0.346144,-0.021514499999999992,0.074101,-0.343784,0.0337885,-0.184089,-0.662524,0.0420885,0.046031,-0.667644,0.0670215
150,0.03542400000000001,0.7331405,-0.020395999999999997,-0.129216,0.4840305,-0.020231,-0.266246,0.4439605,-0.07071599999999999,0.167434,0.48884049999999996,0.024395000000000007,0.277884,0.4434105,0.004837000000000001,-0.288176,0.5548204999999999,-0.210916,0.327434,0.49966049999999995,-0.107036,-0.06772399999999999,0.0021885000000000003,-0.005732000000000001,0.067724,-0.0021885,0.005732000000000001,-0.12595499999999998,-0.34229950000000003,-0.039265999999999995,0.06723400000000002,-0.3434295,0.035457,-0.18251699999999998,-0.6567995,0.035117,0.031534000000000006,-0.6622995,0.070291
151,0.037051500000000015,0.7358075000000001,-0.022795999999999997,-0.1297195,0.4794975,-0.023579000000000003,-0.2624785,0.39897750000000004,-0.0645,0.1631515,0.48384750000000004,0.027567,0.2647315,0.39602750000000003,0.014461999999999996,-0.2827585,0.4657375,-0.20365,0.3134715,0.41001750000000003,-0.09784999999999999,-0.0679115,0.0024755,-0.0072650000000000076,0.06791150000000001,-0.0024755,0.007265000000000001,-0.1184395,-0.33908249999999995,-0.05876999999999999,0.061841499999999994,-0.3451225,0.036618,-0.1746685,-0.6520625,0.027349,0.017251500000000003,-0.6563125,0.074055
152,0.038464999999999985,0.738184,-0.02520349999999999,-0.13017600000000001,0.475144,-0.027136499999999994,-0.257505,0.352804,-0.058596499999999996,0.15884500000000001,0.478834,0.03089250000000001,0.25156500000000004,0.347844,0.02337850000000001,-0.276635,0.375464,-0.19541649999999997,0.299195,0.32052400000000003,-0.08547649999999998,-0.068125,0.0027880000000000005,-0.008799499999999988,0.068125,-0.0027880000000000005,0.008799500000000002,-0.107396,-0.336646,-0.08087649999999999,0.051184999999999994,-0.345826,0.03868450000000001,-0.163719,-0.647486,0.014454500000000009,0.003244999999999984,-0.650356,0.0787665
153,0.039438,0.7395345000000001,-0.028249999999999997,-0.133211,0.4724945,-0.030060000000000003,-0.251282,0.3124645,-0.05128999999999999,0.153488,0.4733945,0.034281,0.238518,0.30623449999999997,0.033714,-0.268892,0.2839445,-0.1829,0.284868,0.2353345,-0.06706,-0.068348,0.002930500000000001,-0.010225999999999999,0.06834799999999999,-0.002930499999999999,0.010225999999999999,-0.093556,-0.3354955,-0.10472,0.042488,-0.3483855,0.043774,-0.144128,-0.6446354999999999,-0.006278000000000006,-0.011862000000000011,-0.6440855,0.083439
154,0.039357,0.7405565000000001,-0.031523999999999996,-0.134349,0.4687865,-0.03468399999999999,-0.243669,0.2789665,-0.04294400000000001,0.147717,0.46809649999999997,0.036814,0.22662700000000002,0.2716765,0.044306,-0.262903,0.2052465,-0.16230399999999998,0.27170700000000003,0.15962649999999998,-0.04727400000000001,-0.06832699999999998,0.002878500000000001,-0.011934,0.068327,-0.002878500000000001,0.011934,-0.078385,-0.33452350000000003,-0.12823400000000001,0.032966999999999996,-0.3502135,0.050357,-0.119401,-0.6432635,-0.030284000000000005,-0.027042999999999984,-0.6373534999999999,0.088966
155,0.03850500000000001,0.7395625,-0.034921999999999995,-0.13721299999999997,0.4667525,-0.03811199999999999,-0.235126,0.2596625,-0.03374200000000001,0.142555,0.46528250000000004,0.039585999999999996,0.215885,0.2527125,0.055813,-0.258569,0.1473625,-0.14046199999999998,0.261805,0.1053825,-0.02847200000000001,-0.06803499999999998,0.002667499999999998,-0.013892000000000002,0.06803500000000001,-0.0026674999999999997,0.013892000000000002,-0.06383499999999999,-0.33528749999999996,-0.14755200000000002,0.024335000000000023,-0.3529675,0.059204,-0.08377199999999999,-0.6440975,-0.061242000000000005,-0.04138499999999998,-0.6322575,0.09633
156,0.03728999999999999,0.7378175,-0.03901450000000001,-0.13991900000000002,0.4648575,-0.041584499999999996,-0.23062300000000002,0.2494475,-0.021464499999999997,0.13848,0.4618775,0.042521500000000004,0.20317000000000002,0.2410275,0.0682495,-0.256089,0.1063935,-0.11712449999999999,0.24866,0.0702405,-0.009544499999999997,-0.06770000000000001,0.0024374999999999987,-0.015984499999999985,0.06769999999999998,-0.0024374999999999987,0.0159845,-0.05150000000000002,-0.3349625,-0.1623545,0.014859999999999984,-0.3543025,0.0672845,-0.04711000000000001,-0.6453325,-0.09350449999999999,-0.05747000000000002,-0.6303825,0.1069785
157,0.03627,0.73613,-0.04394000000000001,-0.14189200000000002,0.46349,-0.04585,-0.226639,0.24309,-0.007000000000000006,0.13498,0.45969,0.044986,0.18686000000000003,0.23409,0.080914,-0.254488,0.072883,-0.09527,0.23382999999999998,0.043011,0.004979999999999998,-0.06725,0.0022770000000000012,-0.017990000000000006,0.06724999999999998,-0.0022770000000000012,0.017990000000000006,-0.03981000000000001,-0.3342,-0.17525,0.006940000000000002,-0.35419,0.075779,-0.009660000000000002,-0.64611,-0.12727999999999998,-0.07271,-0.62784,0.117337
158,0.03564999999999996,0.734123,-0.05048500000000003,-0.143812,0.46192300000000003,-0.05119500000000002,-0.22581900000000002,0.238623,0.0031049999999999967,0.13188,0.45771300000000004,0.045277999999999985,0.16865999999999998,0.227723,0.09067099999999997,-0.254678,0.049626,-0.072525,0.21588999999999997,0.023877000000000002,0.020574999999999982,-0.06704000000000002,0.0019050000000000004,-0.01960500000000001,0.06703999999999999,-0.001904999999999997,0.019604999999999984,-0.02965000000000001,-0.330057,-0.187085,-0.0022400000000000198,-0.352327,0.08473299999999998,0.025169999999999998,-0.646567,-0.156725,-0.08973,-0.6255069999999999,0.129877
159,0.03505,0.732678,-0.05662500000000001,-0.146174,0.460718,-0.055785,-0.22870200000000002,0.235128,0.006544999999999995,0.13022999999999998,0.45623800000000003,0.045445,0.15743,0.222048,0.094528,-0.252742,0.027627000000000002,-0.054925,0.20109000000000002,0.015849000000000002,0.03719499999999999,-0.06708,0.0016579999999999998,-0.020364999999999994,0.06708,-0.0016579999999999998,0.020364999999999994,-0.022290000000000004,-0.325192,-0.195085,-0.010270000000000001,-0.349972,0.092554,0.05373999999999998,-0.647902,-0.180595,-0.10602,-0.621962,0.142511
160,0.03438000000000002,0.7310935,-0.062329999999999997,-0.14866000000000001,0.4594935,-0.05973999999999999,-0.23108,0.23254350000000001,0.009570000000000023,0.12882,0.4556435,0.04596,0.14916000000000001,0.2172135,0.09649100000000001,-0.256619,0.0223225,-0.03484999999999999,0.18853999999999999,0.0099075,0.05650000000000001,-0.06706999999999999,0.001236499999999998,-0.02110999999999999,0.06707000000000002,-0.0012365000000000015,0.021110000000000018,-0.01680999999999999,-0.3208865,-0.20078999999999997,-0.021190000000000014,-0.3483665,0.10191900000000001,0.07579000000000002,-0.6493065,-0.20134999999999997,-0.12361,-0.6180965,0.157398
161,0.03333999999999998,0.7291749999999999,-0.06702,-0.1513,0.457915,-0.06282000000000001,-0.234734,0.233155,0.012660000000000005,0.12743,0.455395,0.045890000000000014,0.14321,0.215555,0.09868,-0.26121300000000003,0.018952999999999998,-0.012509999999999993,0.17856,0.008139999999999998,0.07411000000000001,-0.06750999999999999,0.0007929999999999986,-0.020919999999999994,0.06751000000000001,-0.000793000000000002,0.020919999999999994,-0.013909999999999978,-0.317745,-0.20343999999999998,-0.032789999999999986,-0.347285,0.110725,0.09316000000000002,-0.6499750000000001,-0.21406,-0.14139,-0.616465,0.172796
162,0.03264,0.728068,-0.07125499999999999,-0.15259,0.457088,-0.06576499999999999,-0.23709000000000002,0.234118,0.009285000000000015,0.12652999999999998,0.455828,0.04539500000000002,0.14268999999999998,0.21651800000000002,0.09974500000000001,-0.267192,0.019916000000000003,0.010245000000000004,0.17806,0.009103000000000003,0.08077500000000001,-0.06742000000000001,0.0009430000000000029,-0.021315,0.06741999999999998,-0.0009429999999999994,0.021315,-0.01307999999999998,-0.315072,-0.203535,-0.04239999999999999,-0.347322,0.11793500000000001,0.10153000000000001,-0.651542,-0.216685,-0.15739,-0.612982,0.19007000000000002
163,0.031435000000000046,0.7268955,-0.07412500000000002,-0.15508499999999997,0.4572255,-0.06686499999999998,-0.23892599999999997,0.2342555,0.0036750000000000116,0.12679500000000005,0.4558555,0.045924999999999994,0.144295,0.2166555,0.10045499999999999,-0.27160399999999996,0.020053500000000002,0.013344999999999996,0.180415,0.009240500000000002,0.08371500000000001,-0.06780499999999995,0.0010805000000000016,-0.020815,0.067805,-0.0010804999999999981,0.020815,-0.013684999999999947,-0.31339449999999996,-0.201445,-0.04968499999999998,-0.34636449999999996,0.123205,0.10384500000000002,-0.6515545,-0.213475,-0.17162499999999997,-0.6085745,0.211724
164,0.031259999999999954,0.7267355,-0.07629999999999998,-0.15642000000000003,0.4572255,-0.06708000000000003,-0.23959000000000003,0.2342555,-0.004390000000000005,0.12778999999999996,0.4558555,0.046249999999999986,0.14784999999999998,0.2166555,0.10061,-0.27410900000000005,0.020053500000000002,0.005740000000000023,0.18663999999999992,0.009240500000000002,0.08137,-0.06820000000000004,0.0010805000000000016,-0.01973999999999998,0.06819999999999998,-0.0010804999999999981,0.019740000000000008,-0.014290000000000025,-0.3142945,-0.19622,-0.05417000000000005,-0.3449445,0.12513,0.09687999999999997,-0.6515545,-0.20084000000000002,-0.18549000000000004,-0.6064745,0.226864
165,0.031700000000000006,0.726763,-0.07752500000000001,-0.15642999999999999,0.457463,-0.06766499999999998,-0.239,0.23707299999999998,-0.014834999999999987,0.12918000000000002,0.456093,0.046595,0.15216999999999997,0.217333,0.100435,-0.273457,0.026825,-0.010704999999999965,0.19371,0.012639000000000004,0.07433500000000001,-0.06828000000000001,0.0008430000000000035,-0.019214999999999982,0.06828000000000001,-0.0008429999999999965,0.019214999999999982,-0.014670000000000016,-0.315527,-0.19027499999999997,-0.059620000000000006,-0.343257,0.126695,0.08633000000000002,-0.651317,-0.18388499999999997,-0.19133,-0.600787,0.236411
166,0.030764999999999987,0.7262059999999999,-0.079455,-0.158275,0.458196,-0.06921499999999997,-0.241085,0.24249600000000002,-0.029034999999999977,0.13050499999999998,0.456446,0.047485,0.155045,0.221176,0.09903500000000001,-0.270535,0.034872,-0.03933500000000001,0.199245,0.019639000000000004,0.06392500000000001,-0.068185,0.0005140000000000006,-0.01846500000000001,0.068185,-0.0005140000000000006,0.01846500000000001,-0.014064999999999994,-0.316864,-0.18088500000000002,-0.06300500000000003,-0.34116399999999997,0.127825,0.06906499999999999,-0.6512840000000001,-0.16241499999999998,-0.195385,-0.6058640000000001,0.239511
167,0.029069999999999985,0.724859,-0.07926500000000003,-0.15968000000000002,0.459859,-0.06976500000000002,-0.24244000000000002,0.24826900000000002,-0.04083500000000001,0.13168999999999997,0.456779,0.05130499999999999,0.15684999999999993,0.22584900000000002,0.09866499999999997,-0.26469000000000004,0.044821,-0.07143500000000003,0.20314,0.026999000000000002,0.053824999999999956,-0.06769000000000003,0.0003939999999999985,-0.018135000000000012,0.06768999999999997,-0.0003939999999999985,0.018134999999999957,-0.013700000000000045,-0.318441,-0.171655,-0.05953000000000003,-0.33980099999999996,0.128655,0.05085999999999996,-0.650671,-0.141785,-0.19150000000000003,-0.607451,0.23316499999999998
168,0.029085000000000027,0.723576,-0.07851999999999998,-0.158825,0.461306,-0.07073000000000002,-0.24043499999999998,0.254026,-0.052549999999999986,0.134355,0.458276,0.05593999999999999,0.15869500000000003,0.23136600000000002,0.09956999999999999,-0.255675,0.056459,-0.10288999999999998,0.206785,0.037149,0.042159999999999975,-0.06656499999999999,0.0003170000000000048,-0.01854,0.06656500000000004,-0.00031699999999999784,0.01854,-0.017405000000000004,-0.32179399999999997,-0.15930999999999995,-0.049485,-0.338214,0.13104,0.030895000000000006,-0.650414,-0.11862,-0.17945499999999998,-0.6093139999999999,0.22780999999999998
169,0.02950999999999998,0.7229865,-0.07768000000000003,-0.15739000000000003,0.4629565,-0.07196000000000002,-0.23866000000000004,0.2586265,-0.06331999999999999,0.13654999999999995,0.45810649999999997,0.05919000000000002,0.16015000000000001,0.2355565,0.10046,-0.24220000000000005,0.0688245,-0.13388000000000005,0.21009999999999995,0.050735499999999996,0.028449999999999975,-0.06540000000000001,0.00035049999999999665,-0.01927000000000001,0.06540000000000001,-0.0003505000000000036,0.01927000000000001,-0.022710000000000063,-0.3263335,-0.14509999999999995,-0.026110000000000022,-0.3365135,0.10976999999999998,0.011519999999999975,-0.6502935,-0.09522000000000003,-0.14936000000000005,-0.6105735,0.20321
170,0.03069000000000005,0.7228765,-0.07772499999999999,-0.15591,0.4648865,-0.073345,-0.23643,0.2626365,-0.07415500000000003,0.13857000000000003,0.4587765,0.06253500000000001,0.16131,0.2413165,0.10178500000000001,-0.22810000000000002,0.0786495,-0.16208499999999998,0.21288999999999997,0.06536049999999999,0.014344999999999997,-0.06441000000000002,0.00035049999999999665,-0.02005499999999999,0.06441000000000002,-0.0003505000000000036,0.02005499999999999,-0.030409999999999993,-0.32953350000000003,-0.12952500000000006,-0.0012300000000000089,-0.3341635,0.087505,-0.00764999999999999,-0.6496335,-0.07305499999999998,-0.11073,-0.6128335,0.171135
