sb224sc-HT22-VT27/4dt907/src/data/kinect_good_vs_bad_not_preprocessed_A13_mediapipe/G35.csv
FrameNo,nose_3d_x,nose_3d_y,nose_3d_z,left_shoulder_3d_x,left_shoulder_3d_y,left_shoulder_3d_z,left_elbow_3d_x,left_elbow_3d_y,left_elbow_3d_z,right_shoulder_3d_x,right_shoulder_3d_y,right_shoulder_3d_z,right_elbow_3d_x,right_elbow_3d_y,right_elbow_3d_z,left_wrist_3d_x,left_wrist_3d_y,left_wrist_3d_z,right_wrist_3d_x,right_wrist_3d_y,right_wrist_3d_z,left_hip_3d_x,left_hip_3d_y,left_hip_3d_z,right_hip_3d_x,right_hip_3d_y,right_hip_3d_z,left_knee_3d_x,left_knee_3d_y,left_knee_3d_z,right_knee_3d_x,right_knee_3d_y,right_knee_3d_z,left_ankle_3d_x,left_ankle_3d_y,left_ankle_3d_z,right_ankle_3d_x,right_ankle_3d_y,right_ankle_3d_z
0,0.0168055,0.7468525,-0.024792,-0.1491625,0.46602249999999995,0.005822999999999998,-0.1688325,0.1971525,0.038191,0.1647775,0.4714325,0.026381,0.21885749999999998,0.2419625,0.070967,-0.2000025,-0.005995499999999999,-0.005769000000000003,0.24920749999999997,0.0106425,0.028961,-0.0692255,0.0007795000000000002,0.0016530000000000017,0.0692255,-0.0007794999999999998,-0.0016530000000000017,-0.1141025,-0.33365750000000005,-0.030746999999999997,0.1077575,-0.31809750000000003,0.038238,-0.1415325,-0.6531175,0.008691,0.09851750000000001,-0.6244175000000001,0.054535
1,0.020033500000000003,0.7473590000000001,-0.024144500000000006,-0.1464755,0.465519,0.005982499999999995,-0.1692855,0.197519,0.0394555,0.1661645,0.472039,0.024455499999999998,0.22224449999999998,0.244559,0.0681875,-0.2006255,-0.005689999999999999,-0.003975500000000007,0.25489449999999997,0.010847,0.0243935,-0.0693755,0.0008010000000000005,0.002491499999999997,0.0693755,-0.0008009999999999996,-0.0024915000000000007,-0.11526549999999999,-0.328071,-0.023491500000000005,0.10946449999999999,-0.317261,0.0375755,-0.1408355,-0.650631,0.007037499999999995,0.0978145,-0.6286109999999999,0.0515925
2,0.021122000000000002,0.7472305,-0.0239595,-0.14935199999999998,0.4660205,0.0037934999999999983,-0.17893199999999998,0.2379605,0.0340735,0.167448,0.4725505,0.0241725,0.223138,0.2439705,0.0670875,-0.192042,0.0261885,0.005469499999999999,0.25639799999999996,0.010644500000000001,0.0233955,-0.06937499999999999,0.0008195000000000003,0.0023134999999999996,0.06937499999999999,-0.0008194999999999999,-0.002313500000000003,-0.116312,-0.3267395,-0.020178500000000002,0.110008,-0.3171495,0.0363535,-0.140452,-0.6505694999999999,0.007058499999999999,0.10005800000000001,-0.6240494999999999,0.0513915
3,0.023220499999999995,0.7478655000000001,-0.023690500000000003,-0.1502005,0.46566549999999995,0.004871499999999997,-0.1723305,0.2044955,0.044026499999999996,0.1618495,0.4719755,0.0248695,0.22507950000000002,0.24345550000000002,0.0653035,-0.2005805,-0.0004314999999999996,0.0093115,0.2585795,0.010016500000000001,0.0209765,-0.06949849999999999,0.0008555000000000004,0.0023714999999999986,0.06949849999999999,-0.0008554999999999995,-0.0023714999999999986,-0.11845050000000001,-0.32474450000000005,-0.013303500000000003,0.11131949999999999,-0.31757450000000004,0.0346125,-0.14079049999999999,-0.6501545,0.008567499999999999,0.1014795,-0.6246244999999999,0.0492475
4,0.024416,0.748019,-0.024134500000000003,-0.15565400000000001,0.46508900000000003,0.0026055,-0.180444,0.223769,0.0389865,0.15759599999999999,0.47153900000000004,0.0250755,0.225636,0.243549,0.0652865,-0.197014,0.016961,0.0080525,0.259186,0.010461999999999999,0.0222605,-0.069572,0.0007440000000000003,0.0022945000000000014,0.069572,-0.0007439999999999999,-0.002294499999999998,-0.12023400000000001,-0.321841,-0.010422500000000001,0.112426,-0.317361,0.0337505,-0.142344,-0.6382610000000001,0.0108555,0.101886,-0.629901,0.047425499999999995
5,0.024474,0.748527,-0.022873499999999998,-0.154089,0.464587,0.0037675000000000035,-0.177949,0.206337,0.0415595,0.160041,0.47152700000000003,0.024877500000000004,0.225341,0.24242699999999998,0.0655175,-0.200339,0.0016439999999999996,-0.0005734999999999976,0.25839100000000004,0.010124999999999999,0.022167500000000003,-0.069708,0.0007419999999999996,0.0022785000000000027,0.069708,-0.0007420000000000005,-0.0022784999999999993,-0.120959,-0.32065299999999997,-0.0091245,0.112901,-0.316893,0.0332845,-0.142229,-0.640163,0.011635500000000003,0.102001,-0.631693,0.046483500000000004
6,0.0256845,0.7491955,-0.022645000000000002,-0.15122750000000001,0.46461549999999996,0.0035829999999999994,-0.1824075,0.2273455,0.035369,0.1629425,0.4718755,0.024331000000000002,0.22586250000000002,0.24184550000000002,0.064654,-0.1974075,0.0127725,-0.0007059999999999983,0.2561025,0.010658500000000001,0.02252,-0.0697865,0.0009045000000000004,0.002456,0.0697865,-0.0009044999999999999,-0.002456,-0.1206375,-0.3190845,-0.008305999999999997,0.1140925,-0.31624450000000004,0.032582,-0.14179750000000002,-0.6308045,0.012004,0.1036425,-0.6318245,0.045770000000000005
7,0.025168499999999996,0.749644,-0.022670499999999996,-0.15061750000000002,0.465244,0.004483500000000001,-0.1781075,0.206254,0.0376615,0.1644325,0.47105400000000003,0.0242465,0.2216025,0.239324,0.0652545,-0.19704750000000001,0.0010290000000000004,-0.008559499999999998,0.2487525,0.010388000000000001,0.0235745,-0.0694405,0.0010420000000000004,0.0015165000000000005,0.0694405,-0.0010419999999999995,-0.001516499999999997,-0.12045750000000001,-0.318876,-0.008350499999999997,0.1128725,-0.316046,0.0331325,-0.1406075,-0.636626,0.0101265,0.1034385,-0.631186,0.0463075
8,0.026085000000000004,0.750011,-0.022316999999999997,-0.150337,0.465271,0.004137000000000002,-0.17782699999999999,0.20659100000000002,0.037316,0.165153,0.47086100000000003,0.024251,0.220533,0.238381,0.06540699999999999,-0.196677,0.001176,-0.009492,0.246513,0.010117000000000001,0.023777,-0.069425,0.001092,0.0012099999999999993,0.069425,-0.001092,-0.0012099999999999993,-0.12070700000000001,-0.317959,-0.007579000000000002,0.113203,-0.31576899999999997,0.03305,-0.139967,-0.636479,0.010114999999999999,0.104468,-0.6310290000000001,0.046310000000000004
9,0.0262965,0.750356,-0.021994,-0.14969649999999998,0.465286,0.003940999999999997,-0.1775565,0.208116,0.036773,0.16549350000000002,0.470596,0.024248,0.2178535,0.235436,0.065381,-0.19673649999999998,0.0028220000000000003,-0.010976,0.2429135,0.009699,0.023837999999999998,-0.06940950000000001,0.0011359999999999999,0.0009419999999999984,0.06940950000000001,-0.0011359999999999999,-0.0009420000000000019,-0.12077649999999998,-0.317374,-0.007114000000000002,0.1130835,-0.315484,0.032998,-0.13934649999999998,-0.634654,0.010107999999999995,0.1054785,-0.630364,0.046472
10,0.026186000000000004,0.750753,-0.021915499999999997,-0.149243,0.465403,0.003775500000000001,-0.177963,0.207473,0.0360235,0.165767,0.470383,0.0242615,0.215127,0.232653,0.0652775,-0.197073,0.0028250000000000003,-0.013419500000000001,0.239007,0.009295000000000001,0.0237295,-0.06939000000000001,0.001163,0.0007265000000000015,0.06939000000000001,-0.001163,-0.0007265000000000015,-0.120783,-0.316867,-0.006811499999999998,0.112877,-0.315187,0.0329535,-0.138773,-0.6339870000000001,0.0099945,0.106432,-0.630177,0.046559500000000004
11,0.025839499999999998,0.751122,-0.021987,-0.1494265,0.465482,0.0035129999999999988,-0.1784465,0.207502,0.03412,0.1654735,0.47011200000000003,0.024167,0.2123235,0.229882,0.06500700000000001,-0.1975865,0.0028719999999999996,-0.015993,0.2352335,0.008872,0.023363000000000002,-0.0693955,0.0011749999999999998,0.0005749999999999991,0.0693955,-0.0011750000000000007,-0.0005749999999999991,-0.1208465,-0.31646799999999997,-0.006644999999999998,0.1124835,-0.314918,0.032868,-0.1382565,-0.633568,0.009902000000000001,0.1073195,-0.6290680000000001,0.046748
12,0.025223499999999996,0.7515125,-0.021979,-0.1497965,0.4655625,0.003425000000000001,-0.1792365,0.2057825,0.032295000000000004,0.1652035,0.4698525,0.02426,0.2094235,0.22724250000000001,0.064738,-0.1982065,0.0012175000000000007,-0.018686999999999995,0.2317235,0.0083595,0.023102,-0.0694465,0.0011715000000000007,0.0005080000000000015,0.0694465,-0.0011714999999999998,-0.000507999999999998,-0.1209865,-0.3161875,-0.006469999999999997,0.1120035,-0.3146675,0.032876,-0.1375165,-0.6335375,0.010110000000000001,0.1080125,-0.6273074999999999,0.047222
13,0.024423,0.751841,-0.021924000000000003,-0.15035600000000002,0.465611,0.003189000000000001,-0.180156,0.205151,0.030234,0.16464399999999998,0.46968099999999996,0.024342,0.206664,0.225431,0.064569,-0.198926,0.0005130000000000004,-0.021014,0.228514,0.007817000000000001,0.022882,-0.069493,0.0011450000000000002,0.0003559999999999987,0.069493,-0.0011449999999999993,-0.0003559999999999987,-0.12121600000000002,-0.31594900000000004,-0.006322999999999999,0.111564,-0.31439900000000004,0.032973,-0.13689600000000002,-0.633449,0.010303,0.10858699999999999,-0.625309,0.047839
14,0.023550500000000002,0.7521654999999999,-0.021746500000000002,-0.1509935,0.4656455,0.0029355000000000006,-0.1810435,0.20371550000000002,0.028632499999999998,0.1639065,0.46957550000000003,0.0245035,0.2042265,0.22388550000000002,0.0645685,-0.19968349999999999,-0.0009764999999999999,-0.0231885,0.2254365,0.007157500000000001,0.0228085,-0.0695375,0.0011135,7.350000000000065e-05,0.0695375,-0.0011135,-7.350000000000065e-05,-0.12147349999999998,-0.31567449999999997,-0.006075499999999998,0.1111565,-0.3141245,0.0332035,-0.1365935,-0.6345145000000001,0.010353499999999998,0.1090765,-0.6231345,0.048466499999999996
15,0.022592499999999998,0.752462,-0.0214355,-0.1516595,0.465712,0.002377500000000001,-0.1819695,0.20281200000000002,0.0266535,0.1629505,0.469542,0.024758500000000003,0.2020305,0.222562,0.0645925,-0.2004495,-0.0018780000000000003,-0.0254955,0.2232005,0.007029,0.022974500000000002,-0.0695645,0.0010629999999999997,-0.00027749999999999997,0.0695645,-0.0010630000000000006,0.00027749999999999997,-0.12169949999999999,-0.315378,-0.0056805000000000015,0.11085249999999999,-0.31385799999999997,0.0335895,-0.1359395,-0.638178,0.010630500000000001,0.1096045,-0.620908,0.049211500000000005
16,0.021708,0.752772,-0.021054000000000003,-0.152428,0.465862,0.0018149999999999972,-0.18280800000000003,0.202092,0.024938999999999996,0.162012,0.469532,0.025244999999999997,0.20023200000000002,0.221442,0.06432399999999999,-0.20083800000000002,-0.0025660000000000006,-0.027805000000000003,0.221312,0.0066229999999999995,0.022843999999999996,-0.069563,0.0010119999999999999,-0.0006300000000000021,0.069563,-0.0010120000000000007,0.0006299999999999986,-0.12191800000000001,-0.31502800000000003,-0.005060000000000002,0.110684,-0.313618,0.034114,-0.13512800000000003,-0.641918,0.011220999999999998,0.110729,-0.6182679999999999,0.049804
17,0.0208705,0.7530469999999999,-0.020645500000000004,-0.1532345,0.465967,0.001302499999999998,-0.1835745,0.201357,0.0234195,0.1611555,0.469517,0.0256015,0.1989255,0.220497,0.0639915,-0.2012145,-0.003703999999999999,-0.029540500000000004,0.2199155,0.0063360000000000005,0.0226605,-0.0695355,0.0009600000000000008,-0.0008975000000000025,0.0695355,-0.0009599999999999999,0.000897499999999999,-0.12213450000000001,-0.314673,-0.0042765000000000025,0.1105675,-0.313333,0.0346915,-0.1345345,-0.643923,0.012042499999999998,0.1111285,-0.617363,0.0504815
18,0.020227500000000002,0.7533685,-0.020181499999999998,-0.1538165,0.4661185,0.0010595000000000014,-0.1841465,0.2006785,0.0222855,0.16114350000000002,0.46953849999999997,0.0260085,0.1988735,0.2206485,0.06347549999999999,-0.20081649999999998,-0.0046945,-0.031053499999999998,0.2192635,0.0060735,0.0223235,-0.06948850000000001,0.0009185,-0.001077500000000002,0.06948850000000001,-0.0009185,0.0010774999999999986,-0.1222265,-0.3142415,-0.0032514999999999974,0.1106415,-0.3128715,0.0353725,-0.1336665,-0.6466215,0.013048500000000001,0.1122875,-0.6149215,0.0513015
19,0.019725,0.753632,-0.0195455,-0.154217,0.466312,0.0011024999999999993,-0.183987,0.20009200000000002,0.022530499999999995,0.16120299999999999,0.469542,0.026327499999999997,0.198953,0.220802,0.0627935,-0.199877,-0.0044069999999999995,-0.0319545,0.218783,0.005857,0.021891499999999998,-0.06942899999999999,0.0008720000000000004,-0.0012305000000000024,0.06942899999999999,-0.0008719999999999995,0.0012304999999999955,-0.122277,-0.313818,-0.0020415000000000016,0.11080599999999999,-0.312378,0.036060499999999995,-0.132557,-0.6497980000000001,0.014387499999999998,0.113396,-0.6127480000000001,0.0527485
20,0.019320999999999998,0.7539365,-0.018675000000000004,-0.15421400000000002,0.4665065,0.0017350000000000004,-0.183384,0.1995765,0.022652,0.16160599999999997,0.4696465,0.026757999999999997,0.199156,0.22101649999999998,0.062,-0.198754,-0.0041925,-0.034173,0.21832600000000002,0.005552499999999999,0.02131,-0.069366,0.0008144999999999993,-0.0014009999999999995,0.069366,-0.0008145000000000001,0.0014009999999999995,-0.122294,-0.31337349999999997,-0.0006700000000000039,0.111053,-0.31186349999999996,0.036895,-0.131594,-0.6529735000000001,0.015986,0.114273,-0.6122435,0.05407
21,0.019024000000000003,0.7542040000000001,-0.017701,-0.154206,0.466684,0.002574,-0.182636,0.20094399999999998,0.023194999999999997,0.162054,0.469704,0.027073999999999997,0.199414,0.222044,0.060785,-0.197676,-0.0030100000000000005,-0.037056000000000006,0.217954,0.005161000000000001,0.020766999999999997,-0.069313,0.0007650000000000001,-0.0016260000000000024,0.069313,-0.0007650000000000001,0.0016259999999999955,-0.12226599999999999,-0.313046,0.0008149999999999963,0.111281,-0.311276,0.03766,-0.130586,-0.656176,0.017693999999999998,0.115104,-0.6117959999999999,0.055861999999999995
22,0.018730999999999998,0.754472,-0.0166535,-0.154266,0.466862,0.0035385,-0.181826,0.20116199999999998,0.023635500000000004,0.162494,0.469762,0.0273165,0.200484,0.223022,0.059467500000000006,-0.196886,-0.002792000000000001,-0.0396945,0.218914,0.005379,0.0204095,-0.06923,0.0007159999999999996,-0.001747499999999999,0.06923,-0.0007160000000000005,0.001747499999999999,-0.122186,-0.312648,0.0023654999999999995,0.111497,-0.310708,0.0384505,-0.12961599999999998,-0.659348,0.0195425,0.11583399999999999,-0.6114080000000001,0.0577005
23,0.0184195,0.7547365,-0.015493499999999993,-0.1543695,0.4670465,0.0046165000000000025,-0.18102949999999998,0.2026165,0.023741500000000006,0.1628605,0.4698065,0.027571500000000006,0.2015505,0.2241165,0.05809550000000001,-0.19673949999999998,-0.0003635000000000001,-0.04091149999999999,0.2199005,0.0055934999999999995,0.019787500000000003,-0.0691515,0.0006655000000000003,-0.0017844999999999944,0.0691515,-0.0006655000000000003,0.0017845000000000014,-0.12211949999999999,-0.3123035,0.003957500000000003,0.1117235,-0.3101835,0.0393435,-0.1288595,-0.6597735,0.021677500000000006,0.11656050000000001,-0.6111935000000001,0.0593635
24,0.0181525,0.754992,-0.014296500000000004,-0.1544315,0.467282,0.005934499999999995,-0.18119149999999998,0.203272,0.022794499999999995,0.1633685,0.46994199999999997,0.027713499999999995,0.2025385,0.225212,0.05670649999999999,-0.19674149999999999,0.00023700000000000023,-0.04270750000000001,0.22083850000000002,0.005809,0.018781499999999996,-0.0690825,0.0006290000000000002,-0.0017255000000000048,0.0690825,-0.0006290000000000002,0.0017254999999999979,-0.1221115,-0.31197800000000003,0.0054535,0.1118945,-0.30964800000000003,0.040243499999999995,-0.12791149999999998,-0.662798,0.023708499999999997,0.1171985,-0.611108,0.06099449999999999
25,0.017845999999999997,0.7552855,-0.013040500000000003,-0.154254,0.4675355,0.0071874999999999994,-0.182884,0.2049455,0.020018499999999998,0.163346,0.4701555,0.0273115,0.203636,0.2277255,0.0535575,-0.201184,0.0033365,-0.0476535,0.223486,0.0098115,0.0141535,-0.069057,0.0005424999999999996,-0.0016525000000000012,0.069057,-0.0005424999999999996,0.0016525000000000012,-0.12215399999999998,-0.3116345,0.006915499999999998,0.111912,-0.3091245,0.0410485,-0.127214,-0.6644445,0.025613499999999997,0.117706,-0.6111044999999999,0.0625245
26,0.017455,0.7554909999999999,-0.011623500000000002,-0.154096,0.467791,0.0082365,-0.186276,0.209341,0.0157175,0.163154,0.470351,0.0269645,0.20638399999999998,0.232081,0.0486435,-0.20888600000000002,0.011030000000000002,-0.057212500000000006,0.228854,0.016339,0.0066294999999999965,-0.069065,0.0004330000000000011,-0.0016434999999999991,0.069065,-0.00043299999999999936,0.0016434999999999991,-0.122256,-0.311369,0.0082005,0.111788,-0.30865899999999996,0.0416845,-0.126756,-0.665319,0.027279499999999998,0.117814,-0.6114090000000001,0.0638035
27,0.0169155,0.7555605,-0.010293000000000004,-0.1539105,0.4679105,0.008985999999999994,-0.1918105,0.21731050000000002,0.009583999999999995,0.1627495,0.4704205,0.026452999999999997,0.21046949999999998,0.23754050000000002,0.042556,-0.22127049999999998,0.0232635,-0.06901700000000001,0.2381795,0.0253565,-0.003973000000000004,-0.0691185,0.000363500000000001,-0.001695000000000002,0.0691185,-0.00036349999999999924,0.0016949999999999951,-0.12243050000000001,-0.3112295,0.009262999999999993,0.1114645,-0.3083795,0.04208099999999999,-0.12667050000000002,-0.6652795,0.028539999999999996,0.1176595,-0.6122995,0.064753
28,0.0163505,0.7555805,-0.009348499999999996,-0.1537955,0.4680605,0.009219499999999999,-0.19945549999999998,0.22669050000000002,0.0016515000000000002,0.1622045,0.4704205,0.026069500000000002,0.2163345,0.24384050000000002,0.0351485,-0.2356755,0.04095650000000001,-0.0872155,0.2543745,0.0351025,-0.0231945,-0.0691925,0.000363500000000001,-0.001735500000000001,0.0691925,-0.00036349999999999924,0.001735500000000001,-0.1225855,-0.3111395,0.010103500000000001,0.1110855,-0.3081995,0.0422885,-0.1266455,-0.6650895,0.0295405,0.1173975,-0.6134795,0.0653325
29,0.015805,0.7556405,-0.008857999999999998,-0.153719,0.4682605,0.009158,-0.21026899999999998,0.2390805,-0.008882000000000001,0.161671,0.4706805,0.025449,0.224571,0.2519605,0.026342,-0.255569,0.0650355,-0.10791199999999998,0.273061,0.0534135,-0.042672999999999996,-0.06926299999999999,0.000363500000000001,-0.001583000000000001,0.06926299999999999,-0.00036349999999999924,0.001583000000000001,-0.12265899999999999,-0.3110495,0.010647999999999998,0.11071600000000001,-0.30803949999999997,0.04225,-0.126579,-0.6653695,0.03012,0.117112,-0.6149495,0.065678
30,0.015240999999999998,0.7557195,-0.008000499999999994,-0.153623,0.4689595,0.008843500000000004,-0.224803,0.2605895,-0.024528499999999995,0.161317,0.4714695,0.024719500000000005,0.237707,0.2672495,0.013445500000000006,-0.279873,0.1028385,-0.13542749999999998,0.298157,0.0854655,-0.0692175,-0.069309,0.00030249999999999895,-0.0013134999999999952,0.069309,-0.0003025000000000007,0.0013135000000000022,-0.122663,-0.3108905,0.010922500000000002,0.110361,-0.3079405,0.04222650000000001,-0.126643,-0.6655605,0.030387500000000005,0.116792,-0.6161905,0.0658705
31,0.014754500000000002,0.755769,-0.006790999999999998,-0.15363349999999998,0.469649,0.008291,-0.24016349999999997,0.28472899999999995,-0.040267000000000004,0.1611765,0.472639,0.023996,0.2521665,0.285609,0.0006309999999999996,-0.3049435,0.14932900000000002,-0.163699,0.3251565,0.125869,-0.09723900000000002,-0.0693285,0.00019599999999999913,-0.0012199999999999989,0.0693285,-0.000196,0.0012199999999999989,-0.12263349999999999,-0.310751,0.011020999999999996,0.11006350000000001,-0.307921,0.042147,-0.12670350000000002,-0.665571,0.030476,0.1164985,-0.617311,0.06593199999999999
32,0.014361000000000004,0.75563,-0.005229500000000005,-0.153707,0.47065999999999997,0.007682499999999995,-0.256187,0.31362,-0.0558535,0.16128299999999998,0.47361,0.0234155,0.26871300000000004,0.30911,-0.011963500000000002,-0.330617,0.20373,-0.1939635,0.35291300000000003,0.17007999999999998,-0.12749349999999998,-0.069325,0.00015499999999999976,-0.0012195000000000053,0.069325,-0.00015499999999999976,0.0012194999999999984,-0.12258699999999999,-0.31094,0.011060499999999994,0.10978900000000001,-0.30814,0.0420585,-0.126667,-0.66598,0.0305655,0.11627000000000001,-0.61839,0.0659055
33,0.013953499999999999,0.7553099999999999,-0.0033655000000000004,-0.1538245,0.47178000000000003,0.007052499999999996,-0.2714745,0.34537,-0.0695695,0.1613655,0.4746,0.0228025,0.2854655,0.33661,-0.024330500000000005,-0.3534145,0.26392000000000004,-0.22012949999999998,0.3804055,0.227,-0.15545950000000003,-0.06933249999999999,0.00013399999999999957,-0.0011935000000000001,0.06933249999999999,-0.00013400000000000044,0.0011935000000000001,-0.1225745,-0.31122,0.0111645,0.1094765,-0.30854,0.0419955,-0.1266645,-0.66661,0.0306225,0.11597949999999999,-0.6198100000000001,0.0658455
34,0.013521999999999996,0.7548545,-0.001340999999999995,-0.15396200000000002,0.47315450000000003,0.006512000000000004,-0.283892,0.3778945,-0.081748,0.16135799999999997,0.4756145,0.022367000000000005,0.301278,0.3682245,-0.03522099999999999,-0.370952,0.32868450000000005,-0.242128,0.402858,0.2875645,-0.17758799999999997,-0.06939,0.00010649999999999982,-0.0010869999999999977,0.06939,-0.00010649999999999982,0.0010870000000000046,-0.12253199999999999,-0.31158549999999996,0.011263000000000002,0.1092,-0.3090755,0.041851000000000006,-0.126842,-0.6674055,0.030607000000000006,0.115626,-0.6215755,0.065751
35,0.013119499999999997,0.754145,0.0007339999999999985,-0.1537365,0.474875,0.005764999999999999,-0.2937165,0.413165,-0.089951,0.1616735,0.477015,0.021807999999999998,0.3126135,0.399845,-0.042299,-0.3803765,0.39620500000000003,-0.251941,0.4186935,0.352685,-0.193401,-0.0694765,8.799999999999954e-05,-0.0009559999999999985,0.0694765,-8.80000000000004e-05,0.0009559999999999985,-0.12236649999999999,-0.312095,0.011209999999999998,0.1089255,-0.309795,0.041582999999999995,-0.1268665,-0.668345,0.030494999999999998,0.1154455,-0.623385,0.065562
36,0.012757000000000004,0.7530819999999999,0.002607999999999999,-0.15346900000000002,0.47661200000000004,0.004623999999999996,-0.29906900000000003,0.44770200000000004,-0.095619,0.162431,0.478642,0.021060999999999996,0.31977099999999997,0.432912,-0.04751000000000001,-0.383879,0.46478200000000003,-0.256919,0.425041,0.421812,-0.19970900000000003,-0.069552,9.000000000000024e-05,-0.001017000000000004,0.069552,-8.99999999999998e-05,0.001016999999999997,-0.12208899999999999,-0.312938,0.010969999999999994,0.10873300000000001,-0.310868,0.041096999999999995,-0.126859,-0.6694180000000001,0.029989999999999996,0.115381,-0.624838,0.065176
37,0.012428999999999997,0.751892,0.004192499999999995,-0.15313100000000002,0.478192,0.0034844999999999945,-0.301731,0.485172,-0.09913350000000001,0.163659,0.48049200000000003,0.020363499999999996,0.324059,0.469092,-0.0509105,-0.383931,0.534542,-0.2575835,0.424989,0.495172,-0.2003735,-0.069591,0.00011300000000000004,-0.0011265000000000025,0.069591,-0.00011300000000000004,0.0011264999999999956,-0.121721,-0.313918,0.010501499999999997,0.108564,-0.312108,0.040528499999999995,-0.126891,-0.670488,0.029388499999999998,0.11531699999999999,-0.626458,0.0646175
38,0.012017500000000002,0.7498225000000001,0.005492999999999998,-0.1527595,0.48114250000000003,0.0022819999999999993,-0.30188950000000003,0.5238525,-0.09975700000000001,0.16404049999999998,0.4835025,0.019802,0.3239005,0.5105525,-0.051533999999999996,-0.38408950000000003,0.6070425,-0.258207,0.4248305,0.5715625,-0.200997,-0.0695105,0.00017549999999999998,-0.0011750000000000024,0.0695105,-0.00017549999999999998,0.0011749999999999955,-0.12128950000000001,-0.3154575,0.010034000000000001,0.10823150000000001,-0.3142675,0.040025,-0.12702950000000002,-0.6720375,0.028793,0.1151895,-0.6290275,0.064034
39,0.011656,0.7470705000000001,0.0061340000000000006,-0.152498,0.4842705,0.0014189999999999967,-0.302078,0.5565805,-0.10023000000000001,0.16390200000000002,0.48629049999999996,0.01944,0.323712,0.5472605,-0.052007,-0.384278,0.6707805,-0.25868,0.424642,0.6359905,-0.20147,-0.069351,0.00017949999999999997,-0.0011660000000000004,0.069351,-0.00017949999999999997,0.0011660000000000004,-0.12079799999999999,-0.3176395,0.009638999999999995,0.107909,-0.31716950000000005,0.039624999999999994,-0.126828,-0.6742294999999999,0.028349999999999997,0.11510400000000001,-0.6315995,0.06370999999999999
40,0.011465499999999997,0.7440589999999999,0.006306000000000006,-0.1522185,0.487559,0.0012590000000000032,-0.3021585,0.588459,-0.100431,0.1636615,0.488759,0.019570000000000004,0.32363149999999996,0.5863389999999999,-0.05220799999999999,-0.38457850000000005,0.7267089999999999,-0.25494100000000003,0.4234915,0.6972189999999999,-0.19687100000000002,-0.0692435,0.0001250000000000001,-0.0012039999999999967,0.0692435,-0.0001250000000000001,0.0012040000000000037,-0.1203285,-0.320031,0.009500000000000001,0.10770249999999999,-0.320291,0.03941,-0.12699850000000001,-0.676621,0.028139000000000004,0.11490249999999999,-0.635301,0.063719
41,0.011394000000000001,0.7407429999999999,0.006149999999999996,-0.15182099999999998,0.49114300000000005,0.0011559999999999973,-0.300721,0.6208429999999999,-0.09864200000000001,0.16358899999999998,0.491153,0.019795999999999998,0.323189,0.620423,-0.051564000000000006,-0.376551,0.778223,-0.24073199999999997,0.41511899999999996,0.757043,-0.185952,-0.069187,-8.999999999998592e-06,-0.001346,0.069187,9.000000000000327e-06,0.001346,-0.11995099999999999,-0.322677,0.009395,0.10753700000000001,-0.32326699999999997,0.039243,-0.127191,-0.679247,0.028172,0.114886,-0.6386470000000001,0.063736
42,0.0114445,0.7373784999999999,0.005957999999999998,-0.1515735,0.49476849999999994,0.001116999999999993,-0.2954235,0.6483785,-0.09180300000000001,0.1636165,0.4935085,0.019848999999999995,0.3172965,0.6506585,-0.04587300000000001,-0.36384350000000004,0.8218285,-0.21959300000000004,0.3999565,0.8044185,-0.16719299999999998,-0.0691325,-0.00018149999999999937,-0.0015370000000000036,0.0691325,0.0001815000000000011,0.0015369999999999967,-0.11955350000000001,-0.3252715,0.009187999999999995,0.1073775,-0.32603150000000003,0.03902699999999999,-0.1272135,-0.6818315,0.027971999999999997,0.1149815,-0.6416915,0.063675
43,0.0115205,0.7333695,0.005819999999999999,-0.1511635,0.49855949999999993,0.001233999999999999,-0.2883735,0.6725995,-0.083356,0.1632965,0.49584949999999994,0.020043000000000002,0.3084165,0.6751595,-0.03788,-0.34885350000000004,0.8583594999999999,-0.19480599999999998,0.38038649999999996,0.8446595,-0.143806,-0.0690225,-0.0003384999999999985,-0.0016719999999999999,0.0690225,0.0003384999999999985,0.0016719999999999999,-0.1191735,-0.3284505,0.008877000000000003,0.1070435,-0.32926049999999996,0.038721,-0.1271135,-0.6850105000000001,0.027762000000000002,0.1150765,-0.6453605,0.063608
44,0.011533499999999997,0.7291765,0.005777499999999998,-0.1506265,0.5021565,0.0018284999999999968,-0.2795865,0.6925765,-0.0729915,0.1626535,0.4975765,0.0205915,0.2961835,0.6973465,-0.0289035,-0.3335365,0.8897765,-0.1656415,0.35921349999999996,0.8784365,-0.11581150000000001,-0.0688685,-0.00047550000000000023,-0.0018955000000000014,0.0688685,0.00047550000000000023,0.0018955000000000014,-0.1188365,-0.3318935,0.008606499999999996,0.10649449999999999,-0.3325735,0.038399499999999996,-0.12690649999999998,-0.6883735,0.027677499999999997,0.11520949999999999,-0.6495435,0.0636875
45,0.011538499999999997,0.725124,0.005631000000000004,-0.14998150000000002,0.505714,0.0026180000000000023,-0.2705615,0.710324,-0.062803,0.1617885,0.49883400000000006,0.021192000000000003,0.2833585,0.716684,-0.019906999999999994,-0.3200515,0.9160739999999999,-0.138953,0.3376685,0.905654,-0.089153,-0.06869449999999999,-0.000621,-0.002155999999999998,0.06869449999999999,0.000621,0.002155999999999998,-0.11856150000000001,-0.335086,0.008281000000000004,0.10587549999999998,-0.335496,0.038055,-0.12647150000000001,-0.691546,0.027177,0.1153535,-0.653746,0.063827
46,0.0115195,0.7210985,0.005442000000000002,-0.1491595,0.5092285,0.003585999999999999,-0.26257949999999997,0.7239085,-0.052777,0.1606505,0.49978849999999997,0.021882000000000002,0.2702405,0.7318485,-0.009854999999999996,-0.3074395,0.9356085000000001,-0.11268,0.3175305,0.9282585,-0.06422,-0.0685225,-0.0007545000000000052,-0.0023950000000000013,0.0685225,0.0007544999999999982,0.0023950000000000013,-0.11834950000000001,-0.3382415,0.007967000000000002,0.1052685,-0.3383715,0.037776000000000004,-0.1259795,-0.6947015,0.026757000000000003,0.1155185,-0.6577415,0.064047
47,0.011451499999999996,0.7178925,0.005210999999999993,-0.14831650000000002,0.5114625,0.004865999999999995,-0.2553265,0.7337325,-0.04469300000000001,0.1588935,0.4992225,0.022524999999999996,0.2593335,0.7397625,-0.0016570000000000057,-0.2987565,0.9466325,-0.09284099999999999,0.3002435,0.9398825,-0.04214000000000001,-0.06836249999999999,-0.0008695000000000022,-0.0026320000000000024,0.06836249999999999,0.0008694999999999953,0.0026319999999999955,-0.1181765,-0.3409675,0.007786999999999995,0.1046495,-0.3404575,0.037482999999999995,-0.1255165,-0.6973275,0.026347999999999996,0.11576550000000001,-0.6608875,0.064278
48,0.011403,0.715355,0.0051250000000000046,-0.147358,0.513105,0.006485000000000005,-0.24999799999999997,0.740605,-0.037091,0.15660200000000002,0.498275,0.023281000000000003,0.250662,0.745435,0.0059030000000000055,-0.291258,0.953135,-0.075222,0.287692,0.950175,-0.026617000000000002,-0.06823499999999999,-0.0008820000000000008,-0.0028329999999999952,0.06823499999999999,0.0008820000000000008,0.002833000000000002,-0.117918,-0.343095,0.007647000000000001,0.10404,-0.341755,0.037157,-0.124998,-0.6994549999999999,0.026008000000000003,0.116087,-0.663255,0.064488
49,0.0113645,0.7131135,0.005238,-0.14645750000000002,0.5145635,0.008175000000000002,-0.2452475,0.7458635,-0.030145000000000005,0.15427249999999998,0.49729349999999994,0.024190999999999997,0.2428825,0.7457635,0.012851999999999995,-0.28485750000000004,0.9587935,-0.05952400000000001,0.2754125,0.9553934999999999,-0.012452999999999999,-0.0681175,-0.0008545000000000011,-0.0029870000000000035,0.0681175,0.0008544999999999942,0.0029869999999999966,-0.1176175,-0.3450065,0.007558000000000002,0.1034345,-0.34276650000000003,0.036850999999999995,-0.1244775,-0.7013465,0.025842,0.1164375,-0.6655665000000001,0.064717
50,0.011483999999999998,0.7112745,0.005355499999999999,-0.145649,0.5155145,0.0099985,-0.241079,0.7457645,-0.024997500000000006,0.152841,0.49647450000000004,0.0250565,0.237471,0.7458145,0.0176885,-0.281219,0.9614345000000001,-0.050310499999999994,0.267971,0.9583345,-0.005361499999999998,-0.068079,-0.0008114999999999997,-0.003105499999999997,0.068079,0.0008114999999999997,0.003105499999999997,-0.11734900000000001,-0.3464655,0.007439500000000002,0.102977,-0.3436955,0.036527500000000004,-0.12378900000000001,-0.7027455,0.0256055,0.116876,-0.6669455,0.0648715
51,0.011656500000000005,0.709526,0.0054500000000000035,-0.1448525,0.5160760000000001,0.011812000000000003,-0.23700249999999998,0.7457560000000001,-0.019681999999999998,0.1518575,0.495636,0.026010000000000002,0.2325575,0.7455660000000001,0.02195,-0.27752249999999995,0.964066,-0.04111399999999999,0.2602875,0.961966,0.0013210000000000027,-0.06810150000000001,-0.0007570000000000007,-0.0032060000000000005,0.06810150000000001,0.0007570000000000007,0.0032060000000000005,-0.1172125,-0.34794400000000003,0.007283000000000005,0.10263150000000001,-0.344734,0.036196000000000006,-0.1234025,-0.7042339999999999,0.025402,0.11736250000000001,-0.6695139999999999,0.064949
52,0.0116965,0.7085385000000001,0.005485500000000004,-0.14431349999999998,0.5162285000000001,0.012987499999999999,-0.2340035,0.7460285000000001,-0.015787500000000003,0.15134650000000002,0.4947685,0.026413500000000003,0.2291165,0.7453885,0.0244815,-0.2747635,0.9658385,-0.0348255,0.2548765,0.9646385,0.0048365000000000005,-0.0681355,-0.0007065000000000057,-0.0032195,0.0681355,0.0007064999999999988,0.0032195,-0.1172035,-0.3487815,0.007107500000000003,0.1023095,-0.3452115,0.0359935,-0.1230635,-0.7050715,0.025129500000000003,0.1175885,-0.6711415,0.0649195
53,0.0116305,0.7080415000000001,0.0055785,-0.1440045,0.5161715,0.013715499999999999,-0.2323045,0.7464815,-0.013358500000000002,0.1509155,0.4941315,0.0265345,0.2268655,0.7455515,0.0257535,-0.2725245,0.9667315000000001,-0.030991500000000005,0.25098550000000003,0.9665315000000001,0.0065114999999999965,-0.0681355,-0.0006805000000000005,-0.0032625000000000015,0.0681355,0.0006805000000000005,0.0032625000000000015,-0.11722450000000001,-0.34914850000000003,0.006901499999999998,0.1021045,-0.3454685,0.0358445,-0.12314449999999999,-0.7055184999999999,0.024951499999999998,0.11772149999999999,-0.6722085,0.06476950000000001
54,0.011431,0.7077665,0.005764999999999999,-0.143797,0.5159864999999999,0.014352999999999998,-0.231047,0.7468665000000001,-0.011160999999999997,0.15037299999999998,0.49366649999999995,0.026703,0.224983,0.7457665,0.026745,-0.270747,0.9673865000000001,-0.027749999999999997,0.24756299999999998,0.9682865,0.007689000000000001,-0.06815,-0.0006575000000000053,-0.0033009999999999984,0.06815,0.0006574999999999984,0.0033009999999999984,-0.117277,-0.34945350000000003,0.006742999999999999,0.101987,-0.3459235,0.035718,-0.12335700000000001,-0.7058534999999999,0.02489,0.117786,-0.6729935,0.064606
55,0.011148500000000002,0.7074955,0.006263999999999999,-0.14367449999999998,0.5157955000000001,0.014977999999999998,-0.2301445,0.7471055000000001,-0.009292000000000002,0.1498255,0.4931155,0.026861,0.22338550000000001,0.7459355000000001,0.027577,-0.26940450000000005,0.9676755,-0.025234,0.2447755,0.9694755,0.008374,-0.0681585,-0.0006465000000000012,-0.0033390000000000017,0.0681585,0.0006465000000000012,0.0033390000000000017,-0.1172945,-0.34982450000000004,0.006609999999999998,0.10202950000000001,-0.34654450000000003,0.035595,-0.1229945,-0.7062845,0.024588000000000002,0.11789050000000001,-0.6731545,0.064461
56,0.010818999999999999,0.7072565,0.0068205,-0.14362,0.5154765,0.015363499999999995,-0.22977999999999998,0.7469665,-0.008023500000000003,0.14933000000000002,0.4926965,0.026934499999999997,0.22234,0.7460065,0.028079499999999997,-0.26908,0.9672864999999999,-0.024233499999999998,0.24318,0.9700865000000001,0.008264499999999994,-0.068165,-0.0006745000000000015,-0.0032814999999999997,0.068165,0.0006745000000000015,0.0032814999999999997,-0.11726999999999999,-0.35014350000000005,0.006379499999999996,0.102055,-0.34709349999999994,0.0353705,-0.12265999999999999,-0.7069535,0.024153499999999998,0.117926,-0.6732935,0.0642285
57,0.010511499999999998,0.7070885,0.007265500000000001,-0.1436125,0.5151384999999999,0.015560499999999998,-0.2298425,0.7467984999999999,-0.0075005,0.14900750000000001,0.49245849999999997,0.0270405,0.22177750000000002,0.7459485,0.0284175,-0.2690825,0.9668884999999999,-0.024196499999999996,0.2422975,0.9703885,0.008004499999999998,-0.0681675,-0.000729500000000001,-0.0032584999999999975,0.0681675,0.000729500000000001,0.0032584999999999975,-0.11724250000000001,-0.3504115,0.006114500000000002,0.1020835,-0.34749149999999995,0.0351135,-0.12243250000000001,-0.7072115,0.0241085,0.11802649999999999,-0.6736515000000001,0.0639125
58,0.010178500000000002,0.7069405,0.0076505000000000045,-0.1436085,0.5148604999999999,0.0156765,-0.2298785,0.7465805,-0.007171499999999997,0.14873150000000002,0.49227049999999994,0.027092500000000002,0.2214015,0.7457905,0.0286345,-0.26905850000000003,0.9665604999999999,-0.024403499999999995,0.2417715,0.9706604999999999,0.007734499999999998,-0.0681735,-0.0007765000000000064,-0.003203499999999998,0.0681735,0.0007764999999999994,0.003203499999999998,-0.11719849999999998,-0.35059949999999995,0.0057515,0.1021215,-0.34781949999999995,0.0348085,-0.1222885,-0.7073895,0.0239415,0.11813850000000001,-0.6739795000000001,0.0635545
59,0.009726499999999997,0.706782,0.007890000000000001,-0.1437205,0.514632,0.015700000000000002,-0.22997049999999997,0.746272,-0.007370999999999996,0.1483495,0.492112,0.02709,0.22105950000000002,0.745522,0.028717,-0.2691405,0.966232,-0.024694999999999995,0.2414495,0.9707319999999999,0.007415999999999999,-0.0681765,-0.0008330000000000004,-0.003159000000000002,0.0681765,0.0008330000000000004,0.003159000000000002,-0.1172505,-0.350898,0.005324000000000002,0.10217349999999999,-0.34814799999999996,0.03442,-0.1222805,-0.707668,0.023692,0.11814749999999999,-0.674208,0.063077
60,0.009207000000000003,0.706727,0.007952999999999995,-0.14391700000000002,0.514567,0.015519999999999999,-0.23028700000000002,0.7459370000000001,-0.0076980000000000035,0.147983,0.492067,0.026993999999999997,0.22081299999999998,0.745357,0.028599999999999997,-0.269497,0.965667,-0.025026000000000007,0.241303,0.970567,0.006925000000000001,-0.068172,-0.0008809999999999998,-0.0031149999999999997,0.068172,0.0008809999999999998,0.0031149999999999997,-0.117327,-0.351063,0.004894999999999997,0.102274,-0.348503,0.034040999999999995,-0.12235699999999998,-0.7078329999999999,0.023396999999999998,0.11794900000000001,-0.6742429999999999,0.062474
61,0.008688000000000001,0.706703,0.007889,-0.144116,0.514463,0.015307000000000001,-0.230746,0.745663,-0.008050999999999996,0.147654,0.49206300000000003,0.026884,0.220634,0.745213,0.028278,-0.270016,0.9651230000000001,-0.025422999999999994,0.24116400000000002,0.9704229999999999,0.006213000000000003,-0.068167,-0.0009330000000000033,-0.0030799999999999994,0.068167,0.0009329999999999963,0.0030799999999999994,-0.11737599999999998,-0.351207,0.004431000000000004,0.102434,-0.34890699999999997,0.033664,-0.122556,-0.7078869999999999,0.023201000000000003,0.11771600000000002,-0.674837,0.061824000000000004
62,0.008174500000000001,0.706662,0.007739000000000003,-0.1443635,0.514462,0.015029,-0.23149350000000002,0.7455419999999999,-0.008441999999999998,0.14733649999999998,0.49210199999999993,0.026764,0.22043649999999998,0.745092,0.02795,-0.2707035,0.9644019999999999,-0.026025999999999994,0.24100649999999998,0.9703019999999999,0.005502,-0.0681605,-0.0009800000000000017,-0.003029000000000004,0.0681605,0.0009800000000000017,0.003028999999999997,-0.1173635,-0.351328,0.003927,0.1026445,-0.34940800000000005,0.033277,-0.12271349999999999,-0.707908,0.02279,0.11735050000000001,-0.6764180000000001,0.061253
63,0.007611499999999995,0.7066414999999999,0.007489999999999997,-0.1446735,0.5143615,0.014721999999999999,-0.23234350000000004,0.7455014999999999,-0.009219000000000005,0.14697649999999998,0.4922115,0.026579999999999996,0.22015649999999998,0.7449015,0.027600999999999997,-0.2716835,0.9636615,-0.027417999999999998,0.2413765,0.9696615,0.004747999999999995,-0.06816649999999999,-0.0010114999999999985,-0.0030010000000000037,0.06816649999999999,0.0010115000000000055,0.0030009999999999967,-0.1173035,-0.35151849999999996,0.0033119999999999955,0.10290350000000001,-0.35003850000000003,0.03278,-0.12292350000000002,-0.7076385000000001,0.022222,0.1169045,-0.6776785000000001,0.060641
64,0.007042999999999999,0.7066614999999999,0.007119500000000008,-0.14499199999999998,0.5142415,0.014303500000000004,-0.233292,0.7453415,-0.010657499999999993,0.14660800000000002,0.4924115,0.026319500000000006,0.21995800000000001,0.7446214999999999,0.027090500000000003,-0.272712,0.9625615000000001,-0.0297515,0.24207800000000002,0.9684614999999999,0.0031285000000000063,-0.068167,-0.0010114999999999985,-0.0029254999999999975,0.068167,0.0010115000000000055,0.0029255000000000045,-0.117082,-0.3520985,0.001847500000000002,0.10340099999999999,-0.35110850000000005,0.03173550000000001,-0.12319200000000001,-0.7076885,0.021414500000000006,0.116238,-0.6791885,0.05959350000000001
65,0.0065530000000000015,0.7066614999999999,0.0066345000000000015,-0.14527,0.5141315,0.013854500000000002,-0.23412000000000002,0.7450915,-0.012249499999999997,0.14629,0.49262149999999993,0.026021500000000003,0.21989,0.7442715,0.026397500000000004,-0.27364,0.9611615,-0.0326385,0.2428,0.9671615,0.0013675000000000007,-0.068172,-0.0010114999999999985,-0.0029384999999999967,0.068172,0.0010115000000000055,0.0029385000000000036,-0.11685,-0.3529185,-9.649999999999936e-05,0.103991,-0.3523385,0.030441500000000003,-0.12352,-0.7077485,0.020667500000000005,0.115666,-0.6814885,0.058057500000000005
66,0.0061524999999999965,0.7066515,0.006097999999999999,-0.14554350000000002,0.5140615,0.013332000000000004,-0.2348035,0.7448015,-0.013939,0.14603649999999999,0.49279149999999994,0.025611000000000002,0.2199565,0.7439015,0.025483000000000002,-0.2742335,0.9598614999999999,-0.035808999999999994,0.24352649999999998,0.9656615,-0.0005309999999999968,-0.0681575,-0.0010114999999999985,-0.0029500000000000012,0.0681575,0.0010115000000000055,0.0029500000000000012,-0.11665350000000001,-0.35410850000000005,-0.0025579999999999978,0.1046755,-0.3538485,0.028647000000000002,-0.1238135,-0.7078485,0.019705,0.1152135,-0.6827085,0.056367
67,0.005976499999999999,0.706718,0.005517500000000002,-0.1456115,0.514018,0.012764500000000002,-0.23526149999999998,0.744498,-0.0158045,0.1459885,0.492878,0.0250865,0.2203185,0.743628,0.024248500000000003,-0.2743215,0.958948,-0.03892349999999999,0.24441849999999998,0.9640479999999999,-0.0026704999999999993,-0.0681675,-0.0010280000000000011,-0.0030164999999999983,0.0681675,0.0010280000000000011,0.0030164999999999983,-0.1163815,-0.356502,-0.005652499999999998,0.10550849999999999,-0.356022,0.026145500000000002,-0.12392150000000002,-0.707932,0.018607500000000003,0.1149355,-0.684502,0.0544575
68,0.005884999999999998,0.70689,0.004791999999999998,-0.145614,0.5141100000000001,0.012185999999999999,-0.23528400000000002,0.7441000000000001,-0.017998,0.146006,0.49306999999999995,0.024554,0.220846,0.74358,0.022776,-0.274304,0.95794,-0.042519,0.245476,0.96194,-0.005262999999999997,-0.068165,-0.0010439999999999963,-0.0030629999999999963,0.068165,0.0010440000000000033,0.0030630000000000032,-0.116004,-0.35917,-0.009029999999999996,0.10643699999999999,-0.35817,0.022892,-0.123804,-0.70795,0.017549000000000002,0.114773,-0.68663,0.052199
69,0.005837500000000002,0.707014,0.003728000000000002,-0.1456095,0.514224,0.011428999999999998,-0.2352495,0.743694,-0.020585,0.14604050000000002,0.49335399999999996,0.023899,0.2210905,0.743414,0.020608,-0.2741595,0.9567239999999999,-0.046597999999999994,0.24667050000000001,0.959624,-0.008386999999999999,-0.06815750000000001,-0.0010680000000000064,-0.003132999999999997,0.06815750000000001,0.0010679999999999995,0.003132999999999997,-0.11556949999999999,-0.362106,-0.012797999999999997,0.1074175,-0.36076600000000003,0.018921,-0.1236495,-0.708296,0.016234,0.11469850000000001,-0.689096,0.049575
70,0.005638500000000001,0.706801,0.001295499999999998,-0.1455765,0.5146109999999999,0.0097615,-0.23503649999999998,0.743341,-0.025108500000000006,0.14617349999999998,0.49409099999999995,0.0223835,0.2215735,0.743041,0.016605500000000002,-0.2736665,0.9551109999999999,-0.053351499999999996,0.2484535,0.957011,-0.013826499999999999,-0.0681515,-0.0010799999999999976,-0.003187499999999996,0.0681515,0.0010799999999999976,0.003187500000000003,-0.11517650000000001,-0.36495900000000003,-0.018252499999999998,0.1086355,-0.363549,0.0129715,-0.1236565,-0.707999,0.013839500000000001,0.1148835,-0.691629,0.0452645
71,0.005547999999999997,0.705672,-0.002622499999999993,-0.145471,0.513292,0.007008500000000004,-0.234551,0.738742,-0.032147499999999996,0.146269,0.49447199999999997,0.019956500000000005,0.222679,0.743072,0.010861500000000007,-0.272771,0.9537220000000001,-0.06311549999999999,0.251119,0.954022,-0.021880499999999997,-0.06824,-0.0010970000000000008,-0.003293499999999998,0.06824,0.0010970000000000008,0.0032935000000000048,-0.115311,-0.36668799999999996,-0.026528499999999997,0.110669,-0.365148,0.003766500000000006,-0.12360099999999999,-0.7065180000000001,0.009941500000000006,0.115362,-0.693308,0.039427500000000004
72,0.005428500000000001,0.7045009999999999,-0.007388499999999999,-0.14536849999999998,0.511941,0.003675499999999998,-0.2339785,0.734891,-0.0396515,0.1460915,0.4942210000000001,0.0168945,0.2239015,0.741261,0.004293499999999999,-0.2718185,0.9527410000000001,-0.0737565,0.2538615,0.951441,-0.0310475,-0.0683625,-0.0010270000000000001,-0.0033644999999999994,0.0683625,0.0010270000000000001,0.0033644999999999994,-0.11571850000000002,-0.36748899999999995,-0.0362835,0.1128235,-0.365859,-0.006423499999999999,-0.1234985,-0.7041390000000001,0.0049444999999999975,0.1161425,-0.693929,0.0325125
73,0.005339000000000002,0.7032134999999999,-0.012623500000000003,-0.14527299999999999,0.5110034999999999,8.049999999999724e-05,-0.233313,0.7316635,-0.04714650000000001,0.146087,0.49410350000000003,0.0135815,0.22539700000000001,0.7401935,-0.0023385000000000003,-0.270903,0.9517535,-0.0851035,0.256347,0.9500335,-0.0400505,-0.068411,-0.0009404999999999969,-0.003548500000000003,0.068411,0.0009405000000000038,0.0035484999999999996,-0.11652299999999999,-0.36731650000000005,-0.0460395,0.115354,-0.36597650000000004,-0.0175675,-0.12337300000000001,-0.7010365000000001,-0.0006405000000000022,0.116924,-0.6930665,0.0253865
74,0.005303999999999998,0.7009964999999999,-0.0183445,-0.14508400000000002,0.5099965,-0.0038055,-0.232814,0.7282065,-0.0551795,0.146026,0.4941665,0.010051499999999998,0.22727599999999998,0.7372765,-0.010605500000000004,-0.270044,0.9508165,-0.0968405,0.258806,0.9488464999999999,-0.049639499999999996,-0.068391,-0.0008654999999999982,-0.0036855000000000013,0.068391,0.0008655000000000052,0.003685499999999998,-0.117654,-0.36703349999999996,-0.056091499999999996,0.118068,-0.3660035,-0.0292375,-0.123264,-0.6976435000000001,-0.006725500000000002,0.117658,-0.6907235,0.0179835
75,0.005448999999999999,0.698107,-0.024618,-0.144981,0.509597,-0.008027,-0.231991,0.724587,-0.064076,0.146319,0.494737,0.006285000000000002,0.229049,0.734367,-0.019352,-0.269091,0.949377,-0.110071,0.261419,0.947717,-0.060210999999999994,-0.06837499999999999,-0.0008499999999999966,-0.0037789999999999976,0.06837499999999999,0.0008500000000000035,0.003779000000000001,-0.11896100000000001,-0.366503,-0.066768,0.12103900000000001,-0.365543,-0.041488000000000004,-0.12302100000000002,-0.693523,-0.013357,0.118482,-0.687443,0.010116000000000002
76,0.005727500000000003,0.6963010000000001,-0.0313615,-0.14486149999999998,0.507871,-0.0127485,-0.2311415,0.720131,-0.07345549999999999,0.14653850000000002,0.49355099999999996,0.0022185000000000017,0.23082850000000002,0.733251,-0.028442499999999996,-0.2682515,0.949481,-0.12407750000000001,0.2640085,0.948171,-0.0715635,-0.0684725,-0.0008090000000000007,-0.004016499999999999,0.0684725,0.0008089999999999972,0.004016500000000001,-0.12055149999999999,-0.36322899999999997,-0.0777135,0.1241285,-0.362699,-0.053974499999999995,-0.1228315,-0.687669,-0.0203785,0.1196285,-0.682129,0.0015375000000000007
77,0.006081000000000001,0.6943375,-0.038214,-0.144706,0.5061975,-0.017847,-0.23041599999999998,0.7166775,-0.082939,0.146834,0.4927475,-0.0023859999999999992,0.232534,0.7330675,-0.037725999999999996,-0.26762600000000003,0.9500975,-0.138438,0.266484,0.9491275,-0.083144,-0.068649,-0.0008105000000000022,-0.004303000000000001,0.068649,0.0008104999999999987,0.0043029999999999995,-0.122306,-0.3591225,-0.088978,0.127394,-0.3593825,-0.06640499999999999,-0.12268599999999999,-0.6808425,-0.027726999999999998,0.12087200000000001,-0.6759625,-0.007148999999999999
78,0.006393999999999995,0.691593,-0.045489,-0.14465499999999998,0.503693,-0.023563000000000004,-0.229705,0.712133,-0.093656,0.147065,0.49235300000000004,-0.007678000000000001,0.23406500000000002,0.728773,-0.047245999999999996,-0.267285,0.950693,-0.154836,0.268945,0.944613,-0.096736,-0.068839,-0.000896000000000001,-0.004693000000000001,0.068839,0.000896000000000001,0.004692999999999999,-0.124425,-0.354387,-0.101496,0.130915,-0.354467,-0.07965900000000001,-0.12272500000000001,-0.672537,-0.035519999999999996,0.122085,-0.668157,-0.016810000000000002
79,0.0067484999999999976,0.688548,-0.052171,-0.1444975,0.5019979999999999,-0.028858,-0.2291175,0.706728,-0.10344900000000001,0.1472125,0.492518,-0.012554,0.2356025,0.724828,-0.055584,-0.2672875,0.951638,-0.169419,0.27082249999999997,0.941558,-0.108529,-0.0690105,-0.0009659999999999998,-0.005116,0.0690105,0.0009659999999999998,0.005115999999999999,-0.1265175,-0.349142,-0.11312900000000001,0.1343225,-0.348652,-0.09181600000000001,-0.1228775,-0.663422,-0.042341,0.1231525,-0.659402,-0.025405
80,0.006876500000000004,0.68665,-0.0579895,-0.1443845,0.50136,-0.0339145,-0.22883450000000002,0.70623,-0.1114165,0.1472455,0.49184999999999995,-0.0168305,0.2370655,0.72058,-0.0629425,-0.2674145,0.94803,-0.1827865,0.27193550000000005,0.93704,-0.1188465,-0.0691785,-0.0010229999999999996,-0.0053145,0.0691785,0.0010230000000000005,0.0053145,-0.1281545,-0.3438,-0.1227065,0.1373155,-0.34397,-0.1019865,-0.12294450000000001,-0.65513,-0.0481885,0.1239855,-0.6500199999999999,-0.0331475
81,0.007008499999999999,0.6847049999999999,-0.06263,-0.1442225,0.500875,-0.038833,-0.2282225,0.705165,-0.119659,0.14699749999999998,0.491955,-0.021036,0.23861749999999998,0.7188650000000001,-0.07025100000000001,-0.2676425,0.9451050000000001,-0.195519,0.2732775,0.932115,-0.12875899999999998,-0.0694635,-0.0012060000000000022,-0.00554,0.0694635,0.0012059999999999987,0.00554,-0.1295925,-0.33603500000000003,-0.13152899999999998,0.1402775,-0.336385,-0.111919,-0.12298250000000001,-0.6470450000000001,-0.053694,0.12457750000000001,-0.640515,-0.040369999999999996
82,0.007211,0.6828655,-0.06752849999999999,-0.144195,0.4992355,-0.043790499999999996,-0.227685,0.7035155000000001,-0.1283145,0.146615,0.4912755,-0.0253465,0.239755,0.7161955,-0.07826349999999999,-0.268045,0.9392655000000001,-0.2080845,0.274455,0.9271555,-0.1386145,-0.069739,-0.0014445000000000013,-0.005624499999999999,0.069739,0.0014444999999999979,0.005624500000000001,-0.130975,-0.32751450000000004,-0.1402545,0.142505,-0.3275545,-0.12100449999999999,-0.12321499999999999,-0.6382945,-0.0588875,0.124845,-0.6305044999999999,-0.0473455
83,0.0080535,0.6825775,-0.077469,-0.14346450000000002,0.4980675,-0.05405,-0.2270445,0.7028574999999999,-0.14189200000000002,0.1469255,0.4910375,-0.03515,0.2411055,0.7166775,-0.090339,-0.2675345,0.9360674999999999,-0.225332,0.2764255,0.9244775,-0.154122,-0.0698955,-0.0015685000000000004,-0.005927999999999999,0.0698955,0.0015685000000000004,0.005928000000000003,-0.13188450000000002,-0.3164125,-0.153922,0.1449155,-0.31633249999999996,-0.134872,-0.12309450000000001,-0.6270025,-0.06881899999999999,0.1254955,-0.6178625000000001,-0.058759
84,0.009656500000000002,0.6814055,-0.088003,-0.1412775,0.49562549999999994,-0.065148,-0.2263175,0.7030955,-0.1557,0.1476425,0.4921455,-0.045489,0.2425525,0.7206055,-0.103238,-0.2668875,0.9369355,-0.24296,0.2788325,0.9265855000000001,-0.17067000000000002,-0.07002649999999999,-0.0014895000000000047,-0.006138999999999999,0.07002649999999999,0.0014894999999999978,0.006138999999999999,-0.1330675,-0.30040449999999996,-0.17104,0.1480725,-0.30089449999999995,-0.15162,-0.1230775,-0.6111145,-0.07900499999999999,0.1262225,-0.6015045,-0.070431
85,0.011354499999999998,0.6788664999999999,-0.0980125,-0.1389405,0.49450649999999996,-0.0756105,-0.2254805,0.7038265,-0.1687695,0.1485495,0.49455649999999995,-0.0551815,0.2441895,0.7168365,-0.1156715,-0.2661305,0.9336065,-0.2608095,0.28173950000000003,0.9247065,-0.1876595,-0.0701085,-0.0014404999999999973,-0.006193500000000001,0.0701085,0.0014405000000000112,0.006193499999999998,-0.1340605,-0.28722349999999996,-0.1872495,0.15108950000000002,-0.2885535,-0.1673895,-0.1227505,-0.5971135000000001,-0.08837249999999999,0.12699950000000002,-0.5873435,-0.0809275
86,0.013378499999999996,0.6770555,-0.1083685,-0.1362505,0.4931255,-0.0860475,-0.2239905,0.7041455000000001,-0.1823635,0.1497695,0.4950055,-0.0653085,0.2461595,0.7133754999999999,-0.1278935,-0.26504049999999996,0.9268555,-0.2782635,0.2848995,0.9194855,-0.20431349999999998,-0.0702175,-0.0013344999999999885,-0.0061925000000000036,0.0702175,0.0013345000000000024,0.006192499999999997,-0.1346005,-0.2733845,-0.20324350000000002,0.1541595,-0.2754245,-0.1829035,-0.1220405,-0.5826145,-0.0976265,0.1279195,-0.5727745,-0.0909945
87,0.015313500000000002,0.6776949999999999,-0.118595,-0.1331215,0.49253499999999995,-0.096134,-0.2223515,0.7066049999999999,-0.195343,0.1508585,0.494885,-0.075234,0.2486385,0.715545,-0.140828,-0.2633915,0.921765,-0.293803,0.2880585,0.9210149999999999,-0.21924300000000002,-0.0702195,-0.0010450000000000043,-0.005972000000000005,0.0702195,0.0010450000000000043,0.005971999999999998,-0.1348515,-0.259525,-0.218043,0.1568985,-0.262555,-0.19776300000000002,-0.12117149999999999,-0.567875,-0.106438,0.12841850000000002,-0.558605,-0.099483
88,0.017330000000000005,0.6787650000000001,-0.129869,-0.129743,0.49105499999999996,-0.106514,-0.220843,0.7094149999999999,-0.20932800000000001,0.151977,0.494805,-0.08579300000000001,0.251697,0.714615,-0.154376,-0.261533,0.9160649999999999,-0.310848,0.292147,0.922115,-0.23581800000000003,-0.070326,-0.0008550000000000224,-0.005782000000000002,0.070326,0.0008549999999999947,0.0057819999999999955,-0.134903,-0.24433500000000002,-0.233068,0.159587,-0.24888500000000002,-0.213078,-0.120263,-0.552165,-0.11508,0.128697,-0.5437449999999999,-0.108482
89,0.019494499999999998,0.679425,-0.1427905,-0.1259555,0.489625,-0.11775250000000001,-0.21930550000000001,0.711275,-0.2234355,0.1530945,0.493875,-0.0971555,0.2549445,0.716795,-0.1685805,-0.2596455,0.916915,-0.3292755,0.2968045,0.927235,-0.2543855,-0.0704165,-0.00045500000000001095,-0.005850499999999995,0.0704165,0.0004549999999999832,0.005850499999999995,-0.1349455,-0.226315,-0.24853550000000002,0.16210449999999998,-0.23200500000000002,-0.22878549999999997,-0.1193455,-0.532165,-0.1239805,0.1287145,-0.525995,-0.1171365
90,0.021654,0.67864,-0.1561825,-0.12215299999999998,0.48961,-0.1287525,-0.217793,0.7053,-0.23761849999999998,0.15390700000000002,0.49428,-0.10825549999999999,0.258287,0.7162999999999999,-0.1831485,-0.25772300000000004,0.91174,-0.3475385,0.30100699999999997,0.92804,-0.27330849999999995,-0.070552,-0.00019000000000002348,-0.006006499999999998,0.070552,0.00018999999999999573,0.006006500000000012,-0.134663,-0.20783000000000001,-0.26427849999999997,0.164667,-0.21527000000000002,-0.2445885,-0.11840300000000001,-0.5111,-0.1322765,0.128457,-0.5083,-0.1255695
91,0.024013499999999997,0.67663,-0.1723555,-0.11882150000000001,0.48671,-0.14293250000000002,-0.2159615,0.70274,-0.25361350000000005,0.15413849999999998,0.49236,-0.1217115,0.2612885,0.71581,-0.1995335,-0.2553915,0.90665,-0.3675235,0.3053685,0.93065,-0.2947835,-0.07062449999999999,6.0000000000004494e-05,-0.0063055000000000055,0.07062449999999999,-6.0000000000004494e-05,0.006305499999999992,-0.1338515,-0.18486,-0.2817035,0.1672785,-0.19410000000000002,-0.26149350000000005,-0.11674150000000001,-0.48441,-0.1410395,0.12810249999999998,-0.48382000000000003,-0.1346345
92,0.025806999999999997,0.672445,-0.1845465,-0.11580700000000001,0.482645,-0.1526735,-0.214227,0.700615,-0.2672185,0.153443,0.488415,-0.1307645,0.263393,0.712885,-0.2111985,-0.253077,0.9005449999999999,-0.3846785,0.308823,0.932655,-0.3112785,-0.070799,0.00017500000000000848,-0.0064805,0.070799,-0.00017499999999998073,0.0064805,-0.13337700000000002,-0.160765,-0.2938285,0.16929299999999997,-0.17051499999999997,-0.2733485,-0.11558700000000001,-0.45651499999999995,-0.1452885,0.127056,-0.45788500000000004,-0.1386745
93,0.027028999999999997,0.6695450000000001,-0.1958895,-0.11415700000000001,0.479185,-0.1613765,-0.213027,0.695835,-0.2797995,0.152923,0.482935,-0.1390815,0.264413,0.704575,-0.2209795,-0.250957,0.890645,-0.3998595,0.311343,0.9238850000000001,-0.3259395,-0.07106699999999999,0.00010500000000002174,-0.006770499999999999,0.07106699999999999,-0.00010499999999996623,0.006770499999999999,-0.132637,-0.14104499999999998,-0.3012495,0.17036300000000001,-0.150795,-0.2812295,-0.11430699999999999,-0.43323500000000004,-0.1485875,0.126019,-0.435465,-0.1414805
94,0.028176,0.6662999999999999,-0.2072775,-0.112918,0.47552999999999995,-0.17062549999999999,-0.211448,0.6914199999999999,-0.2905075,0.152442,0.4778899999999999,-0.1480085,0.265282,0.7045399999999999,-0.22995749999999998,-0.24932799999999997,0.88056,-0.4122775,0.31318199999999996,0.92042,-0.3387975,-0.071258,1.999999999996449e-05,-0.0069525,0.071258,-2.0000000000020002e-05,0.0069525,-0.13197799999999998,-0.11850000000000005,-0.3083175,0.17117200000000002,-0.12815000000000004,-0.2885275,-0.112948,-0.40642,-0.1519485,0.124938,-0.40935,-0.14414949999999999
95,0.029430000000000005,0.662485,-0.2179825,-0.111294,0.471445,-0.1793075,-0.209894,0.685575,-0.3000625,0.152006,0.474345,-0.1563225,0.266276,0.7031350000000001,-0.2387225,-0.24761400000000003,0.874395,-0.42395249999999995,0.31531600000000004,0.921185,-0.35142249999999997,-0.071264,-1.4999999999987246e-05,-0.007197499999999996,0.071264,1.4999999999987246e-05,0.007197499999999996,-0.131214,-0.09563500000000003,-0.3146925,0.172046,-0.10505500000000001,-0.2948425,-0.11141400000000001,-0.37944500000000003,-0.1549585,0.124005,-0.38295500000000005,-0.1464105
96,0.030235000000000005,0.65701,-0.22728399999999999,-0.11054299999999999,0.46813,-0.187244,-0.20929299999999998,0.67967,-0.30893400000000004,0.151397,0.47019,-0.163964,0.266347,0.69462,-0.245934,-0.24654299999999998,0.8664499999999999,-0.434744,0.31654699999999997,0.91749,-0.36091399999999996,-0.071413,1.0000000000010001e-05,-0.007545999999999997,0.071413,-1.0000000000010001e-05,0.007545999999999997,-0.13050299999999998,-0.07637,-0.319774,0.17256700000000003,-0.08557999999999999,-0.299214,-0.10979299999999999,-0.35233000000000003,-0.157076,0.122928,-0.35607999999999995,-0.147972
97,0.030819500000000003,0.6510900000000001,-0.23398549999999999,-0.10987849999999999,0.46338900000000005,-0.19352049999999998,-0.2089485,0.6694800000000001,-0.3153055,0.1509715,0.465009,-0.1699915,0.2668515,0.68918,-0.2512755,-0.24571849999999998,0.85501,-0.4423955,0.31732150000000003,0.91366,-0.3672355,-0.0715485,-2.999999999997449e-05,-0.007554499999999992,0.0715485,3.0000000000030003e-05,0.007554500000000006,-0.1296385,-0.05555999999999994,-0.3228855,0.17293150000000002,-0.06466999999999995,-0.3013255,-0.1082785,-0.32414999999999994,-0.15805249999999998,0.1218615,-0.32787999999999995,-0.1484835
98,0.031016500000000002,0.645405,-0.237757,-0.1093865,0.45931,-0.197885,-0.2086765,0.660435,-0.321137,0.1504335,0.461857,-0.17424800000000001,0.2673735,0.6808350000000001,-0.255107,-0.24568649999999997,0.842015,-0.446747,0.3177735,0.907875,-0.370197,-0.0716565,-0.00021499999999996522,-0.007602999999999999,0.0716565,0.00021500000000002073,0.007602999999999999,-0.1288065,-0.03808499999999998,-0.324567,0.1731335,-0.04636499999999999,-0.30163700000000004,-0.1068865,-0.29971499999999995,-0.15812700000000002,0.1208005,-0.30259499999999995,-0.148041
99,0.030768000000000004,0.6414150000000001,-0.2401225,-0.10937899999999999,0.454529,-0.20191749999999997,-0.208199,0.660785,-0.3258725,0.150011,0.457587,-0.17785649999999997,0.26715099999999997,0.676245,-0.2577325,-0.245719,0.836205,-0.4505125,0.318061,0.901285,-0.3717525,-0.071789,-0.00011499999999997623,-0.007597499999999993,0.071789,0.00011499999999997623,0.007597500000000007,-0.127969,-0.019015000000000004,-0.32493249999999996,0.17328100000000002,-0.026374999999999982,-0.3016525,-0.10520900000000001,-0.27723499999999995,-0.1578405,0.119696,-0.27496499999999996,-0.1468255
100,0.030135499999999996,0.639775,-0.24020049999999998,-0.1099845,0.454605,-0.2033035,-0.20811449999999998,0.659665,-0.3287605,0.1500855,0.457414,-0.1792205,0.26691549999999997,0.674395,-0.2589005,-0.2462345,0.835885,-0.4520805,0.3177855,0.895115,-0.3717805,-0.0718945,0.0003749999999999587,-0.007609499999999991,0.0718945,-0.0003750000000000142,0.007609500000000005,-0.1270845,-0.002695000000000003,-0.3248305,0.1734955,-0.009335000000000038,-0.3016305,-0.10403450000000002,-0.25892500000000007,-0.1576965,0.1183895,-0.252505,-0.1454705
101,0.029495,0.63915,-0.2402735,-0.111142,0.45516900000000005,-0.20388050000000002,-0.209312,0.65754,-0.3307935,0.150088,0.45859500000000003,-0.1799945,0.265618,0.67355,-0.25905350000000005,-0.24706200000000003,0.83396,-0.4527335,0.31719800000000004,0.8874200000000001,-0.37185350000000006,-0.071932,0.0006700000000000039,-0.007616500000000012,0.071932,-0.0006700000000000039,0.007616499999999998,-0.125942,0.010319999999999996,-0.32470350000000003,0.17376799999999998,0.004390000000000005,-0.3015235,-0.10194199999999999,-0.24441000000000002,-0.1566915,0.116855,-0.23422999999999994,-0.14365350000000002
102,0.02891,0.63837,-0.2403095,-0.11218899999999998,0.45556299999999994,-0.20431149999999998,-0.210789,0.6581699999999999,-0.3329095,0.150101,0.45976399999999995,-0.1804595,0.265241,0.6751499999999999,-0.2596695,-0.248929,0.83253,-0.4535995,0.316921,0.88588,-0.3718595,-0.07203899999999999,0.0008999999999999564,-0.007600499999999996,0.07203899999999999,-0.0009000000000000119,0.007600499999999996,-0.124839,0.023879999999999957,-0.3245495,0.173941,0.01858999999999994,-0.3005895,-0.099799,-0.22934,-0.1552645,0.11529800000000001,-0.21544000000000008,-0.1418545
103,0.028268,0.638285,-0.2396335,-0.11301499999999999,0.45645299999999994,-0.20376149999999998,-0.21255500000000002,0.659365,-0.3338135,0.150085,0.46069399999999994,-0.17986249999999998,0.264905,0.6744749999999999,-0.2594435,-0.251015,0.8342149999999999,-0.4536535,0.316515,0.882025,-0.3704735,-0.072125,0.0011649999999999716,-0.007336499999999996,0.072125,-0.0011650000000000826,0.00733650000000001,-0.12425499999999999,0.03565499999999994,-0.3226635,0.17404499999999998,0.03089499999999995,-0.2981635,-0.098255,-0.21757500000000007,-0.15332849999999998,0.113649,-0.19963500000000012,-0.1391975
104,0.027513999999999997,0.63815,-0.2374545,-0.11388600000000001,0.45772900000000005,-0.20276650000000002,-0.21424600000000002,0.6615300000000001,-0.3332545,0.150294,0.46163400000000004,-0.17875950000000002,0.264644,0.67256,-0.2580545,-0.253296,0.83494,-0.4521445,0.315914,0.8771500000000001,-0.3673445,-0.07228599999999999,0.0013900000000000023,-0.007015500000000008,0.07228599999999999,-0.0013900000000000023,0.007015499999999994,-0.123836,0.04625000000000001,-0.3203045,0.174044,0.04192000000000001,-0.2951245,-0.09847600000000001,-0.20745000000000002,-0.1522635,0.112007,-0.18501,-0.1362035
105,0.026802499999999996,0.638025,-0.23501699999999998,-0.11466249999999999,0.45813999999999994,-0.201689,-0.2160725,0.662485,-0.332057,0.1505675,0.46343199999999996,-0.177562,0.2644475,0.676785,-0.256577,-0.2557225,0.8358349999999999,-0.450307,0.3155475,0.8753449999999999,-0.364327,-0.0723625,0.0014049999999999896,-0.006763000000000005,0.0723625,-0.0014050000000001006,0.006763000000000005,-0.12346249999999999,0.05518499999999993,-0.318067,0.17405749999999998,0.051214999999999955,-0.292107,-0.09848249999999999,-0.19940500000000005,-0.150699,0.1104335,-0.1724150000000001,-0.133143
106,0.026206000000000004,0.6394960000000001,-0.233112,-0.11499799999999999,0.458835,-0.201272,-0.21767799999999998,0.667305,-0.330922,0.150722,0.464546,-0.17716300000000001,0.263992,0.680405,-0.255312,-0.258138,0.839875,-0.449712,0.315312,0.872795,-0.361902,-0.072348,0.001535000000000064,-0.006547999999999998,0.072348,-0.001534999999999953,0.006547999999999998,-0.12306799999999998,0.05939500000000003,-0.317152,0.174202,0.05617500000000003,-0.290442,-0.09812799999999999,-0.196565,-0.150087,0.109534,-0.16636499999999999,-0.131235
107,0.025942000000000003,0.6407489999999999,-0.23145749999999998,-0.11515199999999999,0.45865199999999995,-0.2010355,-0.218462,0.6704199999999999,-0.3294275,0.150758,0.4650869999999999,-0.17684650000000002,0.263228,0.68275,-0.2543375,-0.26019200000000003,0.84246,-0.4491975,0.315118,0.8696299999999999,-0.3601575,-0.072302,0.0014499999999999513,-0.0065225000000000005,0.072302,-0.0014500000000000624,0.0065225000000000005,-0.12270199999999999,0.06113999999999992,-0.3167375,0.174378,0.05876999999999993,-0.2894075,-0.09761199999999999,-0.1947700000000001,-0.1501685,0.108858,-0.16310000000000013,-0.1299815
108,0.025840000000000005,0.6407489999999999,-0.2300625,-0.115246,0.45865199999999995,-0.2007375,-0.218636,0.6704199999999999,-0.3274825,0.150754,0.4650869999999999,-0.17630849999999998,0.263924,0.68275,-0.2536025,-0.26219600000000004,0.84246,-0.4487325,0.315474,0.8696299999999999,-0.3601225,-0.072246,0.0014499999999999513,-0.0065174999999999955,0.072246,-0.0014500000000000624,0.0065174999999999955,-0.12264599999999999,0.060759999999999925,-0.3167325,0.17461400000000002,0.05876999999999993,-0.2890025,-0.097366,-0.1947700000000001,-0.1502085,0.108553,-0.16334000000000004,-0.1294295
109,0.025605500000000003,0.6407489999999999,-0.2281445,-0.11524549999999999,0.45865199999999995,-0.2003275,-0.2191155,0.6704199999999999,-0.32839450000000003,0.1509945,0.4650869999999999,-0.1757675,0.2650745,0.68275,-0.25340450000000003,-0.2635655,0.84246,-0.44902450000000005,0.3158845,0.8696299999999999,-0.36007449999999996,-0.0722055,0.0014499999999999513,-0.0065154999999999935,0.0722055,-0.0014500000000000624,0.006515500000000007,-0.12246549999999999,0.060759999999999925,-0.3167145,0.17498450000000002,0.05876999999999993,-0.28896449999999996,-0.09700550000000001,-0.1947700000000001,-0.1501695,0.1087335,-0.16334000000000004,-0.12941149999999998
110,0.025494,0.6407489999999999,-0.22650700000000001,-0.115092,0.45865199999999995,-0.199942,-0.218902,0.6704199999999999,-0.328527,0.151568,0.4650869999999999,-0.17538,0.265288,0.68275,-0.252647,-0.26457200000000003,0.84246,-0.449277,0.316398,0.8696299999999999,-0.359987,-0.07222200000000001,0.0014499999999999513,-0.0063529999999999975,0.07222200000000001,-0.0014500000000000624,0.0063529999999999975,-0.122252,0.060759999999999925,-0.316847,0.175318,0.05876999999999993,-0.289087,-0.09668200000000002,-0.1947700000000001,-0.150288,0.10894699999999999,-0.16342000000000012,-0.129544
111,0.025598499999999996,0.64335,-0.225767,-0.1150215,0.459461,-0.19933,-0.2194315,0.66728,-0.328337,0.1516485,0.466015,-0.17491400000000001,0.2653085,0.68286,-0.251687,-0.2657315,0.84458,-0.44954700000000003,0.3169385,0.87412,-0.360457,-0.0721715,0.0013800000000000479,-0.0062429999999999986,0.0721715,-0.0013799999999999368,0.0062429999999999986,-0.1219915,0.05464000000000002,-0.317947,0.1756285,0.052820000000000034,-0.289757,-0.09658150000000001,-0.19847000000000004,-0.151554,0.10915749999999999,-0.16949000000000003,-0.130224
112,0.025584,0.64427,-0.225202,-0.114918,0.45853700000000003,-0.19865,-0.21977799999999997,0.6696,-0.32724200000000003,0.15179199999999998,0.466554,-0.174423,0.266032,0.68136,-0.250952,-0.266888,0.8487800000000001,-0.449662,0.317432,0.87895,-0.36083200000000004,-0.072118,0.0007599999999999829,-0.006258,0.072118,-0.0007599999999999829,0.006258,-0.121988,0.04259000000000002,-0.319432,0.175912,0.04131000000000001,-0.29076199999999996,-0.096758,-0.20845000000000002,-0.153008,0.109503,-0.18172,-0.131373
113,0.025319999999999995,0.647635,-0.223497,-0.11519099999999999,0.45874699999999996,-0.196895,-0.22042099999999998,0.6690849999999999,-0.323077,0.151419,0.46723099999999995,-0.17284100000000002,0.265899,0.678925,-0.24860700000000002,-0.268321,0.851475,-0.448197,0.317519,0.8818549999999999,-0.360267,-0.072051,0.0004049999999999887,-0.006193000000000004,0.072051,-0.0004049999999999887,0.006193000000000004,-0.121971,0.029124999999999956,-0.319077,0.175819,0.027874999999999983,-0.290497,-0.09845099999999998,-0.22109500000000004,-0.154255,0.109979,-0.19659500000000008,-0.131989
114,0.0252265,0.651515,-0.22181499999999998,-0.11535350000000001,0.459704,-0.195054,-0.22034349999999997,0.671795,-0.318705,0.1513565,0.467508,-0.171263,0.2660265,0.6748149999999999,-0.24606499999999998,-0.2697635,0.853405,-0.445985,0.3174865,0.883455,-0.359285,-0.0719735,0.00021500000000002073,-0.0061350000000000016,0.0719735,-0.00021500000000002073,0.0061350000000000016,-0.1218335,0.013454999999999995,-0.318885,0.1757665,0.012064999999999992,-0.290115,-0.10020350000000001,-0.23724500000000004,-0.156079,0.1110115,-0.21540499999999996,-0.133233
115,0.025184,0.656625,-0.2193285,-0.11549799999999999,0.46070200000000006,-0.1926525,-0.220018,0.6713450000000001,-0.3140385,0.15116200000000002,0.46916300000000005,-0.1690565,0.266142,0.676845,-0.2430285,-0.271118,0.857515,-0.4415785,0.317562,0.8930250000000001,-0.3579485,-0.071868,-4.499999999996174e-05,-0.00610150000000001,0.071868,4.500000000001725e-05,0.006101499999999996,-0.12156800000000001,-0.0070649999999999324,-0.31872849999999997,0.175792,-0.00854499999999997,-0.2894085,-0.101578,-0.25978499999999993,-0.1581045,0.112515,-0.24123499999999998,-0.1348935
116,0.0247225,0.662275,-0.2136165,-0.11606650000000002,0.463133,-0.1882875,-0.2206165,0.671235,-0.3056565,0.1509435,0.47188,-0.16576249999999998,0.2666735,0.681335,-0.2399365,-0.2732665,0.865105,-0.4335465,0.31725349999999997,0.898575,-0.35380649999999997,-0.0717065,-0.0003449999999999842,-0.005823499999999995,0.0717065,0.0003449999999999842,0.005823499999999995,-0.1209065,-0.03457499999999997,-0.3176265,0.1755435,-0.03635499999999997,-0.2879365,-0.10213650000000002,-0.29371499999999995,-0.1584595,0.11437349999999999,-0.27934499999999995,-0.1360615
117,0.024201999999999998,0.66664,-0.206533,-0.11690700000000001,0.466963,-0.183525,-0.22088700000000003,0.66995,-0.29523299999999997,0.150683,0.47484200000000004,-0.16177599999999998,0.266283,0.68701,-0.235513,-0.27457699999999996,0.87226,-0.423153,0.31673300000000004,0.90353,-0.348033,-0.071467,-0.00039999999999995595,-0.005616999999999997,0.071467,0.00040000000000001146,0.005617000000000011,-0.11990700000000001,-0.06313999999999997,-0.315733,0.174953,-0.06476999999999994,-0.285853,-0.102607,-0.32953999999999994,-0.15837299999999999,0.11632100000000001,-0.31877,-0.136843
118,0.0236515,0.667975,-0.19855699999999998,-0.11785949999999999,0.47082500000000005,-0.177352,-0.22148950000000003,0.667635,-0.283965,0.1503405,0.47716500000000006,-0.156616,0.2658205,0.691945,-0.230555,-0.2769295,0.878865,-0.411115,0.3156005,0.907965,-0.339965,-0.0711695,-0.0005449999999999622,-0.005684999999999996,0.0711695,0.0005450000000000177,0.005684999999999996,-0.11848949999999998,-0.09174499999999997,-0.312105,0.17412049999999998,-0.093615,-0.282035,-0.1030495,-0.365645,-0.157001,0.1179715,-0.35882499999999995,-0.136312
119,0.0230975,0.672655,-0.19015300000000002,-0.11862149999999999,0.476345,-0.170656,-0.2220615,0.6668050000000001,-0.272046,0.1503785,0.482725,-0.150356,0.2655185,0.697425,-0.225436,-0.2793315,0.886595,-0.398236,0.3142485,0.912575,-0.33068600000000004,-0.0708615,-0.0006049999999999667,-0.005634,0.0708615,0.0006050000000000222,0.005634,-0.11689149999999998,-0.11902499999999999,-0.307606,0.1729185,-0.12057499999999999,-0.27706600000000003,-0.10279150000000001,-0.402185,-0.154974,0.11944849999999999,-0.397775,-0.135221
120,0.022443999999999995,0.6750149999999999,-0.1805875,-0.11949900000000002,0.479445,-0.1640255,-0.222759,0.6758649999999999,-0.25964750000000003,0.15071099999999998,0.48739499999999997,-0.14436949999999998,0.265021,0.7034149999999999,-0.2188775,-0.281559,0.890685,-0.38236749999999997,0.31273100000000004,0.9177649999999999,-0.3199375,-0.070609,-0.0007449999999999957,-0.005444500000000005,0.070609,0.0007449999999999957,0.005444500000000005,-0.115209,-0.140905,-0.30160750000000003,0.17138099999999998,-0.142285,-0.27086750000000004,-0.10297900000000001,-0.434295,-0.1523505,0.12070999999999998,-0.43523500000000004,-0.1334605
121,0.021668999999999997,0.67807,-0.1693435,-0.120471,0.4838,-0.1559645,-0.22321100000000002,0.6764399999999999,-0.2462125,0.150999,0.49147,-0.1367925,0.264619,0.70899,-0.2107325,-0.28366100000000005,0.8966799999999999,-0.3649325,0.311579,0.9186099999999999,-0.30769250000000004,-0.07031,-0.0005799999999999972,-0.005201499999999998,0.07031,0.0005799999999999972,0.005201499999999998,-0.113481,-0.1614,-0.2931825,0.169599,-0.16276000000000002,-0.2628025,-0.103661,-0.46488999999999997,-0.14806750000000002,0.121578,-0.46637,-0.1297545
122,0.020708500000000005,0.68039,-0.156101,-0.12168549999999999,0.48808,-0.146189,-0.2242555,0.67725,-0.231394,0.1513645,0.49423,-0.127837,0.2640345,0.7159800000000001,-0.20039400000000002,-0.2863455,0.90295,-0.343764,0.3104445,0.9205,-0.293354,-0.0701635,-0.0003599999999999992,-0.0048850000000000005,0.0701635,0.0003599999999999992,0.0048850000000000005,-0.1116255,-0.18092999999999998,-0.281664,0.16730450000000002,-0.18201,-0.251594,-0.10466550000000001,-0.49390999999999996,-0.142556,0.1221635,-0.49585999999999997,-0.124679
123,0.019505500000000002,0.682615,-0.14215099999999997,-0.1229125,0.49173500000000003,-0.13638299999999998,-0.22630249999999996,0.674015,-0.215797,0.15178750000000002,0.497035,-0.118721,0.2631575,0.725115,-0.189857,-0.2890125,0.909435,-0.32280699999999996,0.3087875,0.924505,-0.277777,-0.0699355,-0.00022500000000000298,-0.004498999999999989,0.0699355,0.00022500000000000298,0.004499000000000003,-0.10964249999999999,-0.19812499999999997,-0.268677,0.1646375,-0.19913499999999998,-0.239067,-0.1059025,-0.519785,-0.136432,0.1224555,-0.522435,-0.11926599999999998
124,0.018826000000000002,0.6824600000000001,-0.12880999999999998,-0.12382299999999999,0.49512999999999996,-0.127245,-0.22729300000000002,0.67378,-0.20001799999999997,0.152067,0.50011,-0.11025099999999999,0.262007,0.72672,-0.17970799999999998,-0.291263,0.91384,-0.303538,0.306967,0.92699,-0.262998,-0.069704,-7.999999999999674e-05,-0.004397999999999999,0.069704,7.999999999999674e-05,0.004397999999999999,-0.107493,-0.21205,-0.255148,0.161627,-0.21277,-0.22544799999999998,-0.107043,-0.5410999999999999,-0.130631,0.12259500000000001,-0.5440499999999999,-0.11381
125,0.018447,0.681015,-0.1188055,-0.125141,0.498225,-0.11992449999999999,-0.22940100000000002,0.6740550000000001,-0.1880325,0.152229,0.501485,-0.10333149999999999,0.260959,0.7266950000000001,-0.16998249999999998,-0.293161,0.9155850000000001,-0.2875525,0.30555899999999997,0.931475,-0.25123249999999997,-0.069448,5.0000000000050004e-06,-0.0042805,0.069448,-5.0000000000050004e-06,0.0042805000000000065,-0.105981,-0.220115,-0.2421525,0.15850899999999998,-0.220785,-0.2121325,-0.10815099999999998,-0.552825,-0.1265095,0.122241,-0.556735,-0.1087205
126,0.0182415,0.680987,-0.1098895,-0.1265205,0.500017,-0.1129685,-0.2298605,0.6757770000000001,-0.17686249999999998,0.1526395,0.5026970000000001,-0.0966495,0.2597895,0.7253470000000001,-0.1604725,-0.2951705,0.9181870000000001,-0.2730125,0.30446949999999995,0.9365070000000001,-0.24051250000000002,-0.0692435,-4.300000000000137e-05,-0.004117499999999996,0.0692435,4.300000000000137e-05,0.004117500000000003,-0.1047805,-0.227173,-0.2292725,0.1555695,-0.228483,-0.1994125,-0.10924049999999999,-0.563253,-0.1221265,0.1219985,-0.5678129999999999,-0.1037885
127,0.0182475,0.6829285,-0.10204250000000001,-0.12757649999999998,0.5026885,-0.10701050000000001,-0.23012649999999998,0.6832185000000001,-0.1669275,0.15326350000000002,0.5054585,-0.0905465,0.2583935,0.7257385000000001,-0.1512885,-0.2968465,0.9239385,-0.2600675,0.30349349999999997,0.9422985,-0.23083749999999997,-0.0691395,1.8500000000004624e-05,-0.003763499999999996,0.0691395,-1.8500000000004624e-05,0.003763500000000003,-0.10391650000000001,-0.23308150000000002,-0.21707749999999998,0.1526535,-0.23474150000000002,-0.18754749999999998,-0.1102665,-0.5724914999999999,-0.1180195,0.12180049999999999,-0.5774115,-0.0995865
128,0.0185635,0.6815125,-0.094939,-0.1284315,0.5044425,-0.101536,-0.23151149999999998,0.6896424999999999,-0.158253,0.1535785,0.5057725,-0.085357,0.2574285,0.7269625,-0.142232,-0.2973215,0.9308925,-0.246343,0.3028485,0.9484425,-0.221403,-0.0688655,0.00019349999999999923,-0.0035369999999999985,0.0688655,-0.00019349999999999923,0.0035369999999999985,-0.1031115,-0.24257750000000003,-0.204823,0.1495785,-0.24419749999999998,-0.174843,-0.11096150000000002,-0.5851875000000001,-0.11427000000000001,0.1209915,-0.5899775,-0.09585099999999999
129,0.018665,0.686197,-0.088467,-0.129604,0.506867,-0.09636800000000001,-0.233094,0.6899569999999999,-0.15032600000000002,0.153796,0.507157,-0.080014,0.256456,0.728057,-0.134154,-0.29741399999999996,0.9391269999999999,-0.235056,0.30244600000000005,0.951087,-0.212246,-0.068583,0.00032300000000000384,-0.003388000000000002,0.068583,-0.0003229999999999969,0.003388000000000002,-0.102404,-0.251993,-0.193026,0.146366,-0.253443,-0.162406,-0.11158399999999999,-0.5973430000000001,-0.110716,0.120138,-0.602013,-0.09220500000000001
130,0.018014999999999996,0.690048,-0.077945,-0.131212,0.5082180000000001,-0.087001,-0.23511200000000002,0.695748,-0.138126,0.153328,0.507858,-0.07075200000000001,0.254728,0.7283580000000001,-0.121783,-0.29813199999999995,0.9409080000000001,-0.218992,0.301728,0.9547180000000001,-0.198342,-0.068493,0.0005880000000000017,-0.0036440000000000014,0.068493,-0.0005879999999999982,0.0036440000000000014,-0.102782,-0.260722,-0.176702,0.14240799999999998,-0.26209200000000005,-0.145052,-0.11302200000000001,-0.6081719999999999,-0.10224,0.118436,-0.613122,-0.082979
131,0.016367999999999997,0.6924330000000001,-0.06754,-0.13389800000000002,0.509283,-0.076008,-0.23760799999999999,0.702823,-0.126889,0.152242,0.506613,-0.060644,0.253152,0.728723,-0.109258,-0.299588,0.9423630000000001,-0.203907,0.300472,0.955383,-0.18388700000000002,-0.068485,0.000256000000000001,-0.0036120000000000006,0.068485,-0.0002559999999999993,0.0036120000000000006,-0.103948,-0.273207,-0.157507,0.136382,-0.274267,-0.124947,-0.11560800000000002,-0.620107,-0.090454,0.11573,-0.625687,-0.070578
132,0.014649000000000002,0.694917,-0.0576245,-0.136624,0.510157,-0.0649285,-0.240184,0.709797,-0.1158715,0.151116,0.5062369999999999,-0.0502305,0.251516,0.728077,-0.09681050000000001,-0.301454,0.944237,-0.1888245,0.299086,0.955147,-0.16918450000000002,-0.068519,3.200000000000013e-05,-0.0035295000000000014,0.068519,-3.199999999999991e-05,0.003529499999999998,-0.105404,-0.285673,-0.1385345,0.130246,-0.286833,-0.1045765,-0.118324,-0.6320830000000001,-0.07817650000000001,0.112989,-0.6381530000000001,-0.0578085
133,0.012903000000000001,0.6984135,-0.0482385,-0.139244,0.5108535,-0.0543545,-0.242644,0.7164634999999999,-0.10552049999999999,0.15006599999999998,0.5042835,-0.040460499999999996,0.249936,0.7286535,-0.0850455,-0.302574,0.9458335,-0.1744905,0.29660600000000004,0.9481634999999999,-0.1552505,-0.068587,-0.00014450000000000053,-0.0033054999999999994,0.068587,0.00014450000000000053,0.0033054999999999994,-0.10688399999999999,-0.2964865,-0.1201905,0.12428600000000001,-0.29785649999999997,-0.08502950000000001,-0.121024,-0.6425065,-0.06604750000000001,0.11024400000000001,-0.6489065,-0.0451145
134,0.011399499999999998,0.70276,-0.0398055,-0.14154550000000002,0.5104500000000001,-0.0449735,-0.2448455,0.72224,-0.0961735,0.1493745,0.50341,-0.031074499999999998,0.24855449999999998,0.72965,-0.0742075,-0.3031955,0.94706,-0.1605995,0.2940345,0.94348,-0.1411095,-0.0685505,-0.000168999999999999,-0.0033195,0.0685505,0.00016900000000000248,0.0033195000000000004,-0.1087655,-0.30461,-0.1022785,0.1187245,-0.30607999999999996,-0.0657625,-0.12369550000000001,-0.6512399999999999,-0.0536335,0.1076905,-0.65784,-0.0323555
135,0.009927499999999999,0.7070275,-0.031726,-0.1436565,0.5101275,-0.035692,-0.24734650000000002,0.7280775,-0.087719,0.1487435,0.5023775,-0.022062,0.2473035,0.7306374999999999,-0.063571,-0.3037665,0.9481875,-0.147263,0.2915735,0.9398275,-0.126903,-0.0684945,-0.00021149999999999988,-0.00333,0.0684945,0.00021149999999999988,0.00333,-0.1107365,-0.3129325,-0.084394,0.1134135,-0.3139425,-0.046686,-0.1262865,-0.6603425,-0.041289,0.1056595,-0.6639225,-0.019271
136,0.008487500000000002,0.711499,-0.0237715,-0.1457335,0.509899,-0.0265805,-0.2498535,0.7302489999999999,-0.0794175,0.14809650000000002,0.5013489999999999,-0.0132765,0.2461065,0.731239,-0.053198499999999996,-0.3042435,0.947979,-0.1341315,0.2892165,0.936449,-0.1133615,-0.06835050000000001,-0.00019800000000000373,-0.003315499999999999,0.06835050000000001,0.0001979999999999968,0.0033155000000000007,-0.1128535,-0.321311,-0.0668225,0.10845650000000001,-0.322091,-0.027776500000000003,-0.1287335,-0.669321,-0.0291415,0.1035355,-0.670811,-0.0060205
137,0.006976999999999995,0.716235,-0.0159525,-0.14794800000000002,0.509835,-0.017605500000000003,-0.252538,0.7329749999999999,-0.0712585,0.147482,0.500105,-0.0046455,0.24493199999999998,0.731635,-0.0432905,-0.305268,0.9462649999999999,-0.12252950000000001,0.286932,0.933265,-0.1005595,-0.06820999999999999,-0.00021799999999999597,-0.0032315000000000017,0.06820999999999999,0.00021800000000000291,0.0032314999999999983,-0.115058,-0.331015,-0.0492745,0.104074,-0.331275,-0.010157500000000003,-0.13106800000000002,-0.6785650000000001,-0.0162425,0.10145699999999999,-0.678205,0.006882499999999998
138,0.005576499999999998,0.7156985,-0.008423,-0.1501575,0.5096284999999999,-0.008999999999999998,-0.2553575,0.7364784999999999,-0.063432,0.1468525,0.49803849999999994,0.003380000000000001,0.24385249999999997,0.7322784999999999,-0.033831,-0.30644750000000004,0.9452984999999999,-0.11156200000000001,0.2848925,0.9305585,-0.088692,-0.0680955,-0.00022449999999999554,-0.0031610000000000006,0.0680955,0.00022450000000000248,0.0031610000000000006,-0.1173675,-0.3401115,-0.03236699999999999,0.1000585,-0.33966149999999995,0.007043000000000001,-0.13320749999999998,-0.6871215,-0.003741999999999999,0.0990735,-0.6847215,0.020431
139,0.004856000000000001,0.7158735,-0.005804499999999997,-0.151652,0.5097735,-0.005327499999999999,-0.256572,0.7358935,-0.06011849999999999,0.146918,0.49680349999999995,0.006514500000000003,0.243448,0.7333135,-0.0295415,-0.307122,0.9445335,-0.1060375,0.283598,0.9282435,-0.0819775,-0.068025,-0.0004395000000000024,-0.002817499999999997,0.068025,0.0004395000000000024,0.0028175000000000006,-0.118992,-0.3481065,-0.0208985,0.096855,-0.3469165,0.0184505,-0.134582,-0.6941465,0.0033515000000000003,0.097414,-0.6904165,0.027873500000000002
140,0.004865999999999995,0.716414,-0.005208500000000001,-0.15174900000000002,0.509424,-0.004699500000000002,-0.257019,0.736304,-0.058423499999999996,0.147361,0.49813399999999997,0.0077325,0.24318099999999998,0.734104,-0.027229500000000004,-0.307139,0.945624,-0.10333049999999999,0.283141,0.929884,-0.07802049999999999,-0.06803000000000001,-0.00013499999999999623,-0.0027784999999999997,0.06803000000000001,0.00013500000000000317,0.0027784999999999997,-0.11968900000000002,-0.348676,-0.014802500000000003,0.09592,-0.347626,0.0244325,-0.134969,-0.694676,0.006361499999999999,0.096802,-0.691236,0.0311595
141,0.0048524999999999974,0.7167330000000001,-0.004532500000000002,-0.1518285,0.509313,-0.004304499999999999,-0.2573585,0.7368330000000001,-0.057792500000000004,0.1474815,0.49860299999999996,0.008380499999999999,0.2429615,0.7349030000000001,-0.025286500000000003,-0.30733849999999996,0.9465530000000001,-0.10096350000000001,0.28275150000000004,0.931363,-0.07488349999999999,-0.06802749999999999,2.5999999999998247e-05,-0.002801500000000002,0.06802749999999999,-2.6000000000005186e-05,0.0028014999999999984,-0.12030850000000001,-0.349077,-0.0093525,0.0951525,-0.348117,0.029520499999999998,-0.13543850000000002,-0.6948369999999999,0.0089575,0.0963125,-0.691797,0.0340085
142,0.0048245,0.7169989999999999,-0.004018999999999998,-0.15190150000000002,0.509249,-0.003979999999999997,-0.2577315,0.737319,-0.057303999999999994,0.14759850000000002,0.499039,0.008918000000000002,0.2427585,0.7356389999999999,-0.023509999999999996,-0.3075815,0.947369,-0.098837,0.2823985,0.932689,-0.071974,-0.0680215,0.00014000000000000123,-0.0028520000000000004,0.0680215,-0.00014000000000000123,0.0028520000000000004,-0.1208915,-0.34932100000000005,-0.004253,0.09445049999999999,-0.348461,0.034211000000000005,-0.13582149999999998,-0.694971,0.011314000000000001,0.0957995,-0.6925410000000001,0.036406
143,0.005075000000000005,0.7170489999999999,-0.003927499999999997,-0.151654,0.509289,-0.0038874999999999986,-0.257604,0.737559,-0.0568325,0.147926,0.499109,0.0091035,0.242816,0.736119,-0.022443499999999998,-0.30745399999999995,0.947829,-0.09774649999999999,0.282376,0.933419,-0.0702325,-0.067806,0.00014000000000000123,-0.002849499999999998,0.067806,-0.00014000000000000123,0.0028495000000000013,-0.12159400000000001,-0.34932100000000005,-0.0013045,0.094309,-0.34843100000000005,0.0372375,-0.136024,-0.694601,0.012738500000000002,0.09608,-0.690691,0.037902500000000006
144,0.005460499999999998,0.7171885,-0.003841500000000001,-0.1513275,0.5094185,-0.003807500000000002,-0.25731750000000003,0.7377285,-0.05675650000000001,0.1483125,0.4992085,0.009190499999999997,0.2430725,0.7365685,-0.0217525,-0.3070975,0.9483185000000001,-0.09766649999999999,0.28263249999999995,0.9335085000000001,-0.06949849999999999,-0.06757350000000001,0.0002324999999999966,-0.0028335000000000027,0.06757350000000001,-0.00023250000000000354,0.002833499999999999,-0.12211749999999999,-0.34923150000000003,0.0008134999999999983,0.09430949999999999,-0.3483415,0.039599499999999996,-0.1361575,-0.6942714999999999,0.013998499999999999,0.0963665,-0.6892214999999999,0.0390455
145,0.005866999999999997,0.7173269999999999,-0.0037575000000000004,-0.150951,0.509587,-0.0037265000000000006,-0.256851,0.7378469999999999,-0.05666550000000001,0.148759,0.499407,0.0092795,0.243389,0.736987,-0.0213685,-0.306541,0.948437,-0.0975695,0.282949,0.933627,-0.0692175,-0.06735,0.0003650000000000042,-0.0028055000000000024,0.06735,-0.00036499999999999727,0.002805499999999999,-0.122561,-0.349113,0.0025024999999999978,0.094389,-0.348223,0.0413275,-0.136231,-0.694123,0.015118499999999998,0.09665199999999999,-0.687883,0.039959499999999995
146,0.0061500000000000036,0.717597,-0.003744000000000001,-0.15066799999999997,0.509867,-0.003644999999999999,-0.256588,0.738107,-0.05658500000000001,0.14912199999999998,0.49971699999999997,0.009371,0.24365199999999998,0.737387,-0.021287999999999998,-0.306258,0.948697,-0.09747900000000001,0.283212,0.933887,-0.069137,-0.067206,0.0005330000000000057,-0.002766000000000001,0.067206,-0.0005329999999999988,0.002766000000000001,-0.12275799999999999,-0.348943,0.0032429999999999994,0.09463,-0.348103,0.041559,-0.13624799999999998,-0.693843,0.015932,0.096865,-0.686613,0.040513
147,0.006340500000000002,0.7178610000000001,-0.0041030000000000025,-0.1505665,0.5100910000000001,-0.003705,-0.2564765,0.738371,-0.056825999999999995,0.1492935,0.500081,0.009404,0.2437635,0.7376510000000001,-0.021219000000000002,-0.30615649999999994,0.948961,-0.09743399999999999,0.28359350000000005,0.934061,-0.06903799999999999,-0.0671195,0.000686000000000006,-0.002744,0.0671195,-0.0006859999999999991,0.002744,-0.12297649999999999,-0.348849,0.003646,0.0947385,-0.348069,0.041627,-0.13640649999999999,-0.693579,0.016606999999999997,0.0969465,-0.686349,0.040578
148,0.006713,0.7180394999999999,-0.004971999999999997,-0.150445,0.5102595000000001,-0.003912999999999996,-0.256345,0.7384495,-0.057677,0.14941500000000002,0.5003595000000001,0.009369000000000002,0.243935,0.7378695,-0.021126,-0.306035,0.9490894999999999,-0.098381,0.284135,0.9339394999999999,-0.06890299999999999,-0.06711800000000001,0.0007855000000000015,-0.002756999999999999,0.06711800000000001,-0.0007855000000000015,0.0027570000000000025,-0.123025,-0.3487805,0.003714000000000002,0.09476899999999999,-0.3480705,0.041704000000000005,-0.136625,-0.6934505,0.017101,0.096938,-0.6861305,0.04065100000000001
149,0.007456999999999998,0.7182065,-0.006109500000000004,-0.150251,0.5104165,-0.004236500000000004,-0.255061,0.7376065,-0.0602815,0.14959899999999998,0.5006365,0.009349499999999997,0.24498899999999998,0.7380765,-0.021402500000000005,-0.305001,0.9478865,-0.1016405,0.28573899999999997,0.9334165,-0.06950250000000001,-0.06711,0.0008504999999999971,-0.002829500000000002,0.06711,-0.000850500000000004,0.0028294999999999987,-0.12304100000000001,-0.34878349999999997,0.003854499999999997,0.094798,-0.34806349999999997,0.0418495,-0.13676100000000002,-0.6933935,0.017404499999999996,0.09692200000000001,-0.6859235,0.040791499999999994
150,0.008917999999999995,0.7182645,-0.007791500000000003,-0.148543,0.5101545000000001,-0.005969499999999999,-0.253473,0.7365445,-0.0635485,0.15079700000000001,0.5014745,0.009143499999999999,0.246897,0.7382445,-0.0220195,-0.30352300000000004,0.9459445000000001,-0.10597050000000001,0.288427,0.9326545,-0.0708125,-0.067056,0.0008934999999999985,-0.0029404999999999987,0.067056,-0.0008935000000000054,0.0029404999999999987,-0.123113,-0.3490755,0.0041245,0.094917,-0.34822549999999997,0.0412165,-0.13686299999999998,-0.6932355,0.0176705,0.09659399999999999,-0.6868055,0.0402215
151,0.010551000000000001,0.7183025000000001,-0.009653999999999996,-0.146679,0.5097325,-0.007980000000000001,-0.251359,0.7346525,-0.067845,0.152211,0.5017225000000001,0.009018000000000002,0.249731,0.7381125000000001,-0.023069,-0.301319,0.9429725,-0.11215199999999999,0.291891,0.9316525,-0.073132,-0.06693199999999999,0.0009194999999999967,-0.003141999999999999,0.06693199999999999,-0.0009195000000000036,0.0031420000000000024,-0.123449,-0.3494775,0.004405000000000003,0.09501499999999999,-0.34851750000000004,0.039394,-0.13721899999999998,-0.6929774999999999,0.018099000000000004,0.09626699999999999,-0.6878974999999999,0.039527
152,0.012641999999999999,0.718125,-0.011944000000000003,-0.144796,0.509075,-0.010503000000000005,-0.248506,0.729695,-0.07358,0.153914,0.502275,0.009627999999999998,0.255114,0.736715,-0.024527,-0.296946,0.936355,-0.12238000000000002,0.29848399999999997,0.929055,-0.07702,-0.066744,0.0008709999999999968,-0.003616000000000001,0.066744,-0.0008710000000000037,0.0036159999999999977,-0.12420600000000001,-0.349975,0.004822999999999997,0.094891,-0.348885,0.036282999999999996,-0.138476,-0.693025,0.019101,0.095176,-0.688945,0.039076
153,0.014720000000000002,0.7182105,-0.013995500000000001,-0.142899,0.5079805000000001,-0.013373500000000003,-0.24599900000000002,0.7223205,-0.0807785,0.15614099999999997,0.5032805,0.0114405,0.262371,0.7317105,-0.0254285,-0.290209,0.9278305,-0.1376085,0.30713100000000004,0.9222805000000001,-0.0819385,-0.066638,0.0008024999999999977,-0.004230499999999998,0.066638,-0.0008025000000000046,0.004230499999999998,-0.125809,-0.3506095,0.0052145,0.094053,-0.3485195,0.0322285,-0.14141900000000002,-0.6917795,0.021066500000000002,0.092434,-0.6897894999999999,0.0392635
154,0.0171735,0.7183965,-0.015984000000000005,-0.1408915,0.5061865,-0.016426000000000003,-0.24397149999999998,0.7111265,-0.091829,0.1586485,0.5052665,0.014368999999999996,0.2726985,0.7221665,-0.026495000000000005,-0.2790915,0.9172165,-0.15939899999999999,0.3183085,0.9103265,-0.08892900000000001,-0.06625249999999999,0.0006354999999999972,-0.005059000000000001,0.06625249999999999,-0.0006354999999999972,0.0050589999999999975,-0.1274015,-0.3511335,0.004331999999999996,0.09277350000000001,-0.3476935,0.027679999999999996,-0.1459815,-0.6897335,0.023578999999999996,0.0878535,-0.6897235,0.040164
155,0.019607499999999996,0.7183325,-0.017669499999999998,-0.1397055,0.5044125,-0.019052499999999993,-0.2424755,0.6986225,-0.10309449999999999,0.1602545,0.5074425,0.017744500000000003,0.28369449999999996,0.7106425000000001,-0.0269755,-0.2658555,0.9026825,-0.1832045,0.3299545,0.8959925,-0.09662449999999999,-0.06592150000000001,0.00047449999999999576,-0.005832499999999997,0.06592150000000001,-0.0004745000000000027,0.005832500000000004,-0.1286555,-0.3521975,0.002202500000000003,0.0910845,-0.3468775,0.023388500000000007,-0.15101550000000002,-0.6872375,0.026274500000000006,0.0823575,-0.6893775,0.04139350000000001
156,0.021041499999999998,0.718993,-0.017897499999999997,-0.1385825,0.501323,-0.021349499999999993,-0.2424525,0.680223,-0.1165675,0.1613375,0.509293,0.0227085,0.2958675,0.6911529999999999,-0.025691500000000006,-0.2524425,0.8753930000000001,-0.20880749999999998,0.3419975,0.8737029999999999,-0.10502750000000001,-0.06563150000000001,0.0005119999999999986,-0.0067474999999999966,0.06563150000000001,-0.0005119999999999986,0.0067475000000000035,-0.1279325,-0.35268700000000003,-0.005344500000000002,0.08813750000000001,-0.347167,0.0204725,-0.1563425,-0.6840269999999999,0.0284245,0.0741765,-0.6877869999999999,0.0440495
157,0.021926499999999998,0.7197835,-0.0172775,-0.1376335,0.49680349999999995,-0.0232285,-0.2434435,0.6573735,-0.1310685,0.1613665,0.5105435,0.0282255,0.3073565,0.6688535,-0.024106500000000003,-0.2359235,0.8454835,-0.23795850000000002,0.3535565,0.8468435,-0.11506849999999999,-0.06582450000000001,0.0005625000000000005,-0.0075625,0.06582450000000001,-0.0005625000000000005,0.0075625,-0.12739050000000002,-0.3536865,-0.0140505,0.0836465,-0.3473365,0.018676500000000002,-0.1608435,-0.6798765,0.029833500000000002,0.0643345,-0.6856665,0.0476265
158,0.021645499999999998,0.7208455,-0.01623150000000001,-0.1375365,0.4916055,-0.02468150000000001,-0.24607050000000003,0.6321254999999999,-0.1420365,0.15989949999999997,0.5114255000000001,0.03387749999999999,0.3164495,0.6408955000000001,-0.01802150000000001,-0.22044049999999998,0.8087854999999999,-0.2642665,0.36381949999999996,0.8137555000000001,-0.12481650000000001,-0.0658895,0.0004934999999999974,-0.008411500000000002,0.0658895,-0.0004935000000000009,0.008411499999999995,-0.12564150000000002,-0.3542445,-0.025206500000000007,0.0775395,-0.3473845,0.018184499999999992,-0.1645105,-0.6752145,0.030158499999999994,0.0528535,-0.6824345,0.051871499999999994
159,0.0218005,0.7218775,-0.015398499999999996,-0.13881749999999998,0.48697749999999995,-0.025011499999999992,-0.2483515,0.6018375,-0.1541825,0.15752850000000002,0.5114974999999999,0.0395965,0.3243585,0.6099275,-0.014557500000000001,-0.20348149999999998,0.7657575,-0.2894125,0.3742085,0.7744175,-0.1359225,-0.0660685,0.0004585000000000006,-0.009211499999999997,0.0660685,-0.0004585000000000006,0.009211500000000004,-0.1216085,-0.3531325,-0.0388825,0.0709685,-0.3481725,0.0184695,-0.1644315,-0.6701225000000001,0.0281765,0.03987449999999999,-0.6775725,0.0565945
160,0.022013000000000005,0.7228735000000001,-0.014786000000000007,-0.13994099999999998,0.48211350000000003,-0.026080000000000006,-0.25244900000000003,0.5650935,-0.16317199999999998,0.154401,0.5105835000000001,0.045336999999999995,0.325111,0.5735635,-0.0053480000000000055,-0.188189,0.7156135,-0.312912,0.383051,0.7273535000000001,-0.142602,-0.066361,0.0003625000000000017,-0.009892999999999999,0.066361,-0.00036249999999999824,0.009892999999999992,-0.11611199999999999,-0.35087650000000004,-0.054652000000000006,0.06454100000000002,-0.3507865,0.019618999999999998,-0.160592,-0.6645264999999999,0.022746999999999996,0.025624000000000008,-0.6725665,0.062217999999999996
161,0.020789500000000002,0.7246064999999999,-0.013831999999999997,-0.1381105,0.4781065,-0.029327999999999993,-0.25800049999999997,0.5266265,-0.168228,0.1501595,0.5091264999999999,0.05032600000000001,0.3198895,0.5315565,0.003490000000000007,-0.1764175,0.6604665,-0.325238,0.3843195,0.6732965,-0.142478,-0.06629949999999998,0.0003054999999999985,-0.010914999999999994,0.0662995,-0.0003055000000000002,0.010915000000000008,-0.1083855,-0.3476535,-0.07289799999999999,0.0577795,-0.3535435,0.022461000000000002,-0.1534235,-0.6591135,0.01279100000000001,0.010393500000000014,-0.6670835,0.066586
162,0.0194425,0.7261375,-0.01367900000000001,-0.1377085,0.4737275,-0.03225700000000001,-0.2641075,0.4848775,-0.172887,0.14471250000000002,0.5053575,0.05398299999999999,0.3103025,0.49107750000000006,0.011860999999999997,-0.1680835,0.6005975,-0.333067,0.3809725,0.6158175,-0.14028700000000002,-0.06611249999999999,0.00016850000000000025,-0.012020000000000003,0.0661125,-0.0001684999999999985,0.012019999999999989,-0.0970795,-0.3444925,-0.09367700000000001,0.04469250000000001,-0.3533525,0.02873399999999999,-0.1416115,-0.6543424999999999,-0.00159200000000001,-0.0038084999999999924,-0.6628324999999999,0.071347
163,0.019414499999999987,0.7271,-0.014758999999999994,-0.1389005,0.4696,-0.03522899999999998,-0.2649855,0.44711,-0.169599,0.13950449999999998,0.49884,0.056808000000000004,0.2953145,0.45003000000000004,0.021447000000000008,-0.1643635,0.53131,-0.326279,0.3724745,0.5480299999999999,-0.131319,-0.06625450000000001,0.00022900000000000004,-0.013498999999999997,0.06625450000000001,-0.00022900000000000004,0.013499000000000011,-0.08347550000000001,-0.34149999999999997,-0.11527899999999999,0.03373449999999999,-0.35494,0.035834000000000005,-0.1193995,-0.65025,-0.024158999999999986,-0.017926499999999998,-0.6572100000000001,0.07739800000000001
164,0.020065500000000014,0.7283485,-0.016310000000000005,-0.13972749999999998,0.4652285,-0.03813999999999999,-0.2642245,0.4084585,-0.16309,0.13564550000000003,0.4918685,0.059257,0.2818155,0.4095785,0.027770000000000003,-0.1614215,0.4558685,-0.31503,0.3604355,0.4778385,-0.12033,-0.06654549999999998,-1.0500000000000093e-05,-0.014789999999999998,0.06654550000000001,1.0499999999999876e-05,0.014789999999999998,-0.07055249999999998,-0.3377015,-0.13493,0.02299550000000003,-0.3557715,0.043863,-0.09293249999999997,-0.6460015,-0.050519999999999995,-0.031614499999999976,-0.6495215,0.084009
165,0.021865999999999997,0.728581,-0.019001500000000004,-0.140017,0.461941,-0.0417015,-0.261094,0.37278100000000003,-0.1547815,0.132046,0.485101,0.060351499999999995,0.272606,0.376251,0.0350925,-0.157779,0.389251,-0.3018815,0.347016,0.411221,-0.10913149999999999,-0.06675600000000001,-0.0002149999999999999,-0.016131499999999993,0.06675599999999998,0.0002149999999999999,0.016131499999999993,-0.05931,-0.335379,-0.14910150000000003,0.01622599999999999,-0.355759,0.0524545,-0.06292800000000001,-0.643089,-0.07876150000000001,-0.043494000000000005,-0.641699,0.0913355
166,0.02407099999999998,0.7287425000000001,-0.02295999999999998,-0.14126100000000003,0.45993249999999997,-0.04496999999999998,-0.258357,0.3417925,-0.14460999999999996,0.12852099999999997,0.4790025,0.061363000000000015,0.263451,0.3459425,0.04430100000000002,-0.158669,0.3227525,-0.28833,0.33394100000000004,0.3451025,-0.09696999999999997,-0.06647100000000002,-0.0005664999999999993,-0.01788999999999999,0.066471,0.0005665000000000002,0.017890000000000017,-0.04786900000000001,-0.3326775,-0.16235,0.010610999999999982,-0.35456750000000004,0.06192200000000002,-0.030239000000000016,-0.6408874999999999,-0.10864999999999997,-0.05613900000000001,-0.6384274999999999,0.09978600000000001
167,0.02755000000000002,0.7286060000000001,-0.027684999999999987,-0.140704,0.459036,-0.04921500000000001,-0.25279399999999996,0.312996,-0.133275,0.12712,0.47392599999999996,0.06163400000000001,0.25595,0.31962599999999997,0.054424,-0.15988299999999997,0.26078599999999996,-0.27398500000000003,0.32595,0.282006,-0.089415,-0.06641999999999998,-0.0009110000000000004,-0.01944499999999999,0.06642,0.0009109999999999986,0.019445000000000004,-0.03836999999999999,-0.329614,-0.17381499999999997,0.006030000000000008,-0.35227400000000003,0.07222400000000001,0.0035600000000000076,-0.639374,-0.14051499999999997,-0.06762999999999998,-0.633184,0.108714
168,0.03036999999999998,0.728762,-0.034150000000000014,-0.139339,0.458472,-0.05517,-0.248264,0.28833200000000003,-0.11628000000000002,0.12487999999999999,0.470092,0.06036999999999999,0.24092999999999998,0.298732,0.06763799999999999,-0.168447,0.204952,-0.25232,0.31216,0.225512,-0.07700000000000001,-0.06628,-0.0011120000000000001,-0.02063999999999999,0.06628,0.0011120000000000001,0.02063999999999999,-0.031950000000000006,-0.326588,-0.18265,-0.0038900000000000046,-0.351388,0.082259,0.032170000000000004,-0.6391979999999999,-0.16519999999999999,-0.08471000000000001,-0.630388,0.121471
169,0.031225000000000003,0.7290395000000001,-0.040135000000000004,-0.139708,0.4586895,-0.060035000000000005,-0.243952,0.2709695,-0.09787499999999999,0.121665,0.46745950000000003,0.058925000000000005,0.22310499999999997,0.2837195,0.082387,-0.178936,0.1571595,-0.22835499999999997,0.29764499999999994,0.1772495,-0.060615,-0.065935,-0.0012274999999999994,-0.022175,0.065935,0.0012275000000000012,0.022175,-0.025985000000000008,-0.3224505,-0.19059500000000001,-0.014475000000000016,-0.3512005,0.09231600000000001,0.055115,-0.6395204999999999,-0.184525,-0.102035,-0.6276805,0.13267800000000002
170,0.032865000000000005,0.7287605,-0.045485,-0.142465,0.4582405,-0.06132500000000002,-0.23822800000000002,0.2579705,-0.07570500000000002,0.119165,0.4652405,0.05860499999999999,0.204805,0.2758605,0.10068499999999998,-0.190861,0.1166005,-0.19764500000000002,0.27790499999999996,0.1379305,-0.03269500000000003,-0.06628500000000001,-0.0011304999999999996,-0.02233500000000002,0.06628500000000001,0.0011304999999999996,0.022334999999999994,-0.021475000000000022,-0.3206795,-0.19298500000000002,-0.02329500000000001,-0.3516895,0.10262499999999998,0.06912499999999996,-0.6411895,-0.19039500000000004,-0.12142500000000002,-0.6215695,0.15287199999999998
