sb224sc-HT22-VT27/4dt907/src/data/kinect_good_vs_bad_not_preprocessed_A13_mediapipe/G50.csv
FrameNo,nose_3d_x,nose_3d_y,nose_3d_z,left_shoulder_3d_x,left_shoulder_3d_y,left_shoulder_3d_z,left_elbow_3d_x,left_elbow_3d_y,left_elbow_3d_z,right_shoulder_3d_x,right_shoulder_3d_y,right_shoulder_3d_z,right_elbow_3d_x,right_elbow_3d_y,right_elbow_3d_z,left_wrist_3d_x,left_wrist_3d_y,left_wrist_3d_z,right_wrist_3d_x,right_wrist_3d_y,right_wrist_3d_z,left_hip_3d_x,left_hip_3d_y,left_hip_3d_z,right_hip_3d_x,right_hip_3d_y,right_hip_3d_z,left_knee_3d_x,left_knee_3d_y,left_knee_3d_z,right_knee_3d_x,right_knee_3d_y,right_knee_3d_z,left_ankle_3d_x,left_ankle_3d_y,left_ankle_3d_z,right_ankle_3d_x,right_ankle_3d_y,right_ankle_3d_z
0,0.013335500000000002,0.735358,0.011744499999999998,-0.1507115,0.475348,0.012475499999999997,-0.32730149999999997,0.561688,-0.09391250000000001,0.1717285,0.486468,0.0284045,0.3363685,0.576878,-0.0780825,-0.3980315,0.706328,-0.28978250000000005,0.4070785,0.7118479999999999,-0.2644225,-0.06893550000000001,0.0008579999999999998,0.00042149999999999826,0.06893550000000001,-0.0008580000000000003,-0.0004215000000000052,-0.11828150000000001,-0.330462,0.0169705,0.1108885,-0.324602,0.0334965,-0.12436149999999999,-0.620102,0.0491795,0.1287285,-0.6296120000000001,0.0598665
1,0.014127,0.734161,0.013133500000000003,-0.151709,0.47979099999999997,0.010665500000000001,-0.319249,0.5828909999999999,-0.0944025,0.174371,0.488131,0.028015500000000002,0.336511,0.602851,-0.0773125,-0.394929,0.7409209999999999,-0.2783425,0.39709099999999997,0.743401,-0.24577250000000003,-0.0688,0.000924,0.0006175,0.0688,-0.0009239999999999999,-0.0006175,-0.118839,-0.332449,0.016837500000000002,0.110161,-0.326419,0.0337435,-0.12404899999999999,-0.624259,0.0492925,0.129191,-0.627669,0.0592955
2,0.013978999999999998,0.7327009999999999,0.014050999999999998,-0.15135200000000001,0.47868099999999997,0.010102,-0.312182,0.602541,-0.091831,0.17523799999999998,0.492081,0.027632999999999998,0.33022799999999997,0.620421,-0.073491,-0.391762,0.779861,-0.263631,0.38534799999999997,0.780671,-0.227431,-0.06868199999999999,0.0008389999999999999,0.0004569999999999991,0.06868199999999999,-0.0008389999999999999,-0.0004569999999999991,-0.11971200000000001,-0.333889,0.016798,0.10886799999999999,-0.327899,0.033937999999999996,-0.125052,-0.628709,0.04974,0.127278,-0.6328590000000001,0.058702000000000004
3,0.013059499999999998,0.731127,0.014206,-0.1514155,0.47774700000000003,0.009406000000000001,-0.3177655,0.623847,-0.087669,0.17459449999999999,0.494647,0.027251,0.3253045,0.637867,-0.068799,-0.3874155,0.806417,-0.24489899999999998,0.3766445,0.813667,-0.214999,-0.0684915,0.0006299999999999999,0.00035800000000000415,0.0684915,-0.00063,-0.0003579999999999972,-0.1209355,-0.33480299999999996,0.016620000000000003,0.1073645,-0.328993,0.034244000000000004,-0.12647550000000002,-0.6297429999999999,0.050161,0.1255145,-0.635753,0.058689000000000005
4,0.0126205,0.729205,0.0150245,-0.15114650000000002,0.482965,0.0084995,-0.31283649999999996,0.630415,-0.08164350000000001,0.17395349999999998,0.495635,0.0273775,0.32032350000000004,0.6622549999999999,-0.06855349999999999,-0.38359649999999995,0.816075,-0.23078349999999997,0.3654735,0.831235,-0.20084349999999998,-0.06826750000000001,0.0005679999999999999,-2.1500000000000685e-05,0.06826750000000001,-0.0005680000000000004,2.1500000000000685e-05,-0.1221065,-0.336475,0.0169195,0.1063135,-0.330535,0.0347685,-0.1277865,-0.631345,0.050520499999999996,0.12527349999999998,-0.628685,0.0598005
5,0.012432000000000002,0.7272635000000001,0.016030999999999997,-0.150962,0.4868135,0.008583999999999998,-0.301562,0.6517535,-0.076096,0.173118,0.49534350000000005,0.028210999999999996,0.318048,0.6692535000000001,-0.061765,-0.377202,0.8370935,-0.20774600000000001,0.352118,0.8587035000000001,-0.172326,-0.06809,0.0006905000000000001,-0.0006610000000000019,0.06809,-0.0006905000000000001,0.0006609999999999949,-0.12312200000000001,-0.33808649999999996,0.017672999999999998,0.106588,-0.3284665,0.035917,-0.128972,-0.6326165,0.051594,0.12492799999999998,-0.6248665,0.061013
6,0.0129475,0.7257805,0.015759499999999996,-0.1504315,0.48920050000000004,0.007766499999999996,-0.2956015,0.6665905,-0.0721725,0.17345850000000002,0.5008305000000001,0.027317499999999998,0.3033585,0.6844205,-0.05044950000000001,-0.37183150000000004,0.8485605,-0.1948225,0.34542849999999997,0.8624905,-0.1575925,-0.0679405,0.0006674999999999997,-0.0010095000000000035,0.0679405,-0.0006674999999999997,0.0010094999999999965,-0.1239815,-0.33944949999999996,0.017806499999999996,0.10578850000000001,-0.32856949999999996,0.0363955,-0.1265215,-0.6502595,0.05276449999999999,0.1237785,-0.6271895,0.0616085
7,0.014792000000000003,0.7240730000000001,0.010912999999999996,-0.150223,0.49185300000000004,0.009895999999999999,-0.293753,0.6742630000000001,-0.063995,0.169287,0.49977299999999997,0.027136999999999998,0.299817,0.693223,-0.04309,-0.367863,0.8742230000000001,-0.170972,0.339817,0.887973,-0.137612,-0.067995,0.0003960000000000005,-0.000898000000000003,0.067995,-0.0003960000000000005,0.000897999999999996,-0.12410299999999999,-0.340597,0.017546999999999997,0.10563700000000001,-0.331017,0.036301,-0.130373,-0.637177,0.051498,0.123297,-0.6305069999999999,0.062672
8,0.015387000000000001,0.722541,0.009733000000000002,-0.149897,0.49467099999999997,0.010110000000000004,-0.28918699999999997,0.686461,-0.05806,0.16797299999999998,0.500841,0.027028000000000003,0.29441300000000004,0.704511,-0.036724999999999994,-0.36272699999999997,0.888031,-0.153797,0.332513,0.903131,-0.11970700000000001,-0.067934,0.0002699999999999994,-0.0010889999999999997,0.067934,-0.0002699999999999994,0.0010889999999999997,-0.124677,-0.342029,0.017794000000000004,0.105193,-0.331789,0.036660000000000005,-0.131437,-0.640229,0.051909000000000004,0.12273300000000001,-0.630979,0.06334100000000001
9,0.0161455,0.721025,0.007918000000000005,-0.1494345,0.49720499999999995,0.010438000000000006,-0.2841545,0.6984250000000001,-0.052149,0.1666755,0.501635,0.026791000000000006,0.2890255,0.7136750000000001,-0.029349,-0.3566145,0.901625,-0.13563899999999998,0.3259255,0.9169750000000001,-0.10106899999999999,-0.0678935,0.00012900000000000064,-0.0012179999999999969,0.0678935,-0.00012899999999999717,0.0012180000000000038,-0.1251245,-0.343545,0.018096000000000004,0.1048455,-0.332525,0.03700400000000001,-0.1324545,-0.6438149999999999,0.052312000000000004,0.12227550000000001,-0.632015,0.064044
10,0.016944999999999998,0.7196815,0.005679500000000004,-0.1489,0.49935149999999995,0.010683500000000005,-0.28006,0.7082515,-0.0465555,0.16546,0.5024415,0.026420500000000006,0.28351,0.7222315,-0.022228499999999998,-0.35067,0.9133515,-0.1189395,0.32055,0.9284215,-0.0844795,-0.067882,-2.6499999999998747e-05,-0.001280499999999997,0.067882,2.6499999999998747e-05,0.0012805000000000039,-0.12545,-0.3448985,0.018307500000000004,0.10439999999999999,-0.3335285,0.03719650000000001,-0.13327,-0.6472885,0.05256050000000001,0.12188999999999998,-0.6331485,0.06463050000000001
11,0.0176685,0.7182225,0.003307499999999998,-0.1483615,0.5011925,0.010895499999999999,-0.27635149999999997,0.7165325,-0.041028499999999996,0.1641785,0.5030725,0.0261745,0.2791885,0.7289925,-0.015913499999999997,-0.3450415,0.9239725,-0.10295149999999999,0.3155985,0.9401725,-0.0685715,-0.0678735,-0.00015149999999999886,-0.001292500000000002,0.0678735,0.00015150000000000233,0.001292500000000002,-0.1257115,-0.34634750000000003,0.0184895,0.10395850000000001,-0.3347275,0.0373045,-0.1344315,-0.6501375,0.052734500000000004,0.1215785,-0.6346375,0.0651815
12,0.018334,0.7168370000000001,0.0008639999999999967,-0.14778899999999998,0.5025970000000001,0.011130999999999999,-0.272429,0.722387,-0.035737,0.16288100000000003,0.503847,0.025870999999999998,0.275141,0.7345470000000001,-0.009705000000000005,-0.339149,0.9293870000000001,-0.08851200000000001,0.311321,0.9460270000000001,-0.053749,-0.067867,-0.0002690000000000019,-0.0012689999999999993,0.067867,0.0002689999999999984,0.0012689999999999993,-0.12592899999999999,-0.347963,0.018653,0.103481,-0.335833,0.037294,-0.135549,-0.652673,0.052872999999999996,0.12139099999999999,-0.636123,0.065646
13,0.018759999999999995,0.715739,-0.0012385000000000035,-0.14725600000000003,0.5034989999999999,0.011484499999999998,-0.269146,0.727359,-0.031489500000000004,0.161824,0.504199,0.025707499999999998,0.271924,0.7389089999999999,-0.004823500000000001,-0.334096,0.9335089999999999,-0.0775545,0.308224,0.952029,-0.0420985,-0.067862,-0.0003829999999999979,-0.0012035000000000032,0.067862,0.0003830000000000014,0.0012034999999999962,-0.126146,-0.349481,0.018805499999999996,0.103004,-0.336561,0.0371965,-0.136406,-0.654871,0.05302949999999999,0.12141400000000001,-0.636931,0.06600049999999999
14,0.019066500000000004,0.7146935,-0.0030610000000000012,-0.14664850000000001,0.5042935000000001,0.011944,-0.2658985,0.7315935,-0.02759500000000001,0.1610315,0.5042235,0.025807999999999998,0.26898150000000004,0.7427435,-0.0005189999999999986,-0.32931849999999996,0.9378635000000001,-0.067611,0.3054115,0.9568535,-0.031133999999999995,-0.0678445,-0.0004415000000000009,-0.0011040000000000008,0.0678445,0.0004415000000000009,0.0011040000000000008,-0.1261785,-0.3507065,0.019059999999999997,0.10254150000000001,-0.3373365,0.037131,-0.1372485,-0.6556865,0.053155999999999995,0.1214415,-0.6381264999999999,0.066205
15,0.019234499999999998,0.7132090000000001,-0.004147499999999998,-0.1461115,0.5049790000000001,0.0124645,-0.26286149999999997,0.735179,-0.024309499999999998,0.1604185,0.504129,0.0259645,0.2660985,0.743819,0.0033895000000000036,-0.3249615,0.9416990000000001,-0.0587425,0.3028285,0.959719,-0.0216675,-0.0678255,-0.00047799999999999926,-0.0010124999999999995,0.0678255,0.00047799999999999926,0.0010124999999999995,-0.1261915,-0.351871,0.019356500000000002,0.10217849999999999,-0.337791,0.0369625,-0.1378715,-0.656621,0.0534595,0.1215385,-0.639141,0.0664055
16,0.019316499999999997,0.711734,-0.004973999999999999,-0.14563350000000003,0.505474,0.013102000000000003,-0.26014349999999997,0.7383839999999999,-0.021415999999999998,0.15995649999999997,0.5037739999999999,0.026147000000000004,0.2632665,0.744514,0.007140000000000004,-0.3214135,0.944164,-0.051559999999999995,0.30034649999999996,0.962394,-0.012889999999999999,-0.06779450000000001,-0.0004940000000000014,-0.0009069999999999981,0.06779450000000001,0.0004939999999999944,0.000907000000000005,-0.12619350000000001,-0.353036,0.019740000000000004,0.1018665,-0.338096,0.036686,-0.1383735,-0.658286,0.053785,0.12162650000000001,-0.640066,0.066611
17,0.019347499999999993,0.7103499999999999,-0.0055619999999999975,-0.1452525,0.50579,0.013714,-0.2578325,0.73875,-0.019109,0.1595775,0.5034,0.026331,0.2607775,0.7451099999999999,0.010595,-0.3183725,0.94613,-0.045432999999999994,0.2983375,0.96392,-0.005920999999999996,-0.0677565,-0.0004930000000000004,-0.0007990000000000011,0.0677565,0.0004930000000000004,0.0007990000000000011,-0.1261725,-0.35405,0.020062,0.1015875,-0.33826999999999996,0.036419,-0.1387925,-0.6601400000000001,0.054125,0.12176749999999999,-0.6408400000000001,0.066821
18,0.019242000000000006,0.7091829999999999,-0.005753000000000001,-0.14507699999999998,0.505803,0.014253000000000002,-0.25616700000000003,0.738623,-0.017192,0.159313,0.503153,0.026462,0.258803,0.745193,0.013073000000000001,-0.316817,0.9472929999999999,-0.041896,0.296823,0.964763,-0.0012759999999999994,-0.067722,-0.0004699999999999982,-0.0007059999999999983,0.067722,0.00047000000000000514,0.0007059999999999983,-0.126127,-0.354777,0.020255,0.10139300000000001,-0.33830699999999997,0.036099,-0.139097,-0.6616470000000001,0.05437,0.121943,-0.6412869999999999,0.066928
19,0.0190395,0.7081200000000001,-0.005702499999999999,-0.1450225,0.50577,0.014814500000000001,-0.2548725,0.73826,-0.015551499999999996,0.1590675,0.50287,0.026625500000000003,0.2571975,0.7451300000000001,0.015138500000000003,-0.3159125,0.94798,-0.0394985,0.2955275,0.9648500000000001,0.0021385000000000015,-0.06768350000000001,-0.000446999999999996,-0.0006034999999999999,0.06768350000000001,0.00044700000000000295,0.0006034999999999999,-0.1260525,-0.35546,0.020397500000000002,0.10124749999999999,-0.33831,0.0357125,-0.1393825,-0.66301,0.054586499999999996,0.12180750000000001,-0.6424,0.0669685
20,0.018924,0.707396,-0.005600000000000001,-0.145038,0.505786,0.015342999999999999,-0.253938,0.737866,-0.014283000000000004,0.158902,0.502126,0.026812,0.256012,0.745186,0.016760999999999998,-0.315418,0.948496,-0.037856,0.294462,0.964346,0.004454,-0.067662,-0.000452000000000001,-0.0005080000000000015,0.067662,0.000452000000000001,0.0005080000000000015,-0.125928,-0.355894,0.020509,0.101192,-0.338114,0.035294,-0.139568,-0.663814,0.054705000000000004,0.12195199999999999,-0.643204,0.067002
21,0.018854,0.7069259999999999,-0.005527999999999998,-0.145118,0.5058659999999999,0.015813,-0.253378,0.737696,-0.013227999999999997,0.158922,0.5015459999999999,0.027169000000000002,0.255092,0.745256,0.018059000000000002,-0.315338,0.948676,-0.03687699999999999,0.293532,0.963766,0.0057970000000000035,-0.067654,-0.00046199999999999714,-0.0004329999999999959,0.067654,0.0004620000000000041,0.0004330000000000028,-0.125778,-0.35613399999999995,0.02059,0.101172,-0.33791400000000005,0.034943,-0.13969800000000002,-0.664394,0.0548,0.12213199999999999,-0.643784,0.066998
22,0.018805,0.7065725,-0.005480500000000006,-0.145167,0.5058725,0.016300499999999996,-0.253407,0.7375025,-0.012476500000000008,0.158973,0.5011125,0.027557499999999995,0.254483,0.7453325,0.019064499999999995,-0.315397,0.9487725,-0.03610250000000001,0.292613,0.9633325,0.0064664999999999966,-0.067654,-0.00047549999999999676,-0.0003835000000000019,0.067654,0.0004755000000000037,0.00038349999999999496,-0.125557,-0.3562575,0.020586499999999994,0.101173,-0.3378975,0.034643499999999994,-0.139817,-0.6648275,0.05484549999999999,0.122333,-0.6446975,0.0667015
23,0.018643499999999997,0.7063535,-0.005311999999999997,-0.1451835,0.5058535,0.016674000000000005,-0.2534235,0.7374435,-0.012059999999999994,0.15900650000000002,0.5008835,0.027917000000000004,0.25405649999999996,0.7454535,0.019785000000000004,-0.3154135,0.9485235,-0.035858,0.2917765,0.9630735,0.006483000000000003,-0.0676585,-0.0004854999999999998,-0.00037199999999999733,0.0676585,0.0004854999999999998,0.00037200000000000427,-0.1253535,-0.3562665,0.020530000000000003,0.1011865,-0.3377365,0.034297,-0.1399135,-0.6643765,0.054811,0.12242650000000001,-0.6452865,0.066353
24,0.0183635,0.706244,-0.004922999999999997,-0.1452435,0.5057740000000001,0.016980000000000002,-0.2534335,0.737434,-0.011808999999999993,0.1589665,0.500554,0.028338000000000002,0.2537665,0.745554,0.020258000000000005,-0.3154135,0.9485140000000001,-0.035858,0.29101649999999996,0.9628840000000001,0.006454000000000005,-0.0676585,-0.0004910000000000053,-0.00037199999999999733,0.0676585,0.0004909999999999984,0.00037200000000000427,-0.1251635,-0.356236,0.020434000000000004,0.1011965,-0.337836,0.034027,-0.1399135,-0.6642659999999999,0.054777000000000006,0.1225065,-0.6456259999999999,0.06610200000000001
25,0.0179475,0.7060420000000001,-0.004358999999999995,-0.14542249999999998,0.505762,0.017149000000000005,-0.2534425,0.737582,-0.011686999999999996,0.15894750000000002,0.500362,0.028699000000000002,0.25359750000000003,0.745752,0.020393000000000005,-0.3156025,0.9486619999999999,-0.03589199999999999,0.29034750000000004,0.962842,0.006402000000000005,-0.0676595,-0.0004960000000000034,-0.0003449999999999981,0.0676595,0.0004959999999999964,0.000345000000000005,-0.1249925,-0.356058,0.020310000000000005,0.10124749999999999,-0.337878,0.033842000000000004,-0.1399225,-0.664048,0.054705000000000004,0.12254749999999999,-0.6461079999999999,0.06584000000000001
26,0.017442000000000003,0.7058544999999999,-0.003746499999999993,-0.145688,0.5057345,0.017301500000000004,-0.253858,0.7377345,-0.011621499999999993,0.158942,0.5003145,0.028870500000000004,0.25338200000000005,0.7458945,0.020387500000000003,-0.316358,0.9486945,-0.03594749999999999,0.289592,0.9625945,0.006346500000000005,-0.067657,-0.000500499999999994,-0.00031749999999999834,0.067657,0.0005005000000000009,0.0003175000000000053,-0.12479799999999999,-0.3559255,0.020161500000000006,0.101312,-0.3379255,0.0336245,-0.139918,-0.6638355,0.054609500000000005,0.12257200000000001,-0.6465355,0.0655035
27,0.016732499999999997,0.7056965000000001,-0.0036105000000000026,-0.14600049999999998,0.5057065000000001,0.017326499999999998,-0.25462049999999997,0.7377765000000001,-0.011796500000000001,0.15896949999999999,0.5002665000000001,0.028906499999999995,0.2530595,0.7459865,0.020228499999999996,-0.3176705,0.9485965000000001,-0.0361935,0.2885895,0.9620464999999999,0.005399499999999995,-0.0676785,-0.0005045000000000049,-0.00024249999999999966,0.0676785,0.000504499999999998,0.00024249999999999966,-0.1246505,-0.35597350000000005,0.019914499999999998,0.1014295,-0.33797350000000004,0.033291499999999995,-0.13988050000000002,-0.6638835,0.054419499999999996,0.1225895,-0.6478535,0.0649675
28,0.016031,0.7056525,-0.003580999999999994,-0.14632599999999998,0.5056625,0.017257000000000005,-0.255516,0.7377925,-0.012073999999999994,0.15896400000000002,0.5002225,0.028841000000000006,0.25269400000000003,0.7460424999999999,0.019971000000000006,-0.31907599999999997,0.9484625,-0.036614999999999995,0.287534,0.9612025,0.003832000000000002,-0.067701,-0.000507500000000001,-0.00014899999999999636,0.067701,0.0005074999999999941,0.0001490000000000033,-0.124476,-0.35601750000000004,0.019590000000000007,0.10159399999999999,-0.3381675,0.032933000000000004,-0.139796,-0.6639275,0.054117000000000005,0.122624,-0.6492175,0.064322
29,0.015320499999999997,0.7055950000000001,-0.003747500000000001,-0.1466665,0.505645,0.0170855,-0.2564665,0.7378450000000001,-0.0124685,0.1585035,0.5002150000000001,0.0286135,0.2522835,0.7460950000000001,0.0195935,-0.32052650000000005,0.948295,-0.0371845,0.2865135,0.9602750000000001,0.002080499999999999,-0.0677355,-0.0005140000000000006,-3.149999999999681e-05,0.0677355,0.0005140000000000006,3.149999999999681e-05,-0.1243065,-0.35607500000000003,0.0191545,0.1017835,-0.338495,0.0324665,-0.1396865,-0.663995,0.0536855,0.12244350000000001,-0.652175,0.06352050000000001
30,0.014576000000000002,0.7058085000000001,-0.0041514999999999955,-0.147002,0.5056385,0.0166805,-0.257492,0.7380885,-0.013233499999999995,0.15806800000000001,0.5002285000000001,0.028150500000000002,0.25185799999999997,0.7461485,0.0188385,-0.32203200000000004,0.9480885,-0.0381685,0.285458,0.9592385,-7.949999999999624e-05,-0.067772,-0.0005264999999999992,6.250000000000006e-05,0.067772,0.0005264999999999992,-6.250000000000006e-05,-0.12416200000000001,-0.3565915,0.0184005,0.102008,-0.33920150000000004,0.031601500000000005,-0.139372,-0.6644915,0.0528365,0.12155799999999999,-0.6555715,0.061562500000000006
31,0.0139035,0.7060569999999999,-0.004941999999999995,-0.1472605,0.5056269999999999,0.01591,-0.2585405,0.738407,-0.014371999999999996,0.1576895,0.500247,0.027348,0.2514495,0.746257,0.017651,-0.3234905,0.947857,-0.039493,0.2845595,0.958187,-0.0024939999999999962,-0.06782350000000001,-0.0005360000000000018,0.00013600000000000417,0.06782350000000001,0.0005360000000000018,-0.00013599999999999723,-0.12400049999999999,-0.35713300000000003,0.017317000000000003,0.10226950000000001,-0.340523,0.030032000000000003,-0.1390205,-0.665013,0.051619,0.12071950000000001,-0.658643,0.059419
32,0.013143999999999996,0.706288,-0.006301000000000001,-0.147524,0.5056780000000001,0.01471,-0.259534,0.7387079999999999,-0.015991,0.157356,0.5003580000000001,0.026109,0.25106599999999996,0.746478,0.015987,-0.32481400000000005,0.9477279999999999,-0.041309,0.283686,0.957068,-0.005296000000000002,-0.06788,-0.0005449999999999969,8.79999999999978e-05,0.06788,0.0005450000000000038,-8.79999999999978e-05,-0.12381400000000001,-0.357942,0.015742,0.10259599999999999,-0.342092,0.027786,-0.138204,-0.6676819999999999,0.049825,0.119776,-0.6616420000000001,0.056768
33,0.0124055,0.7063815,-0.008066999999999998,-0.1477615,0.5057215,0.013165000000000003,-0.2604715,0.7389515000000001,-0.017957999999999995,0.1570185,0.5004615,0.024534000000000004,0.2506685,0.7466215,0.013953000000000004,-0.3261215,0.9474815000000001,-0.04364,0.2828385,0.9559215000000001,-0.008388999999999994,-0.06796250000000001,-0.0005445000000000033,4.700000000000537e-05,0.06796250000000001,0.0005444999999999964,-4.699999999999843e-05,-0.1236215,-0.3591285,0.013676000000000004,0.10293849999999999,-0.3438985,0.025003000000000004,-0.1373215,-0.6705285,0.047643000000000005,0.11863850000000001,-0.6654384999999999,0.053633
34,0.011644999999999996,0.7063815,-0.010100999999999999,-0.148009,0.5057515,0.011341999999999998,-0.261339,0.7390715,-0.020226,0.156661,0.5005815,0.022661999999999998,0.250191,0.7467315,0.011593,-0.327379,0.9471815,-0.046359,0.281951,0.9547515000000001,-0.011775,-0.068036,-0.0005445000000000033,-9.10000000000008e-05,0.068036,0.0005444999999999964,9.099999999999733e-05,-0.12345900000000001,-0.3605985,0.011140999999999998,0.10326099999999999,-0.3459185,0.021689999999999997,-0.136389,-0.6739885,0.044884,0.11764099999999998,-0.6678485,0.050125
35,0.010853500000000002,0.706383,-0.0125715,-0.1482435,0.505753,0.009075499999999997,-0.2621535,0.739073,-0.0229245,0.1563065,0.500583,0.020346499999999997,0.2497265,0.746733,0.008782499999999999,-0.3284835,0.9465830000000001,-0.0497405,0.2810965,0.953563,-0.015599500000000002,-0.0680875,-0.0005459999999999979,-0.0001825000000000021,0.0680875,0.0005459999999999979,0.00018249999999999864,-0.1233435,-0.36288699999999996,0.007901499999999999,0.1035965,-0.348197,0.0176435,-0.1353535,-0.677797,0.0416135,0.11633650000000001,-0.6721469999999999,0.0459715
36,0.010125000000000002,0.706391,-0.015407500000000001,-0.148427,0.5057510000000001,0.006432500000000001,-0.262907,0.739081,-0.025971499999999998,0.156013,0.500581,0.0176645,0.24928299999999998,0.746741,0.0055685000000000005,-0.32920699999999997,0.945751,-0.05365149999999999,0.280513,0.952501,-0.019807500000000002,-0.068107,-0.0005530000000000049,-0.00025249999999999925,0.068107,0.0005529999999999979,0.00025249999999999925,-0.123217,-0.365369,0.0040765,0.103963,-0.35063900000000003,0.0129405,-0.134327,-0.681649,0.037962499999999996,0.11505299999999999,-0.676689,0.0413025
37,0.009277499999999998,0.7064205,-0.018838999999999998,-0.1486285,0.5057904999999999,0.0032200000000000006,-0.2638085,0.7391304999999999,-0.029592999999999998,0.1557015,0.5006105,0.014421,0.2488415,0.7467505,0.001735999999999998,-0.3299585,0.9449805,-0.058187,0.2800015,0.9516604999999999,-0.024391,-0.0681425,-0.0005604999999999985,-0.0003060000000000007,0.0681425,0.0005605000000000054,0.0003060000000000007,-0.1231285,-0.3680195,-0.0005210000000000006,0.10429150000000001,-0.35287949999999996,0.007639,-0.1332385,-0.6858595000000001,0.033729999999999996,0.1138015,-0.6814395000000001,0.035913
38,0.008311500000000003,0.7063935,-0.022767499999999996,-0.1488475,0.5059834999999999,-0.0004714999999999997,-0.2647775,0.7392835,-0.0337115,0.1556825,0.5007634999999999,0.010682500000000001,0.24834250000000002,0.7468834999999999,-0.0027124999999999996,-0.3307175,0.9443235,-0.0632355,0.2795025,0.9509335,-0.029485499999999998,-0.0681965,-0.0006034999999999999,-0.00029649999999999815,0.0681965,0.0006034999999999999,0.0002965000000000016,-0.1229675,-0.3704465,-0.006101499999999999,0.1046625,-0.3548665,0.0017715000000000005,-0.1322475,-0.6899665,0.0290005,0.11268249999999999,-0.6861965,0.0299735
39,0.007273000000000002,0.7060665,-0.027041000000000003,-0.149099,0.5061265,-0.004435999999999999,-0.265939,0.7392565,-0.038346,0.155641,0.5008965,0.006617,0.24771100000000001,0.7468265000000001,-0.007574999999999998,-0.331509,0.9434465,-0.06851,0.279031,0.9504065,-0.034822,-0.068262,-0.0006525000000000003,-0.000366,0.068262,0.0006525000000000003,0.000366,-0.122809,-0.3722235,-0.012143000000000001,0.10518100000000001,-0.3561935,-0.004473000000000001,-0.131499,-0.6933435,0.024019,0.112551,-0.6886035,0.024606
40,0.005691499999999999,0.7057425,-0.0316865,-0.1495665,0.5062525,-0.008528500000000001,-0.2673465,0.7373225,-0.0432675,0.1553735,0.5010325,0.0023375,0.2467435,0.7464825,-0.012833500000000001,-0.3326265,0.9425825,-0.07446050000000001,0.2783735,0.9500725,-0.0404775,-0.0683465,-0.0007525000000000032,-0.00031849999999999934,0.0683465,0.0007524999999999962,0.0003185000000000011,-0.1227665,-0.3738375,-0.019102499999999998,0.1057835,-0.3570975,-0.0109585,-0.13088650000000002,-0.6965375,0.0188155,0.11237350000000002,-0.6905574999999999,0.0190015
41,0.003652500000000003,0.7050449999999999,-0.036493,-0.1501825,0.506335,-0.012717,-0.2690225,0.7349549999999999,-0.048527,0.1549575,0.501035,-0.002073,0.24557749999999998,0.7460049999999999,-0.018551,-0.33426249999999996,0.940885,-0.081341,0.27758750000000004,0.950155,-0.046502,-0.06844249999999999,-0.0008940000000000059,2.599999999999998e-05,0.06844249999999999,0.000893999999999999,-2.599999999999998e-05,-0.1227625,-0.374975,-0.026431,0.1066375,-0.357535,-0.017974,-0.1308325,-0.697345,0.013288,0.11226749999999999,-0.692315,0.013212999999999999
42,0.0011339999999999996,0.703981,-0.04168,-0.15171099999999998,0.505411,-0.016481,-0.271101,0.732181,-0.054360000000000006,0.15346900000000002,0.500631,-0.006874,0.243529,0.743001,-0.024850999999999998,-0.336291,0.9388610000000001,-0.089189,0.276569,0.950551,-0.053112,-0.068607,-0.0010480000000000003,0.00013099999999999993,0.068607,0.0010480000000000003,-0.00013100000000000004,-0.122821,-0.375279,-0.034233,0.107579,-0.357319,-0.025476,-0.130931,-0.697559,0.007376,0.11203899999999999,-0.692859,0.007196
43,-0.0017285000000000009,0.7027245,-0.047375,-0.1536555,0.5039345,-0.020619,-0.2736555,0.7288745,-0.061085,0.15105449999999998,0.5001445,-0.012152,0.2412645,0.7399844999999999,-0.031909,-0.3389555,0.9363445,-0.098766,0.27532449999999997,0.9511445,-0.060759,-0.0687735,-0.0013515000000000055,0.00039900000000000005,0.0687735,0.0013514999999999985,-0.00039900000000000005,-0.1229555,-0.37513549999999996,-0.042852,0.10861450000000002,-0.3562455,-0.03366,-0.1311755,-0.6967255,0.0011920000000000004,0.11169450000000002,-0.6920055,0.000634
44,-0.005220999999999998,0.7010055000000001,-0.0532775,-0.155716,0.5027255,-0.0248525,-0.276816,0.7251755,-0.0683125,0.148454,0.4998655000000001,-0.0175665,0.238834,0.7370155,-0.0390925,-0.342156,0.9334955,-0.1092435,0.273934,0.9518155,-0.06868149999999999,-0.068915,-0.0016854999999999995,0.0006584999999999994,0.068915,0.0016854999999999995,-0.0006584999999999994,-0.123106,-0.3747445,-0.0517475,0.10972399999999999,-0.3548745,-0.0419005,-0.131616,-0.6955245,-0.0051055,0.111314,-0.6905545,-0.0059425
45,-0.009191,0.6999154999999999,-0.059641,-0.158439,0.5006155,-0.029286999999999997,-0.280549,0.7215754999999999,-0.07639599999999999,0.144731,0.49915550000000003,-0.023425999999999995,0.23561100000000001,0.7328255,-0.046924999999999994,-0.346099,0.9314155,-0.120969,0.272231,0.9530755,-0.077353,-0.06908500000000001,-0.0021455000000000016,0.0009660000000000016,0.06908500000000001,0.0021455000000000016,-0.0009659999999999981,-0.123329,-0.37317449999999996,-0.060846,0.11094099999999998,-0.3527845,-0.050577,-0.132149,-0.6931545,-0.011913999999999998,0.11108099999999999,-0.6877845,-0.012764999999999997
46,-0.013486000000000001,0.698483,-0.0659605,-0.161451,0.49824300000000005,-0.0340095,-0.28468099999999996,0.7179129999999999,-0.0848285,0.14046899999999998,0.498253,-0.0293485,0.232349,0.7293529999999999,-0.054794499999999996,-0.35062099999999996,0.929203,-0.1338225,0.270129,0.9531729999999999,-0.0868015,-0.069244,-0.002579999999999999,0.0011985000000000016,0.069244,0.002579999999999999,-0.0011984999999999982,-0.123421,-0.37116699999999997,-0.06994449999999999,0.112479,-0.350697,-0.0596105,-0.132691,-0.689667,-0.0187285,0.110959,-0.684327,-0.0195475
47,-0.018106999999999998,0.6970715,-0.072436,-0.164704,0.49493149999999997,-0.038933,-0.28922400000000004,0.7136915,-0.09407700000000001,0.135686,0.4976115,-0.035426,0.22868600000000003,0.7253315,-0.063136,-0.355654,0.9270615,-0.14765899999999998,0.268016,0.9542015,-0.096545,-0.06943099999999999,-0.0030824999999999984,0.0013619999999999986,0.06943099999999999,0.003082500000000002,-0.0013619999999999986,-0.12340399999999999,-0.3686285,-0.078971,0.11408600000000002,-0.3483185,-0.068871,-0.133304,-0.6854185,-0.025879,0.11088600000000001,-0.6799585,-0.026415
48,-0.0233475,0.6954104999999999,-0.0791255,-0.1680955,0.49130050000000003,-0.0444695,-0.2941055,0.7082005,-0.10355750000000001,0.1305845,0.49732049999999994,-0.04144250000000001,0.22480450000000002,0.7213705,-0.0713905,-0.3613755,0.9242104999999999,-0.1624715,0.2654745,0.9545605,-0.10694050000000001,-0.0696625,-0.0036685,0.0016404999999999961,0.0696625,0.0036685000000000016,-0.001640500000000003,-0.1235955,-0.3664195,-0.08780550000000001,0.11560450000000001,-0.3457895,-0.07798350000000001,-0.1341155,-0.6805395000000001,-0.032913500000000005,0.11066450000000001,-0.6750695,-0.033078500000000004
49,-0.0292775,0.6925065,-0.08757500000000001,-0.17179350000000002,0.4875565,-0.050886,-0.3004735,0.7039865000000001,-0.11576700000000001,0.12385649999999998,0.49508650000000004,-0.049126,0.22068649999999998,0.7195665000000001,-0.081698,-0.36787349999999996,0.9154265,-0.180181,0.2624165,0.9560565000000001,-0.12081,-0.0699175,-0.0042035,0.001785999999999996,0.0699175,0.0042035,-0.0017860000000000029,-0.12355350000000001,-0.3647135,-0.09832,0.11739649999999999,-0.3419035,-0.087755,-0.1347835,-0.6736835,-0.040921000000000006,0.1106965,-0.6679234999999999,-0.040955000000000005
50,-0.035168500000000005,0.689858,-0.096503,-0.1753615,0.484508,-0.057198,-0.3069915,0.698668,-0.12847799999999998,0.11704849999999999,0.492928,-0.056795,0.21609849999999997,0.715788,-0.092534,-0.3746915,0.905648,-0.19786900000000002,0.2591485,0.957058,-0.13534400000000002,-0.0701605,-0.004651000000000001,0.0017010000000000011,0.0701605,0.004651,-0.0017010000000000011,-0.1234915,-0.36287200000000003,-0.10863199999999999,0.11904849999999999,-0.338332,-0.09690599999999999,-0.1352515,-0.666342,-0.048375,0.11090850000000001,-0.660182,-0.048926
51,-0.041550500000000004,0.6861805000000001,-0.10582349999999999,-0.1792905,0.4796105,-0.0639785,-0.3139105,0.6923505000000001,-0.1426925,0.11108950000000001,0.4924605,-0.0650505,0.2115295,0.7135505000000001,-0.1040945,-0.3823105,0.8962405000000001,-0.2173235,0.2551595,0.9578105,-0.1524245,-0.0702985,-0.0052485,0.0018225000000000047,0.0702985,0.0052485,-0.0018224999999999977,-0.1236175,-0.3559395,-0.1196995,0.1208795,-0.3313795,-0.1065545,-0.1355005,-0.6575494999999999,-0.056085499999999996,0.11136950000000001,-0.6507894999999999,-0.057660499999999996
52,-0.048609,0.6807805,-0.116314,-0.18335,0.4742505,-0.071871,-0.32123999999999997,0.6856305,-0.158851,0.10487,0.4901805,-0.074572,0.20620999999999998,0.7112705,-0.11726400000000001,-0.39065,0.8839205,-0.23887399999999998,0.25008,0.9584104999999999,-0.171214,-0.070386,-0.0059915,0.0020770000000000025,0.070386,0.0059915,-0.0020769999999999955,-0.123551,-0.34556950000000003,-0.130967,0.12272999999999999,-0.32158950000000003,-0.116896,-0.13554,-0.6459795,-0.064384,0.11181,-0.6382995,-0.066837
53,-0.054784,0.676499,-0.131012,-0.187266,0.469229,-0.08405299999999999,-0.327846,0.679739,-0.17917,0.09899400000000001,0.488669,-0.08803899999999999,0.200474,0.7071689999999999,-0.134545,-0.398196,0.872899,-0.2637,0.24456400000000003,0.957209,-0.19444,-0.070469,-0.006449000000000003,0.0017240000000000033,0.070469,0.006448999999999996,-0.0017239999999999894,-0.123232,-0.333191,-0.14590599999999998,0.124784,-0.310241,-0.131692,-0.135236,-0.633711,-0.076513,0.112264,-0.6244310000000001,-0.079742
54,-0.060232999999999995,0.672263,-0.1461665,-0.190269,0.467853,-0.0981965,-0.333659,0.676463,-0.2002575,0.093661,0.487883,-0.10198650000000001,0.195751,0.7087829999999999,-0.15231650000000002,-0.404959,0.8640429999999999,-0.2887175,0.239311,0.9570129999999999,-0.21755750000000001,-0.070466,-0.007040000000000005,0.001639500000000002,0.070466,0.007039999999999998,-0.001639500000000002,-0.12261000000000001,-0.317027,-0.16521750000000002,0.127331,-0.295157,-0.1500685,-0.134599,-0.6174470000000001,-0.0890045,0.11276099999999999,-0.6069370000000001,-0.0930125
55,-0.0657955,0.6681665,-0.1609,-0.1929515,0.4669965,-0.11200399999999999,-0.3389915,0.6722965000000001,-0.22052100000000002,0.08876849999999999,0.4871965,-0.11533099999999999,0.1905685,0.7056065,-0.16982999999999998,-0.4115615,0.8544865,-0.313211,0.23366850000000003,0.9513765000000001,-0.23956100000000002,-0.0704645,-0.0075375000000000025,0.0016089999999999993,0.0704645,0.0075375000000000025,-0.0016089999999999993,-0.1219915,-0.30133350000000003,-0.18374000000000001,0.1294285,-0.28046350000000003,-0.167574,-0.1339515,-0.6017435,-0.100934,0.1132285,-0.5903035,-0.10557899999999999
56,-0.07128999999999999,0.6643485,-0.17574,-0.195528,0.46305850000000004,-0.12567699999999998,-0.343948,0.6650585,-0.24042,0.084032,0.48552850000000003,-0.128768,0.186572,0.7043185000000001,-0.186927,-0.417938,0.8442585,-0.33755999999999997,0.22809200000000002,0.9462185000000001,-0.26200999999999997,-0.070463,-0.0080615,0.0015600000000000058,0.070463,0.0080615,-0.001559999999999992,-0.121374,-0.28453150000000005,-0.20198899999999997,0.131302,-0.26474149999999996,-0.184907,-0.133248,-0.5849314999999999,-0.11257299999999999,0.11369199999999999,-0.5731215,-0.11794299999999999
57,-0.076306,0.6597900000000001,-0.191257,-0.19765200000000002,0.46038,-0.139763,-0.348032,0.66045,-0.25953000000000004,0.079398,0.48414,-0.14225700000000002,0.182278,0.70346,-0.204395,-0.42348199999999997,0.8313699999999999,-0.36106000000000005,0.222828,0.9421999999999999,-0.28371999999999997,-0.070497,-0.008489999999999998,0.0013699999999999962,0.070497,0.008490000000000011,-0.00137000000000001,-0.120767,-0.26666,-0.2203,0.13277799999999998,-0.24751,-0.202661,-0.132432,-0.5671200000000001,-0.12431500000000001,0.11409799999999999,-0.5552999999999999,-0.130356
58,-0.080109,0.6566850000000001,-0.204916,-0.199189,0.45742499999999997,-0.152834,-0.350439,0.656375,-0.27597499999999997,0.076688,0.484795,-0.154111,0.178481,0.701485,-0.21951199999999998,-0.427859,0.824855,-0.381295,0.218291,0.9374450000000001,-0.302585,-0.070495,-0.009044999999999997,0.0012850000000000084,0.070495,0.009044999999999997,-0.0012849999999999806,-0.12039899999999999,-0.250575,-0.236215,0.133921,-0.232295,-0.21978899999999998,-0.131569,-0.550025,-0.135014,0.114511,-0.538495,-0.14121499999999998
59,-0.083579,0.652185,-0.217652,-0.20069700000000001,0.45514499999999997,-0.165595,-0.352707,0.6525449999999999,-0.291655,0.073878,0.484705,-0.165632,0.175033,0.700605,-0.234157,-0.431507,0.8195749999999999,-0.40036499999999997,0.213863,0.933795,-0.320905,-0.070509,-0.009505000000000013,0.0011549999999999894,0.070509,0.009504999999999986,-0.0011549999999999894,-0.120372,-0.234095,-0.251785,0.134813,-0.216885,-0.23680099999999998,-0.13072699999999998,-0.532365,-0.145346,0.114593,-0.521675,-0.15148
60,-0.086534,0.649,-0.23054199999999997,-0.201393,0.45234,-0.177786,-0.354303,0.6452800000000001,-0.30591,0.074265,0.48334,-0.17707099999999998,0.171667,0.69842,-0.24817699999999998,-0.434293,0.8128899999999999,-0.41788,0.209667,0.9239999999999999,-0.33665,-0.07053,-0.010220000000000007,0.0012199999999999989,0.07053,0.010220000000000007,-0.0012199999999999989,-0.120813,-0.21503,-0.26695,0.135437,-0.19896999999999998,-0.2546,-0.129913,-0.5118,-0.15551099999999998,0.114317,-0.50244,-0.161538
61,-0.088483,0.64666,-0.24183300000000002,-0.201062,0.45037000000000005,-0.188455,-0.35524199999999995,0.63883,-0.3177,0.071166,0.48421000000000003,-0.18720900000000001,0.169298,0.6962200000000001,-0.25988,-0.43574199999999996,0.80897,-0.43156000000000005,0.206918,0.91586,-0.34965,-0.070519,-0.010689999999999977,0.0009200000000000041,0.070519,0.010690000000000005,-0.0009200000000000041,-0.121332,-0.19552999999999998,-0.28116,0.136048,-0.18262,-0.27114,-0.12917199999999998,-0.49283999999999994,-0.164467,0.113728,-0.48543000000000003,-0.170443
62,-0.0906565,0.64335,-0.248448,-0.2010115,0.44726,-0.19445400000000002,-0.3559115,0.6340699999999999,-0.32221,0.0690835,0.48433,-0.19299700000000003,0.1673385,0.69364,-0.26728,-0.4377915,0.80453,-0.44077,0.20475849999999998,0.9069400000000001,-0.35816000000000003,-0.0705055,-0.011670000000000014,0.0011199999999999821,0.0705055,0.011669999999999986,-0.0011200000000000099,-0.12213149999999999,-0.17548000000000002,-0.29092,0.13639849999999998,-0.16549000000000003,-0.28267000000000003,-0.1287615,-0.47276,-0.168935,0.1125985,-0.46810999999999997,-0.174902
63,-0.092949,0.637535,-0.25377,-0.20088699999999998,0.439995,-0.198658,-0.357097,0.625255,-0.32643,0.066938,0.483725,-0.19741899999999998,0.165393,0.687605,-0.27392,-0.440407,0.7971550000000001,-0.44833999999999996,0.202813,0.897575,-0.36524,-0.07051299999999999,-0.01237499999999997,0.0008700000000000097,0.07051299999999999,0.012374999999999997,-0.0008699999999999819,-0.122857,-0.158215,-0.29569999999999996,0.136573,-0.151455,-0.28963,-0.128397,-0.456465,-0.17193999999999998,0.11135300000000001,-0.45442499999999997,-0.177562
64,-0.09584500000000001,0.63243,-0.258805,-0.201494,0.43351,-0.202639,-0.358854,0.6157,-0.32927,0.06411900000000001,0.47977000000000003,-0.20141,0.163006,0.68887,-0.28002,-0.44403400000000004,0.7919,-0.45441,0.200956,0.8963000000000001,-0.37304000000000004,-0.070766,-0.013039999999999996,0.0005699999999999872,0.070766,0.013039999999999996,-0.0005700000000000149,-0.123974,-0.1346,-0.3004,0.136556,-0.13116,-0.29658,-0.128414,-0.43400999999999995,-0.17472000000000001,0.109816,-0.43422,-0.179837
65,-0.09828450000000001,0.6268050000000001,-0.262686,-0.2016405,0.43067500000000003,-0.20561200000000002,-0.3606605,0.602875,-0.33108000000000004,0.0614855,0.476695,-0.20416800000000002,0.1611995,0.686715,-0.2843,-0.44718050000000004,0.779405,-0.45916999999999997,0.1992595,0.892635,-0.37936000000000003,-0.0711585,-0.013564999999999994,0.0003599999999999992,0.0711585,0.013564999999999994,-0.0003599999999999992,-0.1248905,-0.11293500000000001,-0.30401,0.1367195,-0.112095,-0.30261,-0.1282605,-0.41359500000000005,-0.176666,0.10860949999999998,-0.41551499999999997,-0.181234
66,-0.10139599999999999,0.621325,-0.265403,-0.201687,0.425325,-0.207654,-0.362517,0.590685,-0.331105,0.05914200000000001,0.474395,-0.20595000000000002,0.159353,0.684395,-0.287785,-0.451457,0.769475,-0.462865,0.197463,0.888415,-0.384795,-0.07169400000000001,-0.014614999999999989,4.499999999998949e-05,0.07169400000000001,0.014614999999999989,-4.500000000001725e-05,-0.125897,-0.094885,-0.306715,0.136633,-0.09720499999999999,-0.307375,-0.128217,-0.39285499999999995,-0.17772600000000002,0.10758299999999998,-0.395915,-0.18183800000000003
67,-0.10485950000000001,0.61514,-0.267303,-0.2023725,0.420541,-0.20885399999999998,-0.3648625,0.57677,-0.3302,0.056746500000000005,0.47058,-0.207175,0.1574075,0.68225,-0.29103999999999997,-0.4560225,0.7578,-0.46592,0.1950575,0.88517,-0.38921,-0.0721335,-0.015459999999999974,-0.00037999999999999146,0.0721335,0.01546000000000003,0.00037999999999999146,-0.1272325,-0.07496999999999998,-0.30908,0.1363275,-0.08090999999999998,-0.31118999999999997,-0.12844250000000001,-0.37017,-0.178338,0.10626749999999999,-0.37432999999999994,-0.18210099999999999
68,-0.10865,0.61,-0.26887700000000003,-0.203082,0.41596099999999997,-0.209961,-0.36848200000000003,0.56417,-0.33088,0.054097000000000006,0.46815999999999997,-0.20866099999999999,0.154908,0.67673,-0.29286,-0.461142,0.74681,-0.46897,0.192468,0.87541,-0.39271,-0.072552,-0.01606000000000002,-0.0007900000000000129,0.072552,0.016059999999999963,0.0007900000000000129,-0.128832,-0.05475000000000002,-0.31126,0.13574799999999998,-0.06409000000000004,-0.31452,-0.128942,-0.34718000000000004,-0.178958,0.10492800000000001,-0.35192,-0.182339
69,-0.1124655,0.60417,-0.270231,-0.2041375,0.41571,-0.21076699999999998,-0.3730075,0.55539,-0.330895,0.05141950000000001,0.466185,-0.20990799999999998,0.1527925,0.67459,-0.29466499999999995,-0.4665975,0.7351099999999999,-0.471495,0.1903225,0.87149,-0.396065,-0.0729785,-0.01651999999999998,-0.001224999999999976,0.0729785,0.01651999999999998,0.0012250000000000039,-0.1306475,-0.03755999999999998,-0.31281499999999995,0.1348525,-0.04931000000000002,-0.31576499999999996,-0.1297275,-0.32804999999999995,-0.17970999999999998,0.1033225,-0.33294,-0.18257299999999999
70,-0.11651900000000001,0.600085,-0.271524,-0.205265,0.411101,-0.211727,-0.377835,0.5478149999999999,-0.330395,0.048953,0.46471999999999997,-0.210687,0.15046500000000002,0.6743349999999999,-0.295695,-0.472475,0.724445,-0.47385499999999997,0.187675,0.868305,-0.399125,-0.07334399999999999,-0.01748500000000003,-0.001464999999999994,0.07334399999999999,0.017484999999999973,0.001464999999999994,-0.132495,-0.01935500000000001,-0.313795,0.13406500000000002,-0.03343500000000005,-0.316485,-0.130725,-0.308095,-0.18066,0.10158500000000001,-0.31308500000000006,-0.182567
71,-0.121001,0.594425,-0.272882,-0.206123,0.407648,-0.21280900000000003,-0.38306300000000004,0.533935,-0.32936,0.046467999999999995,0.46394599999999997,-0.21161100000000002,0.14805700000000002,0.6729149999999999,-0.29539000000000004,-0.479943,0.7113149999999999,-0.47563,0.184957,0.866285,-0.40177,-0.073625,-0.018605000000000038,-0.0014600000000000168,0.073625,0.018604999999999983,0.001459999999999989,-0.13403299999999999,-0.002464999999999995,-0.31469,0.133687,-0.018845,-0.31733,-0.131853,-0.28905500000000006,-0.181619,0.099887,-0.294075,-0.182726
72,-0.12550850000000002,0.589395,-0.273855,-0.20715850000000002,0.40538500000000005,-0.213377,-0.38795850000000004,0.5209550000000001,-0.32911500000000005,0.0441805,0.462955,-0.211928,0.14591149999999997,0.6706650000000001,-0.296045,-0.4868785,0.6973750000000001,-0.476705,0.1821215,0.862125,-0.403905,-0.0737405,-0.019754999999999967,-0.0018650000000000055,0.0737405,0.019755000000000023,0.0018649999999999778,-0.1353085,0.013015000000000054,-0.315215,0.13381149999999997,-0.005084999999999951,-0.317815,-0.13279849999999999,-0.271405,-0.182344,0.0983715,-0.275895,-0.18252400000000002
73,-0.129132,0.58413,-0.27458499999999997,-0.20801199999999997,0.402596,-0.213858,-0.392602,0.509427,-0.328275,0.042841000000000004,0.464548,-0.212058,0.14288800000000001,0.66398,-0.29661499999999996,-0.492962,0.68138,-0.47751499999999997,0.17930800000000002,0.85583,-0.404605,-0.073678,-0.02089000000000002,-0.0022149999999999948,0.073678,0.02089000000000002,0.0022150000000000225,-0.13636199999999998,0.022930000000000006,-0.315705,0.134298,0.004070000000000018,-0.318145,-0.133592,-0.25903,-0.18288,0.097148,-0.26303,-0.18201099999999998
74,-0.133306,0.581,-0.2751,-0.20944600000000002,0.401856,-0.21427000000000002,-0.39739599999999997,0.506571,-0.32750999999999997,0.040548,0.462625,-0.211322,0.13927399999999998,0.66285,-0.29710000000000003,-0.499596,0.6737,-0.47812,0.175554,0.85421,-0.4051,-0.074064,-0.021059999999999968,-0.0024200000000000055,0.074064,0.021060000000000023,0.0024200000000000055,-0.137826,0.03658,-0.31518999999999997,0.134624,0.017340000000000022,-0.31776000000000004,-0.134726,-0.24149999999999994,-0.183281,0.095584,-0.24597999999999998,-0.181345
75,-0.1368275,0.578302,-0.275935,-0.21073750000000002,0.402507,-0.215015,-0.40217749999999997,0.500989,-0.326925,0.038263500000000006,0.45966999999999997,-0.211346,0.13548249999999998,0.661645,-0.297855,-0.5056775,0.6665449999999999,-0.478445,0.1716025,0.852715,-0.406005,-0.0745625,-0.020905000000000007,-0.002805000000000002,0.0745625,0.020905000000000007,0.002805000000000002,-0.1392975,0.048644999999999994,-0.314705,0.1349125,0.029024999999999967,-0.31710499999999997,-0.1358975,-0.22578499999999996,-0.184021,0.0941425,-0.23062500000000002,-0.180873
76,-0.1409625,0.576847,-0.27673,-0.2130925,0.401671,-0.215615,-0.4071825,0.496845,-0.32655,0.0351565,0.45848399999999995,-0.21073599999999998,0.1302275,0.6577299999999999,-0.29691999999999996,-0.5127125,0.66066,-0.4785,0.16679750000000002,0.85049,-0.40703999999999996,-0.07481750000000001,-0.021090000000000053,-0.00356999999999999,0.07481750000000001,0.021089999999999998,0.0035700000000000176,-0.1413325,0.05903999999999998,-0.31403000000000003,0.1343075,0.03969999999999996,-0.31579999999999997,-0.1377325,-0.21213000000000004,-0.184758,0.09211749999999999,-0.21742000000000006,-0.180622
77,-0.14509899999999998,0.5740639999999999,-0.27767,-0.215399,0.3994749999999999,-0.216379,-0.411749,0.4910959999999999,-0.32766999999999996,0.03207700000000001,0.45658999999999994,-0.21033199999999996,0.12532100000000002,0.6579649999999999,-0.29569999999999996,-0.520139,0.6526649999999999,-0.47968,0.161461,0.8534949999999999,-0.40825999999999996,-0.074991,-0.021665000000000045,-0.004479999999999984,0.074991,0.021664999999999934,0.004480000000000012,-0.143319,0.06824499999999994,-0.3134,0.133711,0.049104999999999954,-0.31418,-0.138899,-0.19981500000000008,-0.184435,0.09015100000000001,-0.20580500000000002,-0.180606
78,-0.1489625,0.572354,-0.278399,-0.2176925,0.39574,-0.217274,-0.41547249999999997,0.48616499999999996,-0.32825,0.029112500000000006,0.454791,-0.21076,0.1205775,0.65741,-0.29535,-0.5271125,0.6466,-0.48143,0.1559775,0.85729,-0.41006,-0.07528750000000001,-0.02204000000000006,-0.005390000000000006,0.07528750000000001,0.02203999999999995,0.005390000000000006,-0.1451625,0.07732,-0.31315000000000004,0.1330575,0.05817,-0.31279999999999997,-0.1398525,-0.18808000000000002,-0.18473,0.0883575,-0.19474000000000002,-0.181479
79,-0.153296,0.5705570000000001,-0.280133,-0.220256,0.39541500000000007,-0.219134,-0.419806,0.48024700000000003,-0.33047499999999996,0.025305999999999995,0.45131200000000005,-0.211706,0.11659399999999999,0.656525,-0.295985,-0.534616,0.640325,-0.48360499999999995,0.149934,0.859305,-0.412485,-0.075264,-0.02208499999999991,-0.0063650000000000095,0.075264,0.02208500000000002,0.0063650000000000095,-0.147596,0.08519500000000002,-0.31345500000000004,0.13162400000000002,0.06580500000000006,-0.312085,-0.141346,-0.17796499999999993,-0.185561,0.086004,-0.18535499999999994,-0.183619
80,-0.156958,0.570776,-0.28245200000000004,-0.222968,0.39446499999999995,-0.22143800000000002,-0.423358,0.47865800000000003,-0.33284,0.021825000000000004,0.447385,-0.21312500000000004,0.11341200000000001,0.659925,-0.29769,-0.540068,0.635491,-0.48599000000000003,0.143832,0.862965,-0.41538,-0.075392,-0.021645000000000025,-0.007450000000000012,0.075392,0.021645000000000025,0.007449999999999984,-0.149648,0.09302499999999997,-0.31408,0.130242,0.07330500000000001,-0.31193000000000004,-0.142398,-0.16820500000000005,-0.18659900000000001,0.083972,-0.176605,-0.18631700000000004
81,-0.16009099999999998,0.5721620000000001,-0.284887,-0.225891,0.39396000000000003,-0.223732,-0.426801,0.47728600000000004,-0.33540000000000003,0.018459999999999997,0.44382000000000005,-0.214555,0.11037899999999999,0.6636000000000001,-0.29959,-0.545331,0.6318250000000001,-0.48843,0.13793899999999998,0.8675900000000001,-0.41825999999999997,-0.07557900000000001,-0.021150000000000002,-0.007949999999999985,0.075579,0.021150000000000002,0.007950000000000013,-0.15152100000000002,0.10134000000000004,-0.31492,0.12882899999999997,0.08100000000000002,-0.31306,-0.143351,-0.1583,-0.187474,0.082149,-0.16826999999999992,-0.188938
82,-0.16269050000000002,0.5734170000000001,-0.28669,-0.2284105,0.39324500000000007,-0.22539700000000001,-0.42980050000000003,0.47685600000000006,-0.336845,0.015656500000000004,0.441605,-0.215705,0.1079995,0.6677150000000001,-0.301465,-0.5500404999999999,0.63016,-0.490245,0.1327595,0.872545,-0.42052500000000004,-0.0756795,-0.020824999999999982,-0.008425000000000016,0.0756795,0.020824999999999982,0.008424999999999988,-0.1533405,0.10859500000000005,-0.315705,0.1274095,0.08771500000000004,-0.314305,-0.14412049999999998,-0.14965499999999998,-0.187691,0.08051950000000001,-0.16137499999999994,-0.19097
83,-0.1642485,0.573208,-0.288133,-0.2300685,0.390865,-0.226725,-0.4320185,0.47536500000000004,-0.338195,0.014110500000000005,0.443095,-0.21728599999999998,0.10634149999999999,0.668675,-0.303215,-0.5532785,0.6294540000000001,-0.491935,0.1289615,0.8739950000000001,-0.42249499999999995,-0.07535149999999999,-0.021484999999999976,-0.009075,0.0753515,0.021485000000000087,0.009075,-0.1548985,0.11171500000000006,-0.317135,0.12625150000000002,0.09038500000000005,-0.315835,-0.1456985,-0.14674500000000001,-0.188174,0.0793515,-0.159065,-0.192724
84,-0.1651965,0.5744379999999999,-0.288219,-0.2310565,0.3890849999999999,-0.226775,-0.4329965,0.47650899999999996,-0.33804,0.013166500000000005,0.4444449999999999,-0.217552,0.1053935,0.6700449999999999,-0.30349,-0.5546365,0.6304179999999999,-0.49211,0.1264035,0.8752749999999999,-0.42299,-0.0749835,-0.021955000000000058,-0.009419999999999984,0.07498350000000001,0.021954999999999947,0.009420000000000012,-0.1558465,0.11413499999999993,-0.31721,0.12569349999999999,0.09264499999999992,-0.31626,-0.1466565,-0.14398500000000003,-0.187869,0.07862350000000001,-0.15737500000000004,-0.193106
85,-0.1652165,0.5746779999999999,-0.28773499999999996,-0.23104650000000002,0.3884249999999999,-0.22644999999999998,-0.4330065,0.476749,-0.33763,0.013160500000000006,0.44468499999999994,-0.21740099999999998,0.1055835,0.6702849999999999,-0.30315,-0.5546565,0.6306579999999999,-0.49168,0.1264035,0.8755149999999999,-0.42299,-0.0749835,-0.022065,-0.009419999999999984,0.07498350000000001,0.022065,0.009420000000000012,-0.1558565,0.11422499999999997,-0.31688,0.1260335,0.09264499999999998,-0.31625000000000003,-0.1466765,-0.1436050000000001,-0.187416,0.07870350000000001,-0.15793500000000005,-0.19325599999999998
86,-0.1651465,0.5746779999999999,-0.287451,-0.23132650000000002,0.38836499999999996,-0.226115,-0.4330265,0.476749,-0.33726,0.013198500000000002,0.44468499999999994,-0.217282,0.10615349999999998,0.6702849999999999,-0.30237,-0.5546765,0.6306579999999999,-0.49113,0.1263935,0.8755149999999999,-0.42288000000000003,-0.0749835,-0.022065,-0.009419999999999984,0.07498350000000001,0.022065,0.009420000000000012,-0.1559465,0.11422499999999997,-0.31675,0.1262235,0.09256499999999995,-0.31623999999999997,-0.1467065,-0.1435050000000001,-0.187417,0.0787235,-0.15818500000000002,-0.193595
87,-0.1643665,0.5746779999999999,-0.28737599999999996,-0.2314265,0.38836499999999996,-0.226013,-0.4330365,0.476749,-0.33697,0.013330500000000002,0.44468499999999994,-0.217217,0.1069435,0.6702849999999999,-0.30164,-0.5546965,0.6306579999999999,-0.49045,0.1263935,0.8755149999999999,-0.42274999999999996,-0.0749835,-0.022065,-0.009419999999999984,0.07498350000000001,0.022065,0.009420000000000012,-0.1561465,0.11426499999999995,-0.31676,0.1264735,0.09255499999999994,-0.31640999999999997,-0.14689649999999999,-0.1435050000000001,-0.187424,0.0787235,-0.15837500000000004,-0.193851
88,-0.16255799999999998,0.576074,-0.286684,-0.231128,0.38836499999999996,-0.22558,-0.43246799999999996,0.47872999999999993,-0.33623499999999995,0.014116999999999998,0.44501499999999994,-0.216775,0.10885199999999999,0.6724749999999999,-0.301155,-0.552978,0.6313279999999999,-0.48816499999999996,0.126782,0.876255,-0.422285,-0.074872,-0.022065,-0.009454999999999991,0.074872,0.022065,0.009455000000000019,-0.156128,0.11441499999999993,-0.316345,0.126882,0.09255499999999994,-0.31652499999999995,-0.146728,-0.1435050000000001,-0.18700499999999998,0.079072,-0.1584350000000001,-0.19355
89,-0.16000150000000002,0.580637,-0.285294,-0.23045149999999998,0.38766,-0.22463,-0.4310315,0.484292,-0.33486499999999997,0.015380499999999998,0.44554,-0.21580299999999997,0.1113485,0.67537,-0.30011499999999997,-0.5494215,0.6357079999999999,-0.48484499999999997,0.1284885,0.8781399999999999,-0.420995,-0.0747385,-0.02214000000000005,-0.009394999999999987,0.0747385,0.02214000000000005,0.009395000000000014,-0.15584150000000002,0.11381000000000002,-0.315405,0.1275985,0.09189999999999998,-0.316535,-0.14692149999999998,-0.14498,-0.18708799999999998,0.07969849999999999,-0.15918,-0.19279
90,-0.15644950000000002,0.584999,-0.28247099999999997,-0.22894949999999997,0.38650000000000007,-0.222441,-0.4279295,0.49059800000000003,-0.33213,0.017695500000000003,0.44479,-0.213584,0.11477050000000001,0.6770200000000001,-0.29744,-0.5445395,0.63971,-0.48047,0.1314705,0.87777,-0.41786,-0.0748105,-0.02207999999999999,-0.008929999999999993,0.0748105,0.02207999999999999,0.008930000000000021,-0.15466950000000002,0.11042000000000002,-0.31411999999999995,0.12907049999999998,0.08868000000000004,-0.31640999999999997,-0.1464495,-0.14903999999999995,-0.186243,0.0808305,-0.16262999999999994,-0.190794
91,-0.15189000000000002,0.5905389999999999,-0.278984,-0.22633999999999999,0.38729499999999994,-0.219645,-0.42377,0.498643,-0.32803499999999997,0.021273,0.446365,-0.21106,0.11775000000000001,0.677285,-0.295205,-0.53828,0.649359,-0.475175,0.13577,0.876265,-0.413035,-0.07499,-0.02181500000000003,-0.008385000000000004,0.07499,0.02181500000000003,0.008385000000000004,-0.15261000000000002,0.10555499999999995,-0.312755,0.13133,0.08407499999999996,-0.31593499999999997,-0.14528000000000002,-0.15498500000000004,-0.184881,0.0828,-0.167775,-0.18806699999999998
92,-0.14680549999999998,0.594182,-0.274891,-0.2228155,0.38964,-0.216636,-0.41767550000000003,0.5025259999999999,-0.323065,0.026076500000000002,0.449156,-0.208089,0.1211645,0.6769799999999999,-0.29235500000000003,-0.5317554999999999,0.65586,-0.469755,0.14156449999999998,0.87713,-0.406845,-0.0751445,-0.021320000000000006,-0.007264999999999994,0.0751445,0.021320000000000006,0.007264999999999994,-0.15063549999999998,0.09478999999999999,-0.312355,0.1332645,0.07307999999999998,-0.315955,-0.1443855,-0.16743000000000008,-0.183198,0.08475450000000001,-0.17906,-0.184786
93,-0.1412475,0.602408,-0.270929,-0.2194375,0.39595,-0.21361,-0.4123475,0.512669,-0.31955,0.03068950000000001,0.452475,-0.204627,0.12462250000000001,0.67877,-0.28831,-0.5249475,0.66881,-0.46518,0.14811249999999998,0.88193,-0.40013,-0.0743425,-0.02029000000000003,-0.00602999999999998,0.0743425,0.02029000000000003,0.006030000000000008,-0.14891749999999998,0.08293,-0.31189,0.13467250000000003,0.06117,-0.31553,-0.1437875,-0.18176000000000003,-0.181495,0.08657250000000001,-0.19201999999999997,-0.181503
94,-0.1350365,0.6104390000000001,-0.267096,-0.2155165,0.40103,-0.21068399999999998,-0.4042365,0.520602,-0.315225,0.035849500000000006,0.457994,-0.201467,0.1300735,0.68625,-0.284195,-0.5171465,0.67962,-0.459935,0.1556735,0.8914200000000001,-0.392915,-0.0737035,-0.019340000000000024,-0.004925000000000013,0.0737035,0.019340000000000024,0.004925000000000013,-0.1466565,0.06922,-0.311755,0.13635350000000002,0.04783000000000004,-0.314995,-0.1426265,-0.19818000000000002,-0.179986,0.0890335,-0.20694,-0.178518
95,-0.1284495,0.619215,-0.262959,-0.2114185,0.407951,-0.207731,-0.3960185,0.528534,-0.310755,0.041265500000000004,0.46225099999999997,-0.198394,0.1356615,0.693055,-0.279535,-0.5095284999999999,0.689155,-0.453745,0.16324149999999998,0.898855,-0.38507499999999995,-0.07326150000000001,-0.017994999999999983,-0.003694999999999976,0.07326150000000001,0.017994999999999983,0.003695000000000004,-0.14428850000000001,0.05429499999999998,-0.31155499999999997,0.1378815,0.03425499999999998,-0.31420499999999996,-0.1401185,-0.21516500000000005,-0.177748,0.09172150000000001,-0.22329500000000002,-0.175389
96,-0.12161,0.62626,-0.25969,-0.207535,0.41357900000000003,-0.20602,-0.388325,0.540149,-0.307955,0.047698,0.467682,-0.19576300000000002,0.14183500000000002,0.69695,-0.275395,-0.502015,0.70217,-0.44835500000000006,0.17186500000000002,0.90181,-0.37785500000000005,-0.07291500000000001,-0.017000000000000015,-0.0026349999999999985,0.07291500000000001,0.017000000000000015,0.0026349999999999985,-0.142135,0.03133999999999998,-0.31218500000000005,0.139035,0.013170000000000015,-0.312835,-0.137775,-0.24088000000000004,-0.176072,0.09415499999999999,-0.24823,-0.17334300000000002
97,-0.11556350000000001,0.630715,-0.25647200000000003,-0.20418750000000002,0.41732400000000003,-0.204451,-0.3810075,0.549415,-0.30469,0.053439499999999994,0.472229,-0.19317800000000002,0.14767249999999998,0.699325,-0.27127,-0.49632750000000003,0.712935,-0.44359,0.1797125,0.905455,-0.371,-0.0725825,-0.016154999999999975,-0.001480000000000009,0.0725825,0.016154999999999975,0.0014799999999999813,-0.1403375,0.0072650000000000214,-0.31248,0.13962249999999998,-0.009114999999999984,-0.31132000000000004,-0.13590750000000001,-0.26855500000000004,-0.174231,0.0960725,-0.275055,-0.17152900000000001
98,-0.10899099999999999,0.63686,-0.25341199999999997,-0.200756,0.42205200000000004,-0.202987,-0.37292600000000004,0.55565,-0.302035,0.059432,0.476486,-0.190778,0.154154,0.70335,-0.266835,-0.487636,0.7221900000000001,-0.438505,0.188684,0.91268,-0.364185,-0.072165,-0.015079999999999982,-0.00026499999999998747,0.072165,0.015080000000000038,0.0002650000000000152,-0.13833600000000001,-0.017209999999999948,-0.312615,0.140214,-0.03121999999999997,-0.309565,-0.133986,-0.2968599999999999,-0.172421,0.098064,-0.30282,-0.169882
99,-0.101024,0.643335,-0.24753400000000003,-0.197468,0.42990999999999996,-0.20001800000000003,-0.365448,0.570125,-0.298505,0.066384,0.48253499999999994,-0.18680300000000002,0.16220199999999999,0.711085,-0.260945,-0.478978,0.739765,-0.432045,0.198502,0.919565,-0.355125,-0.07201099999999999,-0.013765000000000027,0.0002949999999999897,0.07201099999999999,0.013764999999999972,-0.00029500000000001747,-0.136618,-0.04659500000000005,-0.30969500000000005,0.140512,-0.05645500000000003,-0.30574500000000004,-0.13233799999999998,-0.33272500000000005,-0.16903600000000002,0.100262,-0.336445,-0.16750700000000002
100,-0.09329950000000001,0.6487750000000001,-0.24182599999999999,-0.19451649999999998,0.43700200000000006,-0.197092,-0.35720650000000004,0.582515,-0.294485,0.0728345,0.48640500000000003,-0.182917,0.1699735,0.718405,-0.255375,-0.4696365,0.7541150000000001,-0.42561499999999997,0.20768350000000002,0.9271550000000001,-0.34635499999999997,-0.07155349999999999,-0.01236499999999996,0.0009149999999999991,0.07155349999999999,0.012365000000000015,-0.0009149999999999991,-0.1351765,-0.07502499999999995,-0.305865,0.1404835,-0.08128499999999994,-0.301975,-0.1311265,-0.367545,-0.166018,0.10233350000000001,-0.369815,-0.165232
101,-0.0851805,0.655095,-0.23483900000000002,-0.19218949999999999,0.445235,-0.19315000000000002,-0.34951950000000004,0.601815,-0.28996,0.0780775,0.487865,-0.178521,0.17726050000000002,0.723395,-0.24934900000000002,-0.45924950000000003,0.772915,-0.41792,0.21573050000000002,0.930055,-0.33681000000000005,-0.0711165,-0.010904999999999998,0.0009299999999999864,0.0711165,0.010904999999999998,-0.0009300000000000141,-0.1334495,-0.09972500000000001,-0.3016,0.1405905,-0.10256500000000002,-0.29777,-0.1299695,-0.39846499999999996,-0.16277100000000003,0.1046805,-0.39975499999999997,-0.16260200000000002
102,-0.0775855,0.6572800000000001,-0.22628500000000001,-0.18989050000000002,0.44838,-0.188427,-0.3425305,0.61452,-0.283485,0.0830095,0.48945000000000005,-0.173407,0.18402949999999998,0.72854,-0.241791,-0.44823050000000003,0.7858,-0.409125,0.2244195,0.93662,-0.326525,-0.0708865,-0.010110000000000008,0.0008749999999999869,0.0708865,0.010110000000000008,-0.0008750000000000147,-0.1318505,-0.12362999999999996,-0.296615,0.14078949999999998,-0.12394,-0.291795,-0.1291305,-0.42818999999999996,-0.159036,0.1069295,-0.42901999999999996,-0.15922
103,-0.0698435,0.65873,-0.217285,-0.1879355,0.45172,-0.183124,-0.3364555,0.6294200000000001,-0.276825,0.0876545,0.48815,-0.167656,0.1892045,0.72741,-0.234518,-0.4366955,0.80166,-0.39836499999999997,0.23243450000000002,0.9377899999999999,-0.31698499999999996,-0.0708695,-0.009220000000000006,0.0007550000000000057,0.0708695,0.009220000000000006,-0.0007550000000000057,-0.1304955,-0.14577999999999997,-0.291055,0.1410445,-0.14383,-0.284535,-0.1283555,-0.45612,-0.155041,0.1089145,-0.45644999999999997,-0.155398
104,-0.06222749999999999,0.6630050000000001,-0.207423,-0.1845405,0.456235,-0.176937,-0.3295405,0.642335,-0.270125,0.0933695,0.490965,-0.160811,0.19479950000000001,0.726745,-0.225451,-0.4248205,0.8215049999999999,-0.386515,0.24045950000000002,0.939425,-0.30479500000000004,-0.0707235,-0.008555000000000007,0.0006250000000000144,0.0707235,0.00855499999999998,-0.0006249999999999867,-0.1288505,-0.167555,-0.28263499999999997,0.14170950000000002,-0.16484500000000002,-0.274885,-0.1273505,-0.48364500000000005,-0.150264,0.1110695,-0.483995,-0.150857
105,-0.0553215,0.6671750000000001,-0.19648700000000002,-0.1813485,0.461365,-0.169935,-0.3228885,0.653335,-0.262705,0.0978215,0.49184500000000003,-0.15307600000000002,0.19963150000000002,0.728765,-0.215279,-0.4136885,0.835495,-0.372945,0.2470515,0.9501850000000001,-0.29147500000000004,-0.0703645,-0.007414999999999977,0.0003949999999999787,0.0703645,0.007415000000000005,-0.00039500000000000646,-0.12774850000000001,-0.182485,-0.272975,0.14210150000000002,-0.179095,-0.26344500000000004,-0.1265585,-0.503825,-0.14479000000000003,0.11298150000000001,-0.504005,-0.14553000000000002
106,-0.048079,0.6722899999999999,-0.18470799999999998,-0.177477,0.46836999999999995,-0.162231,-0.316037,0.66676,-0.254815,0.102573,0.49322999999999995,-0.14477199999999998,0.204703,0.73208,-0.20379599999999998,-0.402037,0.85066,-0.358435,0.253423,0.95861,-0.27781500000000003,-0.070045,-0.0061199999999999866,-5.4999999999999494e-05,0.070045,0.0061199999999999866,5.4999999999999494e-05,-0.126627,-0.19665999999999997,-0.261835,0.142613,-0.19183999999999998,-0.250725,-0.12576700000000002,-0.52273,-0.138587,0.115113,-0.5221600000000001,-0.139815
107,-0.041472999999999996,0.6756599999999999,-0.172538,-0.173731,0.47424,-0.154086,-0.310211,0.6816399999999999,-0.246595,0.107209,0.49554,-0.13597599999999999,0.208989,0.73351,-0.19176500000000002,-0.393991,0.8698899999999999,-0.343295,0.258339,0.96226,-0.263835,-0.069757,-0.005129999999999996,-0.0005450000000000038,0.069757,0.005129999999999996,0.0005450000000000038,-0.12582100000000002,-0.21020000000000003,-0.249645,0.142689,-0.20487000000000002,-0.23712499999999997,-0.12545099999999998,-0.54088,-0.131891,0.11685899999999999,-0.53986,-0.133661
108,-0.0365255,0.678455,-0.163412,-0.17012649999999999,0.477915,-0.147308,-0.30463650000000003,0.688645,-0.23703000000000002,0.1106235,0.49727499999999997,-0.128882,0.2118535,0.733225,-0.181625,-0.3863765,0.881405,-0.32976,0.2621435,0.968015,-0.25216,-0.0694495,-0.004405000000000006,-0.0005200000000000066,0.0694495,0.004405000000000006,0.0005199999999999927,-0.12498650000000001,-0.21696500000000002,-0.23872000000000002,0.1428335,-0.21348500000000004,-0.22622,-0.1252465,-0.5499850000000001,-0.126809,0.1186435,-0.550695,-0.128954
109,-0.031355999999999995,0.680622,-0.153465,-0.166231,0.482382,-0.140075,-0.30013100000000004,0.695472,-0.228151,0.11443900000000001,0.499722,-0.12129899999999999,0.214789,0.732862,-0.17088199999999998,-0.37940100000000004,0.890922,-0.315361,0.266349,0.973722,-0.23974099999999998,-0.069204,-0.0036380000000000023,-0.0006479999999999958,0.069204,0.0036379999999999885,0.0006479999999999958,-0.123981,-0.224798,-0.22746100000000002,0.143019,-0.22233799999999998,-0.214571,-0.12493099999999999,-0.559958,-0.12111,0.12045900000000001,-0.561808,-0.12354699999999999
110,-0.027072999999999996,0.6838359999999999,-0.14450000000000002,-0.162795,0.483526,-0.132963,-0.29556499999999997,0.7008859999999999,-0.218506,0.118435,0.504116,-0.11357300000000001,0.21746500000000002,0.734556,-0.16021400000000002,-0.37338499999999997,0.9000159999999999,-0.30072600000000005,0.270275,0.9804759999999999,-0.227886,-0.068838,-0.00327100000000001,-0.0005620000000000069,0.068838,0.003270999999999996,0.0005619999999999931,-0.123455,-0.231514,-0.216176,0.142655,-0.229854,-0.20261600000000002,-0.125225,-0.569134,-0.116458,0.121955,-0.5716239999999999,-0.11755300000000002
111,-0.0231665,0.6866895,-0.1369285,-0.1597405,0.48576949999999997,-0.1262125,-0.2913605,0.7068095,-0.2089055,0.1222895,0.5075595,-0.10616249999999999,0.2200095,0.7342095,-0.1506425,-0.36742050000000004,0.9090595,-0.2864855,0.2724395,0.9795495,-0.2163155,-0.0686075,-0.0028205000000000036,-0.0004654999999999937,0.0686075,0.0028205000000000036,0.0004655000000000076,-0.1232905,-0.24046050000000002,-0.20564549999999998,0.1419695,-0.2388305,-0.19115549999999998,-0.1252205,-0.5803005,-0.11029749999999999,0.1219895,-0.5829305,-0.1113915
112,-0.019743,0.6905494999999999,-0.12937949999999998,-0.15653899999999998,0.4890095,-0.1196045,-0.28823899999999997,0.7121695,-0.1990365,0.12616100000000002,0.5113595,-0.0988175,0.222871,0.7341894999999999,-0.1409335,-0.362359,0.9167095,-0.2724065,0.27482100000000004,0.9793295,-0.2046065,-0.068393,-0.002306500000000003,-0.0004154999999999992,0.068393,0.002306499999999996,0.0004154999999999992,-0.123199,-0.24974050000000003,-0.1952265,0.14134100000000002,-0.2485005,-0.1796455,-0.125229,-0.5915205,-0.10428849999999999,0.121991,-0.5946105,-0.10538249999999999
113,-0.016402999999999997,0.6950825,-0.12266350000000001,-0.154633,0.4897925,-0.11368150000000002,-0.285663,0.7196125,-0.18977950000000002,0.129077,0.5121325,-0.09216650000000001,0.225997,0.7387125,-0.13185650000000002,-0.357513,0.9205325,-0.2584795,0.27739699999999995,0.9806625,-0.1938395,-0.068341,-0.0019234999999999947,-0.0003555000000000086,0.068341,0.0019235000000000016,0.0003554999999999947,-0.12324299999999999,-0.2584675,-0.1856895,0.140287,-0.2573075,-0.1682645,-0.125213,-0.6018675,-0.09895550000000002,0.121857,-0.6051974999999999,-0.10005450000000002
114,-0.014142000000000002,0.697036,-0.10952599999999998,-0.153862,0.489366,-0.100525,-0.284032,0.7196359999999999,-0.173072,0.131788,0.511936,-0.07810099999999999,0.227588,0.738166,-0.116462,-0.353322,0.9208759999999999,-0.237622,0.278378,0.972216,-0.17638199999999998,-0.067555,-0.001634,-0.0008079999999999962,0.067555,0.001634,0.0008080000000000032,-0.123172,-0.271154,-0.165992,0.136568,-0.270744,-0.146634,-0.12615200000000001,-0.6160140000000001,-0.08473599999999999,0.120648,-0.620154,-0.085098
115,-0.011856499999999999,0.6998695,-0.09713849999999999,-0.15338849999999998,0.4892295,-0.08831249999999999,-0.2822585,0.7201495,-0.1569065,0.1344715,0.5125895,-0.06511549999999999,0.2290115,0.7386595,-0.10230149999999999,-0.34898850000000003,0.9240895,-0.21709649999999997,0.2789915,0.9650095000000001,-0.1599665,-0.0669485,-0.0014634999999999995,-0.001282499999999999,0.0669485,0.0014635000000000013,0.0012825000000000059,-0.1230485,-0.2824505,-0.1478045,0.13297150000000002,-0.2836805,-0.1263915,-0.1270685,-0.6285704999999999,-0.07108249999999999,0.1195515,-0.6331104999999999,-0.0707605
116,-0.009586,0.7016800000000001,-0.085344,-0.153085,0.48921,-0.07669100000000001,-0.280425,0.7208800000000001,-0.141057,0.13669499999999998,0.51253,-0.052837,0.230295,0.7393700000000001,-0.08902399999999999,-0.344805,0.92369,-0.197957,0.27936500000000003,0.9587300000000001,-0.144157,-0.066487,-0.0012459999999999997,-0.0018649999999999986,0.066487,0.0012459999999999997,0.0018649999999999986,-0.122905,-0.29314,-0.130529,0.12942499999999998,-0.29513,-0.10692399999999999,-0.127965,-0.6400199999999999,-0.057784,0.11861500000000001,-0.6445599999999999,-0.056684
117,-0.0073065000000000005,0.7036695,-0.0742855,-0.1529295,0.4892195,-0.0657205,-0.27873950000000003,0.7209295,-0.1260405,0.1385305,0.5118795,-0.0413785,0.23104049999999998,0.7389495,-0.0766665,-0.3405095,0.9237895,-0.17892149999999998,0.2793405,0.9524795,-0.1294385,-0.0661825,-0.0010045000000000002,-0.0025305000000000015,0.0661825,0.0010045000000000002,0.0025305000000000015,-0.12282950000000001,-0.3032705,-0.1143055,0.12577049999999998,-0.3052605,-0.0882415,-0.1288595,-0.6501505,-0.0450395,0.1175705,-0.6546905,-0.0431175
118,-0.005261000000000002,0.7055515,-0.063384,-0.152984,0.4889315,-0.05491,-0.27682399999999996,0.7214415,-0.1112,0.13999599999999998,0.5112114999999999,-0.030098,0.231756,0.7390215,-0.064763,-0.336564,0.9238215,-0.160135,0.278916,0.9462714999999999,-0.115761,-0.065943,-0.0008715000000000007,-0.0031369999999999974,0.065943,0.0008715000000000007,0.003137000000000001,-0.12285399999999999,-0.3123485,-0.098358,0.12213600000000001,-0.31433849999999997,-0.069964,-0.129854,-0.6592285,-0.032307,0.11633600000000001,-0.6647385,-0.029203
119,-0.0031915,0.707275,-0.0533255,-0.1530495,0.488425,-0.0446765,-0.2754595,0.720655,-0.0974665,0.1410505,0.509475,-0.0196425,0.2323405,0.738935,-0.0537845,-0.3329295,0.9239850000000001,-0.1428205,0.2783805,0.941225,-0.1029555,-0.0657005,-0.0006900000000000031,-0.0038604999999999993,0.0657005,0.0006899999999999996,0.003860500000000001,-0.12282950000000001,-0.320055,-0.0830135,0.11848049999999999,-0.322845,-0.0523725,-0.1308095,-0.667275,-0.020166499999999997,0.11509049999999998,-0.673575,-0.015568499999999999
120,-0.0013344999999999989,0.709131,-0.043332499999999996,-0.1533125,0.487881,-0.0345805,-0.2740725,0.720231,-0.0833835,0.14201750000000002,0.507871,-0.0094475,0.23269750000000003,0.738811,-0.0430935,-0.3304225,0.923821,-0.12639250000000002,0.2775975,0.936681,-0.0905825,-0.0655335,-0.00047000000000000167,-0.0044825,0.0655335,0.0004699999999999982,0.0044825,-0.1228425,-0.327479,-0.06773749999999999,0.1145575,-0.331589,-0.0351905,-0.1317625,-0.675659,-0.0076495,0.1134375,-0.682119,-0.0012185000000000002
121,0.0004275000000000008,0.7108545000000001,-0.033533999999999994,-0.1537005,0.4873145,-0.024732,-0.2725405,0.7198945,-0.069858,0.1430295,0.5064245,0.0004060000000000001,0.23292949999999998,0.7388445,-0.03294,-0.3280805,0.9236045,-0.11044,0.2769895,0.9325445,-0.078703,-0.0654125,-0.00027949999999999503,-0.005033,0.0654125,0.00027950000000000197,0.005033,-0.12276050000000001,-0.3345355,-0.052812,0.11065950000000001,-0.3401955,-0.018669,-0.1327105,-0.6837855,0.004921,0.11166949999999999,-0.6890355,0.012771000000000001
122,0.002062500000000002,0.7080759999999999,-0.0239775,-0.1541875,0.48616600000000004,-0.0151215,-0.2712875,0.719036,-0.056874499999999995,0.1437525,0.504906,0.0099465,0.2324425,0.734856,-0.0232005,-0.3258975,0.923186,-0.0947725,0.2764025,0.928346,-0.0672975,-0.0652845,-0.00011099999999999999,-0.005517500000000002,0.0652845,0.00011099999999999999,0.0055175,-0.12271750000000001,-0.341814,-0.0377545,0.1068125,-0.348984,-0.0025325,-0.1332075,-0.6916540000000001,0.018772499999999998,0.10962250000000001,-0.695524,0.0262545
123,0.003776499999999995,0.7087479999999999,-0.0219805,-0.1541765,0.486578,-0.0134225,-0.2698765,0.7221979999999999,-0.052035500000000005,0.1438035,0.5049779999999999,0.011382499999999999,0.2324735,0.7357879999999999,-0.0207105,-0.3240965,0.9277679999999999,-0.0870225,0.2763335,0.9295279999999999,-0.06383649999999999,-0.0653295,5.1999999999996493e-05,-0.005447500000000001,0.0653295,-5.200000000000343e-05,0.005447499999999999,-0.12292650000000001,-0.341992,-0.0333865,0.1051635,-0.350822,0.0022274999999999986,-0.1333665,-0.6920520000000001,0.021662499999999998,0.1091635,-0.695702,0.0290325
124,0.005170999999999995,0.709213,-0.020174,-0.15416,0.486963,-0.011701,-0.26878,0.724213,-0.047536999999999996,0.14387,0.505073,0.012899,0.23252000000000003,0.7367130000000001,-0.017872000000000002,-0.32297000000000003,0.930963,-0.080273,0.27613,0.931153,-0.05981499999999999,-0.065371,0.00020699999999999885,-0.005392000000000001,0.065371,-0.00020699999999999885,0.005392000000000001,-0.12317,-0.34214700000000003,-0.027941999999999998,0.10344999999999999,-0.352447,0.008283,-0.13352,-0.692357,0.024723000000000002,0.10881999999999999,-0.695857,0.032507
125,0.006335499999999997,0.709568,-0.017876,-0.1542575,0.487278,-0.010046,-0.2678775,0.725838,-0.043463,0.1439725,0.5052679999999999,0.014433000000000001,0.23238250000000002,0.737528,-0.014977,-0.32206749999999995,0.9338179999999999,-0.073902,0.27561250000000004,0.9328679999999999,-0.055768,-0.0654025,0.0003520000000000051,-0.005361999999999999,0.0654025,-0.00035199999999999815,0.0053620000000000004,-0.1234075,-0.34229200000000004,-0.022562000000000002,0.1019225,-0.35387199999999996,0.014574,-0.1336675,-0.692682,0.027785,0.10849249999999999,-0.696002,0.036008
126,0.007778999999999998,0.7099260000000001,-0.015851,-0.15372,0.48736599999999997,-0.008442999999999999,-0.26668000000000003,0.727256,-0.039811,0.14442,0.505296,0.016024,0.23276,0.738456,-0.011870999999999996,-0.32106999999999997,0.936216,-0.068296,0.27579,0.934646,-0.05177799999999999,-0.065956,0.00044800000000000395,-0.005368999999999999,0.065956,-0.000447999999999997,0.0053690000000000005,-0.12372,-0.342014,-0.017015,0.10106,-0.354924,0.021158,-0.13377,-0.692794,0.030865000000000004,0.10877999999999999,-0.694784,0.039593
127,0.008867499999999997,0.7100755000000001,-0.014369500000000004,-0.15335849999999998,0.4877155,-0.007310500000000001,-0.2659185,0.7284655000000001,-0.036822499999999994,0.14487150000000001,0.5056355,0.0172625,0.2329615,0.7392255000000001,-0.0091685,-0.3205085,0.9380955000000001,-0.06399250000000001,0.2759315,0.9362155000000001,-0.0482345,-0.0663425,0.0004755000000000037,-0.005315500000000001,0.0663425,-0.00047549999999999676,0.005315499999999999,-0.12409850000000001,-0.3417245,-0.0119515,0.10018149999999999,-0.3556545,0.0271875,-0.1339785,-0.6928945,0.0333205,0.10894149999999998,-0.6933045,0.042818499999999995
128,0.009596,0.7101014999999999,-0.013436999999999998,-0.15313700000000002,0.48800150000000003,-0.00648,-0.265527,0.7294415000000001,-0.034466,0.14519300000000002,0.5059715,0.018241,0.23317300000000002,0.7399315,-0.006756999999999999,-0.320337,0.9397915000000001,-0.060507,0.275963,0.9378614999999999,-0.045082000000000004,-0.066579,0.0004915000000000058,-0.0052,0.066579,-0.0004914999999999989,0.0052,-0.124557,-0.3413985,-0.0072419999999999984,0.099423,-0.3561785,0.032587000000000005,-0.13436700000000001,-0.6929384999999999,0.035539,0.109023,-0.6915985,0.045526
129,0.010065499999999998,0.710126,-0.012876500000000003,-0.1530225,0.48823599999999995,-0.005871500000000002,-0.26534250000000004,0.730126,-0.0328885,0.1454275,0.5062960000000001,0.0189935,0.2334275,0.740426,-0.004670500000000001,-0.3203525,0.9412360000000001,-0.05766750000000001,0.2759575,0.9393060000000001,-0.04227750000000001,-0.0667505,0.0005160000000000026,-0.005114500000000001,0.0667505,-0.0005159999999999956,0.005114500000000001,-0.12500250000000002,-0.341134,-0.003048499999999999,0.0988275,-0.356414,0.0374725,-0.1347925,-0.6929839999999999,0.0372045,0.10901749999999999,-0.6896239999999999,0.0477225
130,0.010325,0.7102075,-0.012674499999999998,-0.152953,0.48843749999999997,-0.005404500000000003,-0.26526299999999997,0.7306475,-0.0318145,0.145607,0.5066375,0.019625499999999997,0.233677,0.7409075,-0.0028304999999999997,-0.320383,0.9422175,-0.055571499999999996,0.275917,0.9406275,-0.0399325,-0.06687799999999999,0.0005975000000000008,-0.005042500000000002,0.06687799999999999,-0.0005975000000000008,0.005042499999999998,-0.125423,-0.3407325,0.0007674999999999974,0.098357,-0.3563925,0.041776499999999994,-0.135283,-0.6929725,0.0387495,0.108987,-0.6875025,0.0497365
131,0.010375499999999996,0.710314,-0.012625500000000001,-0.1529705,0.48857400000000006,-0.0051415,-0.2651905,0.730944,-0.031341499999999994,0.14567950000000002,0.506874,0.020053500000000002,0.2338995,0.741314,-0.001343500000000001,-0.3204205,0.942994,-0.0544525,0.2760195,0.941754,-0.038182499999999994,-0.06696450000000001,0.0006649999999999989,-0.0049984999999999995,0.06696450000000001,-0.0006649999999999989,0.0049984999999999995,-0.1258305,-0.340326,0.0036904999999999993,0.09821949999999999,-0.356286,0.0450135,-0.1357505,-0.692926,0.0399585,0.10892950000000001,-0.685766,0.051375500000000004
132,0.010364499999999999,0.7103229999999999,-0.012616500000000003,-0.1530065,0.488743,-0.004951500000000001,-0.26511650000000003,0.731173,-0.031196500000000002,0.1457535,0.507143,0.020429499999999996,0.2340835,0.741663,-0.00018850000000000117,-0.3203865,0.9434929999999999,-0.05411150000000001,0.2762335,0.9427329999999999,-0.036958500000000005,-0.0670145,0.0007030000000000022,-0.004991500000000003,0.0670145,-0.0007029999999999953,0.004991499999999999,-0.12616650000000001,-0.339887,0.006110499999999998,0.09808349999999999,-0.356137,0.047854499999999994,-0.1362365,-0.6928270000000001,0.0409465,0.10884350000000001,-0.6840970000000001,0.0529385
133,0.010340499999999999,0.7102674999999999,-0.012580000000000001,-0.15304150000000002,0.4889375,-0.004759000000000003,-0.2650515,0.7313375,-0.031156000000000003,0.14577849999999998,0.5074075,0.020746,0.2342685,0.7418775,0.000449999999999999,-0.3201215,0.9436574999999999,-0.054064999999999995,0.27659849999999997,0.9428974999999999,-0.03674,-0.0670715,0.0007004999999999997,-0.004957,0.0670715,-0.0007004999999999997,0.004957,-0.1264415,-0.33972250000000004,0.0074119999999999985,0.0979885,-0.3559725,0.049141,-0.1366115,-0.6926625000000001,0.041652999999999996,0.10882850000000001,-0.6835625000000001,0.053743
134,0.010303,0.71005,-0.012683,-0.153089,0.48910000000000003,-0.004565,-0.265019,0.73147,-0.031128999999999997,0.14583100000000002,0.50762,0.021016000000000003,0.23445100000000002,0.74201,0.0007410000000000021,-0.320119,0.9437899999999999,-0.054039000000000004,0.277021,0.9430299999999999,-0.036697999999999995,-0.067133,0.000676999999999997,-0.004905,0.067133,-0.000677000000000004,0.004905000000000003,-0.126629,-0.33959,0.008561000000000003,0.097921,-0.35558,0.049792,-0.136949,-0.6925300000000001,0.04228,0.10904099999999999,-0.6833100000000001,0.054302
135,0.010316499999999996,0.7097945,-0.013027,-0.1531245,0.48919450000000003,-0.004435999999999999,-0.2650345,0.7315645,-0.031128,0.14584550000000002,0.5077145,0.021152,0.23463550000000002,0.7421045,0.0007500000000000007,-0.3201645,0.9438844999999999,-0.054038,0.2774255,0.9431244999999999,-0.036681000000000005,-0.0671895,0.0006535000000000013,-0.004875000000000001,0.0671895,-0.0006535000000000013,0.004875000000000001,-0.1267045,-0.3394955,0.009361,0.09790549999999999,-0.3552455,0.049794,-0.1372345,-0.6924355000000001,0.042719,0.1092655,-0.6829955000000001,0.054609000000000005
136,0.010339999999999998,0.7094374999999999,-0.013805500000000005,-0.153148,0.4892575,-0.004352500000000002,-0.264728,0.7315875,-0.031456500000000005,0.14588199999999998,0.5077775,0.0212225,0.234822,0.7421675,0.0007584999999999953,-0.320188,0.9438575,-0.05455150000000001,0.277802,0.9431475,-0.0366645,-0.067236,0.0006265000000000021,-0.004865500000000002,0.067236,-0.0006264999999999951,0.004865499999999998,-0.12676800000000002,-0.3394325,0.010016499999999996,0.097982,-0.3551625,0.049798499999999996,-0.137468,-0.6924625,0.043137499999999995,0.109362,-0.6829325,0.0546375
137,0.010393499999999996,0.7090835000000001,-0.014801000000000002,-0.1531665,0.4893135,-0.0043230000000000005,-0.26428650000000004,0.7315335000000001,-0.031896,0.1459235,0.5078335,0.021254,0.23502350000000002,0.7422135000000001,0.0007969999999999991,-0.32001650000000004,0.9436835,-0.055235,0.27821349999999995,0.9428035,-0.036912,-0.0672775,0.0005985000000000018,-0.004864,0.0672775,-0.0005984999999999949,0.004863999999999997,-0.1268165,-0.3394065,0.010576999999999998,0.0980435,-0.35487650000000004,0.049832,-0.1376265,-0.6925064999999999,0.043489,0.10948350000000001,-0.6828765,0.054672
138,0.010446499999999997,0.708677,-0.0159055,-0.1531675,0.489357,-0.004303500000000002,-0.2636075,0.7313869999999999,-0.032572500000000004,0.1459725,0.507857,0.0212755,0.2353025,0.742197,0.0005714999999999991,-0.31931750000000003,0.943237,-0.05647050000000001,0.27863249999999995,0.942407,-0.037488499999999994,-0.0673185,0.0005649999999999961,-0.0048465,0.0673185,-0.000565000000000003,0.0048465,-0.1268175,-0.339423,0.011046499999999999,0.09811249999999999,-0.354583,0.049728499999999995,-0.1377775,-0.692563,0.0437865,0.10956250000000001,-0.6828430000000001,0.05469449999999999
139,0.010547000000000004,0.7082069999999999,-0.0172885,-0.15314599999999998,0.489377,-0.004236500000000001,-0.262626,0.731047,-0.0334775,0.146034,0.5078269999999999,0.0213445,0.235604,0.7420469999999999,0.00017549999999999857,-0.318166,0.9426869999999999,-0.0579545,0.279064,0.9419569999999999,-0.0382625,-0.06734699999999999,0.0005649999999999961,-0.004781500000000001,0.06734699999999999,-0.000565000000000003,0.0047814999999999976,-0.126766,-0.339573,0.0113885,0.09815399999999999,-0.354423,0.0493425,-0.137866,-0.692713,0.0440175,0.10956400000000002,-0.6832130000000001,0.0547605
140,0.010715000000000002,0.707707,-0.018834499999999997,-0.153077,0.48941700000000005,-0.004084500000000001,-0.26132700000000003,0.7306769999999999,-0.0346875,0.14611300000000002,0.5078269999999999,0.0214685,0.236113,0.7418669999999999,-0.00047650000000000123,-0.316487,0.9419369999999999,-0.0597575,0.279533,0.941087,-0.0393965,-0.06737699999999999,0.0005649999999999961,-0.0046605000000000014,0.06737699999999999,-0.000565000000000003,0.0046605000000000014,-0.126687,-0.339713,0.0116905,0.09825300000000001,-0.354263,0.0485095,-0.137967,-0.692863,0.0442805,0.10953300000000002,-0.683583,0.0548505
141,0.010991000000000004,0.7070015,-0.0206695,-0.15298,0.48946150000000005,-0.003870499999999999,-0.2598,0.7302814999999999,-0.0361615,0.14619,0.5078214999999999,0.0217025,0.23676,0.7416415,-0.0011444999999999997,-0.31436,0.9411014999999999,-0.062023499999999995,0.28011,0.9400615,-0.040612499999999996,-0.067411,0.0005595000000000044,-0.0045474999999999995,0.067411,-0.0005594999999999975,0.0045474999999999995,-0.12658,-0.3398485,0.0120415,0.0984,-0.3542685,0.0474005,-0.13801,-0.6929985000000001,0.0446575,0.10949000000000002,-0.6840685000000001,0.0550375
142,0.011369,0.706129,-0.022618,-0.152874,0.48944899999999997,-0.0035359999999999975,-0.257984,0.729719,-0.03768,0.146286,0.507769,0.022114,0.23757599999999998,0.7412690000000001,-0.0018969999999999994,-0.31157399999999996,0.9398190000000001,-0.06496,0.28094600000000003,0.938859,-0.041892,-0.06744599999999999,0.0005119999999999986,-0.004469999999999998,0.06744599999999999,-0.0005119999999999986,0.004470000000000002,-0.126504,-0.340051,0.012592000000000002,0.098556,-0.354351,0.046137,-0.138094,-0.693201,0.045259,0.109406,-0.684781,0.055249
143,0.0121875,0.7048075,-0.025214,-0.1515475,0.4903575,-0.003974000000000002,-0.25525749999999997,0.7289075,-0.040298999999999995,0.14750249999999998,0.5083275,0.022396,0.23879250000000002,0.7407375,-0.0028990000000000023,-0.3074775,0.9380175000000001,-0.069463,0.2825725,0.9373175,-0.04404,-0.0674675,0.0004635000000000056,-0.004428999999999999,0.0674675,-0.00046349999999999864,0.004428999999999999,-0.1265775,-0.3403625,0.013438,0.09865249999999999,-0.3545125,0.044067999999999996,-0.1384175,-0.6934825,0.046152,0.10904249999999999,-0.6859925,0.055453999999999996
144,0.013131,0.7036874999999999,-0.0279015,-0.15016700000000002,0.4911275,-0.0044465000000000025,-0.252117,0.7279175,-0.0434735,0.149063,0.5090874999999999,0.0228085,0.24033299999999996,0.7403274999999999,-0.004155500000000003,-0.302617,0.9357774999999999,-0.0744285,0.28446299999999997,0.9359175,-0.0462775,-0.067487,0.0004535000000000025,-0.0044195,0.067487,-0.0004535000000000025,0.0044195,-0.126827,-0.3404925,0.014470499999999999,0.098663,-0.3545425,0.0415895,-0.138927,-0.6935925000000001,0.047230499999999995,0.108503,-0.6871325,0.055571499999999996
145,0.014693000000000005,0.702417,-0.030711000000000002,-0.14862999999999998,0.491577,-0.005430999999999998,-0.24866,0.726537,-0.048267,0.15132,0.5093369999999999,0.023021,0.24355,0.7398969999999999,-0.006260000000000002,-0.29648,0.932477,-0.082394,0.2883,0.9348369999999999,-0.049692999999999994,-0.067482,0.00044399999999999995,-0.004451,0.067482,-0.00044399999999999995,0.004451,-0.12719999999999998,-0.34069299999999997,0.015736,0.09847,-0.354773,0.038127,-0.13999,-0.693713,0.048653,0.10748,-0.6888230000000001,0.05559
146,0.016432000000000006,0.701029,-0.0335755,-0.146553,0.491999,-0.007166499999999999,-0.245293,0.7251289999999999,-0.0545735,0.153787,0.5095689999999999,0.0232365,0.24852700000000003,0.739339,-0.009157499999999999,-0.290583,0.9291889999999999,-0.0915685,0.293267,0.933539,-0.054039500000000004,-0.067422,0.0004320000000000018,-0.004591499999999998,0.067422,-0.0004320000000000018,0.004591500000000002,-0.12784299999999998,-0.34114099999999997,0.0170185,0.098217,-0.35518099999999997,0.0342275,-0.14141299999999998,-0.694071,0.0502355,0.106017,-0.690561,0.055579500000000004
147,0.018459,0.6995870000000001,-0.036374500000000004,-0.144262,0.492187,-0.009302500000000002,-0.24230200000000002,0.722577,-0.06170350000000001,0.156308,0.5096970000000001,0.0235945,0.254418,0.737557,-0.0120555,-0.28411200000000003,0.924307,-0.1043515,0.299298,0.930887,-0.0594625,-0.067386,0.0004009999999999986,-0.004716500000000002,0.067386,-0.0004009999999999986,0.004716500000000002,-0.128882,-0.341613,0.0184225,0.09758800000000001,-0.355423,0.030305500000000003,-0.143482,-0.694283,0.052208500000000005,0.10387800000000001,-0.692383,0.0556445
148,0.0205205,0.698319,-0.03890049999999999,-0.1419505,0.492679,-0.011643499999999994,-0.23923049999999998,0.716689,-0.06935949999999999,0.1592895,0.510109,0.024030500000000003,0.2613095,0.733499,-0.014911499999999994,-0.2777605,0.917389,-0.1166595,0.3066095,0.926049,-0.0658255,-0.06732350000000001,0.0003809999999999994,-0.004931499999999998,0.06732350000000001,-0.0003809999999999994,0.004931500000000005,-0.13022050000000002,-0.34188100000000005,0.019873500000000002,0.09649949999999999,-0.355451,0.026494500000000004,-0.14618050000000002,-0.694181,0.054567500000000005,0.1010695,-0.693871,0.056044500000000004
149,0.022969000000000003,0.697152,-0.04138,-0.1403,0.493512,-0.013752,-0.23790999999999998,0.7100519999999999,-0.077666,0.16159,0.510872,0.024739999999999998,0.26968,0.7274919999999999,-0.017656000000000005,-0.27097,0.9099119999999999,-0.134146,0.31599,0.9184319999999999,-0.073126,-0.06724,0.0003439999999999971,-0.005223000000000005,0.06724,-0.000344000000000004,0.0052229999999999985,-0.131815,-0.342118,0.021182,0.09512000000000001,-0.355518,0.022735,-0.14951,-0.6935380000000001,0.057127,0.09765000000000001,-0.695118,0.056572
150,0.025486500000000002,0.696558,-0.043216,-0.1378565,0.49396799999999996,-0.016469000000000004,-0.23817649999999999,0.702738,-0.087671,0.1650135,0.511638,0.025852,0.2794135,0.719648,-0.020311000000000003,-0.26483650000000003,0.903238,-0.153671,0.32625350000000003,0.908768,-0.08136099999999999,-0.06718350000000001,0.0003840000000000024,-0.005503000000000001,0.06718350000000001,-0.0003840000000000024,0.005503000000000001,-0.1336805,-0.342252,0.022121,0.09344350000000001,-0.354982,0.019181999999999998,-0.1536465,-0.692192,0.060064,0.0934335,-0.6957220000000001,0.057293
151,0.028131000000000003,0.6964365,-0.04452550000000001,-0.13450800000000002,0.49380650000000004,-0.019617500000000003,-0.237975,0.6934965,-0.0985055,0.168485,0.5126765,0.027388499999999996,0.291205,0.7080765,-0.0224645,-0.258555,0.8946165,-0.1767155,0.338175,0.8947565,-0.09069550000000001,-0.067075,0.00044349999999999945,-0.0057585,0.067075,-0.00044349999999999945,0.0057585,-0.135455,-0.3423935,0.022311499999999998,0.091475,-0.3538135,0.015992499999999996,-0.158505,-0.6904635,0.0631595,0.08849499999999999,-0.6956335,0.0584115
152,0.030583500000000007,0.696856,-0.0447995,-0.1328015,0.49383599999999994,-0.0214865,-0.2394255,0.680836,-0.1106955,0.1706445,0.513806,0.0297915,0.3033345,0.694406,-0.023884499999999996,-0.2534555,0.882236,-0.2020855,0.3498445,0.8799359999999999,-0.10030550000000002,-0.06690449999999999,0.0005210000000000006,-0.005981500000000001,0.0669045,-0.0005210000000000006,0.005981500000000001,-0.13698849999999999,-0.342744,0.0212125,0.08936449999999999,-0.352924,0.0139425,-0.1639055,-0.688194,0.0663315,0.08278449999999998,-0.694634,0.0601675
153,0.03331,0.6973779999999999,-0.0444625,-0.130886,0.493688,-0.023278499999999994,-0.241877,0.666678,-0.12305649999999999,0.172653,0.514488,0.0325055,0.316743,0.675568,-0.024225499999999997,-0.24857700000000002,0.866288,-0.2298665,0.362863,0.859658,-0.11126649999999999,-0.066743,0.0006759999999999995,-0.0061784999999999965,0.066743,-0.0006759999999999995,0.0061785000000000034,-0.137328,-0.34339200000000003,0.0175685,0.087173,-0.351292,0.012672500000000003,-0.169387,-0.685272,0.0692175,0.076513,-0.692922,0.0624545
154,0.0352345,0.698442,-0.0431295,-0.1298255,0.49339200000000005,-0.024262500000000006,-0.2452835,0.649242,-0.13503749999999998,0.17336649999999998,0.5152220000000001,0.0361775,0.3293565,0.6530520000000001,-0.0191645,-0.24500349999999999,0.845512,-0.25765750000000004,0.37446650000000004,0.833342,-0.12131750000000001,-0.0666065,0.0009179999999999987,-0.006428499999999997,0.0666065,-0.0009179999999999987,0.006428500000000004,-0.13721650000000002,-0.345188,0.011897499999999998,0.0844265,-0.34908799999999995,0.0131755,-0.1741835,-0.681628,0.0710435,0.06944650000000001,-0.689668,0.0656315
155,0.036680500000000005,0.7001865,-0.041245500000000004,-0.1296895,0.49134649999999996,-0.02426550000000001,-0.2501295,0.6280565,-0.1450555,0.17324050000000002,0.5142964999999999,0.04014449999999999,0.33849049999999997,0.6253664999999999,-0.013041500000000011,-0.24170950000000002,0.8171265000000001,-0.28540550000000003,0.38472049999999997,0.7999164999999999,-0.13047550000000002,-0.0666605,0.001185499999999999,-0.006607500000000002,0.0666605,-0.0011855000000000025,0.006607499999999995,-0.1363405,-0.3471435,0.0038334999999999897,0.08041050000000001,-0.3460735,0.015000499999999993,-0.1794295,-0.6772635,0.07299349999999999,0.061340500000000006,-0.6852834999999999,0.0695735
156,0.037934999999999997,0.7021905,-0.0392695,-0.129995,0.4886305000000001,-0.0238105,-0.255865,0.6034905,-0.1541495,0.17293499999999998,0.5121705,0.044260499999999994,0.343815,0.5930605,-0.006662500000000002,-0.238985,0.7828705,-0.3106795,0.393675,0.7594005,-0.1385095,-0.066735,0.0015084999999999994,-0.006664500000000004,0.06673499999999999,-0.0015085000000000012,0.006664499999999997,-0.133953,-0.3488295,-0.006756499999999999,0.07594499999999998,-0.34332949999999995,0.017640499999999996,-0.181119,-0.6723494999999999,0.0723905,0.05277499999999999,-0.6805494999999999,0.0741685
157,0.038982,0.7045525,-0.03697149999999999,-0.130489,0.48542250000000003,-0.023230499999999987,-0.261338,0.5764425,-0.16135149999999998,0.17133199999999998,0.5095325,0.048902500000000015,0.342982,0.5565025,0.0002645000000000147,-0.23602800000000002,0.7432025,-0.3352615,0.396972,0.7119025,-0.13648149999999998,-0.06690199999999999,0.0017955000000000002,-0.0067404999999999965,0.066902,-0.0017955000000000002,0.00674050000000001,-0.130428,-0.3464075,-0.019826499999999983,0.071112,-0.3381875,0.02110350000000001,-0.181475,-0.6672075,0.0708465,0.04338200000000002,-0.6754074999999999,0.07956450000000001
158,0.0391985,0.707217,-0.0348045,-0.1308165,0.48180700000000004,-0.02300450000000001,-0.26687150000000004,0.5453469999999999,-0.1628945,0.1694285,0.505967,0.05321849999999999,0.3380185,0.5174169999999999,0.009473499999999996,-0.23554150000000001,0.695337,-0.34783450000000005,0.3934185,0.657987,-0.1304945,-0.0671485,0.001953999999999999,-0.006761500000000004,0.0671485,-0.001954,0.00676149999999999,-0.1259825,-0.344323,-0.034224500000000005,0.06560849999999999,-0.33303299999999997,0.025374499999999994,-0.17843550000000002,-0.6618630000000001,0.0653705,0.0331785,-0.670253,0.08533349999999999
159,0.039581000000000005,0.70949,-0.03367350000000001,-0.131615,0.47905000000000003,-0.02311350000000001,-0.271019,0.51235,-0.16069350000000002,0.166461,0.5011399999999999,0.05652649999999999,0.328291,0.47829000000000005,0.018717499999999998,-0.234129,0.63984,-0.3492535,0.385911,0.5976,-0.12297350000000001,-0.06742100000000001,0.001993,-0.006831500000000004,0.06742100000000001,-0.001993,0.00683149999999999,-0.118678,-0.34274,-0.0521335,0.06071099999999999,-0.32921999999999996,0.0299165,-0.171073,-0.6569,0.056597499999999995,0.022380999999999984,-0.66555,0.0914815
160,0.039554000000000006,0.7112225,-0.0337065,-0.13303399999999999,0.4763825,-0.023436499999999985,-0.273026,0.4785425,-0.15449649999999998,0.16201400000000002,0.49518249999999997,0.05912750000000001,0.313944,0.4392025,0.028607500000000008,-0.23293599999999998,0.5825925,-0.3395465,0.37135399999999996,0.5248825,-0.1138565,-0.06749399999999998,0.0020635000000000002,-0.007516499999999995,0.067494,-0.0020635000000000002,0.007516500000000009,-0.10838699999999998,-0.3408675,-0.07367649999999998,0.058644,-0.32587750000000004,0.03313350000000001,-0.15661599999999998,-0.6524875,0.03787750000000001,0.009754000000000013,-0.6585075,0.09731250000000001
161,0.039760500000000004,0.712873,-0.034562999999999997,-0.13390649999999998,0.473583,-0.024643000000000012,-0.2746195,0.444573,-0.149613,0.15769049999999998,0.488483,0.060593999999999995,0.3018605,0.401223,0.037114999999999995,-0.2321415,0.525183,-0.329223,0.3578705,0.448943,-0.104063,-0.0677205,0.00217,-0.008353,0.06772049999999999,-0.00217,0.008353,-0.09705449999999999,-0.339017,-0.095683,0.05256050000000001,-0.32537699999999997,0.037029999999999993,-0.13723849999999999,-0.6482070000000001,0.014548999999999992,-0.00415950000000001,-0.654267,0.10522999999999999
162,0.0401465,0.7144020000000001,-0.03677999999999998,-0.1352145,0.470932,-0.02653999999999998,-0.2748835,0.41127199999999997,-0.14459,0.15291649999999998,0.482382,0.06145000000000001,0.29124649999999996,0.367802,0.04656500000000001,-0.2323295,0.454342,-0.31843,0.3446865,0.375952,-0.09366999999999998,-0.0678665,0.0022920000000000006,-0.009319999999999995,0.0678665,-0.0022920000000000006,0.009320000000000009,-0.08482949999999999,-0.337218,-0.11706,0.04682650000000002,-0.325728,0.041673000000000016,-0.1142435,-0.644488,-0.013519999999999976,-0.017873499999999987,-0.650168,0.11315900000000001
163,0.04139999999999999,0.715555,-0.04067500000000002,-0.135668,0.468335,-0.029115000000000002,-0.272179,0.378995,-0.136905,0.14939,0.47613500000000003,0.06259999999999999,0.27996,0.335755,0.05925599999999999,-0.23254200000000003,0.38366500000000003,-0.30412500000000003,0.3321099999999999,0.304995,-0.08035500000000001,-0.06794000000000001,0.002491,-0.010495000000000004,0.06794,-0.002491,0.01049499999999999,-0.07338000000000001,-0.332675,-0.136075,0.04132999999999998,-0.32742499999999997,0.04865799999999998,-0.08479000000000002,-0.641985,-0.048045000000000004,-0.03226000000000001,-0.646025,0.12367099999999999
164,0.042624999999999996,0.7155925,-0.04722000000000001,-0.13591599999999998,0.4655825,-0.03434999999999999,-0.26673199999999997,0.3467225,-0.12365999999999999,0.14549499999999999,0.47287250000000003,0.062611,0.265785,0.3073925,0.07549299999999999,-0.234528,0.3143425,-0.27822,0.31723500000000004,0.2362825,-0.06226000000000001,-0.067715,0.0021604999999999992,-0.012009999999999993,0.06771500000000003,-0.0021604999999999992,0.012009999999999993,-0.063525,-0.3280575,-0.15339999999999998,0.031665,-0.32834749999999996,0.060542,-0.05157499999999998,-0.6398975,-0.08637,-0.050854999999999984,-0.6411875,0.139185
165,0.04347999999999996,0.7156629999999999,-0.05474999999999999,-0.13649100000000003,0.463103,-0.04003999999999999,-0.259988,0.317603,-0.10974,0.14193,0.470883,0.06081,0.24912999999999996,0.283993,0.08975000000000001,-0.236763,0.250113,-0.25029999999999997,0.30177000000000004,0.175203,-0.042550000000000004,-0.06776000000000001,0.0013269999999999983,-0.013429999999999997,0.06775999999999999,-0.0013270000000000018,0.013429999999999997,-0.055520000000000014,-0.323447,-0.16863,0.02185999999999999,-0.328797,0.07019800000000001,-0.021960000000000007,-0.638707,-0.12107000000000001,-0.06937000000000001,-0.633947,0.155622
166,0.04239999999999999,0.715678,-0.06161,-0.13851000000000002,0.461068,-0.04522999999999999,-0.254899,0.294058,-0.09315000000000001,0.1361,0.470218,0.05821000000000001,0.22820000000000001,0.273888,0.10438000000000001,-0.243057,0.19411799999999999,-0.21869,0.28202000000000005,0.128628,-0.021259999999999973,-0.06764,0.0008299999999999974,-0.015209999999999974,0.06763999999999998,-0.0008300000000000009,0.015210000000000001,-0.042899999999999994,-0.317992,-0.18036999999999997,0.010270000000000001,-0.331392,0.08307000000000002,0.0045399999999999885,-0.637932,-0.15156999999999998,-0.08986,-0.627092,0.174125
167,0.04107500000000003,0.715349,-0.06926000000000002,-0.14063499999999998,0.45920900000000003,-0.05150000000000002,-0.249668,0.275149,-0.07730000000000001,0.13081500000000001,0.469379,0.053299999999999986,0.207395,0.271709,0.115215,-0.24820299999999998,0.146949,-0.18831,0.260225,0.089748,0.0013799999999999923,-0.06753499999999998,0.0003809999999999959,-0.0174,0.06753500000000001,-0.0003809999999999994,0.0174,-0.03203499999999998,-0.311751,-0.19065000000000001,-0.002134999999999998,-0.33492099999999997,0.09508,0.026375000000000037,-0.6375609999999999,-0.17721,-0.109425,-0.620741,0.190623
168,0.03853000000000001,0.7149895,-0.075745,-0.14336000000000002,0.4577095,-0.056825000000000014,-0.24597000000000002,0.2591995,-0.06079499999999999,0.12442999999999999,0.4694195,0.049845,0.18369999999999997,0.2717795,0.125805,-0.253909,0.1067915,-0.157985,0.23561000000000004,0.062089500000000006,0.027664999999999995,-0.06805,0.00021850000000000341,-0.017915000000000014,0.06805,-0.00021849999999999647,0.017915000000000014,-0.025249999999999995,-0.3095105,-0.181975,-0.01593,-0.3386905,0.10552500000000001,0.04237999999999997,-0.6384705,-0.196905,-0.12848,-0.6145205,0.209852
169,0.03683500000000001,0.7151185,-0.07984499999999994,-0.14645499999999997,0.4572385,-0.05976499999999996,-0.24315399999999998,0.24661850000000002,-0.04718499999999998,0.12052500000000005,0.47048850000000003,0.04961500000000005,0.167045,0.2732185,0.13304500000000002,-0.25942499999999996,0.0710485,-0.12914499999999995,0.212995,0.049895499999999995,0.055875000000000036,-0.06791499999999998,8.550000000000224e-05,-0.019094999999999973,0.067915,-8.550000000000224e-05,0.01909500000000003,-0.021094999999999975,-0.3060815,-0.17894499999999997,-0.02669499999999997,-0.3411115,0.11706500000000003,0.051295000000000035,-0.6399315000000001,-0.20345499999999994,-0.14485499999999998,-0.6092815,0.23075100000000004
170,0.03457500000000002,0.715816,-0.08433999999999997,-0.14868499999999998,0.457186,-0.06442999999999993,-0.239315,0.23924600000000001,-0.03715999999999997,0.11690500000000004,0.471406,0.04621000000000006,0.15408500000000003,0.274136,0.13727000000000006,-0.263955,0.041041,-0.10153999999999996,0.19232499999999997,0.042570000000000004,0.08221000000000003,-0.06787499999999996,-0.0004170000000000007,-0.02022999999999997,0.06787500000000002,0.0004170000000000007,0.020230000000000026,-0.019525000000000015,-0.305164,-0.17555999999999994,-0.036825,-0.343024,0.12537000000000004,0.054694999999999994,-0.642134,-0.20455,-0.15872499999999998,-0.604854,0.24801300000000004
171,0.031374999999999986,0.7160475,-0.08692,-0.151205,0.4577175,-0.06740999999999997,-0.236105,0.2341375,-0.026929999999999954,0.11227499999999996,0.4719375,0.043810000000000016,0.14288499999999998,0.2636275,0.14168000000000003,-0.267506,0.030004500000000003,-0.07044999999999996,0.17338499999999996,0.0342505,0.10610000000000003,-0.067745,-0.000948499999999998,-0.02137,0.067745,0.0009485000000000049,0.02137,-0.019284999999999997,-0.30463250000000003,-0.16981999999999997,-0.048085000000000044,-0.3441425,0.13222000000000003,0.052824999999999955,-0.6452625,-0.19811,-0.17104500000000003,-0.6036925,0.264146
172,0.028590000000000004,0.7167359999999999,-0.08971000000000001,-0.15326,0.458406,-0.07111,-0.23456000000000002,0.233546,-0.020520000000000038,0.10719999999999996,0.472796,0.03928999999999999,0.13846999999999998,0.256146,0.14273999999999998,-0.27013000000000004,0.027084999999999998,-0.04188000000000003,0.16064,0.031945,0.11668999999999999,-0.06772,-0.0007479999999999987,-0.02209,0.06772,0.0007479999999999987,0.02209,-0.018230000000000024,-0.30739399999999995,-0.16331000000000007,-0.05631000000000003,-0.347584,0.13560999999999998,0.04307,-0.6458240000000001,-0.18329000000000006,-0.18048000000000003,-0.603004,0.277626
173,0.025115,0.717467,-0.09004999999999996,-0.15567499999999995,0.459137,-0.07272999999999996,-0.23476499999999997,0.234277,-0.025260000000000005,0.10231499999999999,0.475047,0.03551000000000004,0.138345,0.255877,0.14305,-0.269625,0.027816,-0.029789999999999983,0.156445,0.032676000000000004,0.11871999999999999,-0.068185,-0.0009720000000000006,-0.021710000000000007,0.068185,0.0009720000000000006,0.021710000000000007,-0.017644999999999966,-0.310083,-0.15863,-0.058914999999999995,-0.349913,0.13427000000000003,0.028005000000000002,-0.646153,-0.16209,-0.17786499999999997,-0.605353,0.27375000000000005
