sb224sc-HT22-VT27/4dt907/src/data/kinect_good_vs_bad_not_preprocessed_A13_mediapipe/G52.csv
FrameNo,nose_3d_x,nose_3d_y,nose_3d_z,left_shoulder_3d_x,left_shoulder_3d_y,left_shoulder_3d_z,left_elbow_3d_x,left_elbow_3d_y,left_elbow_3d_z,right_shoulder_3d_x,right_shoulder_3d_y,right_shoulder_3d_z,right_elbow_3d_x,right_elbow_3d_y,right_elbow_3d_z,left_wrist_3d_x,left_wrist_3d_y,left_wrist_3d_z,right_wrist_3d_x,right_wrist_3d_y,right_wrist_3d_z,left_hip_3d_x,left_hip_3d_y,left_hip_3d_z,right_hip_3d_x,right_hip_3d_y,right_hip_3d_z,left_knee_3d_x,left_knee_3d_y,left_knee_3d_z,right_knee_3d_x,right_knee_3d_y,right_knee_3d_z,left_ankle_3d_x,left_ankle_3d_y,left_ankle_3d_z,right_ankle_3d_x,right_ankle_3d_y,right_ankle_3d_z
0,0.007723999999999999,0.6823605,-0.1300415,-0.151531,0.4943305,-0.0615255,-0.258491,0.6910705,-0.1654415,0.154599,0.4995205,-0.06060249999999999,0.244899,0.7112205,-0.1463515,-0.316011,0.8789605,-0.2472615,0.290829,0.8960005,-0.22364150000000002,-0.069648,-0.00037850000000000036,-6.749999999999812e-05,0.069648,0.0003784999999999995,6.750000000000506e-05,-0.119101,-0.3497295,-0.0629425,0.113259,-0.3455595,-0.0491935,-0.123931,-0.6904795,-0.023469499999999997,0.115119,-0.6916995,-0.026785499999999997
1,0.009282500000000006,0.6825264999999999,-0.1299525,-0.1516835,0.4941665,-0.0604325,-0.2590135,0.6907665,-0.1644025,0.15536650000000002,0.4998965,-0.0588335,0.2436965,0.7062164999999999,-0.1420025,-0.3172535,0.8788165,-0.24618250000000003,0.2891065,0.8908265,-0.2201925,-0.0695775,-0.00015149999999999973,-0.0003285000000000024,0.0695775,0.00015150000000000016,0.00032849999999999546,-0.1191135,-0.34866349999999996,-0.062101500000000004,0.1129865,-0.3460735,-0.0482215,-0.1239535,-0.6877435000000001,-0.022727500000000005,0.11490650000000001,-0.6920735,-0.026027500000000002
2,0.010964500000000002,0.682944,-0.13002350000000001,-0.1514835,0.49431400000000003,-0.059328500000000006,-0.2594435,0.691234,-0.1636135,0.1557165,0.500044,-0.0578125,0.2435865,0.704394,-0.1401635,-0.3179935,0.8788039999999999,-0.2447735,0.2886665,0.8889739999999999,-0.2186935,-0.0696015,-4.6000000000000034e-05,-0.0004745000000000027,0.0696015,4.6000000000000034e-05,0.00047449999999999576,-0.1191035,-0.347346,-0.0615975,0.1129565,-0.346336,-0.047559500000000005,-0.1240435,-0.687716,-0.0222735,0.1147965,-0.6920660000000001,-0.025350500000000005
3,0.013373499999999997,0.6830415000000001,-0.129568,-0.1514425,0.4943515,-0.057926000000000005,-0.2603325,0.6916515000000001,-0.161778,0.1564675,0.5000415,-0.05624899999999999,0.2452075,0.7072615,-0.137798,-0.3198225,0.8792415,-0.24231799999999998,0.2893275,0.8915515,-0.217708,-0.0696025,0.00019650000000000006,-0.000791,0.0696025,-0.00019650000000000006,0.000791,-0.1192025,-0.3470785,-0.06086899999999999,0.1126775,-0.3466785,-0.046277,-0.1241725,-0.6887485,-0.021411,0.1147875,-0.6924785,-0.024506
4,0.014158000000000002,0.683064,-0.12931949999999998,-0.151226,0.494824,-0.05711050000000001,-0.260386,0.691914,-0.16122950000000003,0.157044,0.500214,-0.0555085,0.247344,0.7124240000000001,-0.13791950000000003,-0.320466,0.879024,-0.2412895,0.290834,0.896594,-0.2184995,-0.069581,0.000245,-0.000733500000000005,0.069581,-0.000245,0.000733499999999998,-0.119006,-0.346016,-0.0603085,0.112784,-0.346916,-0.0455955,-0.124156,-0.688726,-0.0210175,0.114774,-0.6923659999999999,-0.024080500000000005
5,0.014849499999999998,0.6833015,-0.128867,-0.1509765,0.4951315,-0.056317000000000006,-0.26050650000000003,0.6923315,-0.160577,0.15752349999999998,0.5002715,-0.05462,0.2461435,0.7076915,-0.134977,-0.3210765,0.8792115,-0.24064700000000003,0.2900635,0.8920815,-0.214767,-0.0696145,0.00030750000000000005,-0.000676000000000003,0.0696145,-0.00030750000000000005,0.000675999999999996,-0.11881649999999999,-0.3453085,-0.059730000000000005,0.1128335,-0.3473585,-0.044797000000000003,-0.1241565,-0.6889085,-0.020526000000000003,0.11478350000000001,-0.6925985,-0.023704000000000003
6,0.015868499999999997,0.683454,-0.1286595,-0.1506705,0.49558399999999997,-0.05567950000000001,-0.2606705,0.692794,-0.1602395,0.1581595,0.500644,-0.05384850000000001,0.2482695,0.713174,-0.1360895,-0.3214105,0.878454,-0.2398795,0.2916295,0.897654,-0.2158995,-0.0696305,0.0003640000000000002,-0.0007225000000000009,0.0696305,-0.00036399999999999974,0.000722499999999994,-0.1188105,-0.345096,-0.0595195,0.1128295,-0.347506,-0.04442750000000001,-0.1238205,-0.687546,-0.020178500000000002,0.1146295,-0.692436,-0.0227725
7,0.016627,0.6834159999999999,-0.1281535,-0.150529,0.495226,-0.0553035,-0.260439,0.6928359999999999,-0.1582235,0.15826099999999999,0.500396,-0.053174500000000006,0.248881,0.714366,-0.1354135,-0.321959,0.879096,-0.23805349999999997,0.29246099999999997,0.898986,-0.21486349999999999,-0.069582,0.0004249999999999998,-0.0009445000000000009,0.069582,-0.00042500000000000003,0.0009445000000000009,-0.118529,-0.344834,-0.057988500000000005,0.112701,-0.347394,-0.04273950000000001,-0.124359,-0.687664,-0.019200500000000002,0.114691,-0.690354,-0.0224795
8,0.017208499999999998,0.6833969999999999,-0.1279125,-0.15036950000000002,0.495317,-0.054774500000000004,-0.26053950000000003,0.693197,-0.1574225,0.1586205,0.500427,-0.0524705,0.2495705,0.715337,-0.1348725,-0.3223395,0.879107,-0.2369425,0.2929305,0.900007,-0.2141125,-0.06957849999999999,0.00047099999999999985,-0.0010045000000000054,0.06957849999999999,-0.00047100000000000006,0.0010044999999999984,-0.1183795,-0.34441299999999997,-0.05722050000000001,0.1126605,-0.347533,-0.0418205,-0.1244295,-0.6873830000000001,-0.0185885,0.1146605,-0.6897230000000001,-0.021984500000000004
9,0.017706000000000003,0.683366,-0.1276895,-0.150219,0.495346,-0.05431950000000001,-0.260589,0.693596,-0.1566495,0.158941,0.500436,-0.051833500000000005,0.25011099999999997,0.716546,-0.1343695,-0.322619,0.879116,-0.2359495,0.293431,0.901296,-0.2133895,-0.069571,0.0005129999999999998,-0.0010685,0.069571,-0.000513,0.0010685,-0.118259,-0.344114,-0.056501499999999996,0.11261100000000002,-0.347624,-0.0408815,-0.124529,-0.687094,-0.0180195,0.11464099999999999,-0.689114,-0.021524500000000002
10,0.0180925,0.6833135,-0.127457,-0.15008049999999998,0.4953435,-0.053941,-0.2606305,0.6939635000000001,-0.155947,0.1592095,0.5004535,-0.05125300000000001,0.2501095,0.7163135,-0.13399699999999998,-0.3227705,0.8791235000000001,-0.23500699999999997,0.29344950000000003,0.9010635,-0.212727,-0.0695695,0.0005434999999999999,-0.001134000000000003,0.0695695,-0.0005434999999999999,0.0011339999999999961,-0.1181605,-0.3438865,-0.05583300000000001,0.11256949999999999,-0.34770650000000003,-0.039992,-0.12464049999999999,-0.6867264999999999,-0.017486,0.11464950000000002,-0.6882665,-0.021100000000000008
11,0.018226,0.6832405,-0.12724,-0.149979,0.4952905,-0.053623000000000004,-0.260639,0.6943405,-0.15526,0.159381,0.5004105,-0.050747,0.250201,0.7170605,-0.13365,-0.322849,0.8791205,-0.23414000000000001,0.293701,0.9019505,-0.21203,-0.06956999999999999,0.0005685000000000001,-0.0011919999999999986,0.06956999999999999,-0.0005685,0.0011920000000000056,-0.11810899999999999,-0.34366949999999996,-0.05516,0.11255100000000001,-0.3477995,-0.039115,-0.124779,-0.6863295,-0.016981999999999997,0.11466100000000001,-0.6873994999999999,-0.020728999999999997
12,0.018236499999999996,0.6831229999999999,-0.1270385,-0.1499385,0.49523300000000003,-0.05332749999999999,-0.2606485,0.6947129999999999,-0.15458850000000002,0.1595215,0.500363,-0.050273500000000006,0.25030149999999995,0.717783,-0.1332785,-0.3229885,0.879053,-0.2332685,0.2938415,0.9028029999999999,-0.2113585,-0.06957250000000001,0.000599,-0.0012585000000000027,0.06957250000000001,-0.0005989999999999999,0.0012585000000000027,-0.1180185,-0.343437,-0.0545125,0.1125215,-0.347867,-0.038300499999999994,-0.12491850000000002,-0.685797,-0.016517499999999997,0.1146915,-0.686597,-0.020380500000000003
13,0.018242499999999995,0.6830980000000001,-0.1268255,-0.1499315,0.49519799999999997,-0.05316749999999999,-0.2607015,0.695068,-0.1543255,0.15952850000000002,0.5003380000000001,-0.0501605,0.2504385,0.7183780000000001,-0.1326555,-0.3231115,0.879048,-0.23265550000000002,0.2938585,0.903528,-0.2104455,-0.0695745,0.0006000000000000001,-0.0012604999999999977,0.0695745,-0.0006000000000000001,0.0012605000000000047,-0.1178815,-0.343132,-0.053960499999999995,0.1124585,-0.347862,-0.03756949999999999,-0.1250815,-0.685152,-0.016225499999999997,0.1147185,-0.6857019999999999,-0.020090499999999997
14,0.018263999999999996,0.6831385000000001,-0.126327,-0.14991000000000002,0.4950785,-0.052916,-0.26072999999999996,0.6954785,-0.153687,0.15955,0.5001985,-0.049922,0.25055,0.7194485,-0.13161699999999998,-0.32322999999999996,0.8790885,-0.231627,0.29388000000000003,0.9046385,-0.209107,-0.06956899999999999,0.0005905,-0.0012650000000000022,0.06956899999999999,-0.0005905000000000001,0.0012650000000000022,-0.11776,-0.3431015,-0.05321700000000001,0.1124,-0.3479415,-0.03656,-0.12531,-0.6843014999999999,-0.015768000000000004,0.11481,-0.6848915,-0.019546
15,0.0180775,0.683439,-0.1251725,-0.1498715,0.494969,-0.05239250000000001,-0.26108149999999997,0.696979,-0.1521425,0.15958850000000002,0.499939,-0.0494175,0.2506485,0.721179,-0.1301425,-0.32353149999999997,0.880269,-0.2292225,0.2939185,0.906519,-0.2073125,-0.0695475,0.000578,-0.0012635000000000007,0.0695475,-0.000578,0.0012634999999999938,-0.1176615,-0.343071,-0.05166950000000001,0.1123085,-0.348081,-0.03510150000000001,-0.1256115,-0.682631,-0.014801500000000002,0.1148985,-0.684021,-0.018662500000000005
16,0.017549999999999996,0.6840515,-0.12354849999999999,-0.14996900000000002,0.4950815,-0.0516485,-0.261539,0.6988715,-0.1499085,0.159291,0.5001415,-0.048674499999999996,0.250611,0.7233515,-0.1284285,-0.32393900000000003,0.8820315,-0.22601849999999996,0.29395099999999996,0.9090115,-0.20470850000000002,-0.069528,0.0005295,-0.0011544999999999958,0.069528,-0.0005295,0.0011545000000000027,-0.117539,-0.3432385,-0.0495395,0.11213100000000001,-0.3480785,-0.0331485,-0.125919,-0.6805985,-0.013627499999999994,0.115031,-0.6829585,-0.017139499999999995
17,0.016883500000000006,0.684808,-0.121143,-0.1501275,0.495328,-0.050377000000000005,-0.26202749999999997,0.700638,-0.146703,0.15884250000000003,0.500308,-0.04747900000000001,0.2506025,0.725568,-0.126033,-0.32429749999999996,0.8838379999999999,-0.221243,0.2939925,0.9116879999999999,-0.200933,-0.0694855,0.0004860000000000001,-0.0009870000000000018,0.0694855,-0.000486,0.0009869999999999948,-0.1173775,-0.343642,-0.046641,0.11192250000000001,-0.348412,-0.030507000000000006,-0.12632749999999998,-0.6772520000000001,-0.011799000000000004,0.11515250000000002,-0.6818120000000001,-0.015162000000000002
18,0.016054000000000006,0.6858555,-0.1179085,-0.150277,0.49565549999999997,-0.0487215,-0.26264699999999996,0.7029354999999999,-0.1426685,0.158323,0.5003755,-0.04597849999999999,0.250433,0.7279755,-0.12299850000000001,-0.32480699999999996,0.8862455,-0.21540849999999997,0.293933,0.9145955,-0.1962785,-0.069416,0.0004515000000000001,-0.000847500000000001,0.069416,-0.00045149999999999986,0.000847500000000001,-0.117177,-0.34437450000000003,-0.043105500000000005,0.111713,-0.3490845,-0.027437500000000004,-0.126717,-0.6740245,-0.009501499999999996,0.11533299999999999,-0.6804145,-0.012582499999999996
19,0.0151345,0.687264,-0.11394699999999999,-0.1503585,0.496304,-0.046632,-0.2632985,0.7056439999999999,-0.137877,0.1577315,0.500594,-0.044183999999999994,0.2501815,0.7301639999999999,-0.119317,-0.32538849999999997,0.8892239999999999,-0.20810700000000001,0.2938915,0.917574,-0.190587,-0.06933149999999999,0.00040799999999999994,-0.0006690000000000029,0.06933149999999999,-0.00040799999999999994,0.0006690000000000029,-0.11694850000000001,-0.345076,-0.038838000000000004,0.11146149999999999,-0.349786,-0.023834,-0.1270685,-0.670686,-0.006793,0.1156115,-0.678896,-0.009561
20,0.014137499999999999,0.6889959999999999,-0.10931450000000001,-0.1504405,0.49702599999999997,-0.0442945,-0.2638805,0.708836,-0.1323645,0.1570895,0.500876,-0.0422375,0.24990949999999998,0.7323459999999999,-0.1150245,-0.3258905,0.892796,-0.19976449999999998,0.2938495,0.920546,-0.18408449999999998,-0.0692295,0.00037300000000000007,-0.00047249999999999376,0.0692295,-0.00037299999999999963,0.0004725000000000007,-0.1167105,-0.345704,-0.0341215,0.11109949999999999,-0.350414,-0.019743499999999997,-0.12736050000000002,-0.667264,-0.003756499999999996,0.11583950000000001,-0.676874,-0.0061055
21,0.0130915,0.690912,-0.1041205,-0.1505275,0.49805199999999994,-0.0415025,-0.26451749999999996,0.712452,-0.1260405,0.1563825,0.501122,-0.039705500000000005,0.2494925,0.734542,-0.10960049999999999,-0.3263075,0.8969119999999999,-0.1902005,0.2937925,0.923522,-0.1766905,-0.06911049999999999,0.0003389999999999999,-0.0002124999999999974,0.06911049999999999,-0.0003390000000000003,0.0002124999999999974,-0.1164975,-0.346218,-0.028706499999999996,0.1106125,-0.350928,-0.014974500000000002,-0.1276575,-0.663828,-9.349999999999636e-05,0.1160825,-0.6748580000000001,-0.0020885
22,0.012056000000000006,0.693186,-0.097553,-0.15057500000000001,0.49907599999999996,-0.038062000000000006,-0.264975,0.716336,-0.118013,0.15575500000000003,0.501326,-0.036417,0.24916500000000003,0.736786,-0.102933,-0.326455,0.901506,-0.179023,0.293775,0.926616,-0.166883,-0.068981,0.00031999999999999997,1.8999999999998185e-05,0.068981,-0.00031999999999999997,-1.8999999999998185e-05,-0.11624499999999999,-0.346784,-0.022300999999999994,0.109935,-0.351684,-0.009151,-0.12794499999999998,-0.6600739999999999,0.004572,0.116355,-0.673314,0.0026539999999999966
23,0.01114,0.695539,-0.09057749999999999,-0.150624,0.500209,-0.03441150000000001,-0.265414,0.720179,-0.1093175,0.155166,0.501659,-0.0329045,0.248826,0.738389,-0.0960275,-0.326544,0.906279,-0.16693750000000002,0.293766,0.929159,-0.15666750000000002,-0.068883,0.00031899999999999984,0.00023949999999999666,0.068883,-0.0003190000000000003,-0.0002395000000000036,-0.116054,-0.34720100000000004,-0.015664499999999998,0.10914599999999999,-0.35236100000000004,-0.0030115000000000072,-0.128154,-0.6565110000000001,0.009637499999999993,0.116556,-0.672251,0.007660499999999994
24,0.010355999999999999,0.697719,-0.083746,-0.150661,0.501399,-0.030484999999999998,-0.265481,0.722939,-0.10093600000000001,0.154569,0.502099,-0.029297000000000004,0.248479,0.7394689999999999,-0.088796,-0.326531,0.910149,-0.154816,0.293669,0.930989,-0.14600600000000002,-0.068796,0.00031899999999999984,0.00044700000000000295,0.068796,-0.0003190000000000003,-0.000446999999999996,-0.115891,-0.347731,-0.009226999999999999,0.10833899999999999,-0.352781,0.0030050000000000007,-0.128351,-0.653721,0.014674,0.116699,-0.671141,0.012853999999999997
25,0.009734000000000001,0.699496,-0.076974,-0.150671,0.502256,-0.026479000000000003,-0.265501,0.725036,-0.092354,0.154299,0.502196,-0.025716000000000003,0.248499,0.739936,-0.081324,-0.326571,0.913426,-0.142824,0.293649,0.932146,-0.135494,-0.06872,0.00032200000000000024,0.000562,0.06872,-0.0003219999999999998,-0.000562,-0.11580099999999999,-0.34838399999999997,-0.003262000000000001,0.10761899999999999,-0.353224,0.008592000000000002,-0.128531,-0.651374,0.019694000000000003,0.11679900000000001,-0.670684,0.017777
26,0.009159,0.701076,-0.0702045,-0.150749,0.502746,-0.02256749999999999,-0.26558899999999996,0.727096,-0.08426449999999999,0.154191,0.502196,-0.022310499999999997,0.248221,0.740096,-0.07398450000000001,-0.326759,0.916496,-0.1317645,0.29347100000000004,0.932816,-0.1254045,-0.068643,0.00032200000000000024,0.0006625000000000103,0.068643,-0.0003219999999999998,-0.0006624999999999964,-0.115809,-0.349024,0.0021605000000000096,0.106911,-0.353584,0.013654500000000007,-0.128649,-0.650554,0.024364500000000004,0.116841,-0.6695139999999999,0.022551500000000002
27,0.0087125,0.7023935,-0.0636815,-0.1508395,0.5029935,-0.018707500000000002,-0.26570950000000004,0.7285435,-0.0764215,0.1541005,0.5022135,-0.0189705,0.24784050000000002,0.7402335,-0.0666715,-0.3268595,0.9191635,-0.1206815,0.29335049999999996,0.9331635,-0.11548150000000001,-0.0685605,0.0003395000000000004,0.0009834999999999983,0.0685605,-0.0003394999999999995,-0.0009834999999999983,-0.1158295,-0.3497165,0.007205499999999997,0.1062505,-0.3539465,0.018398499999999998,-0.1287795,-0.6496865,0.0289245,0.1168805,-0.6685065,0.027087499999999994
28,0.008312500000000002,0.7036745,-0.05749800000000001,-0.1508485,0.5031844999999999,-0.014935000000000004,-0.2657885,0.7298945,-0.06887800000000001,0.1539915,0.5022344999999999,-0.015609999999999999,0.2474115,0.7405545,-0.05966800000000001,-0.32693849999999997,0.9217845,-0.110388,0.2932515,0.9336844999999999,-0.106258,-0.0684595,0.0004105000000000003,0.0012930000000000025,0.0684595,-0.0004104999999999994,-0.0012930000000000025,-0.11589849999999999,-0.3501955,0.011671,0.10566149999999999,-0.3543255,0.022668,-0.1289285,-0.6487155,0.033292999999999996,0.1169315,-0.6674955,0.03144
29,0.007983999999999998,0.704932,-0.05170050000000001,-0.15080400000000002,0.5035919999999999,-0.011191499999999993,-0.265914,0.7310519999999999,-0.0616505,0.15387599999999999,0.502262,-0.012198500000000001,0.247006,0.7410519999999999,-0.05303050000000001,-0.32700399999999996,0.924252,-0.10052049999999998,0.293196,0.934452,-0.09749050000000001,-0.068352,0.0004580000000000001,0.001635499999999998,0.068352,-0.0004580000000000005,-0.001635499999999998,-0.115984,-0.350348,0.015814500000000002,0.10519599999999998,-0.354218,0.026460500000000005,-0.12901400000000002,-0.647868,0.0375105,0.11713599999999999,-0.6661980000000001,0.035756500000000004
30,0.007644999999999999,0.706438,-0.0459725,-0.150768,0.504178,-0.007639500000000007,-0.265918,0.7321380000000001,-0.05479250000000001,0.15383200000000002,0.502328,-0.0089915,0.24685200000000002,0.741568,-0.04724250000000001,-0.326868,0.926628,-0.0912025,0.293112,0.9353980000000001,-0.0891125,-0.068259,0.00046900000000000023,0.0019045000000000034,0.068259,-0.0004689999999999998,-0.0019045000000000034,-0.116128,-0.350062,0.0192965,0.10487199999999999,-0.353632,0.029393499999999996,-0.12912800000000002,-0.646712,0.0412845,0.117202,-0.6656719999999999,0.0396355
31,0.007319000000000005,0.7076129999999999,-0.041486499999999996,-0.15083,0.504663,-0.004511500000000002,-0.26588,0.733063,-0.049176499999999984,0.15384,0.502253,-0.006326499999999999,0.24664,0.742043,-0.0428365,-0.32664,0.928833,-0.08306649999999999,0.29291,0.935913,-0.08287649999999999,-0.068204,0.0004920000000000002,0.0022405000000000064,0.068204,-0.000492,-0.0022404999999999925,-0.11631999999999999,-0.349607,0.021700500000000005,0.10467,-0.353117,0.0316595,-0.1293,-0.646007,0.044235500000000004,0.11732000000000001,-0.664577,0.042828500000000005
32,0.006990499999999999,0.708738,-0.03753100000000001,-0.1508845,0.505088,-0.0016219999999999984,-0.2658545,0.7339680000000001,-0.04415100000000001,0.1537955,0.502178,-0.003950000000000009,0.2464255,0.7425080000000001,-0.038731,-0.3264645,0.930918,-0.075951,0.2926855,0.936378,-0.077051,-0.0681525,0.0005080000000000002,0.0025560000000000027,0.0681525,-0.0005079999999999998,-0.0025560000000000027,-0.11651450000000001,-0.34915199999999996,0.023666,0.10445549999999999,-0.35265199999999997,0.033624999999999995,-0.1294845,-0.645542,0.046671,0.1174555,-0.663322,0.045529999999999994
33,0.006747499999999999,0.709846,-0.033585000000000004,-0.1509285,0.505176,0.0009569999999999995,-0.2658285,0.734896,-0.03919500000000001,0.1539315,0.501896,-0.0017289999999999944,0.2463015,0.742896,-0.034985,-0.3263085,0.933016,-0.069715,0.29251150000000004,0.9371459999999999,-0.07169500000000001,-0.0681515,0.0005010000000000001,0.002932000000000004,0.0681515,-0.0005009999999999999,-0.002932000000000004,-0.1166485,-0.34876399999999996,0.025402,0.1042615,-0.352164,0.035361,-0.1296185,-0.645144,0.048752,0.1176015,-0.662814,0.047717999999999997
34,0.006544499999999996,0.710895,-0.029975,-0.1509865,0.505295,0.0033030000000000004,-0.2659265,0.7352150000000001,-0.03486500000000001,0.15405349999999998,0.5017050000000001,0.00015099999999999836,0.24636349999999999,0.743375,-0.03167500000000001,-0.3262465,0.935015,-0.06392500000000001,0.2923535,0.937915,-0.067085,-0.0681755,0.00048399999999999984,0.003353999999999996,0.0681755,-0.00048400000000000006,-0.0033540000000000098,-0.1168465,-0.348445,0.026951999999999997,0.10420349999999999,-0.351225,0.036352999999999996,-0.1297565,-0.644805,0.050546999999999995,0.1177835,-0.6620349999999999,0.049461
35,0.006385,0.7118685,-0.02706850000000001,-0.151012,0.5053985,0.005379499999999995,-0.265992,0.7360085,-0.030858499999999997,0.154228,0.5014585,0.001749500000000001,0.246558,0.7438184999999999,-0.028758500000000006,-0.326102,0.9369985,-0.05853850000000001,0.292298,0.9385285,-0.0631685,-0.06820499999999999,0.00045950000000000006,0.003748500000000002,0.06820499999999999,-0.00045949999999999984,-0.003748500000000002,-0.117002,-0.3482015,0.028118499999999998,0.104298,-0.3501115,0.036697499999999994,-0.129832,-0.6446315,0.0520085,0.118028,-0.6613415,0.050796499999999994
36,0.006246500000000003,0.712683,-0.024634000000000003,-0.1510475,0.505423,0.007137999999999992,-0.2659775,0.7365229999999999,-0.02726400000000001,0.1544325,0.501123,0.0030919999999999975,0.2467925,0.744143,-0.026394,-0.3259375,0.938823,-0.05390400000000001,0.2922825,0.9389329999999999,-0.059974,-0.06822149999999999,0.000414,0.003945999999999991,0.06822149999999999,-0.000414,-0.003946000000000005,-0.1171375,-0.34768699999999997,0.02866699999999999,0.1044525,-0.349087,0.03664599999999999,-0.1298975,-0.644337,0.05309099999999999,0.1182725,-0.660667,0.05182199999999999
37,0.006177999999999996,0.713478,-0.02239150000000001,-0.15103500000000003,0.505448,0.008837499999999984,-0.265805,0.7373879999999999,-0.023861500000000008,0.154725,0.500848,0.004321499999999992,0.247075,0.744428,-0.02428150000000001,-0.325745,0.9406479999999999,-0.0496615,0.292485,0.9393279999999999,-0.057181499999999996,-0.068247,0.00035499999999999996,0.004114499999999993,0.068247,-0.000355,-0.004114500000000007,-0.117165,-0.347082,0.02893549999999999,0.104665,-0.348092,0.03627549999999999,-0.129905,-0.644042,0.05393849999999999,0.11831499999999999,-0.6607120000000001,0.05266549999999999
38,0.006129999999999999,0.714269,-0.020343,-0.15099800000000002,0.505479,0.010289999999999994,-0.265528,0.7383390000000001,-0.02064300000000001,0.15504199999999999,0.500549,0.005371000000000001,0.247422,0.744719,-0.022352999999999998,-0.325558,0.9423090000000001,-0.045853000000000005,0.292782,0.9396990000000001,-0.054752999999999996,-0.06826499999999999,0.00031899999999999995,0.004264999999999991,0.06826499999999999,-0.00031900000000000006,-0.004265000000000005,-0.117148,-0.34654100000000004,0.029016999999999994,0.10489199999999999,-0.347221,0.035768999999999995,-0.129888,-0.6437309999999999,0.054605999999999995,0.11824199999999999,-0.660571,0.053323999999999996
39,0.006066999999999998,0.71502,-0.018480999999999997,-0.150922,0.50551,0.011525999999999995,-0.26519200000000004,0.73917,-0.017761,0.15534799999999999,0.50029,0.006259000000000001,0.24781799999999998,0.74502,-0.020681000000000005,-0.325262,0.94382,-0.042491,0.293168,0.94004,-0.05286099999999999,-0.068275,0.000306,0.004423999999999997,0.068275,-0.000306,-0.004423999999999997,-0.117132,-0.34607,0.028946,0.105098,-0.34639,0.035200999999999996,-0.129832,-0.64353,0.055108,0.11817799999999999,-0.66044,0.053767
40,0.006129499999999999,0.7157735000000001,-0.016752000000000003,-0.1507915,0.5055835,0.012512999999999996,-0.2648015,0.7400035,-0.015212000000000003,0.1556485,0.5001035,0.006970999999999991,0.2482585,0.7453635000000001,-0.019182000000000005,-0.3246115,0.9452535,-0.03922200000000001,0.29362849999999996,0.9403935,-0.05135200000000001,-0.0682825,0.0003085,0.004556999999999992,0.0682825,-0.00030849999999999996,-0.0045570000000000055,-0.11706150000000001,-0.3455665,0.028734999999999997,0.10534850000000001,-0.3455965,0.034558,-0.1297215,-0.6434265,0.055485,0.1183585,-0.6589465,0.054161999999999995
41,0.006236500000000001,0.71651,-0.014947000000000002,-0.1506565,0.5056499999999999,0.013427000000000008,-0.2645465,0.74074,-0.012966999999999992,0.1559135,0.49992000000000003,0.007574000000000011,0.2488035,0.74592,-0.017747,-0.3237565,0.9466399999999999,-0.03609699999999999,0.2942035,0.94099,-0.04990700000000001,-0.0682865,0.000304,0.004741000000000009,0.0682865,-0.000304,-0.004740999999999995,-0.1169865,-0.34511000000000003,0.028465000000000004,0.1055935,-0.34484000000000004,0.034030000000000005,-0.1296765,-0.64331,0.055810000000000005,0.1184635,-0.6582100000000001,0.054325000000000005
42,0.006368999999999997,0.7171960000000001,-0.013552500000000009,-0.15054,0.505726,0.014099500000000001,-0.26439999999999997,0.741376,-0.011102500000000001,0.15610000000000002,0.499836,0.007952500000000001,0.24917,0.746426,-0.0165425,-0.3231,0.9478460000000001,-0.0331925,0.29474,0.941466,-0.048652500000000015,-0.06829,0.000326,0.004859500000000003,0.06829,-0.000326,-0.004859500000000003,-0.1169,-0.34470399999999995,0.0281485,0.10577,-0.34432399999999996,0.033680499999999995,-0.12963000000000002,-0.643204,0.055986499999999995,0.11863,-0.657374,0.0543265
43,0.006501999999999997,0.7178884999999999,-0.012136499999999995,-0.15044000000000002,0.5057984999999999,0.014710500000000001,-0.26435,0.7419184999999999,-0.0093675,0.15627000000000002,0.49975850000000005,0.0082975,0.24958000000000002,0.7468985,-0.0152365,-0.32253,0.9489685,-0.03029649999999999,0.29528,0.9420985,-0.04700649999999999,-0.06829,0.0003415,0.0049125,0.06829,-0.0003415,-0.0049125,-0.11681,-0.3443015,0.027902500000000004,0.10589,-0.3439115,0.03343750000000001,-0.12958000000000003,-0.6430315,0.056073500000000005,0.11864999999999999,-0.6569315,0.054323500000000004
44,0.0066350000000000055,0.7186725,-0.010176499999999991,-0.150338,0.5058925000000001,0.015290500000000012,-0.26434799999999997,0.7427525,-0.007077499999999987,0.156422,0.49969250000000004,0.008633500000000002,0.250002,0.7473625,-0.013756499999999991,-0.322318,0.9502225,-0.027176499999999992,0.295792,0.9428225,-0.044626499999999986,-0.06829299999999999,0.0003625,0.004972500000000005,0.06829299999999999,-0.00036250000000000003,-0.004972499999999991,-0.11674799999999999,-0.3438575,0.027732500000000007,0.10598199999999999,-0.3436275,0.03328750000000001,-0.129578,-0.6426275,0.056143500000000006,0.118722,-0.6572475,0.05436250000000001
45,0.0067555000000000046,0.719491,-0.008096500000000006,-0.15024949999999998,0.5060009999999999,0.015844499999999997,-0.2643395,0.7436609999999999,-0.004618499999999998,0.15655049999999998,0.49967100000000003,0.008955500000000005,0.2503705,0.7478509999999999,-0.012171500000000002,-0.3222995,0.951271,-0.023711499999999996,0.2963205,0.943661,-0.04209149999999999,-0.0682855,0.000389,0.0050474999999999964,0.0682855,-0.00038899999999999997,-0.0050474999999999964,-0.1167295,-0.343449,0.0276545,0.10608050000000001,-0.343399,0.0331775,-0.1295595,-0.6422690000000001,0.0562105,0.11889050000000001,-0.656559,0.0543885
46,0.006840499999999999,0.7202700000000001,-0.005990499999999996,-0.1501925,0.50613,0.016326500000000008,-0.2643225,0.74456,-0.002311499999999994,0.1565975,0.49954000000000004,0.009200500000000014,0.2507275,0.74836,-0.010557499999999997,-0.32229250000000004,0.95214,-0.020287499999999986,0.29681749999999996,0.94477,-0.0392275,-0.06826850000000001,0.000415,0.00514450000000001,0.06826850000000001,-0.000415,-0.005144499999999996,-0.1167125,-0.34314999999999996,0.027661500000000006,0.10615749999999999,-0.34324,0.03322950000000001,-0.12952249999999998,-0.64195,0.05629050000000001,0.11906749999999999,-0.6556299999999999,0.05448750000000001
47,0.006871500000000001,0.7210415,-0.003779500000000005,-0.1501685,0.5062615,0.016867499999999994,-0.2642885,0.7447315,0.0002794999999999881,0.1566115,0.4994215,0.009533499999999986,0.2510415,0.7488615,-0.008692500000000006,-0.32228850000000003,0.9532215,-0.01631450000000001,0.2972415,0.9462115,-0.03594450000000002,-0.0682535,0.0004255,0.005253499999999994,0.0682535,-0.0004255000000000001,-0.005253500000000008,-0.11669850000000001,-0.3428785,0.02777049999999999,0.1062515,-0.3430685,0.03341049999999999,-0.1295085,-0.6415485,0.05647749999999999,0.11928150000000001,-0.6545985,0.05472049999999999
48,0.006879999999999999,0.7217555,-0.0014745000000000036,-0.150155,0.5064455,0.0176365,-0.264485,0.7449555,0.003107499999999999,0.156625,0.4992855,0.010061500000000001,0.251305,0.7493455,-0.0064024999999999915,-0.322515,0.9543255,-0.0118775,0.297365,0.9478855,-0.0321675,-0.06823599999999999,0.0004175,0.005478499999999997,0.06823599999999999,-0.0004174999999999999,-0.005478499999999997,-0.116695,-0.3425045,0.027937500000000004,0.106355,-0.3428445,0.0337345,-0.129495,-0.6412445,0.056856500000000004,0.11946499999999999,-0.6539245,0.0550925
49,0.006898500000000002,0.7224205,0.0009190000000000031,-0.1501325,0.5066105000000001,0.018546999999999994,-0.26482249999999996,0.7451805,0.006036,0.1566475,0.4991405,0.010693999999999995,0.2514775,0.7498605,-0.003918000000000005,-0.3229725,0.9551005,-0.007452,0.29737749999999996,0.9496705000000001,-0.028351,-0.0682225,0.00038449999999999997,0.005648,0.0682225,-0.0003845000000000001,-0.005648,-0.1167325,-0.3421495,0.028163999999999995,0.1064575,-0.3426195,0.034103999999999995,-0.1294525,-0.6409594999999999,0.057319999999999996,0.1195275,-0.6548594999999999,0.055624999999999994
50,0.006915000000000001,0.7230055,0.0033804999999999946,-0.150122,0.5067554999999999,0.019504499999999994,-0.265302,0.7456054999999999,0.009358499999999992,0.156668,0.4990355,0.0113655,0.251498,0.7501555,-0.0015045000000000058,-0.323652,0.9556954999999999,-0.002892500000000006,0.297398,0.9512655,-0.024527500000000008,-0.06820999999999999,0.0003505000000000001,0.005860500000000005,0.06820999999999999,-0.0003504999999999999,-0.005860500000000005,-0.116782,-0.34192449999999996,0.028412499999999993,0.106548,-0.3424945,0.0345105,-0.129432,-0.6406945000000001,0.0578315,0.11971799999999999,-0.6545445000000001,0.0563795
51,0.006911500000000003,0.72349,0.00601199999999999,-0.15013649999999998,0.50691,0.02055399999999999,-0.26588649999999997,0.74607,0.012694999999999998,0.1566835,0.49893,0.012110999999999997,0.2515135,0.75044,0.000892999999999991,-0.3245765,0.9561999999999999,0.001553999999999986,0.2974035,0.95286,-0.020718000000000014,-0.06819449999999999,0.0003129999999999999,0.006096999999999991,0.06819449999999999,-0.0003129999999999999,-0.006097000000000005,-0.11686649999999998,-0.34169,0.02868599999999999,0.1066135,-0.34238,0.03494999999999999,-0.1293965,-0.64045,0.05843999999999999,0.1199635,-0.65417,0.05725099999999999
52,0.006869500000000001,0.7240365,0.008746999999999991,-0.1501605,0.5070564999999999,0.021710999999999994,-0.26656050000000003,0.7460964999999999,0.016424999999999995,0.15669950000000002,0.4988165,0.01297899999999999,0.25152949999999996,0.7507465,0.003354999999999997,-0.3258905,0.9564564999999999,0.0061139999999999944,0.29736949999999995,0.9543364999999999,-0.017076000000000008,-0.0681695,0.00027650000000000005,0.006340999999999999,0.0681695,-0.00027650000000000005,-0.006340999999999999,-0.11698049999999999,-0.34145349999999997,0.02900599999999999,0.10668949999999999,-0.3423535,0.03543899999999999,-0.1293305,-0.6402035,0.05912099999999999,0.12024950000000001,-0.6528035,0.058129999999999994
53,0.006763999999999999,0.7243400000000001,0.010971000000000009,-0.150235,0.5071800000000001,0.022884,-0.267295,0.7459800000000001,0.019776000000000002,0.156695,0.4987,0.013865000000000002,0.251555,0.751,0.0056800000000000045,-0.327345,0.9567000000000001,0.010361000000000009,0.297135,0.95574,-0.014002999999999988,-0.06814600000000001,0.00022499999999999994,0.006533000000000011,0.06814600000000001,-0.00022499999999999994,-0.006532999999999997,-0.117115,-0.34124,0.029336,0.106745,-0.34251,0.035925000000000006,-0.129255,-0.63999,0.05980300000000001,0.12046499999999999,-0.6515,0.05894800000000001
54,0.006630000000000002,0.7246275,0.013020000000000004,-0.15032099999999998,0.5072675,0.024059999999999998,-0.268071,0.7460374999999999,0.022803000000000004,0.15668900000000002,0.4985675,0.014754000000000003,0.251519,0.7512574999999999,0.007878999999999997,-0.328671,0.9568074999999999,0.014073000000000002,0.296819,0.9569975,-0.011025999999999994,-0.068124,0.00016750000000000011,0.006706000000000004,0.068124,-0.00016750000000000011,-0.006706000000000004,-0.117301,-0.3412725,0.029661000000000007,0.106779,-0.3427025,0.036402000000000004,-0.129191,-0.6398225000000001,0.060481,0.12049900000000001,-0.6513125000000001,0.05978
55,0.006379500000000001,0.724941,0.015026499999999984,-0.1504245,0.507351,0.025199499999999986,-0.2688245,0.7461509999999999,0.025775499999999993,0.1566755,0.49856100000000003,0.015635499999999997,0.2513955,0.7514409999999999,0.010016499999999984,-0.3299745,0.9570909999999999,0.01761249999999999,0.2964655,0.9580409999999999,-0.00830750000000001,-0.0681015,0.00010500000000000006,0.006877499999999995,0.0681015,-0.00010500000000000006,-0.006877500000000009,-0.1174845,-0.341369,0.029972499999999985,0.1068055,-0.342959,0.03684249999999999,-0.1291445,-0.639619,0.06111549999999999,0.1206255,-0.651529,0.06054449999999999
56,0.0060445000000000065,0.7252225,0.016926499999999997,-0.1505145,0.5074425,0.0262405,-0.2695745,0.7451625000000001,0.028263499999999997,0.1566855,0.4985625,0.016436499999999993,0.2512155,0.7516225,0.0118925,-0.3311445,0.9573225,0.0204675,0.2960655,0.9587725,-0.006001500000000007,-0.06807150000000001,5.849999999999996e-05,0.007041499999999992,0.06807150000000001,-5.849999999999996e-05,-0.007041500000000006,-0.1176345,-0.3415175,0.0302225,0.10684550000000001,-0.3432275,0.0371475,-0.12904449999999998,-0.6395575,0.0616325,0.12080550000000001,-0.6513975,0.061190499999999995
57,0.0056085,0.725425,0.018516999999999992,-0.1506055,0.507475,0.027057999999999985,-0.2701955,0.744405,0.030306999999999987,0.1567045,0.498585,0.01705899999999999,0.2510545,0.751735,0.013318999999999984,-0.3321755,0.957325,0.022687999999999986,0.2956345,0.9591350000000001,-0.004182000000000005,-0.06804550000000001,2.599999999999998e-05,0.007081999999999991,0.06804550000000001,-2.599999999999998e-05,-0.007082000000000005,-0.1177455,-0.34170500000000004,0.030388999999999985,0.10690450000000001,-0.343465,0.03733699999999999,-0.12896549999999998,-0.639475,0.06196499999999999,0.1208845,-0.651625,0.06168399999999999
58,0.005163499999999995,0.7256064999999999,0.019954,-0.1507075,0.5074965,0.027786000000000005,-0.2709675,0.7431865,0.032169,0.15671249999999998,0.4986065,0.017596,0.2508625,0.7518564999999999,0.014521000000000006,-0.33323749999999996,0.9574865,0.024626999999999996,0.2951025,0.9593864999999999,-0.002572000000000005,-0.0680225,2.249999999999995e-05,0.007175000000000001,0.0680225,-2.2500000000000384e-05,-0.007175000000000001,-0.1178675,-0.34195349999999997,0.030503000000000002,0.1069625,-0.3436935,0.037497,-0.1288875,-0.6393935000000001,0.062254,0.1209325,-0.6523835,0.062117
59,0.004714499999999994,0.7256969999999999,0.021114499999999994,-0.1507965,0.507517,0.028393500000000002,-0.2716765,0.742507,0.033437499999999995,0.1567235,0.498617,0.018091499999999996,0.25064349999999996,0.7519669999999999,0.015592499999999995,-0.3342365,0.9573269999999999,0.0261725,0.29455349999999997,0.959637,-0.0013515000000000055,-0.06800149999999999,1.800000000000022e-05,0.007213499999999998,0.06800149999999999,-1.7999999999999787e-05,-0.007213499999999998,-0.1179865,-0.34221300000000004,0.030594499999999997,0.10699349999999999,-0.343833,0.0376455,-0.1288265,-0.639283,0.0625175,0.1209935,-0.652393,0.0624985
60,0.004226499999999999,0.725746,0.02203849999999999,-0.1508685,0.5075160000000001,0.028914499999999996,-0.2723985,0.741676,0.0344405,0.1567515,0.498656,0.0185235,0.2504115,0.752066,0.0165415,-0.3352385,0.9571160000000001,0.027484499999999995,0.2941415,0.959836,-0.00032450000000000534,-0.0679855,1.0000000000000026e-05,0.0072295,0.0679855,-9.999999999999593e-06,-0.0072295,-0.1180685,-0.342454,0.03065649999999999,0.1070115,-0.343954,0.03775749999999999,-0.1287585,-0.639184,0.06272049999999998,0.1209715,-0.651994,0.0627945
61,0.0037539999999999987,0.7258859999999999,0.02276249999999999,-0.15095,0.507516,0.029307499999999986,-0.27303,0.740746,0.03494649999999999,0.15677,0.49868599999999996,0.01884749999999999,0.25022999999999995,0.752116,0.017250499999999988,-0.33618000000000003,0.956946,0.028220499999999996,0.29384,0.959926,0.0004224999999999923,-0.067985,4.000000000000097e-06,0.007239499999999996,0.067985,-4.000000000000097e-06,-0.00723950000000001,-0.11814,-0.342764,0.030675499999999994,0.10702,-0.343984,0.03783949999999999,-0.12869,-0.639094,0.0628475,0.12088,-0.652474,0.06294349999999999
62,0.00331,0.726004,0.023419499999999996,-0.15102900000000002,0.507524,0.02964549999999999,-0.273449,0.740514,0.035089499999999996,0.15680100000000002,0.49875400000000003,0.01912449999999999,0.250051,0.752194,0.01782049999999999,-0.33707899999999996,0.9568840000000001,0.028621499999999994,0.29363100000000003,0.9599340000000001,0.0009244999999999948,-0.067987,5.999999999999929e-06,0.007264499999999993,0.067987,-5.999999999999929e-06,-0.007264500000000007,-0.118179,-0.343026,0.03065649999999999,0.107031,-0.34388599999999997,0.037912499999999995,-0.12861899999999998,-0.639016,0.0629585,0.120721,-0.652376,0.0630665
63,0.0028405,0.72608,0.024014999999999995,-0.1511095,0.50754,0.029951999999999993,-0.2737095,0.74021,0.035191,0.15682049999999997,0.49885,0.01940499999999999,0.24991050000000004,0.75233,0.018332,-0.3379495,0.95677,0.028827999999999993,0.2934605,0.96003,0.0013639999999999902,-0.0679895,1.0999999999999725e-05,0.007296999999999998,0.0679895,-1.1000000000000159e-05,-0.007296999999999998,-0.1181795,-0.34309,0.030606999999999995,0.1070205,-0.34379,0.03797,-0.12854949999999998,-0.6389,0.063035,0.1207105,-0.65228,0.063258
64,0.002477000000000002,0.7261569999999999,0.024402999999999994,-0.151174,0.507567,0.030247999999999997,-0.274014,0.740177,0.035301,0.156856,0.498927,0.019671999999999995,0.249806,0.752377,0.018766000000000005,-0.33881399999999995,0.9566169999999999,0.028927999999999995,0.29321600000000003,0.960047,0.0017080000000000012,-0.067992,1.5000000000000256e-05,0.007320999999999994,0.067992,-1.4999999999999823e-05,-0.007321000000000008,-0.11816399999999999,-0.343163,0.030546000000000004,0.107026,-0.343703,0.038019,-0.128514,-0.638753,0.063098,0.120786,-0.651023,0.06342400000000001
65,0.0021824999999999995,0.7262065000000001,0.024654499999999996,-0.1512905,0.5075665,0.030519500000000005,-0.2743705,0.7390165000000001,0.0354005,0.1568495,0.4989765,0.019909499999999997,0.24966950000000002,0.7524265,0.019173499999999996,-0.3396005,0.9563965000000001,0.028970499999999996,0.2929695,0.9599365000000001,0.0019284999999999997,-0.06799150000000001,1.3500000000000057e-05,0.0073265,0.06799150000000001,-1.3500000000000057e-05,-0.0073265,-0.1181605,-0.3432735,0.0304315,0.1069995,-0.3435835,0.0379885,-0.1285005,-0.6386335,0.0631185,0.1205795,-0.6511634999999999,0.0634855
66,0.0019489999999999998,0.726267,0.024799,-0.151391,0.507567,0.030756000000000006,-0.274691,0.738047,0.035443,0.156839,0.499037,0.020135,0.249509,0.7524869999999999,0.019634,-0.34027100000000005,0.9562069999999999,0.028996000000000008,0.29272899999999996,0.959877,0.0021150000000000058,-0.06798799999999999,1.5000000000000256e-05,0.007338999999999998,0.06798799999999999,-1.4999999999999823e-05,-0.007338999999999998,-0.118141,-0.343393,0.030330999999999997,0.10696900000000001,-0.34346299999999996,0.037952,-0.128441,-0.6385730000000001,0.063124,0.120389,-0.6518130000000001,0.063513
67,0.0016615000000000026,0.7263054999999999,0.02489000000000001,-0.1514825,0.5075655,0.030937000000000006,-0.2748725,0.7383854999999999,0.035374,0.1567975,0.4990655,0.020341000000000012,0.2493475,0.7525155,0.020056000000000004,-0.3408025,0.9561755,0.02901300000000001,0.2924375,0.9598555,0.002256000000000008,-0.0679865,1.0500000000000093e-05,0.00735100000000001,0.0679865,-1.0499999999999659e-05,-0.007350999999999996,-0.1181025,-0.34352449999999995,0.030213000000000004,0.10693749999999999,-0.34331449999999997,0.03791900000000001,-0.1283825,-0.6385245,0.06311900000000001,0.1202175,-0.6521145,0.06356300000000001
68,0.001400500000000002,0.7264135,0.024941999999999992,-0.15160449999999998,0.5075835,0.031120999999999996,-0.2750745,0.7384335,0.03533,0.1567055,0.4990935,0.020515999999999993,0.24921549999999998,0.7525335,0.020421999999999996,-0.3413045,0.9550835,0.02877099999999999,0.2921355,0.9597735000000001,0.002367999999999995,-0.0679905,3.500000000000031e-06,0.007356000000000001,0.0679905,-3.500000000000031e-06,-0.007356000000000001,-0.1180445,-0.3436365,0.030078999999999995,0.1069055,-0.3432665,0.03791799999999999,-0.12834449999999997,-0.6384765,0.06310199999999999,0.12016550000000001,-0.6523464999999999,0.063615
69,0.001184000000000003,0.7264025000000001,0.024972999999999995,-0.15171500000000002,0.5076025000000001,0.031285999999999994,-0.27540499999999996,0.7384725,0.035232,0.156615,0.49913250000000003,0.020675,0.249105,0.7525625,0.020741999999999997,-0.34190499999999996,0.9539425,0.02833999999999999,0.29197500000000004,0.9598125000000001,0.002451999999999996,-0.067989,5.000000000000664e-07,0.007356000000000001,0.067989,-5.000000000000664e-07,-0.007356000000000001,-0.11799499999999999,-0.3437475,0.029959,0.10686500000000002,-0.34322749999999996,0.03791799999999999,-0.128355,-0.6386275,0.063053,0.120205,-0.6516474999999999,0.063648
70,0.0009810000000000023,0.7264094999999999,0.024965,-0.151824,0.5076195,0.031431,-0.275724,0.7377895,0.03504600000000001,0.15648600000000001,0.49919949999999996,0.020814,0.248986,0.7525995,0.021044000000000007,-0.342534,0.9529795,0.02777600000000001,0.291796,0.9598495,0.0025229999999999975,-0.06798499999999999,-9.49999999999996e-06,0.007363000000000008,0.06798499999999999,9.49999999999996e-06,-0.0073629999999999945,-0.117954,-0.3437905,0.02981700000000001,0.106816,-0.3432005,0.037915000000000004,-0.12836399999999998,-0.6387605000000001,0.063,0.12024599999999999,-0.6509105000000001,0.06361800000000001
71,0.0007709999999999997,0.726406,0.024955999999999992,-0.151925,0.507636,0.031541,-0.275945,0.7372460000000001,0.03486399999999999,0.156355,0.499246,0.020945999999999992,0.248885,0.752626,0.02130399999999999,-0.343235,0.952036,0.027157999999999988,0.291655,0.9598760000000001,0.002577999999999997,-0.06798299999999999,-2.400000000000015e-05,0.00737199999999999,0.06798299999999999,2.3999999999999716e-05,-0.0073720000000000036,-0.11790500000000001,-0.343854,0.029669,0.10677500000000001,-0.343204,0.03791099999999999,-0.12837500000000002,-0.638934,0.06293299999999999,0.120165,-0.651474,0.063548
72,0.0005969999999999991,0.7264295,0.0248955,-0.151997,0.5076495,0.0315945,-0.276387,0.7372695,0.0346515,0.156233,0.49930949999999996,0.021047499999999997,0.24882300000000002,0.7526594999999999,0.021464499999999997,-0.343827,0.9514294999999999,0.026524499999999993,0.291703,0.9597795,0.002535499999999996,-0.067984,-3.350000000000011e-05,0.007378499999999996,0.067984,3.350000000000011e-05,-0.007378499999999996,-0.117857,-0.34392049999999996,0.0295165,0.106763,-0.3432005,0.0378765,-0.12838699999999997,-0.6391605,0.0628355,0.120153,-0.6512905,0.0635115
73,0.0003999999999999994,0.7264505,0.0248235,-0.152082,0.5076505,0.0316375,-0.276922,0.7381005,0.0344405,0.156098,0.4993805,0.0211615,0.248778,0.7527105000000001,0.021603499999999998,-0.344312,0.9509205000000001,0.025905499999999998,0.291738,0.9596305,0.002507499999999996,-0.06798199999999999,-3.950000000000004e-05,0.007376499999999994,0.06798199999999999,3.950000000000004e-05,-0.007376499999999994,-0.11780199999999999,-0.3439695,0.029365500000000003,0.10674800000000001,-0.34322949999999997,0.0378535,-0.128412,-0.6393694999999999,0.0627385,0.120228,-0.6512095,0.0634515
74,0.00022199999999999675,0.726474,0.024786500000000003,-0.15213000000000002,0.507664,0.0316385,-0.27727999999999997,0.7386539999999999,0.034223500000000004,0.15599,0.499434,0.021233500000000002,0.24878999999999998,0.752804,0.021640499999999993,-0.34462000000000004,0.950684,0.025453500000000004,0.29177,0.959374,0.0024804999999999966,-0.067982,-4.2999999999999636e-05,0.007353499999999999,0.067982,4.300000000000007e-05,-0.007353499999999999,-0.11775000000000001,-0.343996,0.029241500000000004,0.10675,-0.34322600000000003,0.0378265,-0.12843000000000002,-0.639596,0.0626265,0.12029,-0.651186,0.06341150000000001
75,9.550000000000093e-05,0.7265965,0.024618,-0.1521295,0.5076565000000001,0.031583,-0.2775995,0.7400165,0.033725000000000005,0.15589050000000002,0.4994565,0.02121300000000001,0.2488705,0.7529165,0.021574999999999997,-0.34472949999999997,0.9505165,0.024947999999999998,0.2921305,0.9591665,0.0019650000000000084,-0.06797049999999999,-5.1499999999999897e-05,0.00730900000000001,0.06797049999999999,5.150000000000033e-05,-0.007308999999999996,-0.11761949999999999,-0.3439735,0.029095999999999997,0.1067805,-0.3433135,0.03777200000000001,-0.1283895,-0.6398334999999999,0.062477000000000005,0.12034049999999999,-0.6511135,0.063377
76,3.9000000000000216e-05,0.726738,0.024469000000000005,-0.1521,0.507658,0.03153,-0.27788999999999997,0.741588,0.033197000000000004,0.15583,0.49947800000000003,0.021177,0.24896,0.753038,0.021522,-0.34463,0.950418,0.02445900000000001,0.29261000000000004,0.9592080000000001,0.0013800000000000062,-0.067965,-6.0999999999999856e-05,0.0072620000000000046,0.067965,6.0999999999999856e-05,-0.007261999999999991,-0.11749,-0.343952,0.028967000000000007,0.10682,-0.343392,0.037734000000000004,-0.12835,-0.639932,0.062346000000000006,0.12054,-0.650562,0.063385
77,5.000000000035358e-07,0.726901,0.024331999999999993,-0.1520465,0.507661,0.03148999999999999,-0.2781365,0.7432110000000001,0.032647999999999996,0.1558235,0.499491,0.021141999999999994,0.24905349999999998,0.753151,0.021481999999999987,-0.3445365,0.950441,0.02412299999999999,0.29311349999999997,0.959271,0.000787999999999997,-0.0679595,-6.600000000000009e-05,0.007221999999999992,0.0679595,6.600000000000009e-05,-0.007222000000000006,-0.1173565,-0.343929,0.028864,0.1068635,-0.343609,0.037762,-0.1283165,-0.639989,0.06223399999999999,0.1206835,-0.6504489999999999,0.063454
78,1.3999999999996058e-05,0.7270855,0.024190000000000003,-0.151976,0.5076555,0.031452999999999995,-0.278186,0.7442155,0.032096,0.155794,0.49948549999999997,0.021103999999999998,0.249164,0.7532755,0.021384,-0.344406,0.9504655,0.023846999999999993,0.293644,0.9593155,0.0001749999999999946,-0.067956,-6.950000000000012e-05,0.007179000000000005,0.067956,6.949999999999968e-05,-0.007179000000000005,-0.117206,-0.3439045,0.028759999999999994,0.10692399999999999,-0.3438345,0.037791,-0.128226,-0.6399645,0.062155,0.12070399999999999,-0.6512245,0.06349199999999999
79,6.400000000000231e-05,0.7272755,0.024069999999999994,-0.15186100000000002,0.5076855,0.03141899999999999,-0.27830099999999997,0.7458454999999999,0.031541,0.155839,0.49949550000000004,0.021084999999999993,0.249369,0.7533955,0.021197999999999995,-0.344171,0.9504954999999999,0.023507999999999987,0.29429900000000003,0.9594555,-0.0005220000000000086,-0.06795,-5.950000000000009e-05,0.007157999999999998,0.06795,5.950000000000009e-05,-0.007158000000000012,-0.11704099999999999,-0.3437745,0.02865899999999999,0.107009,-0.34398449999999997,0.037787999999999995,-0.128131,-0.6399345000000001,0.06210299999999999,0.120809,-0.6514845,0.063556
80,0.00012950000000000006,0.727432,0.02397500000000001,-0.1517575,0.507702,0.03138700000000001,-0.27824750000000004,0.747412,0.031028,0.1558725,0.499492,0.021098000000000006,0.2496025,0.753502,0.02097800000000001,-0.3439475,0.951432,0.023173000000000013,0.2949525,0.959542,-0.0011879999999999946,-0.06794149999999999,-4.49999999999999e-05,0.0071450000000000125,0.06794149999999999,4.49999999999999e-05,-0.007144999999999999,-0.1168775,-0.343578,0.028537000000000007,0.10709250000000001,-0.344028,0.03780100000000001,-0.1280375,-0.639908,0.062083000000000006,0.1210425,-0.651408,0.06367600000000001
81,0.0002004999999999954,0.727584,0.023899000000000004,-0.1516335,0.507714,0.031374,-0.2781135,0.7484339999999999,0.030513,0.1559065,0.499474,0.021121,0.2498365,0.7536039999999999,0.020709000000000005,-0.3433835,0.952404,0.022824999999999998,0.2955565,0.959594,-0.001916000000000001,-0.0679315,-3.099999999999978e-05,0.007107000000000002,0.0679315,3.100000000000021e-05,-0.007107000000000002,-0.1167435,-0.343376,0.028426000000000007,0.1071665,-0.344046,0.037839000000000005,-0.1280035,-0.639726,0.062092,0.12124650000000001,-0.650906,0.063854
82,0.000292000000000003,0.7277165,0.0238255,-0.15149400000000002,0.5077164999999999,0.031357499999999996,-0.27782399999999996,0.7492464999999999,0.029971499999999998,0.15595599999999998,0.4994765,0.02113749999999999,0.25008600000000003,0.7536664999999999,0.020407499999999995,-0.342624,0.9531965,0.0224925,0.296176,0.9596465,-0.002641500000000005,-0.067929,-1.8500000000000287e-05,0.007061499999999998,0.067929,1.8499999999999853e-05,-0.007061500000000012,-0.116604,-0.3431835,0.0283205,0.107236,-0.3440335,0.037884499999999995,-0.12797399999999998,-0.6395435,0.06210449999999999,0.121486,-0.6504635000000001,0.06406049999999999
83,0.0003949999999999964,0.727818,0.023766499999999996,-0.151348,0.507718,0.0313475,-0.277518,0.749898,0.029424500000000006,0.156032,0.499468,0.021155500000000008,0.250362,0.753728,0.020019499999999996,-0.341748,0.953968,0.0221755,0.296782,0.959688,-0.0033865000000000006,-0.067923,-7.000000000000062e-06,0.006996500000000003,0.067923,7.000000000000062e-06,-0.006996500000000003,-0.116458,-0.342982,0.0282125,0.107322,-0.344022,0.0379055,-0.127948,-0.639332,0.0621495,0.121712,-0.650212,0.0642945
84,0.00048550000000000264,0.7278565,0.023792999999999995,-0.1512515,0.5076965,0.03137599999999999,-0.2772615,0.7504465,0.02917199999999999,0.1561185,0.49947650000000005,0.02119299999999999,0.2505485,0.7537364999999999,0.019729999999999998,-0.3408915,0.9543864999999999,0.021951,0.2968785,0.9596565,-0.003581000000000001,-0.0679295,1.4999999999997654e-06,0.006950999999999999,0.0679295,-1.500000000000199e-06,-0.006951000000000013,-0.1163615,-0.3427535,0.028091999999999992,0.1073585,-0.34401349999999997,0.03795199999999999,-0.1279115,-0.6391935000000001,0.062243999999999994,0.12171850000000001,-0.6505835,0.06447
85,0.0005815000000000005,0.7278985,0.0238525,-0.1511465,0.5076785,0.0314195,-0.2771665,0.7508785,0.02899650000000001,0.1562035,0.49946850000000004,0.02124050000000001,0.2506935,0.7537385,0.01947750000000001,-0.3400365,0.9547985,0.021779500000000007,0.2969735,0.9594785,-0.0037124999999999936,-0.0679205,6.499999999999995e-06,0.006922499999999998,0.0679205,-6.499999999999995e-06,-0.006922499999999998,-0.1162765,-0.3425315,0.028018500000000002,0.10737350000000001,-0.3439815,0.038005500000000005,-0.12785649999999998,-0.6390914999999999,0.0623715,0.1217135,-0.6508815,0.0646975
86,0.0006559999999999987,0.727927,0.023923000000000014,-0.15105200000000002,0.507677,0.03147900000000001,-0.277092,0.751197,0.028856000000000007,0.15627799999999997,0.499447,0.02129600000000001,0.250808,0.753737,0.01924300000000001,-0.339242,0.9550770000000001,0.02167000000000001,0.297048,0.959327,-0.003810999999999995,-0.067909,1.1000000000000159e-05,0.006871000000000002,0.067909,-1.0999999999999725e-05,-0.006870999999999988,-0.116222,-0.342333,0.027949,0.107388,-0.343903,0.03807100000000001,-0.127832,-0.6389429999999999,0.06253900000000001,0.121788,-0.650883,0.06489700000000001
87,0.0007209999999999992,0.7279159999999999,0.023999000000000006,-0.150986,0.5076759999999999,0.031564999999999996,-0.276866,0.751436,0.028781,0.15633399999999997,0.499416,0.021424,0.250894,0.7537159999999999,0.019004999999999994,-0.338556,0.955286,0.021644999999999998,0.297104,0.959316,-0.0038620000000000043,-0.067896,2.1999999999999884e-05,0.006832000000000005,0.067896,-2.2000000000000318e-05,-0.006832000000000005,-0.11619600000000001,-0.342184,0.027902999999999997,0.107384,-0.343794,0.038171000000000004,-0.127836,-0.638754,0.06276799999999999,0.121814,-0.650344,0.06520000000000001
88,0.0007574999999999999,0.7278765,0.024023500000000003,-0.1509445,0.5076665,0.03171950000000001,-0.2766945,0.7515465,0.028856500000000007,0.15635549999999998,0.4993565,0.021623500000000004,0.2509155,0.7535965,0.018878500000000006,-0.3380645,0.9554365,0.021715500000000013,0.2970255,0.9592465,-0.0037994999999999973,-0.06788549999999999,5.350000000000016e-05,0.006729499999999999,0.06788549999999999,-5.350000000000016e-05,-0.006729499999999999,-0.1161945,-0.34207350000000003,0.027951500000000004,0.10735549999999999,-0.3437035,0.03832150000000001,-0.1278245,-0.6386835,0.06305650000000002,0.1217955,-0.6500134999999999,0.0654825
89,0.000756500000000005,0.7278395000000001,0.024067999999999992,-0.1509025,0.5076195,0.031902,-0.2765325,0.7516295000000001,0.028942999999999997,0.1563675,0.49931949999999997,0.021824999999999997,0.25093750000000004,0.7534995,0.018829,-0.3375925,0.9555595,0.021718,0.2969275,0.9591695,-0.003700000000000009,-0.0678825,9.15e-05,0.006639999999999993,0.0678825,-9.15e-05,-0.006640000000000007,-0.1162025,-0.3420105,0.028069999999999998,0.1073275,-0.34361050000000004,0.038500999999999994,-0.1278225,-0.6386404999999999,0.063369,0.1217375,-0.6500404999999999,0.06579199999999999
90,0.0007549999999999967,0.727806,0.024111499999999994,-0.15086,0.507586,0.0320665,-0.27641000000000004,0.751666,0.029081499999999996,0.15642,0.49929599999999996,0.0220345,0.25095,0.7533759999999999,0.018838499999999994,-0.33718000000000004,0.955656,0.021746500000000002,0.29680999999999996,0.959016,-0.003520499999999996,-0.067879,0.00012699999999999994,0.006560499999999997,0.067879,-0.00012699999999999994,-0.006560499999999997,-0.1162,-0.34196400000000005,0.028162500000000007,0.10729,-0.343474,0.0386345,-0.12784,-0.638594,0.0636785,0.12161,-0.650524,0.0660055
91,0.0007524999999999961,0.7276975,0.02405950000000001,-0.1508305,0.5075475,0.032225500000000004,-0.27632049999999997,0.7516675,0.02916350000000001,0.1564595,0.4992675,0.02222550000000001,0.2509395,0.7532275,0.018843500000000013,-0.33681049999999996,0.9556275000000001,0.021720500000000004,0.2965395,0.9584875,-0.003421499999999994,-0.06787850000000001,0.00015249999999999986,0.006481500000000001,0.06787850000000001,-0.00015249999999999986,-0.006481499999999987,-0.1162105,-0.3419225,0.028242500000000004,0.10725950000000001,-0.3433725,0.03879350000000001,-0.1278705,-0.6385624999999999,0.06399550000000001,0.1213995,-0.6513125,0.06622050000000002
92,0.0007384999999999951,0.7275755,0.023998000000000005,-0.15081150000000001,0.5075055,0.032336000000000004,-0.2762615,0.7516555,0.029202000000000006,0.1565085,0.4992455,0.02240800000000001,0.2509085,0.7530655,0.018863000000000005,-0.3364615,0.9555855000000001,0.02158900000000001,0.2962585,0.9580155,-0.0032879999999999854,-0.06787850000000001,0.00017549999999999987,0.006428000000000003,0.06787850000000001,-0.00017549999999999987,-0.006427999999999989,-0.1162115,-0.3418945,0.028337000000000015,0.1072185,-0.3432845,0.03895900000000001,-0.12789150000000002,-0.6385145,0.06431900000000002,0.1213185,-0.6516044999999999,0.06648200000000001
93,0.0007254999999999951,0.727483,0.023923,-0.1508015,0.507473,0.032422000000000006,-0.2762215,0.751633,0.029205999999999996,0.15654849999999998,0.499233,0.022566000000000003,0.2508785,0.752873,0.018805000000000002,-0.3361515,0.955543,0.021366999999999997,0.2959785,0.957553,-0.003238999999999992,-0.06787750000000001,0.0002000000000000001,0.0063590000000000035,0.06787750000000001,-0.0002000000000000001,-0.0063590000000000035,-0.1162115,-0.341887,0.028453000000000006,0.10720849999999998,-0.343187,0.039119,-0.1279015,-0.638467,0.064583,0.12133849999999999,-0.651167,0.066792
94,0.0007019999999999966,0.7273855,0.023817000000000005,-0.150807,0.5074354999999999,0.032505000000000006,-0.276227,0.7516054999999999,0.02918000000000001,0.156593,0.49922550000000004,0.022721000000000005,0.25084300000000004,0.7526955,0.018696000000000004,-0.335897,0.9555454999999999,0.02107600000000001,0.295693,0.9571155,-0.0032219999999999888,-0.067871,0.00021849999999999994,0.006292000000000006,0.067871,-0.00021849999999999994,-0.006291999999999992,-0.116217,-0.34192449999999996,0.028562000000000004,0.10720299999999999,-0.3431545,0.03929200000000001,-0.127897,-0.6384545,0.06482600000000001,0.121293,-0.6510045,0.06708700000000001
95,0.0006744999999999979,0.7272970000000001,0.0236865,-0.1508195,0.507397,0.0325525,-0.2762295,0.751567,0.02904749999999999,0.1566305,0.49922700000000003,0.02285849999999999,0.2507905,0.752517,0.018578499999999998,-0.3357295,0.955567,0.020718499999999987,0.29538050000000005,0.956647,-0.0032925000000000038,-0.0678665,0.00023799999999999993,0.006242499999999998,0.0678665,-0.00023799999999999993,-0.006242500000000012,-0.1162295,-0.34196299999999996,0.028648499999999993,0.1071805,-0.34311299999999995,0.03943049999999999,-0.1278795,-0.638443,0.06504249999999999,0.1212405,-0.6507229999999999,0.06720849999999999
96,0.0005790000000000013,0.727275,0.023390000000000008,-0.150837,0.507355,0.032499,-0.276207,0.751525,0.028702000000000005,0.156643,0.499235,0.022876000000000007,0.250663,0.7523350000000001,0.018362000000000003,-0.335607,0.9554750000000001,0.02011800000000001,0.295043,0.9563050000000001,-0.0035609999999999947,-0.06786500000000001,0.0002469999999999998,0.006221000000000004,0.06786500000000001,-0.0002469999999999998,-0.00622099999999999,-0.116227,-0.34203500000000003,0.028662000000000007,0.107153,-0.343115,0.039462000000000004,-0.127857,-0.638535,0.06515200000000002,0.121063,-0.6510849999999999,0.067154
97,0.00045900000000000194,0.7272974999999999,0.02307300000000001,-0.15088400000000002,0.5073575,0.032364000000000004,-0.276184,0.7514875,0.028185,0.156636,0.4992575,0.022807000000000008,0.250496,0.7522175,0.018006000000000008,-0.335524,0.9554174999999999,0.019336000000000006,0.294736,0.9559975,-0.003975999999999993,-0.06787499999999999,0.00023649999999999973,0.0062460000000000016,0.06787499999999999,-0.00023650000000000016,-0.0062460000000000016,-0.116224,-0.34209249999999997,0.028564000000000006,0.10711599999999999,-0.34313249999999995,0.039407000000000005,-0.127854,-0.6386425,0.065135,0.120886,-0.6517025000000001,0.067012
98,0.0003149999999999989,0.727341,0.022694000000000006,-0.150914,0.507341,0.032208,-0.276134,0.751421,0.027539000000000008,0.156626,0.49927099999999996,0.022733000000000003,0.250336,0.7520910000000001,0.01754900000000001,-0.335454,0.955331,0.01852200000000001,0.294396,0.955611,-0.004625999999999991,-0.067885,0.00022500000000000037,0.0062460000000000016,0.067885,-0.00022499999999999994,-0.0062460000000000016,-0.116184,-0.342189,0.02843000000000001,0.107116,-0.343159,0.039302000000000004,-0.127834,-0.6387189999999999,0.06503300000000001,0.120716,-0.652339,0.066824
99,0.00011799999999999897,0.7273999999999999,0.022180000000000005,-0.15095399999999998,0.5073599999999999,0.032058,-0.276094,0.7513799999999999,0.02663900000000001,0.156626,0.49931,0.022654000000000007,0.250146,0.75197,0.016986,-0.335404,0.95522,0.017172000000000007,0.294026,0.9551999999999999,-0.005496000000000001,-0.067885,0.00021300000000000008,0.0062460000000000016,0.067885,-0.00021300000000000008,-0.0062460000000000016,-0.116114,-0.34226,0.028319999999999998,0.107116,-0.3432,0.039183,-0.12781399999999998,-0.6387700000000001,0.064919,0.120576,-0.6531600000000001,0.066473
100,-0.00012200000000000015,0.7274419999999999,0.021680000000000005,-0.15101,0.507362,0.03188400000000001,-0.27604,0.751292,0.025591000000000003,0.15662,0.499342,0.022576,0.24991,0.751902,0.016357999999999998,-0.33533999999999997,0.955062,0.015600000000000003,0.29375,0.954792,-0.006621000000000002,-0.06789200000000001,0.000196,0.006261000000000003,0.06789200000000001,-0.000196,-0.006261000000000003,-0.11602000000000001,-0.34237799999999996,0.028184,0.10711000000000001,-0.34325799999999995,0.039015,-0.12781,-0.638838,0.06476100000000001,0.12025,-0.6545880000000001,0.065945
101,-0.0004084999999999996,0.7275604999999999,0.0209545,-0.15104649999999997,0.5073504999999999,0.03163250000000001,-0.2758965,0.7511504999999999,0.024080500000000005,0.15657349999999998,0.4994005,0.0223675,0.2496235,0.7518005,0.015459500000000001,-0.33516650000000003,0.9546304999999999,0.013255500000000003,0.2934735,0.9542904999999999,-0.008346499999999993,-0.0679085,0.00017549999999999987,0.006256499999999998,0.0679085,-0.0001755000000000003,-0.006256499999999998,-0.1159065,-0.34249949999999996,0.0278645,0.1071135,-0.34343949999999995,0.0386495,-0.12777650000000002,-0.6389595,0.0644525,0.1200035,-0.6551595,0.0651695
102,-0.0008054999999999985,0.7276524999999999,0.019714499999999996,-0.1511715,0.5075824999999999,0.031031500000000004,-0.27562149999999996,0.7508325,0.02193049999999999,0.1564685,0.4993325,0.0217575,0.2491785,0.7515124999999999,0.013885499999999995,-0.33491150000000003,0.9540325,0.010013499999999995,0.2931785,0.9534125,-0.010858500000000007,-0.0679345,0.0001684999999999998,0.006218500000000002,0.0679345,-0.00016850000000000025,-0.006218500000000002,-0.11579149999999999,-0.3428675,0.027146500000000004,0.1071885,-0.34405749999999996,0.0378535,-0.12769149999999999,-0.6394375,0.0636565,0.1195485,-0.6571275000000001,0.0637685
103,-0.0012619999999999962,0.727804,0.018184000000000006,-0.15129900000000002,0.507784,0.030230000000000007,-0.275339,0.750494,0.019432000000000005,0.156341,0.499254,0.020923999999999998,0.24872100000000003,0.7512040000000001,0.011916999999999997,-0.334609,0.953384,0.006193000000000004,0.292881,0.952484,-0.013905,-0.067952,0.00016599999999999991,0.006144999999999998,0.067952,-0.00016600000000000035,-0.006144999999999998,-0.115669,-0.343886,0.026164000000000007,0.107271,-0.344796,0.03679,-0.12761899999999998,-0.639936,0.062599,0.119171,-0.659446,0.062191
104,-0.0017935000000000017,0.7279335,0.015997499999999984,-0.15145150000000002,0.5079635,0.02886849999999999,-0.27489149999999996,0.7499435,0.015813499999999994,0.15618849999999998,0.4991335,0.01952949999999999,0.24821849999999998,0.7508535000000001,0.009181499999999995,-0.33401149999999996,0.9526135,0.0006884999999999947,0.2925585,0.9514335,-0.017997500000000013,-0.06796250000000001,0.0001724999999999999,0.006097499999999992,0.06796250000000001,-0.0001724999999999999,-0.006097500000000006,-0.11556150000000001,-0.34540649999999995,0.024474499999999996,0.1073385,-0.34575649999999997,0.03505949999999999,-0.1266015,-0.6455664999999999,0.06017149999999999,0.11877850000000001,-0.6618565,0.05995749999999999
105,-0.0022949999999999984,0.7277739999999999,0.013203000000000006,-0.151576,0.5080239999999999,0.02698500000000001,-0.274336,0.7492439999999999,0.011510000000000006,0.156024,0.498914,0.017608000000000013,0.247704,0.7504139999999999,0.005654000000000006,-0.333386,0.951734,-0.0057759999999999895,0.292234,0.950104,-0.023256,-0.06798399999999999,0.00017599999999999994,0.006066000000000002,0.06798399999999999,-0.00017599999999999994,-0.006065999999999988,-0.115446,-0.34754599999999997,0.022155000000000008,0.10739399999999999,-0.34698599999999996,0.03266100000000001,-0.125586,-0.6513460000000001,0.057246000000000005,0.11818400000000001,-0.6645460000000001,0.05677900000000001
106,-0.002874500000000001,0.727428,0.009784500000000002,-0.1516665,0.507948,0.024638499999999994,-0.27360650000000003,0.748378,0.006146499999999999,0.1558435,0.498618,0.0152635,0.2472135,0.749858,0.0010204999999999936,-0.33255650000000003,0.950498,-0.013480500000000006,0.2919335,0.948578,-0.0293905,-0.06801750000000001,0.0001429999999999999,0.0059805,0.06801750000000001,-0.0001429999999999999,-0.0059805,-0.11542649999999999,-0.349252,0.019285499999999997,0.10748350000000001,-0.348332,0.029523499999999994,-0.12471650000000001,-0.657152,0.053892499999999996,0.11756349999999999,-0.667192,0.053038499999999995
107,-0.0034800000000000005,0.7270995,0.005617499999999984,-0.151781,0.5077395,0.02163849999999999,-0.27272100000000005,0.7473495,-0.0001265000000000155,0.15559900000000002,0.4982895,0.012267499999999987,0.24668900000000002,0.7491795,-0.004562500000000011,-0.331481,0.9488895,-0.022404500000000008,0.291649,0.9468995,-0.03649450000000001,-0.068078,8.649999999999999e-05,0.005891499999999994,0.068078,-8.649999999999999e-05,-0.005891500000000008,-0.115481,-0.3504105,0.015783499999999992,0.107599,-0.3495505,0.025588499999999986,-0.12401099999999998,-0.6629605,0.04993849999999999,0.11676900000000001,-0.6703304999999999,0.04856149999999999
108,-0.004064000000000001,0.7270115,0.0006835000000000035,-0.151861,0.5076915,0.017967499999999997,-0.271661,0.7461815,-0.007480500000000001,0.155339,0.4982415,0.008627499999999996,0.246079,0.7485715,-0.011120500000000005,-0.33041099999999995,0.9475215,-0.0320265,0.291379,0.9451215,-0.044876499999999986,-0.06820599999999999,3.8499999999999906e-05,0.005716499999999999,0.06820599999999999,-3.850000000000012e-05,-0.005716499999999999,-0.11555099999999999,-0.3508685,0.011626499999999998,0.10777899999999999,-0.3504585,0.020946500000000007,-0.12354100000000001,-0.6684885,0.0452715,0.116209,-0.6730785,0.0436085
109,-0.004695999999999997,0.7266115,-0.006641499999999995,-0.15189899999999998,0.5076915,0.012821500000000013,-0.270349,0.7441815,-0.01741749999999999,0.155091,0.4982415,0.00354850000000001,0.24555100000000002,0.7460315,-0.020257499999999998,-0.328689,0.9447115,-0.04579749999999999,0.291001,0.9411415,-0.0565775,-0.06830900000000001,3.8499999999999906e-05,0.005642500000000009,0.06830900000000001,-3.850000000000012e-05,-0.005642499999999995,-0.115589,-0.3513985,0.005501500000000006,0.10814100000000001,-0.3512385,0.014470500000000011,-0.12304899999999999,-0.6739685,0.039082500000000006,0.115841,-0.6749285,0.03711750000000001
110,-0.005261499999999995,0.7253715,-0.01500399999999999,-0.1519385,0.5076915,0.006936000000000012,-0.26894850000000003,0.7416615,-0.028177999999999995,0.1549015,0.4982115,-0.002240999999999993,0.2445815,0.7424015,-0.030847999999999987,-0.32709849999999996,0.9415015,-0.060258000000000006,0.2904715,0.9381315,-0.069128,-0.0684095,3.8499999999999906e-05,0.005517000000000008,0.0684095,-3.850000000000012e-05,-0.005516999999999994,-0.11570849999999999,-0.3521385,-0.0016079999999999983,0.10862150000000001,-0.3518885,0.0071450000000000125,-0.1225285,-0.6794285,0.032128000000000004,0.11557150000000001,-0.6770785,0.02971300000000001
111,-0.005757999999999998,0.7226060000000001,-0.02523249999999999,-0.152009,0.507546,9.250000000000924e-05,-0.267339,0.7369060000000001,-0.0406045,0.154821,0.497846,-0.008937500000000001,0.243731,0.7378560000000001,-0.043274499999999994,-0.32613899999999996,0.937476,-0.07666449999999998,0.290171,0.9345260000000001,-0.08458449999999999,-0.06845100000000001,2.3999999999999933e-05,0.005468500000000001,0.06845100000000001,-2.3999999999999933e-05,-0.005468500000000001,-0.11590900000000001,-0.353614,-0.009831499999999993,0.10920099999999999,-0.35242399999999996,-0.0011535000000000017,-0.12193899999999999,-0.6847639999999999,0.024261500000000005,0.115621,-0.679364,0.021422500000000004
112,-0.006178499999999997,0.7197920000000001,-0.036225499999999994,-0.1520335,0.5073420000000001,-0.007280499999999995,-0.2657135,0.732102,-0.0538955,0.1547865,0.497512,-0.016092499999999996,0.2429165,0.7318520000000001,-0.056445499999999996,-0.3252535,0.932952,-0.0938255,0.2897665,0.9310820000000001,-0.10079549999999998,-0.0685345,-2.800000000000003e-05,0.005418500000000007,0.0685345,2.800000000000003e-05,-0.005418499999999993,-0.1161735,-0.355018,-0.018465499999999996,0.1098565,-0.352768,-0.00987049999999999,-0.1213535,-0.6899379999999999,0.015955500000000004,0.1156865,-0.681028,0.012674500000000005
113,-0.0065765000000000025,0.7164765,-0.047431999999999995,-0.15208850000000002,0.5071365,-0.014861000000000006,-0.2643685,0.7271365,-0.06704200000000002,0.1546515,0.4970965,-0.023396999999999994,0.2422515,0.7258465,-0.06967200000000001,-0.3249385,0.9280565,-0.11100200000000002,0.2893215,0.9279765,-0.11929200000000001,-0.0686635,-7.349999999999978e-05,0.005322,0.0686635,7.350000000000021e-05,-0.005322,-0.1166485,-0.3560335,-0.027163,0.1105015,-0.3527235,-0.018589,-0.12128850000000001,-0.6897635,0.008335000000000002,0.1157115,-0.6822735,0.003937999999999997
114,-0.006923000000000004,0.712561,-0.060388500000000005,-0.15205,0.505731,-0.0243055,-0.26326000000000005,0.721601,-0.0823785,0.15383,0.495671,-0.0327165,0.24171,0.7194010000000001,-0.0847685,-0.32482,0.922331,-0.1320985,0.28891999999999995,0.925231,-0.1408085,-0.068915,-5.9000000000000025e-05,0.0049955,0.068915,5.9000000000000025e-05,-0.0049955,-0.11718,-0.355589,-0.0368335,0.11130999999999999,-0.351199,-0.0283425,-0.1212,-0.6883389999999999,-0.0004704999999999987,0.11576,-0.6818989999999999,-0.005573499999999995
115,-0.007316999999999997,0.7089584999999999,-0.0734875,-0.15208899999999997,0.5046585,-0.0340385,-0.262559,0.7156484999999999,-0.0980775,0.152731,0.49440850000000003,-0.0425595,0.24118099999999998,0.7131084999999999,-0.0998275,-0.324749,0.9171085,-0.1531575,0.288481,0.9167584999999999,-0.16277750000000002,-0.069157,-0.00011349999999999989,0.004859500000000003,0.069157,0.00011350000000000075,-0.004859500000000003,-0.11774899999999999,-0.3549215,-0.046647499999999995,0.112231,-0.3493715,-0.0381045,-0.12114899999999999,-0.6866015000000001,-0.009590500000000002,0.115811,-0.6812515,-0.0152915
116,-0.007722500000000004,0.7046304999999999,-0.0868815,-0.1521805,0.5025005,-0.044268499999999995,-0.2620905,0.7104404999999999,-0.11434149999999998,0.1514995,0.4931305,-0.0528755,0.2405895,0.7066705,-0.11562149999999999,-0.32469050000000005,0.9124304999999999,-0.17531149999999998,0.28799949999999996,0.9087405,-0.18458149999999998,-0.06937850000000001,-0.00027849999999999923,0.0048885000000000005,0.06937850000000001,0.00027850000000000097,-0.004888499999999997,-0.1183805,-0.3533095,-0.056752500000000004,0.1131395,-0.3464795,-0.0479675,-0.12161050000000001,-0.6838995,-0.0191155,0.11583949999999998,-0.6794395000000001,-0.0252075
117,-0.008115,0.7004020000000001,-0.10073100000000001,-0.152067,0.500352,-0.05452200000000001,-0.261717,0.705292,-0.13062100000000001,0.15027300000000002,0.492342,-0.063086,0.240263,0.699542,-0.131771,-0.324667,0.9070320000000001,-0.19876100000000002,0.287403,0.900092,-0.206371,-0.06964300000000001,-0.00040000000000000105,0.004867,0.06964300000000001,0.0003999999999999993,-0.004867000000000003,-0.119007,-0.351458,-0.066882,0.114063,-0.343308,-0.05760300000000001,-0.12196699999999999,-0.680658,-0.028524,0.116113,-0.677078,-0.03499
118,-0.008431,0.695826,-0.11274950000000002,-0.151998,0.49837600000000004,-0.0639995,-0.261538,0.7006359999999999,-0.14583949999999998,0.149012,0.49210600000000004,-0.0724665,0.240112,0.694716,-0.14655949999999998,-0.324928,0.903046,-0.2194795,0.287202,0.893146,-0.2263595,-0.069879,-0.0004979999999999984,0.004770499999999999,0.069879,0.0004980000000000019,-0.0047705000000000004,-0.119648,-0.349634,-0.07588450000000001,0.11502200000000001,-0.34059399999999995,-0.0661695,-0.12223799999999999,-0.676944,-0.037101499999999996,0.116372,-0.673794,-0.0437505
119,-0.008713500000000002,0.691989,-0.12457050000000001,-0.1518875,0.495989,-0.0737945,-0.2611475,0.696519,-0.16141049999999998,0.1471225,0.489039,-0.0827465,0.2401625,0.689589,-0.1613605,-0.3255375,0.895859,-0.2408405,0.2869625,0.885549,-0.2467005,-0.0701075,-0.0006099999999999994,0.0048614999999999995,0.0701075,0.0006099999999999994,-0.0048614999999999995,-0.1201575,-0.347221,-0.0847645,0.11597249999999999,-0.337511,-0.07467750000000001,-0.1223275,-0.6720309999999999,-0.0459385,0.1166725,-0.668701,-0.0523685
120,-0.008503,0.6882755,-0.135852,-0.151535,0.4926555,-0.08423699999999999,-0.260615,0.6935855,-0.177512,0.14546499999999998,0.4864855,-0.09343399999999999,0.240445,0.6852955000000001,-0.176092,-0.324785,0.8907155,-0.262142,0.28687500000000005,0.8788955,-0.266632,-0.070182,-0.0006955000000000017,0.004864,0.070182,0.0006954999999999982,-0.004864,-0.12054500000000001,-0.34087449999999997,-0.093814,0.117395,-0.33071449999999997,-0.083671,-0.122055,-0.6653945,-0.054502,0.11724499999999999,-0.6620245,-0.061135
121,-0.008166999999999999,0.684215,-0.1473775,-0.15076699999999998,0.488715,-0.0947515,-0.259887,0.6904750000000001,-0.1931275,0.14370300000000003,0.483375,-0.1043595,0.240923,0.683455,-0.1913275,-0.324847,0.886575,-0.2849375,0.286783,0.8728950000000001,-0.2890175,-0.070145,-0.0007600000000000037,0.0050095,0.070145,0.0007599999999999968,-0.005009499999999999,-0.120947,-0.33448500000000003,-0.1030255,0.118973,-0.323365,-0.0929205,-0.121727,-0.658125,-0.06286749999999999,0.11790300000000001,-0.6544449999999999,-0.0699385
122,-0.007809,0.680542,-0.162965,-0.14987499999999998,0.485032,-0.11003,-0.25922500000000004,0.6871619999999999,-0.213565,0.141905,0.480432,-0.12006499999999999,0.24113500000000002,0.6823119999999999,-0.21183500000000002,-0.324875,0.8838619999999999,-0.311655,0.286705,0.867402,-0.313795,-0.070108,-0.0008069999999999952,0.004820999999999999,0.070108,0.0008070000000000022,-0.004820999999999999,-0.121335,-0.32767799999999997,-0.117158,0.12076500000000001,-0.31518799999999997,-0.107259,-0.12137500000000001,-0.649568,-0.076042,0.11871499999999999,-0.645518,-0.083725
123,-0.007332,0.678161,-0.17755200000000002,-0.148521,0.48031100000000004,-0.123693,-0.25877100000000003,0.685311,-0.231812,0.140459,0.477841,-0.134092,0.24113900000000002,0.6814009999999999,-0.230722,-0.324421,0.8777809999999999,-0.334982,0.28661899999999996,0.862501,-0.335562,-0.07021,-0.0009160000000000001,0.004639999999999998,0.07021,0.0009160000000000001,-0.004640000000000002,-0.12227099999999999,-0.319279,-0.132992,0.123469,-0.306249,-0.122475,-0.120261,-0.640799,-0.088337,0.119399,-0.6361990000000001,-0.096391
124,-0.007002000000000001,0.6731195000000001,-0.19184250000000003,-0.147268,0.4759995,-0.1370285,-0.25823799999999997,0.6794294999999999,-0.24912250000000002,0.138942,0.4750395,-0.1475525,0.241362,0.6776595000000001,-0.24918249999999997,-0.32442800000000005,0.8721395000000001,-0.3573325,0.286312,0.8618095000000001,-0.3574525,-0.070314,-0.0008694999999999953,0.004179499999999996,0.070314,0.0008695000000000092,-0.004179500000000003,-0.12337799999999999,-0.3096105,-0.1485825,0.125912,-0.2962805,-0.1376165,-0.119368,-0.6312705000000001,-0.10024949999999999,0.119892,-0.6262505,-0.1086845
125,-0.007034500000000001,0.666793,-0.2059975,-0.1460255,0.47197300000000003,-0.1501805,-0.25838550000000005,0.673843,-0.2655775,0.1373745,0.47075300000000003,-0.1606175,0.2414745,0.6741229999999999,-0.2666975,-0.32434549999999995,0.864983,-0.37847749999999997,0.28587450000000003,0.8612329999999999,-0.37969749999999997,-0.0704885,-0.0006079999999999974,0.0034795000000000034,0.0704885,0.0006079999999999974,-0.0034794999999999965,-0.1245755,-0.29917699999999997,-0.1641375,0.1282845,-0.28707699999999997,-0.1528175,-0.1185955,-0.621097,-0.11200750000000001,0.1202445,-0.615747,-0.1207385
126,-0.007065500000000002,0.6625675,-0.2206665,-0.14473650000000002,0.4687475,-0.1639445,-0.25815649999999996,0.6688974999999999,-0.2826665,0.1356135,0.46760749999999995,-0.1744165,0.24150349999999998,0.6721475,-0.2840265,-0.3240665,0.8597874999999999,-0.3994065,0.28535350000000004,0.8613375,-0.4020265,-0.07066449999999999,-0.0009095000000000075,0.0031614999999999976,0.07066449999999999,0.0009094999999999936,-0.0031614999999999976,-0.12594650000000002,-0.2868125,-0.1805265,0.1305635,-0.2758125,-0.16918650000000002,-0.1180165,-0.6089025,-0.1244345,0.1204335,-0.6034425,-0.13338450000000002
127,-0.006905499999999997,0.65905,-0.23514749999999998,-0.1433945,0.46562000000000003,-0.1773575,-0.2579145,0.66491,-0.2988475,0.1339955,0.46419999999999995,-0.1880275,0.2415755,0.66889,-0.3007875,-0.3235745,0.85357,-0.4197275,0.28491550000000004,0.86015,-0.4232975,-0.0707595,-0.0009800000000000086,0.002850500000000006,0.0707595,0.0009799999999999948,-0.002850499999999992,-0.1272345,-0.27476999999999996,-0.1967275,0.1327855,-0.26431000000000004,-0.1852975,-0.1173545,-0.59629,-0.13659649999999998,0.1206055,-0.59083,-0.1454855
128,-0.006861000000000001,0.65386,-0.2515755,-0.141905,0.46098,-0.1925705,-0.257845,0.66041,-0.3178255,0.132135,0.46167,-0.2026955,0.241475,0.66799,-0.3205855,-0.32313499999999995,0.84857,-0.4432155,0.284605,0.85812,-0.4481155,-0.070783,-0.0009599999999999886,0.002404500000000004,0.070783,0.0009600000000000164,-0.002404500000000004,-0.128505,-0.2587,-0.2144455,0.135245,-0.24911,-0.2037655,-0.116655,-0.57973,-0.1498875,0.120845,-0.5744199999999999,-0.1588635
129,-0.006757999999999998,0.6491100000000001,-0.266555,-0.140648,0.45726,-0.205995,-0.256958,0.6532100000000001,-0.334575,0.13042199999999998,0.45867,-0.215815,0.24149199999999998,0.66472,-0.338045,-0.322158,0.8409800000000001,-0.464355,0.284532,0.8542000000000001,-0.469885,-0.070798,-0.0010100000000000109,0.0020550000000000013,0.070798,0.0010100000000000109,-0.0020550000000000013,-0.129448,-0.24411999999999998,-0.230765,0.13745200000000002,-0.23539000000000002,-0.220585,-0.115928,-0.56494,-0.161832,0.121222,-0.55977,-0.17095300000000002
130,-0.006593499999999997,0.643355,-0.28239000000000003,-0.1400745,0.45166500000000004,-0.2199,-0.2565645,0.6442650000000001,-0.35201000000000005,0.1282955,0.452135,-0.22970000000000002,0.2409555,0.657575,-0.35514,-0.32139449999999997,0.829385,-0.48574000000000006,0.2836755,0.846535,-0.49038000000000004,-0.07095850000000001,-0.0010349999999999804,0.0016199999999999964,0.07095850000000001,0.0010350000000000081,-0.0016200000000000103,-0.1304845,-0.227505,-0.24761,0.13934549999999998,-0.219875,-0.23779,-0.11526449999999999,-0.548635,-0.174062,0.12156549999999999,-0.544275,-0.183424
131,-0.006527999999999996,0.63669,-0.292995,-0.139576,0.4463,-0.22890500000000003,-0.256096,0.6349199999999999,-0.364305,0.126254,0.44649,-0.23839500000000002,0.240434,0.64888,-0.366775,-0.320906,0.81522,-0.5029250000000001,0.282944,0.83762,-0.506305,-0.071126,-0.0010600000000000054,0.0015450000000000047,0.071126,0.0010599999999999776,-0.0015450000000000047,-0.131466,-0.21069,-0.259235,0.140764,-0.20405,-0.249695,-0.114616,-0.53295,-0.180917,0.12196400000000002,-0.52914,-0.19068600000000002
132,-0.006809499999999994,0.628935,-0.30327000000000004,-0.1394055,0.443005,-0.23773,-0.2558355,0.623405,-0.3765,0.1243545,0.44189500000000004,-0.24676,0.2392245,0.639975,-0.37819,-0.3205155,0.804285,-0.51946,0.2819445,0.8269949999999999,-0.52244,-0.0712425,-0.0010449999999999904,0.001689999999999997,0.0712425,0.0010449999999999904,-0.001689999999999997,-0.13229549999999998,-0.19452499999999998,-0.26793,0.14093450000000002,-0.188225,-0.25949,-0.11445549999999999,-0.517375,-0.187694,0.12195450000000001,-0.514325,-0.197513
133,-0.007806500000000004,0.6220600000000001,-0.315825,-0.13937750000000002,0.4365,-0.248215,-0.25580749999999997,0.61747,-0.392835,0.12235249999999999,0.43609,-0.256885,0.23845249999999998,0.6334299999999999,-0.392625,-0.3203675,0.79007,-0.539115,0.28088250000000003,0.81488,-0.540875,-0.0712435,-0.0013099999999999778,0.0021250000000000158,0.0712435,0.0013100000000000056,-0.002124999999999988,-0.1336275,-0.17352,-0.277565,0.1409725,-0.16799999999999998,-0.270225,-0.1144375,-0.49698,-0.195509,0.12170249999999999,-0.49466999999999994,-0.20524399999999998
134,-0.008711000000000005,0.615025,-0.32825,-0.139329,0.430725,-0.25825,-0.256029,0.610135,-0.40854,0.12071099999999998,0.43000499999999997,-0.26712,0.23747100000000002,0.6221949999999999,-0.40667,-0.319979,0.775935,-0.5602,0.280711,0.800875,-0.5608,-0.07127700000000001,-0.0013849999999999973,0.00272,0.07127700000000001,0.0013849999999999973,-0.00272,-0.13541899999999998,-0.150475,-0.28681999999999996,0.141181,-0.146475,-0.28071999999999997,-0.11438899999999999,-0.474645,-0.20269399999999999,0.12127099999999999,-0.47301499999999996,-0.21220899999999998
135,-0.009751500000000001,0.60547,-0.338745,-0.1396075,0.42422000000000004,-0.267245,-0.2566375,0.5983400000000001,-0.422215,0.1189625,0.42186,-0.276315,0.2360525,0.61039,-0.41935500000000003,-0.32037750000000004,0.7587600000000001,-0.579105,0.2800125,0.78435,-0.579285,-0.0712445,-0.0008599999999999719,0.0030850000000000044,0.0712445,0.0008600000000000274,-0.0030850000000000044,-0.1376075,-0.13271,-0.294625,0.1410825,-0.12999999999999995,-0.289615,-0.11512750000000001,-0.45360999999999996,-0.20851,0.12055249999999999,-0.45245,-0.217948
136,-0.010860500000000006,0.5951299999999999,-0.348915,-0.1401725,0.41755,-0.275685,-0.2579825,0.5847100000000001,-0.435175,0.11689749999999999,0.41462,-0.284835,0.23542749999999998,0.59887,-0.431275,-0.32074250000000004,0.74231,-0.5974649999999999,0.27934749999999997,0.76877,-0.597315,-0.0714225,-0.0007199999999999984,0.00328500000000001,0.0714225,0.0007199999999999984,-0.0032849999999999824,-0.13996250000000002,-0.11426000000000003,-0.30171499999999996,0.1407575,-0.11297000000000001,-0.297925,-0.1158825,-0.43207000000000007,-0.213714,0.11971749999999999,-0.43127000000000004,-0.223099
137,-0.011803999999999995,0.5864400000000001,-0.35702500000000004,-0.140853,0.41197400000000006,-0.281525,-0.25938300000000003,0.5706100000000001,-0.444635,0.11546700000000001,0.407938,-0.291115,0.234297,0.58534,-0.43908499999999995,-0.321203,0.7262,-0.611935,0.278837,0.7521,-0.611395,-0.071598,-0.00045999999999996044,0.0035350000000000104,0.071598,0.00046000000000001595,-0.0035350000000000104,-0.142503,-0.09752999999999995,-0.30679500000000004,0.140197,-0.09636999999999996,-0.30345500000000003,-0.11666299999999999,-0.4123,-0.21709699999999998,0.118727,-0.41208999999999996,-0.226411
138,-0.012618,0.577705,-0.36485,-0.141538,0.404968,-0.28808999999999996,-0.26045799999999997,0.559575,-0.45475,0.113952,0.40102400000000005,-0.29767999999999994,0.23317200000000002,0.5720350000000001,-0.44727999999999996,-0.321748,0.710165,-0.62739,0.277842,0.736785,-0.6261,-0.071904,-0.0003149999999999542,0.00384000000000001,0.071904,0.0003150000000000097,-0.0038399999999999823,-0.14507799999999998,-0.07935499999999995,-0.31164,0.139432,-0.07831499999999997,-0.30893,-0.11743800000000001,-0.39122499999999993,-0.220468,0.117652,-0.391645,-0.22966699999999998
139,-0.013530000000000004,0.569835,-0.371655,-0.142126,0.40291,-0.293455,-0.26128599999999996,0.5509550000000001,-0.46477500000000005,0.11282400000000001,0.39984000000000003,-0.302705,0.232404,0.562245,-0.45491499999999996,-0.32195599999999996,0.6953050000000001,-0.641015,0.27717400000000003,0.7225550000000001,-0.639405,-0.072303,-0.00012499999999998623,0.004085000000000005,0.072303,0.00012500000000004174,-0.004085000000000005,-0.147466,-0.060475,-0.31516500000000003,0.138514,-0.059484999999999955,-0.313195,-0.118096,-0.36955499999999997,-0.222918,0.11666399999999999,-0.370475,-0.231904
140,-0.014276,0.562165,-0.37795999999999996,-0.14269,0.396453,-0.29929,-0.26228,0.543695,-0.47374000000000005,0.11183,0.39360500000000004,-0.30823,0.23184,0.551295,-0.46243999999999996,-0.3218,0.6816450000000001,-0.6538,0.27662,0.706895,-0.65187,-0.072774,3.500000000000725e-05,0.004239999999999994,0.072774,-3.500000000000725e-05,-0.004239999999999994,-0.14972,-0.04151499999999997,-0.31805,0.13737,-0.04047499999999998,-0.31706999999999996,-0.1187,-0.347425,-0.22513899999999998,0.11568,-0.34918499999999997,-0.233812
141,-0.0149285,0.55147,-0.38449500000000003,-0.1433025,0.388519,-0.30513500000000005,-0.26351250000000004,0.5350699999999999,-0.483445,0.11079750000000001,0.386587,-0.31401500000000004,0.2310575,0.53859,-0.470775,-0.32178249999999997,0.66594,-0.6684950000000001,0.2760175,0.6892400000000001,-0.663565,-0.0733375,2.999999999997449e-05,0.00411499999999998,0.0733375,-2.999999999997449e-05,-0.0041150000000000075,-0.1518125,-0.023139999999999994,-0.321085,0.1362275,-0.02185999999999999,-0.320925,-0.1193325,-0.32582999999999995,-0.22759200000000002,0.1146575,-0.3284,-0.235882
142,-0.015562499999999996,0.5418799999999999,-0.389185,-0.1438835,0.38278799999999996,-0.309755,-0.26446349999999996,0.52527,-0.489815,0.1099665,0.380509,-0.31855500000000003,0.2305465,0.5259499999999999,-0.476575,-0.3217235,0.65213,-0.680695,0.2762965,0.67202,-0.671845,-0.0739255,0.00017999999999995797,0.0037449999999999983,0.0739255,-0.00018000000000001348,-0.003745000000000026,-0.1535535,-0.009970000000000034,-0.32321500000000003,0.1355865,-0.008150000000000046,-0.323745,-0.11997349999999998,-0.30964,-0.22961900000000002,0.1136365,-0.31299,-0.237663
143,-0.0160945,0.531959,-0.39415500000000003,-0.1443375,0.374189,-0.314815,-0.2652475,0.5090439999999999,-0.497145,0.1091325,0.373478,-0.32313500000000006,0.2303025,0.515323,-0.482455,-0.3207475,0.636605,-0.691245,0.2770125,0.6551849999999999,-0.678465,-0.07457549999999999,-0.00010500000000002174,0.0033149999999999846,0.07457549999999999,0.00010499999999996623,-0.0033150000000000124,-0.15475750000000002,0.0004249999999999532,-0.32577500000000004,0.1350525,0.003194999999999948,-0.32660500000000003,-0.12052750000000001,-0.2961250000000001,-0.23249600000000004,0.11267250000000001,-0.300195,-0.24022400000000002
144,-0.016606000000000003,0.521408,-0.399115,-0.14452299999999998,0.36564599999999997,-0.319535,-0.265843,0.4966,-0.5052449999999999,0.10836699999999999,0.36697199999999996,-0.327585,0.230447,0.5028859999999999,-0.48876499999999995,-0.319813,0.62169,-0.7009449999999999,0.277987,0.6394299999999999,-0.6850149999999999,-0.075122,-0.00047000000000002595,0.002845000000000014,0.075122,0.00046999999999997044,-0.0028449999999999864,-0.155823,0.009699999999999986,-0.328395,0.134607,0.013139999999999985,-0.32928499999999994,-0.120973,-0.28371,-0.23542599999999997,0.111707,-0.28859999999999997,-0.24284499999999998
145,-0.016451999999999998,0.50936,-0.40589,-0.14424800000000002,0.353725,-0.32800999999999997,-0.265968,0.48251700000000003,-0.51584,0.10758200000000001,0.355945,-0.33538999999999997,0.230792,0.489442,-0.49721,-0.31807799999999997,0.602195,-0.71265,0.27919200000000005,0.620675,-0.69397,-0.07546800000000001,-0.0006450000000000067,0.002380000000000021,0.07546800000000001,0.0006450000000000067,-0.0023799999999999932,-0.157068,0.01896500000000001,-0.33370999999999995,0.135212,0.023114999999999997,-0.33458,-0.12121799999999999,-0.27041499999999996,-0.24073099999999997,0.11077200000000001,-0.27598500000000004,-0.24759399999999998
146,-0.016218999999999997,0.496239,-0.41234000000000004,-0.143816,0.34169,-0.33675,-0.266046,0.468022,-0.52559,0.107364,0.34517,-0.34312,0.230974,0.475822,-0.5052099999999999,-0.31645599999999996,0.58462,-0.7236100000000001,0.280204,0.6047899999999999,-0.7024699999999999,-0.075708,-0.0009899999999999909,0.0017900000000000138,0.075708,0.0009899999999999909,-0.001789999999999986,-0.15843600000000002,0.025150000000000006,-0.33982999999999997,0.136544,0.029559999999999975,-0.34015,-0.121306,-0.26076000000000005,-0.246301,0.109934,-0.26643,-0.252087
147,-0.016029,0.483288,-0.419195,-0.14343899999999998,0.32971,-0.345175,-0.266359,0.453125,-0.5369550000000001,0.10750100000000001,0.33426,-0.35080500000000003,0.231321,0.4636,-0.512935,-0.314539,0.563934,-0.733905,0.281411,0.5883700000000001,-0.7108450000000001,-0.0758,-0.0012599999999999834,0.0011349999999999971,0.0758,0.0012599999999999834,-0.0011349999999999971,-0.159689,0.03011999999999998,-0.346065,0.138551,0.034640000000000004,-0.346115,-0.12109900000000001,-0.25188000000000005,-0.252276,0.10942099999999999,-0.25814,-0.256112
148,-0.015568,0.46943300000000004,-0.426025,-0.142734,0.314005,-0.354105,-0.266274,0.436667,-0.547025,0.108006,0.32072500000000004,-0.358975,0.231896,0.44997400000000004,-0.5205249999999999,-0.312744,0.54556,-0.743545,0.28308599999999995,0.573736,-0.7188249999999999,-0.076108,-0.0017349999999999866,0.0004350000000000187,0.076108,0.001735000000000042,-0.00043499999999999095,-0.160814,0.03239500000000001,-0.352545,0.141226,0.03680500000000003,-0.35221499999999994,-0.120014,-0.24578500000000003,-0.25760799999999995,0.109286,-0.25239500000000004,-0.25961799999999996
149,-0.015097000000000001,0.456217,-0.432575,-0.142052,0.30199999999999994,-0.362085,-0.26605199999999996,0.41935599999999995,-0.557035,0.108338,0.31104999999999994,-0.36633499999999997,0.232538,0.437886,-0.5277449999999999,-0.311292,0.527073,-0.752915,0.284768,0.560732,-0.726825,-0.076423,-0.0022000000000000353,-0.00023499999999998522,0.076423,0.0021999999999999797,0.00023500000000001298,-0.162262,0.033369999999999955,-0.35870499999999994,0.143998,0.037829999999999975,-0.358005,-0.11786200000000001,-0.24068,-0.259129,0.109178,-0.24782000000000004,-0.263063
150,-0.014981500000000002,0.44610399999999995,-0.438925,-0.1417075,0.29108999999999996,-0.36973500000000004,-0.2659675,0.405257,-0.566635,0.1082825,0.3016,-0.373235,0.23280250000000002,0.428013,-0.534095,-0.3103475,0.511774,-0.760015,0.28625249999999997,0.5507139999999999,-0.734435,-0.0766965,-0.002630000000000021,-0.0007050000000000112,0.0766965,0.0026299999999999657,0.0007050000000000112,-0.1640375,0.034089999999999954,-0.364695,0.1465225,0.03827999999999998,-0.363615,-0.1150975,-0.23378,-0.259343,0.10867249999999999,-0.24338000000000004,-0.266281
151,-0.014785500000000004,0.436234,-0.444765,-0.14101049999999998,0.28046000000000004,-0.376815,-0.2656305,0.39195,-0.574585,0.1083295,0.29243,-0.379555,0.23284950000000001,0.41854500000000006,-0.539935,-0.3094305,0.497655,-0.766235,0.2877695,0.5434,-0.7414449999999999,-0.07695250000000001,-0.003049999999999997,-0.0010750000000000204,0.07695250000000001,0.0030500000000000527,0.0010749999999999926,-0.1656805,0.03463000000000005,-0.370205,0.1491795,0.038300000000000056,-0.368765,-0.1121905,-0.22731999999999997,-0.258895,0.1085895,-0.23978999999999995,-0.27063000000000004
152,-0.014618500000000001,0.42921500000000007,-0.44965,-0.1404715,0.2731950000000001,-0.38279,-0.26534149999999995,0.38579500000000005,-0.5810299999999999,0.1086685,0.28608500000000003,-0.38475000000000004,0.23300849999999998,0.41220300000000004,-0.54522,-0.3094415,0.4905300000000001,-0.77172,0.28886850000000003,0.537197,-0.7474,-0.0770265,-0.003334999999999977,-0.0014300000000000146,0.0770265,0.0033350000000000324,0.0014299999999999868,-0.1672815,0.03495500000000007,-0.37482000000000004,0.1517585,0.03817500000000007,-0.37317,-0.1093615,-0.221595,-0.25757,0.1083885,-0.23685499999999993,-0.273769
153,-0.014323000000000004,0.42437800000000003,-0.454225,-0.139829,0.26721,-0.388435,-0.26526900000000003,0.38157,-0.5845549999999999,0.109131,0.28052,-0.389815,0.233231,0.408552,-0.550125,-0.309389,0.485134,-0.776875,0.28973099999999996,0.533335,-0.751825,-0.076993,-0.0036199999999999566,-0.001674999999999982,0.076993,0.0036200000000000676,0.0016750000000000098,-0.168709,0.035780000000000034,-0.37943499999999997,0.154261,0.03893000000000002,-0.37766500000000003,-0.10669900000000002,-0.21536999999999995,-0.257461,0.10842099999999999,-0.23360000000000003,-0.277233
154,-0.0139295,0.42300999999999994,-0.45557000000000003,-0.1392755,0.26566999999999996,-0.39013,-0.2652655,0.38042,-0.58478,0.1095045,0.27910999999999997,-0.39151,0.23356449999999998,0.40718099999999996,-0.55122,-0.3093855,0.48496799999999995,-0.78003,0.29020450000000003,0.532991,-0.7537400000000001,-0.07699249999999999,-0.00389000000000006,-0.0017800000000000038,0.07699249999999999,0.003889999999999949,0.0017800000000000038,-0.1696155,0.035479999999999956,-0.38095,0.15549449999999998,0.03850999999999993,-0.37936000000000003,-0.1066955,-0.2147300000000001,-0.259142,0.10837450000000001,-0.23328000000000004,-0.278266
155,-0.013474,0.42381800000000003,-0.456115,-0.138729,0.26626500000000003,-0.391305,-0.26487900000000003,0.38141500000000006,-0.585955,0.109941,0.27964500000000003,-0.392685,0.23384100000000002,0.40761400000000003,-0.551545,-0.309419,0.485673,-0.781175,0.29029099999999997,0.5335300000000001,-0.753885,-0.076996,-0.00407499999999994,-0.0018549999999999955,0.076996,0.004075000000000051,0.0018549999999999955,-0.17006900000000003,0.03519500000000003,-0.382145,0.156171,0.038275,-0.380535,-0.106699,-0.21472499999999994,-0.260232,0.10834099999999999,-0.23309499999999994,-0.27927
156,-0.012879999999999999,0.423998,-0.45550999999999997,-0.138058,0.266445,-0.39144,-0.26448799999999995,0.381595,-0.5861,0.110442,0.279825,-0.39283,0.234432,0.407794,-0.55095,-0.309288,0.485853,-0.7806299999999999,0.29047199999999995,0.53371,-0.75285,-0.077176,-0.003985000000000016,-0.0019499999999999795,0.077176,0.003985000000000016,0.0019500000000000073,-0.169978,0.034174999999999955,-0.38237999999999994,0.156352,0.037715,-0.38068,-0.106508,-0.21540500000000007,-0.26036899999999996,0.108452,-0.23348500000000005,-0.279416
157,-0.012522499999999997,0.424068,-0.45504999999999995,-0.1375955,0.266515,-0.39095,-0.2646055,0.38166500000000003,-0.5861,0.11098450000000001,0.279895,-0.39242,0.2344545,0.407864,-0.55014,-0.30981549999999997,0.485923,-0.7801400000000001,0.2904545,0.53378,-0.75285,-0.07728750000000001,-0.003915000000000002,-0.0019499999999999795,0.07728750000000001,0.003915000000000002,0.0019500000000000073,-0.1699955,0.033335000000000004,-0.38281,0.1563345,0.037775,-0.38073,-0.10649549999999999,-0.21585500000000002,-0.26036899999999996,0.1084745,-0.233545,-0.27941499999999997
158,-0.0121535,0.424068,-0.45458,-0.1372525,0.266515,-0.39042,-0.26494249999999997,0.382645,-0.5857600000000001,0.1113275,0.279895,-0.39198999999999995,0.2342175,0.407864,-0.55024,-0.3107425,0.485923,-0.7773999999999999,0.2901875,0.53378,-0.7525200000000001,-0.07721249999999999,-0.003915000000000002,-0.0019499999999999795,0.07721249999999999,0.003915000000000002,0.0019500000000000073,-0.17026249999999998,0.033125000000000016,-0.383,0.1560675,0.037775,-0.38100999999999996,-0.10663249999999999,-0.21615499999999999,-0.26036899999999996,0.1081375,-0.23360499999999995,-0.279416
159,-0.011883000000000005,0.425983,-0.45399999999999996,-0.137108,0.26902499999999996,-0.38976999999999995,-0.26496800000000004,0.385275,-0.5847899999999999,0.111352,0.281265,-0.39147,0.233652,0.41007099999999996,-0.54942,-0.312028,0.490427,-0.7761499999999999,0.289512,0.53444,-0.7513099999999999,-0.07718900000000001,-0.003915000000000002,-0.0019499999999999795,0.07718900000000001,0.003915000000000002,0.0019500000000000073,-0.170628,0.033125000000000016,-0.38319,0.155692,0.037775,-0.38151,-0.106798,-0.21638500000000005,-0.26036899999999996,0.10780200000000001,-0.233665,-0.28002
160,-0.011760999999999995,0.43142899999999995,-0.45242000000000004,-0.13737499999999997,0.2736199999999999,-0.3883,-0.265125,0.3902899999999999,-0.58228,0.11114500000000001,0.28561999999999993,-0.39,0.233105,0.4142769999999999,-0.54801,-0.313505,0.49626799999999993,-0.77403,0.28814500000000004,0.5369389999999999,-0.7494,-0.077056,-0.0038600000000000856,-0.0020000000000000018,0.077056,0.0038599999999999746,0.0020000000000000018,-0.170815,0.03311999999999993,-0.38276,0.15452500000000002,0.037679999999999936,-0.38166,-0.107745,-0.21621000000000012,-0.261211,0.10731500000000001,-0.23375000000000012,-0.28130700000000003
161,-0.0117345,0.439491,-0.44855500000000004,-0.1379305,0.28134000000000003,-0.384615,-0.26554049999999996,0.39935000000000004,-0.5758749999999999,0.1111195,0.2927,-0.38627500000000003,0.2325395,0.422723,-0.545485,-0.31506049999999997,0.504538,-0.769145,0.2858695,0.543929,-0.746045,-0.0768025,-0.0037599999999999856,-0.0020449999999999913,0.0768025,0.0037599999999999856,0.0020449999999999913,-0.1703505,0.03205000000000002,-0.38031499999999996,0.1523295,0.03744000000000003,-0.380575,-0.1099305,-0.21709,-0.263975,0.1067395,-0.23492000000000002,-0.28107
162,-0.011261500000000002,0.4503950000000001,-0.443625,-0.1381935,0.2898450000000001,-0.380015,-0.26573349999999996,0.4108550000000001,-0.567845,0.1114565,0.30043500000000006,-0.381745,0.2322865,0.43320100000000006,-0.542215,-0.31618349999999995,0.5162510000000001,-0.762715,0.2837265,0.5535950000000001,-0.740685,-0.0765575,-0.0035649999999999293,-0.0019450000000000023,0.0765575,0.0035650000000000404,0.0019450000000000023,-0.1693035,0.031065000000000065,-0.377765,0.1501565,0.037025000000000086,-0.378815,-0.1128435,-0.22194499999999995,-0.267194,0.1064765,-0.2366149999999999,-0.280191
163,-0.010656999999999996,0.462425,-0.43772500000000003,-0.138386,0.298815,-0.37463500000000005,-0.265876,0.422689,-0.558555,0.111844,0.308865,-0.376455,0.232124,0.444629,-0.537245,-0.317966,0.533716,-0.7544649999999999,0.281464,0.566505,-0.733595,-0.076435,-0.0033649999999999514,-0.001815000000000011,0.076435,0.003365000000000007,0.0018149999999999833,-0.168016,0.03007500000000002,-0.374795,0.14779399999999998,0.03628500000000001,-0.37663500000000005,-0.115566,-0.22717500000000002,-0.26965,0.106394,-0.23897500000000005,-0.277272
164,-0.010258999999999997,0.477628,-0.43006,-0.13852,0.30831,-0.36741999999999997,-0.26569,0.436326,-0.54775,0.11219,0.31777,-0.36926,0.23198,0.46042099999999997,-0.53169,-0.31936,0.54823,-0.74314,0.27923,0.582774,-0.72595,-0.076435,-0.003190000000000026,-0.0019799999999999818,0.076435,0.0031899999999999706,0.0019800000000000095,-0.1666,0.029279999999999973,-0.37039999999999995,0.14547000000000002,0.035489999999999966,-0.37277,-0.1182,-0.23268,-0.270301,0.10646,-0.24172000000000005,-0.272424
165,-0.009878000000000003,0.493791,-0.420265,-0.13892400000000002,0.32228499999999993,-0.357945,-0.265314,0.45027599999999995,-0.534995,0.112506,0.33218499999999995,-0.359875,0.231926,0.475844,-0.524015,-0.320674,0.564454,-0.731045,0.277126,0.5993649999999999,-0.715575,-0.07633999999999999,-0.0030050000000000354,-0.0015650000000000108,0.07633999999999999,0.00300499999999998,0.0015650000000000108,-0.165134,0.02781499999999998,-0.36406499999999997,0.143316,0.033774999999999944,-0.366745,-0.12051400000000001,-0.23934500000000003,-0.267495,0.10669599999999999,-0.24545499999999998,-0.265421
166,-0.009632499999999999,0.509689,-0.410645,-0.13927849999999997,0.33464,-0.348755,-0.2649485,0.46696899999999997,-0.5219849999999999,0.1127215,0.34508,-0.350525,0.23144150000000002,0.491606,-0.515195,-0.3218185,0.581565,-0.7178149999999999,0.2752315,0.61691,-0.7053149999999999,-0.0762075,-0.0030000000000000027,-0.0011449999999999794,0.0762075,0.0030000000000000027,0.0011450000000000071,-0.1636685,0.025639999999999996,-0.357975,0.1412315,0.03137000000000001,-0.36089499999999997,-0.1203785,-0.24391000000000002,-0.259825,0.10687150000000001,-0.24956000000000006,-0.25848499999999996
167,-0.008995999999999999,0.525129,-0.400405,-0.13927499999999998,0.34745000000000004,-0.339025,-0.26432500000000003,0.480423,-0.508785,0.11343500000000001,0.35714999999999997,-0.34072499999999994,0.230855,0.510245,-0.505065,-0.32250500000000004,0.59688,-0.704815,0.27386499999999997,0.6374299999999999,-0.694615,-0.07600799999999999,-0.0024600000000000177,-0.0006349999999999967,0.07600799999999999,0.0024600000000000177,0.0006350000000000244,-0.161955,0.02017000000000002,-0.351475,0.13958500000000001,0.025430000000000008,-0.354465,-0.11990500000000001,-0.25217,-0.25165099999999996,0.107435,-0.25739999999999996,-0.251252
168,-0.008288999999999998,0.539846,-0.39073500000000005,-0.138833,0.35907,-0.329745,-0.263683,0.494515,-0.49645500000000004,0.114087,0.3686,-0.331685,0.230267,0.526246,-0.494885,-0.323353,0.61483,-0.6914849999999999,0.272797,0.65706,-0.6841950000000001,-0.075686,-0.0023299999999999987,-6.50000000000095e-05,0.075686,0.0023299999999999987,6.499999999998174e-05,-0.160283,0.013770000000000004,-0.345475,0.13827699999999998,0.018120000000000025,-0.348465,-0.119283,-0.26171,-0.243979,0.108127,-0.26657,-0.24461300000000002
169,-0.006881999999999994,0.553293,-0.38169,-0.138386,0.370674,-0.32095,-0.262936,0.509716,-0.48398,0.115154,0.378534,-0.32323,0.230354,0.540208,-0.48532000000000003,-0.323856,0.6341749999999999,-0.6785300000000001,0.272424,0.675715,-0.6741699999999999,-0.075239,-0.0020850000000000035,0.0005299999999999749,0.075239,0.0020850000000000035,-0.0005300000000000027,-0.158346,0.005434999999999968,-0.33966,0.13762400000000002,0.00844499999999998,-0.34251,-0.118156,-0.273385,-0.23661600000000002,0.10923400000000001,-0.278215,-0.238176
170,-0.005250499999999999,0.5663,-0.37356999999999996,-0.1378915,0.379017,-0.31389,-0.2615615,0.520687,-0.47464999999999996,0.1164685,0.38703499999999996,-0.31662999999999997,0.2303685,0.55179,-0.4773,-0.3246815,0.65277,-0.6676599999999999,0.2726385,0.69395,-0.66547,-0.07473350000000001,-0.0020400000000000418,0.0011000000000000176,0.07473350000000001,0.0020399999999999863,-0.0010999999999999899,-0.1567315,-0.0039899999999999936,-0.33492,0.1378385,-0.0025700000000000167,-0.33718,-0.1169615,-0.28615999999999997,-0.23070799999999997,0.11042850000000001,-0.29085000000000005,-0.232893
