sb224sc-HT22-VT27/4dt907/src/data/kinect_good_vs_bad_not_preprocessed_A13_mediapipe/G53.csv
FrameNo,nose_3d_x,nose_3d_y,nose_3d_z,left_shoulder_3d_x,left_shoulder_3d_y,left_shoulder_3d_z,left_elbow_3d_x,left_elbow_3d_y,left_elbow_3d_z,right_shoulder_3d_x,right_shoulder_3d_y,right_shoulder_3d_z,right_elbow_3d_x,right_elbow_3d_y,right_elbow_3d_z,left_wrist_3d_x,left_wrist_3d_y,left_wrist_3d_z,right_wrist_3d_x,right_wrist_3d_y,right_wrist_3d_z,left_hip_3d_x,left_hip_3d_y,left_hip_3d_z,right_hip_3d_x,right_hip_3d_y,right_hip_3d_z,left_knee_3d_x,left_knee_3d_y,left_knee_3d_z,right_knee_3d_x,right_knee_3d_y,right_knee_3d_z,left_ankle_3d_x,left_ankle_3d_y,left_ankle_3d_z,right_ankle_3d_x,right_ankle_3d_y,right_ankle_3d_z
0,0.019742000000000003,0.7056435,0.021384000000000004,-0.142887,0.5028935,0.032650000000000005,-0.241227,0.7184435,-0.011281999999999993,0.156853,0.5001435,0.045438000000000006,0.25930299999999995,0.7219435000000001,0.021496000000000005,-0.28545699999999996,0.9315335,-0.058334,0.290883,0.9352235,-0.019835,-0.068117,0.0001405,0.00017000000000000348,0.068117,-0.0001405,-0.00016999999999999654,-0.118667,-0.3396165,0.032184000000000004,0.10673300000000001,-0.3401065,0.043568,-0.124777,-0.6733965,0.08457200000000001,0.130953,-0.6459265,0.08521100000000001
1,0.019825,0.7058325,0.0216065,-0.143504,0.5028225,0.032940500000000004,-0.239294,0.7149625000000001,-0.0116355,0.156636,0.49929250000000003,0.045451500000000006,0.261156,0.7273225,0.021591500000000003,-0.28473400000000004,0.9313425,-0.0586425,0.29063599999999995,0.9354325,-0.019894499999999996,-0.06813,9.349999999999983e-05,3.150000000000375e-05,0.06813,-9.35000000000007e-05,-3.149999999999681e-05,-0.118834,-0.3394075,0.0323335,0.10694599999999999,-0.3391675,0.0438875,-0.125184,-0.6767375,0.0857685,0.130686,-0.6457775,0.0854565
2,0.019978000000000003,0.7058495,0.021392,-0.144103,0.5027195,0.032862,-0.239943,0.7178994999999999,-0.012172000000000002,0.156357,0.49904950000000003,0.045236,0.261127,0.7279395,0.021276999999999997,-0.282763,0.9283195,-0.060895,0.290657,0.9362094999999999,-0.020415000000000003,-0.068046,6.950000000000012e-05,0.0001810000000000006,0.068046,-6.950000000000012e-05,-0.0001810000000000006,-0.119033,-0.3393005,0.032389,0.10699700000000001,-0.3390605,0.044157,-0.12826300000000002,-0.6636405000000001,0.087228,0.130537,-0.6455005,0.085308
3,0.020087499999999998,0.7056795,0.020757499999999998,-0.1446405,0.5024795,0.0326735,-0.2402505,0.7193495000000001,-0.0129815,0.1562695,0.4987795,0.0451675,0.26126950000000004,0.7290595000000001,0.021076499999999998,-0.2822705,0.9282395,-0.0616935,0.2903395,0.9360395,-0.0207785,-0.0681205,5.149999999999946e-05,9.549999999999836e-05,0.0681205,-5.150000000000033e-05,-9.549999999999836e-05,-0.1191905,-0.33923050000000005,0.0325885,0.1071495,-0.33905050000000003,0.0442805,-0.12872050000000002,-0.6719605,0.08820449999999999,0.1304495,-0.6446405,0.0852725
4,0.020443999999999997,0.7060059999999999,0.019498500000000002,-0.14524099999999998,0.5020359999999999,0.031414500000000005,-0.240301,0.720706,-0.0148555,0.156159,0.49847600000000003,0.0437265,0.26103899999999997,0.730436,0.0193645,-0.28099100000000005,0.9269259999999999,-0.06438050000000001,0.290549,0.9371759999999999,-0.022461499999999995,-0.06819700000000001,-7.200000000000002e-05,0.0007775000000000004,0.06819700000000001,7.200000000000002e-05,-0.0007775000000000004,-0.11916099999999999,-0.337974,0.0330345,0.107289,-0.338704,0.0433035,-0.132731,-0.648904,0.0883125,0.130709,-0.643904,0.0843145
5,0.0206325,0.7061445,0.018458499999999996,-0.1453375,0.5019745,0.0303985,-0.2401575,0.7210145,-0.015906500000000004,0.1562925,0.49835450000000003,0.0426775,0.2611925,0.7315145,0.017745499999999997,-0.2802675,0.9267544999999999,-0.0662655,0.2908425,0.9372245,-0.024184500000000005,-0.0682635,-0.00010549999999999969,0.0004844999999999988,0.0682635,0.00010549999999999969,-0.0004845000000000023,-0.1192275,-0.3378655,0.032709499999999996,0.1074425,-0.3385855,0.0423975,-0.1328075,-0.6487455000000001,0.0872645,0.1309925,-0.6440855000000001,0.08339150000000001
6,0.020874000000000004,0.705959,0.017077000000000002,-0.14528799999999997,0.501659,0.029163,-0.23913800000000002,0.719609,-0.017085000000000003,0.15660200000000002,0.49801900000000004,0.041398,0.26140199999999997,0.731789,0.016017,-0.279638,0.926339,-0.068266,0.290892,0.936569,-0.025632000000000002,-0.068272,-0.00021000000000000012,-3.600000000000131e-05,0.068272,0.00021000000000000012,3.600000000000131e-05,-0.119818,-0.338001,0.033111,0.10762200000000001,-0.338711,0.041139999999999996,-0.133818,-0.6460009999999999,0.08560999999999999,0.131222,-0.644281,0.082054
7,0.020881000000000004,0.706198,0.0152155,-0.144993,0.501448,0.0272705,-0.237563,0.7197779999999999,-0.018187500000000002,0.156937,0.497758,0.0392495,0.26045700000000005,0.7334679999999999,0.014612499999999999,-0.278753,0.927128,-0.0683695,0.29097700000000004,0.935228,-0.027152500000000003,-0.068294,-0.00010500000000000006,0.0005124999999999991,0.068294,0.00010500000000000006,-0.0005124999999999991,-0.11991299999999999,-0.338332,0.0328045,0.107577,-0.338472,0.0403975,-0.132323,-0.6479320000000001,0.08370849999999999,0.131917,-0.6441920000000001,0.0803895
8,0.02092,0.7063655000000001,0.013995,-0.145222,0.5013355,0.026165,-0.236952,0.7198755,-0.019110000000000002,0.156978,0.4975555,0.037954,0.26039799999999996,0.7344055,0.013266000000000002,-0.27790200000000004,0.9270255000000001,-0.06969700000000001,0.291018,0.9350655000000001,-0.028497,-0.06831000000000001,-0.00014750000000000006,0.0006330000000000016,0.06831000000000001,0.00014750000000000006,-0.0006329999999999981,-0.12013199999999999,-0.3382445,0.032817,0.10760800000000001,-0.3383445,0.039684,-0.132822,-0.6457744999999999,0.08264099999999999,0.132108,-0.6440944999999999,0.079392
9,0.020991,0.706535,0.012895,-0.145408,0.501235,0.025196,-0.236368,0.719975,-0.019729,0.157052,0.497405,0.036742,0.260062,0.735195,0.012046,-0.277238,0.926925,-0.070768,0.291062,0.934905,-0.029653000000000002,-0.06836,-0.00018899999999999993,0.0007090000000000013,0.06836,0.00018899999999999993,-0.0007090000000000013,-0.120338,-0.338305,0.032771,0.107662,-0.338155,0.039047,-0.132888,-0.645225,0.081617,0.132172,-0.644195,0.078499
10,0.0210645,0.706721,0.012010999999999999,-0.1455135,0.501131,0.024342999999999997,-0.2357135,0.720051,-0.020005000000000002,0.1572065,0.497231,0.03562,0.2596865,0.735841,0.010918999999999998,-0.2765935,0.927111,-0.071044,0.2910765,0.9346409999999999,-0.030544,-0.0684215,-0.00021900000000000044,0.000839999999999997,0.0684215,0.00021899999999999958,-0.0008400000000000005,-0.1204935,-0.338369,0.032756999999999994,0.10778650000000001,-0.337989,0.038485,-0.1328435,-0.644699,0.080648,0.1323165,-0.644299,0.077683
11,0.021111500000000002,0.70694,0.011332000000000002,-0.1456075,0.50107,0.023690000000000003,-0.23526750000000002,0.72045,-0.019812,0.1573825,0.49710000000000004,0.034648,0.2592125,0.73649,0.009981000000000002,-0.2760375,0.9275300000000001,-0.070793,0.2910825,0.93445,-0.031218,-0.06846949999999999,-0.0002360000000000001,0.0010369999999999997,0.06846949999999999,0.0002360000000000001,-0.0010369999999999997,-0.1205775,-0.33842,0.032742,0.10790250000000001,-0.3379,0.038061,-0.1326275,-0.6444799999999999,0.079842,0.1325325,-0.6443599999999999,0.077017
12,0.021013499999999997,0.7071919999999999,0.010883,-0.1456425,0.501112,0.023261,-0.2348325,0.720842,-0.019135000000000003,0.15751749999999998,0.49690199999999995,0.033868999999999996,0.25875750000000003,0.737072,0.009263,-0.2755725,0.9285019999999999,-0.06957200000000001,0.2910275,0.934222,-0.031628,-0.0685095,-0.0002500000000000002,0.0012309999999999995,0.0685095,0.00024999999999999935,-0.0012309999999999995,-0.1205925,-0.338438,0.03274,0.1080175,-0.337948,0.037784,-0.1323625,-0.644418,0.079241,0.13274750000000002,-0.644838,0.076527
13,0.020830500000000002,0.7075119999999999,0.010796,-0.1456895,0.501232,0.02318,-0.2346295,0.721302,-0.017972000000000002,0.1576205,0.49673199999999995,0.033435,0.2583205,0.737252,0.00894,-0.2752495,0.929682,-0.067648,0.2909105,0.934142,-0.03161,-0.0685525,-0.0002500000000000002,0.0014400000000000003,0.0685525,0.00024999999999999935,-0.0014400000000000003,-0.1205195,-0.33841800000000005,0.032692,0.1081305,-0.337948,0.037649,-0.13212949999999998,-0.644298,0.078924,0.1329305,-0.6452180000000001,0.076288
14,0.0205425,0.7077019999999999,0.010897000000000002,-0.14577649999999998,0.501402,0.023256000000000002,-0.2344365,0.7221219999999999,-0.016250999999999995,0.1576435,0.496502,0.033015,0.2579535,0.737402,0.008659000000000002,-0.2750465,0.931132,-0.064886,0.2908035,0.934142,-0.031518,-0.0685875,-0.0002500000000000002,0.0016470000000000026,0.0685875,0.00024999999999999935,-0.0016469999999999992,-0.1204265,-0.33841800000000005,0.03273,0.1082435,-0.337948,0.037574,-0.13184649999999998,-0.644178,0.078694,0.1331135,-0.645578,0.07614699999999999
15,0.020174,0.707982,0.011128,-0.145857,0.501562,0.02341,-0.234257,0.7230219999999999,-0.014268,0.157643,0.49624199999999996,0.032637,0.257673,0.737472,0.008380000000000002,-0.274897,0.932682,-0.06171,0.290693,0.934142,-0.031369999999999995,-0.06862099999999999,-0.0002500000000000002,0.0018700000000000001,0.06862099999999999,0.00024999999999999935,-0.0018700000000000001,-0.120307,-0.338388,0.032813,0.108373,-0.337948,0.037476,-0.131547,-0.644128,0.078527,0.133333,-0.645838,0.076046
16,0.0198105,0.7082795000000001,0.01138,-0.1459415,0.5017695,0.023574,-0.23417149999999998,0.7239995,-0.012228,0.15764850000000002,0.4960095,0.032243,0.2574485,0.7375595,0.00812,-0.2747515,0.9345095,-0.058223,0.2905685,0.9341695000000001,-0.031222000000000003,-0.0686485,-0.0002694999999999998,0.002124000000000001,0.0686485,0.0002694999999999998,-0.002124000000000001,-0.1201615,-0.3383505,0.032848,0.1084985,-0.3379805,0.037357,-0.1312815,-0.6440805,0.078369,0.13349850000000002,-0.6461405,0.075931
17,0.019407499999999998,0.7086915,0.011677,-0.1459765,0.5019715,0.02373,-0.23423650000000001,0.7251515000000001,-0.010263999999999999,0.1576435,0.49576149999999997,0.03185,0.2573335,0.7376415000000001,0.007867,-0.2746265,0.9363515,-0.054859,0.29044349999999997,0.9342115000000001,-0.031148000000000002,-0.0686785,-0.0002945000000000005,0.0023710000000000016,0.0686785,0.0002944999999999996,-0.002370999999999998,-0.1199865,-0.3383185,0.032779,0.1086535,-0.3380285,0.03726,-0.1310165,-0.6440385,0.078178,0.1336535,-0.6463985,0.07575599999999999
18,0.019008999999999998,0.7093839999999999,0.012028,-0.146001,0.5022139999999999,0.023897,-0.234441,0.726414,-0.008242,0.157609,0.495524,0.03147,0.257289,0.737744,0.007641,-0.274571,0.9382039999999999,-0.051497,0.29034899999999997,0.9343739999999999,-0.031105999999999998,-0.06869800000000001,-0.00031400000000000004,0.002586999999999999,0.06869800000000001,0.00031400000000000004,-0.002586999999999999,-0.11980099999999999,-0.338246,0.032716999999999996,0.10883899999999999,-0.338056,0.037195,-0.130761,-0.643996,0.07797,0.133789,-0.6466160000000001,0.075581
19,0.0186175,0.710109,0.012292,-0.14602749999999998,0.502489,0.024069,-0.23488750000000003,0.7278490000000001,-0.006251,0.1575725,0.49532899999999996,0.031089,0.2573125,0.737869,0.0074129999999999995,-0.2746875,0.940069,-0.048165000000000006,0.2903025,0.9345490000000001,-0.031175,-0.0687135,-0.00033799999999999976,0.002794999999999999,0.0687135,0.00033799999999999976,-0.002794999999999999,-0.1196375,-0.33815100000000003,0.032638,0.1090025,-0.33809100000000003,0.037137,-0.1305075,-0.643921,0.077771,0.13389250000000003,-0.646841,0.07541500000000001
20,0.018207499999999998,0.710865,0.0126525,-0.1460225,0.502725,0.0242185,-0.2354425,0.729035,-0.0044424999999999985,0.15749749999999998,0.495065,0.0306965,0.2574575,0.738035,0.0071885000000000004,-0.2751125,0.941805,-0.0449905,0.29034750000000004,0.934745,-0.0312645,-0.0687325,-0.00036800000000000027,0.0030285,0.0687325,0.00036800000000000027,-0.0030285,-0.11950250000000001,-0.338025,0.0325525,0.1091375,-0.338185,0.0371125,-0.1302125,-0.643875,0.07762050000000001,0.1339775,-0.647025,0.0752695
21,0.017842499999999997,0.7116695,0.013095000000000002,-0.1460555,0.5029395,0.024407,-0.23596550000000002,0.7302095,-0.0027449999999999974,0.15743449999999998,0.49488950000000004,0.030373000000000004,0.2575645,0.7381395,0.006982000000000002,-0.2755555,0.9433294999999999,-0.042308,0.2904545,0.9349095,-0.031363999999999996,-0.0687375,-0.0003844999999999994,0.0032660000000000015,0.0687375,0.0003845000000000003,-0.003265999999999998,-0.11939550000000002,-0.33792049999999996,0.032483,0.1092545,-0.33837049999999996,0.037105,-0.1299555,-0.6438005,0.077474,0.1340845,-0.6469305000000001,0.075142
22,0.0175085,0.7126045,0.013670499999999999,-0.14609850000000002,0.5031645,0.0246225,-0.2365085,0.7313445000000001,-0.0012274999999999994,0.1573515,0.4946845,0.0300735,0.2575415,0.7382345,0.006921499999999999,-0.2759885,0.9447345,-0.0397845,0.2905415,0.9350945,-0.0314215,-0.0687335,-0.0004035000000000002,0.0035024999999999987,0.0687335,0.0004035000000000002,-0.003502500000000002,-0.11928849999999999,-0.33779549999999997,0.0324355,0.10935149999999999,-0.3385555,0.0371255,-0.1297085,-0.6436755,0.0773555,0.1341715,-0.6468055,0.0750445
23,0.017215,0.7134929999999999,0.014231,-0.146103,0.503343,0.024777,-0.236833,0.732213,-0.0001270000000000021,0.157307,0.494513,0.029849,0.257527,0.738353,0.006825999999999999,-0.276323,0.9458529999999999,-0.037903000000000006,0.290607,0.935313,-0.031397999999999995,-0.068713,-0.00040700000000000024,0.003712,0.068713,0.00040700000000000024,-0.003712,-0.119153,-0.33765700000000004,0.032371,0.10943699999999999,-0.338627,0.037114999999999995,-0.129493,-0.643607,0.077276,0.134237,-0.646897,0.074951
24,0.0170065,0.7143550000000001,0.014763999999999998,-0.1461215,0.503525,0.024943999999999997,-0.2371015,0.7329950000000001,0.0008709999999999968,0.1572685,0.494365,0.029661999999999997,0.2575685,0.738445,0.006750999999999997,-0.2765115,0.9469550000000001,-0.036283,0.2906785,0.935535,-0.031347,-0.0686875,-0.0004090000000000005,0.0038899999999999976,0.0686875,0.00040899999999999964,-0.003890000000000001,-0.1189815,-0.33753500000000003,0.032339,0.1095185,-0.338715,0.037086999999999995,-0.1292915,-0.6435749999999999,0.07721,0.1343685,-0.646685,0.074877
25,0.016767499999999998,0.7152015,0.015361000000000001,-0.14612050000000001,0.5037315,0.025134000000000004,-0.23729050000000002,0.7337315,0.0018540000000000015,0.15723949999999998,0.4942415,0.029493000000000002,0.2577095,0.7379415,0.0067230000000000015,-0.2765305,0.9478415,-0.034811,0.2908395,0.9358115,-0.031096,-0.06866749999999999,-0.00041149999999999954,0.004030000000000002,0.06866749999999999,0.0004115000000000004,-0.004029999999999999,-0.1188205,-0.3373985,0.03233,0.1095895,-0.33876850000000003,0.037074,-0.12909050000000002,-0.6435185,0.077171,0.13450949999999998,-0.6464285,0.074821
26,0.016576499999999997,0.7159380000000001,0.015942,-0.14612250000000002,0.503918,0.025305,-0.2373925,0.734268,0.002732,0.1572075,0.494108,0.029339,0.2578575,0.737498,0.0067420000000000015,-0.2765025,0.948788,-0.033435999999999994,0.2909875,0.936118,-0.030792999999999997,-0.0686405,-0.00041499999999999957,0.004152000000000001,0.0686405,0.00041500000000000044,-0.0041519999999999994,-0.1186825,-0.33727199999999996,0.032341,0.1096675,-0.338802,0.037059,-0.1289025,-0.643482,0.077128,0.1346175,-0.6462019999999999,0.074731
27,0.016423999999999994,0.7163579999999999,0.016467000000000002,-0.14612,0.504058,0.025458,-0.23737,0.734668,0.0034590000000000003,0.15717,0.493948,0.029152,0.25798,0.7371679999999999,0.006766000000000001,-0.27648,0.949578,-0.032264,0.29112,0.936378,-0.030520000000000002,-0.068599,-0.00042699999999999943,0.004242000000000001,0.068599,0.0004270000000000003,-0.004241999999999999,-0.11856,-0.337242,0.032341,0.10973,-0.338892,0.03702,-0.12874,-0.643482,0.077047,0.13468,-0.646062,0.074602
28,0.016280500000000003,0.7167705000000001,0.016961,-0.1461145,0.5041905,0.025629,-0.2373445,0.7351805,0.0041860000000000005,0.1570955,0.4937505,0.028955,0.2581155,0.7370005000000001,0.0068270000000000015,-0.2764645,0.9500705,-0.031319,0.2912055,0.9365905,-0.030218000000000002,-0.0685675,-0.00042650000000000066,0.004345,0.0685675,0.0004264999999999998,-0.004344999999999998,-0.1184645,-0.3372595,0.032319,0.10978550000000001,-0.3389995,0.03695,-0.1286045,-0.6435495,0.076966,0.1347255,-0.6459594999999999,0.07447200000000001
29,0.016159500000000007,0.7170805,0.017379500000000003,-0.14612150000000002,0.5042905,0.0257835,-0.23734149999999998,0.7358005000000001,0.004954500000000001,0.15704849999999998,0.49357049999999997,0.0287815,0.2582285,0.7368605,0.006885500000000001,-0.2764115,0.9505005000000001,-0.030387499999999998,0.2912985,0.9369105000000001,-0.0296955,-0.0685495,-0.00042650000000000066,0.004469500000000001,0.0685495,0.0004264999999999998,-0.004469499999999998,-0.1183815,-0.3373095,0.032266500000000004,0.1098185,-0.3390895,0.0368575,-0.12853150000000002,-0.6436495,0.07682749999999999,0.1347685,-0.6459195,0.0743255
30,0.016069499999999994,0.7173105000000001,0.017745,-0.1461135,0.5043805,0.025890999999999997,-0.23734349999999999,0.7364105000000001,0.0056419999999999994,0.15697650000000002,0.4933905,0.028601,0.25832649999999996,0.7367805000000001,0.0070550000000000005,-0.2760635,0.9507905000000001,-0.029261,0.2913765,0.9372605,-0.02913,-0.0685375,-0.00042650000000000066,0.004607,0.0685375,0.0004264999999999998,-0.004607,-0.1183235,-0.3373895,0.032227,0.1098465,-0.33918950000000003,0.036781,-0.12847350000000002,-0.6437394999999999,0.076675,0.13479649999999999,-0.6458895,0.074189
31,0.0159595,0.7176405,0.0178865,-0.14611449999999998,0.5045305,0.0259295,-0.2371545,0.7370505,0.006321499999999999,0.1569155,0.4932605,0.0283175,0.2584055,0.7367205,0.007176499999999999,-0.2754745,0.9511105000000001,-0.0280435,0.2914155,0.9376205000000001,-0.0286555,-0.0685345,-0.00042650000000000066,0.0047925,0.0685345,0.0004264999999999998,-0.004792500000000002,-0.11825450000000001,-0.3374795,0.0320845,0.1098555,-0.3392795,0.0366175,-0.1284245,-0.6438395,0.0763885,0.1348055,-0.6458495,0.0739225
32,0.015871000000000003,0.7179479999999999,0.017910000000000002,-0.146131,0.504678,0.025895,-0.236931,0.737638,0.006898000000000001,0.156839,0.493138,0.027963000000000002,0.258459,0.7367079999999999,0.0072510000000000005,-0.274841,0.9514279999999999,-0.02685,0.29139899999999996,0.937958,-0.028295,-0.068525,-0.0004220000000000005,0.0049770000000000005,0.068525,0.00042199999999999963,-0.004976999999999999,-0.118191,-0.337572,0.031898,0.109839,-0.339402,0.036376000000000006,-0.128371,-0.644032,0.076037,0.134789,-0.645972,0.073517
33,0.015778,0.718172,0.017857500000000002,-0.146145,0.504872,0.0258105,-0.236715,0.738392,0.007329500000000001,0.156765,0.493082,0.0274905,0.258475,0.736652,0.0072735000000000005,-0.274165,0.951622,-0.025813499999999996,0.291365,0.938252,-0.0280515,-0.068506,-0.0004029999999999997,0.0052035000000000015,0.068506,0.0004030000000000006,-0.0052035,-0.118145,-0.33771799999999996,0.0315905,0.109815,-0.339508,0.0360375,-0.128325,-0.644258,0.0755595,0.134775,-0.646178,0.07298750000000001
34,0.015712999999999998,0.7184385,0.017649,-0.14615699999999998,0.5050485,0.025575,-0.236527,0.7392085,0.007552000000000001,0.15668300000000002,0.4930185,0.026886,0.258453,0.7366085,0.0070220000000000005,-0.273507,0.9517685,-0.024945999999999996,0.291333,0.9384685,-0.028121,-0.068489,-0.00038150000000000076,0.0053690000000000005,0.068489,0.0003814999999999999,-0.005368999999999999,-0.11809700000000001,-0.3378715,0.031157,0.10978299999999999,-0.33962149999999997,0.035569,-0.128277,-0.6444915,0.07494200000000001,0.134743,-0.6464814999999999,0.072322
35,0.015636500000000005,0.7186845000000001,0.0172715,-0.14616849999999998,0.5051945,0.0252195,-0.2363785,0.7400145,0.0075845,0.15658149999999998,0.4929145,0.0261465,0.2583215,0.7365045,0.006597500000000001,-0.2730085,0.9518445,-0.0242065,0.2912915,0.9385845,-0.028379500000000002,-0.0684805,-0.00037350000000000057,0.005582500000000001,0.0684805,0.0003734999999999997,-0.005582500000000001,-0.1180485,-0.3380655,0.030581499999999998,0.1097615,-0.3397655,0.034951499999999996,-0.1282585,-0.6447655,0.0741535,0.1346715,-0.6467855,0.0714555
36,0.015545499999999999,0.7189045000000001,0.016876,-0.14572749999999998,0.5057345,0.025507,-0.2362775,0.7407145,0.0075099999999999984,0.15647250000000001,0.4927245,0.025403,0.2581425,0.7363545,0.006020999999999999,-0.2726775,0.9520045,-0.023572,0.2912225,0.9386245,-0.028765000000000002,-0.0684785,-0.00036950000000000004,0.005769999999999999,0.0684785,0.00036950000000000004,-0.005770000000000001,-0.1179975,-0.3385755,0.029924,0.10974249999999999,-0.3400555,0.034199999999999994,-0.1282375,-0.6451555,0.07322,0.1346025,-0.6471755,0.07044
37,0.015441000000000002,0.719106,0.016438,-0.145194,0.506256,0.0258,-0.236194,0.741226,0.007261000000000001,0.156376,0.49252599999999996,0.024646,0.258096,0.736946,0.0054030000000000016,-0.272524,0.9521660000000001,-0.023115999999999998,0.29108599999999996,0.938606,-0.029242999999999998,-0.068482,-0.00036700000000000014,0.005939000000000001,0.068482,0.00036700000000000014,-0.005939,-0.117944,-0.339104,0.029242,0.109696,-0.34028400000000003,0.033327999999999997,-0.128214,-0.6455839999999999,0.072203,0.134536,-0.647604,0.06936600000000001
38,0.015285,0.7191985,0.0158205,-0.144533,0.5073985,0.0266295,-0.23616299999999998,0.7415784999999999,0.0068685000000000005,0.156227,0.4923885,0.0238035,0.258037,0.7373384999999999,0.0046155,-0.272523,0.9523784999999999,-0.022844499999999997,0.29096700000000003,0.9383085,-0.030218500000000002,-0.06848699999999999,-0.0003375000000000001,0.0061435000000000005,0.06848699999999999,0.0003375000000000001,-0.0061435,-0.117863,-0.3397815,0.0283405,0.10966700000000001,-0.3406715,0.0322065,-0.12817299999999998,-0.6463215000000001,0.0708635,0.134447,-0.6479915,0.06807250000000001
39,0.015023500000000004,0.719334,0.0149695,-0.14388849999999997,0.508694,0.0273155,-0.23622849999999998,0.7418640000000001,0.006055499999999999,0.15601150000000003,0.492444,0.0228685,0.2578815,0.7375240000000001,0.003406499999999999,-0.2726085,0.952624,-0.023319500000000003,0.2908215,0.937914,-0.0315955,-0.06849949999999999,-0.0003039999999999996,0.006275499999999999,0.06849949999999999,0.000304,-0.0062755,-0.11778849999999999,-0.34051600000000004,0.0271365,0.10970150000000001,-0.34129600000000004,0.0307955,-0.1281385,-0.647156,0.0692035,0.1343415,-0.648616,0.0663635
40,0.0147145,0.7193345000000001,0.014024499999999999,-0.14325949999999998,0.5098745,0.0278865,-0.23631950000000002,0.7420645,0.0049475,0.1557805,0.4926345,0.0219215,0.2575905,0.7374645000000001,0.0020334999999999997,-0.2726995,0.9527145,-0.0241855,0.2906405,0.9374145,-0.033050500000000003,-0.0685175,-0.00027849999999999967,0.0063675,0.0685175,0.0002785000000000001,-0.006367500000000002,-0.1177295,-0.34129550000000003,0.0258355,0.1097505,-0.3421455,0.0293455,-0.12809949999999998,-0.6480855,0.0673775,0.1342005,-0.6493255,0.06438350000000001
41,0.014341499999999997,0.7192575,0.012796,-0.1426815,0.5109975,0.028198,-0.2364515,0.7421675,0.003476,0.1554985,0.49293750000000003,0.020759,0.2571785,0.7373474999999999,0.00034,-0.2728215,0.9525475,-0.025620000000000004,0.29036850000000003,0.9368875,-0.034741,-0.06854550000000001,-0.00027150000000000004,0.006321,0.06854550000000001,0.00027150000000000004,-0.006321,-0.1177115,-0.3421625,0.024225999999999998,0.1097785,-0.3431425,0.027639999999999998,-0.1281215,-0.6490325,0.065299,0.1339585,-0.6510025,0.061804
42,0.0139175,0.7192350000000001,0.011368,-0.1421505,0.512015,0.028352,-0.23660050000000002,0.742115,0.0017220000000000004,0.1551795,0.49334500000000003,0.019540000000000002,0.2566195,0.737155,-0.0014229999999999998,-0.2732305,0.9521350000000001,-0.02738,0.2900095,0.936365,-0.036499000000000004,-0.06857550000000001,-0.0002990000000000002,0.006240000000000001,0.06857550000000001,0.0002989999999999998,-0.00624,-0.1177205,-0.343045,0.022527,0.10978950000000001,-0.344265,0.025702,-0.1280405,-0.650865,0.06282900000000001,0.1336095,-0.653005,0.059029
43,0.013389000000000002,0.7190185,0.009572,-0.141624,0.5128785,0.02819,-0.236904,0.7418085000000001,-0.0003279999999999993,0.154876,0.4936685,0.018019,0.255996,0.7368685,-0.0034799999999999996,-0.27397400000000005,0.9514885000000001,-0.029439,0.28954599999999997,0.9356085000000001,-0.038904,-0.068591,-0.0003404999999999999,0.006110000000000001,0.068591,0.0003405000000000001,-0.00611,-0.117734,-0.3440915,0.020483,0.109816,-0.3456015,0.023372999999999998,-0.127914,-0.6530914999999999,0.059962,0.132636,-0.6573015,0.055564
44,0.012832000000000003,0.7187405,0.007195,-0.141135,0.5137205,0.02763,-0.237315,0.7413605000000001,-0.0027419999999999996,0.154555,0.4940305,0.016053,0.255255,0.7364605000000001,-0.005998,-0.27491499999999996,0.9507205000000001,-0.031863,0.288995,0.9348405000000001,-0.041885,-0.068609,-0.0003905,0.0058,0.068609,0.0003905,-0.0058,-0.117755,-0.3455495,0.018077,0.10985500000000001,-0.34706950000000003,0.020659999999999998,-0.127795,-0.6553494999999999,0.05669,0.13161499999999998,-0.6616394999999999,0.051789
45,0.012182999999999998,0.7183775,0.0042565,-0.141335,0.5134275,0.0247725,-0.23795500000000003,0.7408374999999999,-0.0057295,0.15418500000000002,0.4944075,0.0133885,0.25442499999999996,0.7358675,-0.009173500000000001,-0.276085,0.9501275,-0.0350105,0.288315,0.9342374999999999,-0.0455785,-0.068623,-0.0004225,0.005464500000000001,0.068623,0.0004225,-0.005464500000000001,-0.11783500000000001,-0.34683250000000004,0.015150499999999999,0.109875,-0.3483925,0.0173945,-0.127195,-0.6599125,0.0527655,0.130525,-0.6658725,0.0474785
46,0.0114905,0.7179325,0.0009600000000000008,-0.1415405,0.5129825,0.021485999999999998,-0.23874050000000002,0.7403924999999999,-0.009472999999999999,0.15367950000000002,0.4948125,0.010276,0.2534595,0.7354225,-0.012976999999999999,-0.27754049999999997,0.9496825,-0.039315,0.28761950000000003,0.9337624999999999,-0.050095,-0.0686355,-0.00044550000000000004,0.005104,0.0686355,0.0004455,-0.005103999999999999,-0.1179105,-0.3486875,0.011774,0.1099095,-0.3496275,0.013777000000000001,-0.12658049999999998,-0.6646975,0.048467,0.1293895,-0.6699175,0.042823
47,0.010741000000000002,0.7177365,-0.0027374999999999995,-0.141747,0.5127865,0.017800499999999997,-0.23967699999999997,0.7401964999999999,-0.0139855,0.153183,0.4950865,0.0065845,0.252473,0.7352265,-0.0175965,-0.279117,0.9490664999999999,-0.0447365,0.286883,0.9334165,-0.055496500000000004,-0.068647,-0.0004835,0.0048135,0.068647,0.00048350000000000004,-0.0048135,-0.118007,-0.3503835,0.007943500000000001,0.109953,-0.3507135,0.0097425,-0.125977,-0.6693835,0.0438295,0.128243,-0.6741235,0.037670499999999996
48,0.00999,0.717722,-0.006905499999999999,-0.142354,0.5127619999999999,0.0137155,-0.240744,0.7401819999999999,-0.0191975,0.152716,0.49520200000000003,0.0026005000000000004,0.251016,0.7339119999999999,-0.0231305,-0.280854,0.9482919999999999,-0.051067499999999995,0.286116,0.9323319999999999,-0.0616125,-0.06873299999999999,-0.000498,0.0044425,0.06873299999999999,0.000498,-0.004442499999999999,-0.118084,-0.352038,0.0037035,0.11002600000000001,-0.351688,0.005414500000000001,-0.125454,-0.674138,0.0389055,0.127046,-0.678358,0.032275500000000006
49,0.009157999999999994,0.716962,-0.0116645,-0.14299,0.5127619999999999,0.009083500000000001,-0.24187,0.7398619999999999,-0.0254175,0.15228,0.49520200000000003,-0.0018394999999999991,0.24966,0.732092,-0.0296615,-0.28267000000000003,0.947232,-0.0586575,0.28546999999999995,0.930982,-0.0689245,-0.068849,-0.000498,0.003938500000000001,0.068849,0.000498,-0.003938499999999999,-0.11818000000000001,-0.353738,-0.0010074999999999997,0.11016000000000001,-0.352438,0.0007104999999999993,-0.12492,-0.6788580000000001,0.0336045,0.12593000000000001,-0.6826380000000001,0.0265265
50,0.008308999999999999,0.715942,-0.0169665,-0.143836,0.5117919999999999,0.0033455000000000013,-0.242916,0.7389519999999999,-0.0323985,0.151944,0.49520200000000003,-0.0064075,0.248624,0.730132,-0.0368415,-0.284446,0.945472,-0.0673655,0.285184,0.929222,-0.0771465,-0.06895,-0.000498,0.0037015,0.06895,0.000498,-0.0037015,-0.118256,-0.355398,-0.0058475,0.110454,-0.353048,-0.0040525000000000005,-0.124326,-0.683558,0.028204499999999997,0.125074,-0.6860780000000001,0.020933499999999997
51,0.007568500000000004,0.7146355,-0.023166499999999996,-0.1445485,0.5106455,-0.0032314999999999983,-0.24380849999999998,0.7376955,-0.0404695,0.15167150000000001,0.49523550000000005,-0.011884499999999997,0.2480015,0.7276155,-0.0451725,-0.28618849999999996,0.9432455,-0.0773845,0.2852215,0.9269655,-0.0867665,-0.0690065,-0.0005315000000000001,0.003540500000000002,0.0690065,0.0005315,-0.0035404999999999985,-0.1182085,-0.35645449999999995,-0.011311499999999997,0.11091150000000001,-0.35345449999999995,-0.009331499999999996,-0.1237885,-0.6874445,0.022447500000000002,0.1244515,-0.6892045,0.014783500000000005
52,0.006866499999999999,0.712734,-0.0301425,-0.1452455,0.5093840000000001,-0.010224499999999997,-0.2445955,0.736234,-0.0492105,0.1514645,0.49531400000000003,-0.0177265,0.2476545,0.725294,-0.054070499999999994,-0.2877655,0.940854,-0.0882805,0.2854345,0.9239740000000001,-0.09727150000000001,-0.0690055,-0.0005909999999999999,0.0035034999999999997,0.0690055,0.0005909999999999999,-0.0035034999999999997,-0.11808550000000001,-0.35720599999999997,-0.017135499999999998,0.1114745,-0.35348599999999997,-0.014848499999999997,-0.1232655,-0.690896,0.016474500000000003,0.1245445,-0.690016,0.008668500000000003
53,0.0061185000000000015,0.7105560000000001,-0.037429500000000004,-0.1458325,0.508026,-0.0173975,-0.2451625,0.734606,-0.058508500000000005,0.15125750000000002,0.49528599999999995,-0.0236245,0.2474975,0.7230260000000001,-0.06363350000000001,-0.2891325,0.938006,-0.1003115,0.2856775,0.921806,-0.1086045,-0.0690045,-0.000614,0.003447499999999999,0.0690045,0.000614,-0.003447499999999999,-0.1179625,-0.35734400000000005,-0.0230285,0.11203750000000001,-0.353204,-0.0204125,-0.1227925,-0.694144,0.0105385,0.1246775,-0.690504,0.0024894999999999987
54,0.005447000000000002,0.7081719999999999,-0.044923,-0.14629899999999998,0.5067219999999999,-0.024598,-0.245439,0.732772,-0.0682,0.15108100000000002,0.495102,-0.029586999999999995,0.247541,0.7207119999999999,-0.073659,-0.29028899999999996,0.9350419999999999,-0.112595,0.28597100000000003,0.919272,-0.12100999999999999,-0.069044,-0.000601,0.003380000000000001,0.069044,0.0006010000000000001,-0.003380000000000001,-0.11790899999999999,-0.356978,-0.029072999999999998,0.11266100000000001,-0.352678,-0.025948,-0.122639,-0.694648,0.004734000000000002,0.12485099999999999,-0.690698,-0.0036500000000000005
55,0.004842999999999998,0.7055235,-0.0534875,-0.14668,0.5055735,-0.0323985,-0.24543,0.7296935,-0.0788645,0.15096,0.4946635,-0.0365075,0.24743,0.7189435,-0.0847855,-0.29107,0.9319235,-0.1261265,0.28648,0.9172335,-0.1344185,-0.069163,-0.0005604999999999998,0.0033834999999999976,0.069163,0.0005605000000000002,-0.0033834999999999976,-0.11782000000000001,-0.3563265,-0.0356205,0.11346,-0.3516365,-0.032134499999999996,-0.12239,-0.6940965,-0.0016105000000000008,0.12508999999999998,-0.6902165,-0.010424500000000003
56,0.0042275,0.7030335,-0.062417,-0.1470335,0.5044735,-0.040403999999999995,-0.2452535,0.7261635,-0.08987300000000001,0.1508665,0.49373350000000005,-0.043698,0.2476065,0.7171434999999999,-0.09628400000000001,-0.29154349999999996,0.9288335,-0.140435,0.2870265,0.9155535,-0.149118,-0.0693345,-0.0004904999999999996,0.0032109999999999986,0.0693345,0.0004905,-0.0032109999999999986,-0.11772350000000001,-0.3550665,-0.042253,0.11434649999999999,-0.3499365,-0.038513,-0.1220935,-0.6926365,-0.008032999999999998,0.1253965,-0.6887765,-0.017208
57,0.0036890000000000035,0.7004290000000001,-0.071738,-0.146779,0.5035390000000001,-0.047545,-0.244759,0.7223390000000001,-0.101321,0.150741,0.492569,-0.051041,0.247761,0.716809,-0.107844,-0.291709,0.9257390000000001,-0.155161,0.28754100000000005,0.912949,-0.166059,-0.069494,-0.0004330000000000002,0.003238999999999999,0.069494,0.0004330000000000002,-0.003238999999999999,-0.11756899999999999,-0.353441,-0.04892,0.115341,-0.347851,-0.045015,-0.12193899999999999,-0.690511,-0.014559000000000002,0.12593100000000002,-0.6867709999999999,-0.024001
58,0.0030825000000000036,0.6979544999999999,-0.0852445,-0.14623150000000001,0.5015745,-0.05747650000000001,-0.24410149999999997,0.7175444999999999,-0.1174275,0.1503985,0.4904845,-0.0613355,0.2480885,0.7127644999999999,-0.1223925,-0.2916915,0.9222845,-0.1772065,0.2882985,0.9096344999999999,-0.1860965,-0.0697305,-0.00033350000000000046,0.0033704999999999985,0.0697305,0.00033350000000000046,-0.0033704999999999985,-0.1178115,-0.35094549999999997,-0.0586665,0.1169985,-0.34422549999999996,-0.0546465,-0.1218715,-0.6854455,-0.023832500000000006,0.1265685,-0.6816555000000001,-0.033108500000000006
59,0.0029975000000000028,0.6946885,-0.0990955,-0.1456305,0.4990985,-0.06764350000000001,-0.2434905,0.7123285,-0.1343805,0.1500795,0.4885585,-0.0718145,0.2487795,0.7082585,-0.1369305,-0.29151049999999995,0.9188785,-0.20005250000000002,0.2892095,0.9025285000000001,-0.20612250000000001,-0.0699835,-0.00030950000000000075,0.003418499999999991,0.0699835,0.0003094999999999973,-0.003418500000000005,-0.1181005,-0.3482315,-0.06882350000000001,0.1188495,-0.3404915,-0.06489450000000001,-0.1217905,-0.6795515,-0.0333625,0.1273295,-0.6757415,-0.042480500000000004
60,0.0029389999999999954,0.6913185000000001,-0.1124465,-0.144997,0.49712850000000003,-0.0773595,-0.242707,0.7066285,-0.1509185,0.14988300000000002,0.4864385,-0.0818565,0.250033,0.7029985,-0.1510595,-0.291117,0.9158385,-0.2225845,0.290283,0.8951385000000001,-0.2253645,-0.070165,-0.00023350000000000107,0.003415500000000002,0.070165,0.0002334999999999976,-0.003415500000000002,-0.11849699999999999,-0.3456715,-0.0788055,0.12087300000000001,-0.3367315,-0.0750965,-0.121647,-0.6730115,-0.042525499999999994,0.128193,-0.6691715,-0.0515695
61,0.0035940000000000017,0.6883295,-0.12573250000000002,-0.144297,0.4956995,-0.08680950000000001,-0.241837,0.7007495,-0.16733550000000003,0.149653,0.4844195,-0.09171050000000001,0.25128300000000003,0.6974095,-0.1651255,-0.290507,0.9123995,-0.2461305,0.291553,0.8876495000000001,-0.2436905,-0.070302,-0.00010349999999999943,0.003307499999999991,0.070302,0.00010349999999999943,-0.003307500000000005,-0.119037,-0.3403705,-0.08881750000000001,0.123063,-0.3317605,-0.08537850000000001,-0.12148700000000001,-0.6660005,-0.05136050000000001,0.128833,-0.6620404999999999,-0.06064950000000001
62,0.004325999999999996,0.684836,-0.1404425,-0.143069,0.491676,-0.0988465,-0.240859,0.695406,-0.1864335,0.148611,0.480816,-0.1039995,0.252511,0.693206,-0.1815785,-0.289539,0.911326,-0.2724105,0.292981,0.881656,-0.2652905,-0.070437,-1.9999999999999185e-05,0.0032594999999999985,0.070437,1.9999999999999185e-05,-0.0032594999999999985,-0.12006900000000001,-0.33127399999999996,-0.1010705,0.125461,-0.322774,-0.09758549999999999,-0.12116900000000001,-0.654934,-0.061628499999999996,0.129471,-0.650814,-0.0712035
63,0.005086000000000002,0.6804715,-0.158657,-0.14173399999999997,0.4878615,-0.114325,-0.239794,0.6894215,-0.208682,0.14756599999999997,0.4772015,-0.119794,0.253786,0.6891214999999999,-0.20163399999999998,-0.28854399999999997,0.9051615,-0.301885,0.294406,0.8756115,-0.289655,-0.070619,7.950000000000318e-05,0.003275,0.070619,-7.949999999999624e-05,-0.003275,-0.121024,-0.3218385,-0.116581,0.127936,-0.3133385,-0.113398,-0.12072399999999998,-0.6434185,-0.07517599999999999,0.13014599999999998,-0.6392285,-0.084958
64,0.006992499999999994,0.67391,-0.177589,-0.13732750000000002,0.48249000000000003,-0.130959,-0.2372275,0.6822600000000001,-0.231205,0.1478025,0.47156000000000003,-0.136231,0.2564025,0.68337,-0.224108,-0.2863875,0.8993800000000001,-0.331945,0.2969625,0.87137,-0.317835,-0.0712275,0.0005640000000000089,0.0027649999999999897,0.0712275,-0.0005639999999999951,-0.0027649999999999897,-0.1219375,-0.30859,-0.135891,0.1320825,-0.29999,-0.132429,-0.11905750000000001,-0.62877,-0.089686,0.1319025,-0.62469,-0.0996
65,0.007915500000000006,0.6672685,-0.19554899999999997,-0.13418249999999998,0.4773185,-0.146943,-0.23634249999999998,0.6756184999999999,-0.252985,0.1470075,0.4666985,-0.151881,0.2578075,0.6777685,-0.245715,-0.28509249999999997,0.8876185000000001,-0.360415,0.2984075,0.8664885,-0.34479499999999996,-0.0713255,0.00094749999999999,0.0024050000000000182,0.0713255,-0.0009475000000000039,-0.0024049999999999905,-0.12391249999999998,-0.29628150000000003,-0.154659,0.1350675,-0.2875415,-0.15081899999999998,-0.11845249999999999,-0.6147515000000001,-0.10352499999999999,0.1323275,-0.6107815000000001,-0.11355099999999999
66,0.008850499999999999,0.66058,-0.213957,-0.1310215,0.47142999999999996,-0.16317,-0.2355315,0.66821,-0.27469,0.1461485,0.46159,-0.167767,0.2592685,0.67142,-0.26737,-0.2838515,0.87582,-0.38827,0.2997785,0.85864,-0.36999000000000004,-0.0713905,0.0012199999999999989,0.0020600000000000063,0.0713905,-0.0012199999999999989,-0.0020600000000000063,-0.1259915,-0.28415,-0.173202,0.1379385,-0.27512000000000003,-0.168937,-0.11789150000000001,-0.6002500000000001,-0.117106,0.13251849999999998,-0.59658,-0.12720900000000002
67,0.009576000000000001,0.65472,-0.22883799999999999,-0.128162,0.46647,-0.176631,-0.234592,0.66031,-0.29158,0.145388,0.45615,-0.180975,0.259778,0.66801,-0.28592,-0.282982,0.86442,-0.40945,0.300768,0.85213,-0.39164,-0.071465,0.0014900000000000052,0.0017099999999999893,0.071465,-0.0014899999999999913,-0.0017099999999999893,-0.127792,-0.27153,-0.188676,0.139998,-0.26293,-0.184019,-0.11754200000000001,-0.5876699999999999,-0.12775599999999998,0.13236799999999999,-0.58439,-0.138334
68,0.010564,0.6496900000000001,-0.245238,-0.125162,0.46202000000000004,-0.191608,-0.23387200000000002,0.65358,-0.31084,0.14411800000000002,0.45071,-0.195759,0.260768,0.66446,-0.30694,-0.282092,0.85362,-0.43412,0.301728,0.84822,-0.41663,-0.0715,0.001590000000000008,0.0012900000000000134,0.0715,-0.0015899999999999803,-0.0012899999999999856,-0.12952200000000003,-0.25645,-0.205566,0.14189800000000002,-0.24788,-0.200504,-0.11725200000000001,-0.5725800000000001,-0.13990599999999997,0.132048,-0.56955,-0.150498
69,0.0116015,0.643515,-0.26159,-0.1223675,0.457275,-0.206452,-0.2333575,0.646365,-0.330405,0.14283249999999997,0.445905,-0.210314,0.26173250000000003,0.6616449999999999,-0.328375,-0.28095749999999997,0.8420949999999999,-0.459295,0.3031225,0.843835,-0.442035,-0.0715245,0.0016450000000000076,0.0007749999999999979,0.0715245,-0.0016450000000000076,-0.0007749999999999979,-0.13115749999999998,-0.24154499999999998,-0.22214,0.14367249999999998,-0.23358500000000001,-0.216909,-0.11698750000000001,-0.557615,-0.15187099999999998,0.13166250000000002,-0.5550350000000001,-0.162483
70,0.012664499999999999,0.63581,-0.279322,-0.1197195,0.44938999999999996,-0.22251200000000002,-0.2328095,0.63947,-0.351915,0.1414205,0.43857999999999997,-0.226505,0.2625905,0.65678,-0.350105,-0.2792895,0.831,-0.487525,0.3043105,0.8394199999999999,-0.470965,-0.0715215,0.0016700000000000048,0.0003049999999999997,0.0715215,-0.0016700000000000048,-0.0003049999999999997,-0.13271950000000002,-0.22368000000000002,-0.23930600000000002,0.1452805,-0.21631999999999998,-0.233984,-0.11655950000000001,-0.5395,-0.164534,0.13130050000000001,-0.53742,-0.17522000000000001
71,0.013436499999999997,0.628645,-0.29557500000000003,-0.1183185,0.44381499999999996,-0.23624699999999998,-0.2319085,0.629455,-0.37011,0.1405415,0.43271499999999996,-0.240258,0.26345149999999995,0.647065,-0.36890999999999996,-0.27777850000000004,0.8148949999999999,-0.5119199999999999,0.30598149999999996,0.8307450000000001,-0.49584,-0.0715125,0.001674999999999982,-0.00012999999999999123,0.0715125,-0.0016750000000000098,0.00012999999999999123,-0.1338085,-0.20771500000000004,-0.254368,0.1467015,-0.20158500000000001,-0.249532,-0.1159685,-0.5240549999999999,-0.175392,0.1307115,-0.5227550000000001,-0.186364
72,0.013988000000000004,0.6215550000000001,-0.308195,-0.11715699999999998,0.436735,-0.246436,-0.231287,0.6194850000000001,-0.38471,0.139543,0.426895,-0.25060099999999996,0.264283,0.636865,-0.38334,-0.276477,0.803555,-0.53272,0.307633,0.821245,-0.51709,-0.071546,0.001475000000000004,-0.0006199999999999817,0.071546,-0.001475000000000004,0.0006200000000000094,-0.13499699999999998,-0.190315,-0.265854,0.147903,-0.18571500000000002,-0.261296,-0.11551699999999998,-0.5079450000000001,-0.18237299999999998,0.130033,-0.507425,-0.19356099999999998
73,0.014120999999999998,0.6157349999999999,-0.318895,-0.11710099999999998,0.431385,-0.25467999999999996,-0.230951,0.609895,-0.39786999999999995,0.138489,0.424245,-0.259051,0.264739,0.624925,-0.39386999999999994,-0.275551,0.789005,-0.55112,0.308689,0.806145,-0.53294,-0.071606,0.0007349999999999857,-0.0005999999999999894,0.071606,-0.0007350000000000134,0.0006000000000000172,-0.135221,-0.176375,-0.272625,0.148389,-0.173035,-0.26899599999999996,-0.115151,-0.494765,-0.18758299999999997,0.129449,-0.49485500000000004,-0.19865099999999997
74,0.014275500000000003,0.609265,-0.33197699999999997,-0.11663649999999998,0.42468500000000003,-0.265158,-0.2301965,0.602055,-0.41322499999999995,0.1372235,0.417945,-0.26946499999999995,0.2651135,0.613705,-0.40539499999999995,-0.2752665,0.780405,-0.572085,0.30959349999999997,0.792035,-0.5503849999999999,-0.0715845,0.0006750000000000089,-0.0005449999999999899,0.0715845,-0.0006749999999999812,0.0005450000000000177,-0.1354665,-0.15780499999999997,-0.28042999999999996,0.14884350000000002,-0.155165,-0.27783399999999997,-0.11494650000000001,-0.47771499999999995,-0.19402899999999998,0.1289835,-0.47807499999999997,-0.20482599999999998
75,0.014315500000000002,0.60215,-0.343685,-0.1166275,0.4197,-0.274833,-0.22954750000000002,0.59524,-0.427905,0.1359525,0.4122,-0.278962,0.2654525,0.60287,-0.415835,-0.27496750000000003,0.77093,-0.592605,0.3104125,0.78232,-0.5669850000000001,-0.0716415,0.0006400000000000294,-0.0005249999999999977,0.0716415,-0.0006399999999999739,0.0005249999999999977,-0.1358775,-0.13953,-0.287972,0.14925249999999998,-0.13712999999999997,-0.28637100000000004,-0.1148075,-0.46082999999999996,-0.200239,0.1286325,-0.46134,-0.21086500000000002
76,0.012825999999999997,0.5948800000000001,-0.354255,-0.118875,0.41498999999999997,-0.283964,-0.231375,0.5897,-0.441965,0.133295,0.40821,-0.287661,0.264495,0.58999,-0.425415,-0.27603500000000003,0.76071,-0.612175,0.309585,0.7712300000000001,-0.583835,-0.07116,0.00042000000000003146,-0.00043499999999999095,0.07116,-0.00041999999999997595,0.00043499999999999095,-0.137745,-0.12496999999999997,-0.295015,0.148175,-0.12340000000000001,-0.294404,-0.116075,-0.44436,-0.2061,0.126905,-0.44514999999999993,-0.216662
77,0.0120975,0.586165,-0.36319999999999997,-0.12027649999999998,0.40822499999999995,-0.291447,-0.2323865,0.579215,-0.45243,0.1319335,0.40269499999999997,-0.29467099999999996,0.2642935,0.5784849999999999,-0.43235,-0.2762565,0.747805,-0.62671,0.3093535,0.759195,-0.59671,-0.07124349999999999,0.0003849999999999687,-0.00032999999999999696,0.07124349999999999,-0.0003850000000000242,0.0003300000000000247,-0.1388365,-0.11194500000000002,-0.300253,0.1478235,-0.11128500000000002,-0.300404,-0.11648649999999999,-0.42952500000000005,-0.210358,0.1261035,-0.430655,-0.22086199999999998
78,0.011164000000000004,0.57794,-0.372045,-0.12196699999999999,0.40134200000000003,-0.29923,-0.233287,0.5696,-0.46192500000000003,0.130603,0.396656,-0.301883,0.26378300000000005,0.56796,-0.440025,-0.276757,0.73338,-0.6403350000000001,0.308973,0.74874,-0.610715,-0.07136999999999999,0.00037999999999999146,-0.00013499999999999623,0.07136999999999999,-0.00037999999999999146,0.00013499999999999623,-0.139927,-0.0983,-0.305499,0.147383,-0.09819,-0.306103,-0.116897,-0.41402999999999995,-0.21474900000000002,0.125373,-0.41541999999999996,-0.22518900000000003
79,0.010230999999999999,0.57199,-0.37882,-0.12370600000000001,0.397374,-0.305514,-0.233556,0.55993,-0.4689,0.129544,0.39267700000000005,-0.307211,0.26314400000000004,0.5602,-0.4468,-0.277076,0.7201200000000001,-0.64923,0.308924,0.73803,-0.62096,-0.071419,0.0005400000000000404,0.00017000000000000348,0.071419,-0.0005399999999999849,-0.00017000000000000348,-0.140936,-0.08708999999999995,-0.309705,0.147014,-0.08696999999999994,-0.310564,-0.117176,-0.40103,-0.21811999999999998,0.124764,-0.40281999999999996,-0.228514
80,0.009182999999999997,0.56616,-0.38510500000000003,-0.12527700000000003,0.39324000000000003,-0.310913,-0.23390699999999998,0.5510900000000001,-0.475315,0.128773,0.38893,-0.312003,0.26277300000000003,0.55394,-0.452535,-0.277297,0.70823,-0.657885,0.30867300000000003,0.7289300000000001,-0.6304350000000001,-0.071558,0.0005300000000000304,0.0005149999999999877,0.071558,-0.0005299999999999749,-0.0005149999999999877,-0.14192700000000003,-0.07577999999999996,-0.313203,0.14664300000000002,-0.07504999999999995,-0.314048,-0.117587,-0.38808999999999994,-0.220975,0.124223,-0.39,-0.231331
81,0.008313499999999998,0.560605,-0.39093500000000003,-0.12673250000000003,0.39033399999999996,-0.315899,-0.23407250000000002,0.543805,-0.481315,0.1282375,0.38533999999999996,-0.316494,0.2624175,0.5482549999999999,-0.458165,-0.2774125,0.697275,-0.6663250000000001,0.3084875,0.720525,-0.639605,-0.0716065,0.0006549999999999612,0.0008750000000000147,0.0716065,-0.0006550000000000167,-0.0008750000000000147,-0.1427925,-0.06414500000000001,-0.316355,0.1464975,-0.06288500000000002,-0.317225,-0.1177825,-0.374945,-0.223584,0.1238575,-0.37700500000000003,-0.23394399999999999
82,0.007557999999999995,0.555685,-0.39661,-0.12778,0.386786,-0.320852,-0.23481000000000002,0.538815,-0.48748,0.12754,0.38074500000000006,-0.321033,0.26231,0.543555,-0.46330000000000005,-0.2776,0.689135,-0.67517,0.30795,0.713705,-0.6487,-0.071686,0.0009350000000000191,0.0012300000000000089,0.071686,-0.0009349999999999636,-0.0012300000000000089,-0.14405,-0.05206499999999997,-0.319427,0.1462,-0.050224999999999964,-0.32027100000000003,-0.11811,-0.3612949999999999,-0.226215,0.12332,-0.363595,-0.236298
83,0.006807499999999997,0.5513,-0.39955,-0.1285135,0.384663,-0.323333,-0.23554350000000002,0.53093,-0.49045,0.1268665,0.37988,-0.323348,0.2620365,0.53809,-0.46745000000000003,-0.2780335,0.68119,-0.68062,0.3073765,0.7063999999999999,-0.65507,-0.0717385,0.0005899999999999794,0.0013499999999999623,0.0717385,-0.0005899999999999794,-0.0013500000000000179,-0.1452235,-0.042910000000000004,-0.321054,0.1459065,-0.04038000000000003,-0.32183100000000003,-0.1184335,-0.35041999999999995,-0.22753700000000002,0.1227765,-0.35319999999999996,-0.23747300000000002
84,0.005977000000000003,0.54785,-0.40197000000000005,-0.12885200000000002,0.382835,-0.32544400000000007,-0.236502,0.52393,-0.49253,0.126258,0.379502,-0.32538200000000006,0.261368,0.5335799999999999,-0.47103000000000006,-0.27832199999999996,0.67195,-0.68554,0.306678,0.6984600000000001,-0.66089,-0.071864,0.00029000000000001247,0.0014199999999999768,0.071864,-0.00029000000000001247,-0.0014200000000000323,-0.146252,-0.03306999999999999,-0.32224200000000003,0.14562799999999998,-0.02977000000000002,-0.32283700000000004,-0.118792,-0.33884000000000003,-0.22845900000000002,0.12221800000000001,-0.34209,-0.23823700000000003
85,0.004916500000000001,0.542635,-0.40413,-0.1291985,0.379805,-0.327681,-0.2375085,0.518635,-0.49471,0.1258215,0.377237,-0.327672,0.2610515,0.532085,-0.47452,-0.2787485,0.664465,-0.68972,0.3061915,0.6923349999999999,-0.66594,-0.0719335,0.00012499999999998623,0.0014899999999999913,0.0719335,-0.00012499999999998623,-0.0014899999999999913,-0.14725850000000001,-0.022135000000000016,-0.323295,0.14542149999999998,-0.017845,-0.32357400000000003,-0.1191485,-0.326165,-0.229367,0.1216515,-0.329895,-0.238852
86,0.004053000000000002,0.53954,-0.405195,-0.129392,0.379437,-0.32965300000000003,-0.23869200000000002,0.513166,-0.496825,0.125508,0.376952,-0.329757,0.26107800000000003,0.52974,-0.477955,-0.279072,0.65654,-0.694135,0.30593800000000004,0.68827,-0.671385,-0.07200999999999999,-1.999999999996449e-05,0.0016349999999999976,0.07200999999999999,2.0000000000020002e-05,-0.0016349999999999976,-0.148142,-0.012279999999999958,-0.32416300000000003,0.14540799999999998,-0.006939999999999946,-0.32422300000000004,-0.11935199999999999,-0.31467999999999996,-0.23031400000000002,0.121168,-0.31904,-0.239467
87,0.0034725000000000003,0.537025,-0.406115,-0.12952950000000002,0.37721,-0.33131,-0.2392795,0.509287,-0.498415,0.1252905,0.375748,-0.3315,0.2610305,0.525982,-0.479415,-0.2791295,0.651305,-0.697845,0.30552050000000003,0.682895,-0.6745749999999999,-0.07215550000000001,-0.0002650000000000152,0.001715000000000022,0.07215550000000001,0.0002650000000000152,-0.0017149999999999666,-0.1489595,-0.0020649999999999835,-0.32473399999999997,0.1456505,0.00415500000000002,-0.324683,-0.11950949999999999,-0.30289499999999997,-0.230962,0.12073049999999999,-0.307865,-0.23993399999999998
88,0.002737499999999998,0.532609,-0.40691,-0.1293435,0.37484900000000004,-0.332808,-0.2393535,0.504653,-0.5004500000000001,0.1251265,0.37444900000000003,-0.33304,0.2610565,0.5212410000000001,-0.48095,-0.27906349999999996,0.64515,-0.7016100000000001,0.3050965,0.6776500000000001,-0.67771,-0.0723365,-0.0005899999999999794,0.0017599999999999838,0.0723365,0.0005900000000000349,-0.0017600000000000393,-0.1496135,0.007530000000000037,-0.325238,0.1461265,0.01437000000000005,-0.325164,-0.1196335,-0.2918299999999999,-0.23164300000000002,0.12031649999999999,-0.29733,-0.240433
89,0.0019084999999999998,0.525764,-0.40768499999999996,-0.1295855,0.3704,-0.334289,-0.23953549999999998,0.500178,-0.504955,0.1251145,0.371182,-0.334554,0.2612045,0.516428,-0.48306499999999997,-0.2789555,0.63944,-0.7063349999999999,0.3047145,0.67187,-0.681335,-0.0726095,-0.0007599999999999829,0.0016550000000000176,0.0726095,0.0007599999999999829,-0.0016550000000000176,-0.1500655,0.016199999999999992,-0.325857,0.14681450000000001,0.02360000000000001,-0.32562399999999997,-0.11975549999999999,-0.28148,-0.2324,0.11989449999999999,-0.28741999999999995,-0.241051
90,0.001162499999999998,0.519398,-0.40862,-0.1294725,0.365638,-0.336011,-0.2397125,0.49546100000000004,-0.5101100000000001,0.1251275,0.367452,-0.33590200000000003,0.2604475,0.511091,-0.48553,-0.2788325,0.63216,-0.71085,0.3044575,0.6659900000000001,-0.6846300000000001,-0.0729465,-0.0009399999999999964,0.0014700000000000268,0.0729465,0.0009399999999999964,-0.0014700000000000268,-0.1503025,0.02371000000000001,-0.326782,0.14778750000000002,0.03159000000000001,-0.326147,-0.11976250000000001,-0.27224000000000004,-0.233385,0.11953749999999999,-0.27844,-0.24196299999999998
91,0.00017049999999999878,0.513042,-0.410235,-0.12900450000000002,0.36108,-0.338069,-0.2398345,0.490967,-0.516185,0.1253355,0.36396,-0.337694,0.2597355,0.507708,-0.487665,-0.2790145,0.62459,-0.7155549999999999,0.30415549999999997,0.66179,-0.686725,-0.07329250000000001,-0.0011499999999999844,0.0012949999999999906,0.07329250000000001,0.0011499999999999844,-0.0012949999999999906,-0.1505545,0.030679999999999985,-0.328167,0.1490755,0.03904000000000002,-0.32716900000000004,-0.1197745,-0.26349,-0.23505800000000002,0.1191855,-0.26974,-0.243452
92,-0.00045949999999999854,0.506912,-0.41181,-0.12841850000000002,0.355915,-0.34011899999999995,-0.2397585,0.487197,-0.52242,0.1256415,0.360005,-0.339638,0.2592315,0.503849,-0.4899,-0.2794185,0.6159950000000001,-0.72024,0.3040615,0.6560250000000001,-0.6885,-0.07369049999999999,-0.0013949999999999796,0.001040000000000041,0.07369049999999999,0.001395000000000035,-0.0010399999999999854,-0.15072850000000002,0.036365000000000036,-0.32931,0.1508715,0.04555500000000001,-0.328134,-0.11972849999999999,-0.255545,-0.236869,0.1189315,-0.261815,-0.24504599999999999
93,-0.001029999999999994,0.49956300000000003,-0.412055,-0.12758599999999998,0.35004,-0.341115,-0.23921599999999998,0.48330500000000004,-0.528625,0.12640400000000002,0.35489000000000004,-0.34050800000000003,0.259044,0.49944400000000005,-0.490925,-0.279636,0.60977,-0.724225,0.304234,0.6514200000000001,-0.689385,-0.07399700000000001,-0.0014599999999999613,0.0009649999999999936,0.07399700000000001,0.0014600000000000168,-0.0009649999999999936,-0.150726,0.04145000000000004,-0.32907200000000003,0.153034,0.05167000000000005,-0.327992,-0.119506,-0.24800999999999995,-0.23777,0.118864,-0.25420999999999994,-0.245623
94,-0.0016055000000000002,0.493726,-0.41339499999999996,-0.1273595,0.34480999999999995,-0.342948,-0.2395295,0.47809199999999996,-0.533345,0.1269105,0.35041,-0.34233499999999994,0.2592505,0.49409,-0.49302499999999994,-0.2794995,0.60127,-0.727635,0.3041405,0.64318,-0.6915149999999999,-0.0742765,-0.0014899999999999913,0.0010150000000000436,0.0742765,0.0014899999999999913,-0.0010149999999999881,-0.1508195,0.04526999999999998,-0.32936499999999996,0.1551205,0.056359999999999966,-0.328422,-0.1194595,-0.24163000000000007,-0.23960699999999996,0.11865049999999999,-0.24761000000000005,-0.24724899999999997
95,-0.002131500000000004,0.486985,-0.41478499999999996,-0.1271945,0.338435,-0.345132,-0.2393445,0.476874,-0.5354049999999999,0.1273355,0.344985,-0.344514,0.2594255,0.487605,-0.49533499999999997,-0.27928450000000005,0.5951649999999999,-0.730935,0.30414549999999996,0.634405,-0.693935,-0.07462150000000001,-0.0015249999999999986,0.0011249999999999871,0.07462150000000001,0.0015249999999999986,-0.0011249999999999871,-0.1509945,0.04868499999999998,-0.330015,0.1571655,0.060414999999999996,-0.328944,-0.11945449999999999,-0.235815,-0.24179399999999998,0.1184355,-0.24139500000000003,-0.249211
96,-0.0023324999999999978,0.48279599999999995,-0.416235,-0.1269865,0.33685999999999994,-0.34739699999999996,-0.2391065,0.47752799999999995,-0.5375449999999999,0.1277835,0.3433299999999999,-0.346612,0.2595335,0.48538799999999993,-0.497595,-0.2789165,0.591714,-0.734445,0.30448349999999996,0.62989,-0.696375,-0.0749365,-0.0010900000000000354,0.0012250000000000316,0.0749365,0.0010899999999999244,-0.001224999999999976,-0.1512465,0.05561999999999995,-0.330675,0.15913349999999998,0.06681999999999994,-0.329594,-0.11942649999999999,-0.22777000000000003,-0.24405999999999997,0.1183035,-0.23289000000000004,-0.25127
97,-0.001878000000000003,0.47958599999999996,-0.41754500000000005,-0.126571,0.335105,-0.34921100000000005,-0.239251,0.475592,-0.5369550000000001,0.128459,0.34158499999999997,-0.34808700000000004,0.259799,0.483023,-0.49968500000000005,-0.278341,0.586311,-0.737115,0.305309,0.625625,-0.698385,-0.075429,-0.0007150000000000212,0.001314999999999955,0.075429,0.0007150000000000212,-0.0013150000000000106,-0.151271,0.06154499999999996,-0.331081,0.161159,0.072635,-0.33014000000000004,-0.119201,-0.220445,-0.24610100000000001,0.118419,-0.22511500000000007,-0.253219
98,-0.0013650000000000034,0.47892500000000005,-0.41905000000000003,-0.12629,0.3360850000000001,-0.350888,-0.23894,0.47337700000000005,-0.53983,0.12922,0.34153500000000003,-0.349452,0.26003,0.48236400000000007,-0.50123,-0.27793999999999996,0.582156,-0.73916,0.30621,0.6236680000000001,-0.69967,-0.075893,-0.0003049999999999997,0.0015300000000000313,0.075893,0.0003049999999999997,-0.0015299999999999758,-0.15112,0.06661500000000004,-0.33139799999999997,0.16311,0.07774500000000006,-0.33058,-0.11889000000000001,-0.21394499999999994,-0.248018,0.11868,-0.21816499999999994,-0.254892
99,-0.0011855000000000034,0.4784679999999999,-0.4200149999999999,-0.1260295,0.33740999999999993,-0.35201299999999996,-0.2386695,0.47063199999999994,-0.5418449999999999,0.1296605,0.3416099999999999,-0.35037699999999994,0.26050049999999997,0.4815799999999999,-0.5023949999999999,-0.2776595,0.5791649999999999,-0.7408049999999999,0.3070905,0.6219149999999999,-0.700425,-0.07632549999999999,0.00013999999999991797,0.0017650000000000166,0.07632549999999999,-0.000140000000000029,-0.001764999999999961,-0.15105949999999999,0.07135999999999992,-0.33134899999999995,0.1649205,0.08251999999999993,-0.330603,-0.11861950000000002,-0.20791000000000004,-0.24956899999999996,0.1189405,-0.2116800000000001,-0.25617899999999993
100,-0.0008979999999999952,0.47919900000000004,-0.42086999999999997,-0.12574,0.33918000000000004,-0.35306000000000004,-0.23834999999999998,0.46802000000000005,-0.5440400000000001,0.12996000000000002,0.34157000000000004,-0.351186,0.26083,0.48082,-0.5028900000000001,-0.27751000000000003,0.5781280000000001,-0.7429,0.30784999999999996,0.6205980000000001,-0.70058,-0.07670099999999999,0.0005800000000000249,0.0018299999999999983,0.07670099999999999,-0.0005799999999999139,-0.0018299999999999983,-0.15089,0.07558000000000004,-0.33123,0.1665,0.08649000000000007,-0.33049300000000004,-0.11832999999999999,-0.2026199999999999,-0.250875,0.11923,-0.20600999999999992,-0.257278
101,-0.0006649999999999998,0.48130599999999996,-0.42096500000000003,-0.125525,0.34212499999999996,-0.353228,-0.238265,0.46776599999999996,-0.543855,0.130195,0.342035,-0.351221,0.260795,0.48184799999999994,-0.501925,-0.27770500000000004,0.580336,-0.742615,0.30787499999999995,0.621533,-0.699485,-0.07694100000000001,0.001194999999999946,0.0022050000000000125,0.07694100000000001,-0.0011950000000000571,-0.0022050000000000125,-0.15084499999999998,0.08009499999999997,-0.330335,0.167435,0.09071499999999999,-0.329685,-0.118085,-0.19726500000000002,-0.251335,0.119415,-0.20030500000000007,-0.25754
102,-0.0004394999999999963,0.48584599999999994,-0.42073000000000005,-0.1253455,0.34560499999999994,-0.353152,-0.2387455,0.46838199999999997,-0.5424,0.1304245,0.34345499999999995,-0.351088,0.2607045,0.48492599999999997,-0.5005,-0.27808550000000004,0.5838509999999999,-0.74211,0.3080345,0.625555,-0.69779,-0.07714950000000001,0.0016649999999999165,0.0025100000000000122,0.07714950000000001,-0.0016650000000000276,-0.0025100000000000122,-0.1508955,0.08382499999999993,-0.329592,0.1678645,0.09405499999999994,-0.328843,-0.11789549999999999,-0.1930050000000001,-0.251601,0.1195745,-0.19577500000000003,-0.257675
103,-0.00033449999999999886,0.48932100000000006,-0.41981999999999997,-0.1251505,0.34908000000000006,-0.352789,-0.2396505,0.47002200000000005,-0.5395099999999999,0.1305495,0.34693000000000007,-0.35062,0.2608795,0.4884010000000001,-0.49859,-0.2785105,0.587326,-0.74106,0.3082995,0.6290300000000001,-0.69713,-0.07721249999999999,0.0019700000000000273,0.0025499999999999967,0.07721249999999999,-0.0019699999999999163,-0.0025499999999999967,-0.1509905,0.08655000000000007,-0.32872,0.1681195,0.09682000000000007,-0.328172,-0.1177205,-0.1896699999999999,-0.251458,0.11977950000000001,-0.19231999999999994,-0.25746
104,-0.0001620000000000059,0.49227100000000007,-0.41875,-0.124945,0.35203000000000007,-0.35222600000000004,-0.240615,0.47297200000000006,-0.53518,0.130745,0.3498800000000001,-0.349928,0.261085,0.4913510000000001,-0.49742,-0.278945,0.590276,-0.73979,0.308555,0.6319800000000001,-0.69632,-0.07703,0.0021800000000000708,0.0026499999999999857,0.07703,-0.0021799999999999597,-0.0026499999999999857,-0.151225,0.08950000000000008,-0.32776700000000003,0.16841499999999998,0.09954000000000007,-0.327745,-0.11754500000000001,-0.18685999999999992,-0.251141,0.120005,-0.18938999999999995,-0.257085
105,0.0003440000000000014,0.49275500000000005,-0.41711,-0.124777,0.35203000000000007,-0.35117,-0.241577,0.47297200000000006,-0.52942,0.131103,0.3498800000000001,-0.34882599999999997,0.261423,0.4913510000000001,-0.49559,-0.279357,0.590276,-0.7377,0.309133,0.6319800000000001,-0.69503,-0.076654,0.0021800000000000708,0.002850000000000019,0.076654,-0.0021799999999999597,-0.0028499999999999637,-0.151547,0.08970000000000006,-0.326899,0.168783,0.09954000000000007,-0.327165,-0.117307,-0.18687999999999994,-0.250312,0.12030300000000001,-0.18940999999999997,-0.256256
106,0.0007594999999999963,0.4955240000000001,-0.415115,-0.12478850000000001,0.3537600000000001,-0.349316,-0.2423385,0.47297200000000006,-0.525495,0.13154149999999998,0.35218000000000005,-0.346749,0.2618315,0.4929130000000001,-0.49317500000000003,-0.2790285,0.592906,-0.735985,0.30966150000000003,0.6361420000000001,-0.693395,-0.0761985,0.0021800000000000708,0.002925000000000011,0.0761985,-0.0021799999999999597,-0.002925000000000011,-0.1517485,0.0904100000000001,-0.32599100000000003,0.16900149999999997,0.09954000000000007,-0.326274,-0.1169785,-0.18687999999999994,-0.249161,0.1207415,-0.18933999999999995,-0.255218
107,0.0012600000000000033,0.5006290000000001,-0.413055,-0.12475299999999999,0.3564300000000001,-0.347377,-0.24305300000000002,0.4744020000000001,-0.522465,0.13187700000000002,0.35530000000000006,-0.344567,0.262037,0.49744600000000005,-0.490665,-0.278893,0.5995460000000001,-0.734375,0.31001700000000004,0.643232,-0.691675,-0.075713,0.0021800000000000708,0.002894999999999981,0.075713,-0.0021799999999999597,-0.002894999999999981,-0.152113,0.09160000000000007,-0.325058,0.168867,0.09954000000000007,-0.325337,-0.116603,-0.18687999999999994,-0.247968,0.121237,-0.18926999999999994,-0.254212
108,0.0014809999999999997,0.508948,-0.41176999999999997,-0.125443,0.36426499999999995,-0.34597399999999995,-0.24354299999999998,0.47844899999999996,-0.51896,0.13178700000000002,0.3620749999999999,-0.343016,0.261737,0.505054,-0.49010999999999993,-0.279233,0.608383,-0.73283,0.310077,0.651856,-0.6910099999999999,-0.07541500000000001,0.00193500000000002,0.0029000000000000137,0.07541500000000001,-0.00193500000000002,-0.002899999999999958,-0.15268299999999999,0.09016499999999994,-0.325067,0.167807,0.09751499999999996,-0.32562899999999995,-0.116613,-0.18957500000000005,-0.24772599999999997,0.121367,-0.191905,-0.254206
109,0.001683000000000003,0.5147539999999999,-0.40988499999999994,-0.126181,0.3664449999999999,-0.34388199999999997,-0.243871,0.48175199999999996,-0.5142549999999999,0.131299,0.36377499999999996,-0.340962,0.261199,0.5086809999999999,-0.48814499999999994,-0.280461,0.615235,-0.729795,0.309509,0.6576949999999999,-0.688715,-0.074917,0.001614999999999922,0.0028950000000000364,0.074917,-0.001615000000000033,-0.002894999999999981,-0.15307099999999998,0.08312499999999995,-0.32456699999999994,0.166439,0.09011499999999995,-0.32554199999999994,-0.116701,-0.19801500000000005,-0.24692499999999995,0.121459,-0.20037500000000008,-0.25350999999999996
110,0.0020560000000000023,0.52242,-0.40759,-0.126884,0.369745,-0.341242,-0.243894,0.489876,-0.51037,0.130586,0.368015,-0.338914,0.260776,0.51352,-0.48711,-0.281514,0.623285,-0.72493,0.308966,0.664785,-0.6853899999999999,-0.074211,0.001434999999999964,0.003039999999999987,0.074211,-0.001435000000000075,-0.003039999999999987,-0.15305400000000002,0.07462499999999994,-0.323802,0.16499599999999998,0.08146499999999995,-0.325383,-0.116634,-0.20804500000000004,-0.245836,0.121696,-0.21052500000000007,-0.252454
111,0.0025284999999999956,0.530413,-0.405345,-0.1273295,0.373155,-0.33842099999999997,-0.2439095,0.496853,-0.509585,0.1300405,0.371805,-0.336612,0.2604005,0.520004,-0.484565,-0.2823695,0.629505,-0.718655,0.3085205,0.673685,-0.6815549999999999,-0.0735745,0.0013050000000000006,0.0031849999999999934,0.0735745,-0.0013050000000000006,-0.0031849999999999934,-0.15269950000000002,0.059425000000000006,-0.322905,0.1634005,0.06700499999999998,-0.32547899999999996,-0.1164095,-0.224325,-0.244587,0.1221005,-0.22687500000000005,-0.251229
112,0.0028945000000000017,0.538324,-0.403175,-0.1278305,0.37666,-0.335381,-0.24401050000000002,0.505811,-0.504575,0.1294095,0.37592000000000003,-0.33417399999999997,0.2598795,0.526925,-0.483195,-0.2833105,0.63654,-0.710565,0.3080695,0.68311,-0.677685,-0.07273550000000001,0.0010800000000000254,0.003265000000000018,0.07273550000000001,-0.0010800000000000254,-0.003265000000000018,-0.1524305,0.04438000000000003,-0.322346,0.1615695,0.052080000000000015,-0.325638,-0.11626049999999999,-0.24147000000000002,-0.243198,0.1224595,-0.24411999999999995,-0.249908
113,0.003048000000000005,0.546116,-0.40081,-0.128171,0.380325,-0.332099,-0.24401099999999998,0.512431,-0.49885,0.12859900000000002,0.38042200000000004,-0.331795,0.25893900000000003,0.537074,-0.4813,-0.284561,0.646165,-0.70158,0.307639,0.695875,-0.67317,-0.072062,0.0009149999999999991,0.003060000000000007,0.072062,-0.0009149999999999991,-0.003060000000000007,-0.152251,0.027895000000000003,-0.32179599999999997,0.15970900000000002,0.03490500000000002,-0.32554299999999997,-0.11622099999999999,-0.261085,-0.241454,0.12264900000000001,-0.263895,-0.24831
114,0.0033780000000000017,0.552517,-0.39822,-0.128888,0.38471700000000003,-0.328575,-0.244108,0.5239130000000001,-0.49312,0.127692,0.38623700000000005,-0.329019,0.257562,0.5435300000000001,-0.47801000000000005,-0.286108,0.6565300000000001,-0.6918500000000001,0.307122,0.70343,-0.66829,-0.071565,0.0007600000000000384,0.003019999999999967,0.071565,-0.0007599999999999829,-0.0030200000000000227,-0.152088,0.00931000000000004,-0.32104900000000003,0.157972,0.015369999999999995,-0.325066,-0.116238,-0.28335999999999995,-0.23937100000000003,0.122812,-0.28606,-0.24653700000000003
115,0.0035675000000000047,0.55949,-0.395645,-0.1293295,0.387511,-0.32551599999999997,-0.2451795,0.53332,-0.48745499999999997,0.1271005,0.388114,-0.326449,0.2560505,0.55324,-0.47501499999999997,-0.2878795,0.66646,-0.682115,0.3061105,0.71238,-0.662115,-0.0711725,0.0006800000000000139,0.002715000000000023,0.0711725,-0.0006800000000000139,-0.0027149999999999674,-0.1519095,-0.009450000000000014,-0.320598,0.1562605,-0.0046499999999999875,-0.32440199999999997,-0.11642949999999999,-0.30638,-0.237366,0.1228105,-0.30891,-0.24493499999999999
116,0.003527999999999998,0.56691,-0.39215,-0.13015000000000002,0.393803,-0.321455,-0.24616,0.54178,-0.48095,0.12655,0.394057,-0.323082,0.25503,0.56056,-0.47201000000000004,-0.28946,0.6742,-0.67075,0.30534,0.72264,-0.65522,-0.07082,0.00047000000000002595,0.0022699999999999942,0.07082,-0.00046999999999997044,-0.0022699999999999942,-0.15134,-0.03004000000000001,-0.319357,0.15488,-0.02629999999999999,-0.322652,-0.11654,-0.33128,-0.23450400000000002,0.12298999999999999,-0.33372,-0.242484
117,0.003611499999999996,0.569735,-0.38821000000000006,-0.1310875,0.391801,-0.317199,-0.2467175,0.5432250000000001,-0.47459000000000007,0.1258125,0.392467,-0.319323,0.2534625,0.562775,-0.46738,-0.2914375,0.6777550000000001,-0.6597,0.3043625,0.728475,-0.64743,-0.07058149999999999,0.0004350000000000187,0.0021599999999999953,0.07058149999999999,-0.0004349999999999632,-0.0021600000000000508,-0.1506275,-0.05438499999999996,-0.31713500000000006,0.1537325,-0.051535,-0.31984300000000004,-0.11681749999999999,-0.35943499999999995,-0.23119300000000004,0.12297249999999998,-0.36184499999999997,-0.23949300000000004
118,0.0035360000000000053,0.577385,-0.38381000000000004,-0.13191799999999998,0.397139,-0.31233700000000003,-0.24731799999999998,0.552765,-0.46890000000000004,0.126282,0.399582,-0.31494700000000003,0.251952,0.5706450000000001,-0.46189,-0.293718,0.691385,-0.64807,0.30326200000000003,0.738915,-0.6384000000000001,-0.070466,0.0002750000000000252,0.0020499999999999963,0.070466,-0.0002749999999999697,-0.0020500000000000518,-0.14962799999999998,-0.07399499999999998,-0.31415200000000004,0.152742,-0.071915,-0.31602600000000003,-0.117058,-0.383085,-0.22750200000000004,0.12290200000000001,-0.38527500000000003,-0.23623000000000002
119,0.003279999999999996,0.5843499999999999,-0.37787000000000004,-0.13275599999999999,0.40457,-0.306495,-0.247856,0.55874,-0.46165,0.126584,0.40384,-0.309545,0.250324,0.57936,-0.45467,-0.29622600000000004,0.70353,-0.63642,0.30212399999999995,0.75163,-0.62869,-0.07047500000000001,0.00033999999999995145,0.0017900000000000138,0.07047500000000001,-0.00034000000000000696,-0.0017900000000000138,-0.148276,-0.09428000000000003,-0.309739,0.151744,-0.09293000000000001,-0.311127,-0.11741599999999999,-0.4077200000000001,-0.222772,0.12265399999999999,-0.40968000000000004,-0.23188
120,0.0029805000000000005,0.591865,-0.37193,-0.13350250000000002,0.41039499999999995,-0.30067,-0.2480325,0.572875,-0.45367999999999997,0.1261375,0.41088499999999994,-0.304685,0.2496175,0.5881149999999999,-0.44817999999999997,-0.2988425,0.720485,-0.62498,0.3005975,0.761855,-0.6184,-0.0704665,4.999999999977245e-06,0.0016700000000000048,0.0704665,-5.000000000032756e-06,-0.0016699999999999493,-0.14655249999999997,-0.11055500000000001,-0.304834,0.15096749999999998,-0.10888500000000001,-0.306274,-0.1177625,-0.428045,-0.21812399999999998,0.1223975,-0.42979500000000004,-0.22757699999999997
121,0.002929000000000001,0.60076,-0.362625,-0.13423000000000002,0.41827000000000003,-0.291809,-0.24841000000000002,0.58401,-0.442885,0.12577,0.41899,-0.296558,0.24856,0.59831,-0.43759499999999996,-0.30132000000000003,0.73883,-0.609245,0.29913,0.7748200000000001,-0.602665,-0.070181,-0.00010999999999999899,0.001365000000000005,0.070181,0.00010999999999999899,-0.0013649999999999773,-0.14454,-0.1295,-0.297,0.1502,-0.12696000000000002,-0.298346,-0.11810000000000001,-0.45138,-0.21065399999999998,0.12237,-0.45209,-0.220682
122,0.0029890000000000047,0.60977,-0.35177,-0.13450299999999998,0.42498,-0.281956,-0.248353,0.59619,-0.43052,0.125887,0.42665000000000003,-0.287377,0.247757,0.60656,-0.42652,-0.303483,0.7543,-0.59253,0.297407,0.78693,-0.58563,-0.069813,-0.00030999999999997696,0.0009399999999999964,0.069813,0.00031000000000003247,-0.0009399999999999964,-0.14258300000000002,-0.14797,-0.288218,0.14947700000000003,-0.14442,-0.28915599999999997,-0.118353,-0.47383,-0.20233,0.122507,-0.47356,-0.212894
123,0.0033124999999999986,0.61954,-0.33748999999999996,-0.1344555,0.43272999999999995,-0.26944,-0.2493555,0.6033,-0.41381999999999997,0.1273445,0.43459,-0.275457,0.2477645,0.62029,-0.41154999999999997,-0.3053055,0.7695299999999999,-0.57121,0.2959545,0.80132,-0.56421,-0.0695595,-0.0004900000000000182,0.0010300000000000031,0.0695595,0.0004899999999999904,-0.0010300000000000031,-0.1400255,-0.16636,-0.275982,0.1486245,-0.16209,-0.27652699999999997,-0.1182755,-0.49612,-0.191796,0.1230345,-0.49541,-0.20277399999999998
124,0.0036869999999999993,0.6288549999999999,-0.32176499999999997,-0.134403,0.440975,-0.256247,-0.250383,0.6153649999999999,-0.39481499999999997,0.129377,0.44223499999999993,-0.262905,0.247037,0.6287149999999999,-0.39536499999999997,-0.30706300000000003,0.787125,-0.546505,0.294857,0.816075,-0.542315,-0.06939300000000001,-0.0005950000000000122,0.0010650000000000104,0.06939300000000001,0.0005949999999999844,-0.0010649999999999826,-0.137533,-0.18455500000000002,-0.26305599999999996,0.147727,-0.179655,-0.262953,-0.118123,-0.518015,-0.18081299999999997,0.12387699999999999,-0.516915,-0.19236399999999998
125,0.0035054999999999973,0.635545,-0.305855,-0.1348995,0.44698499999999997,-0.243338,-0.2513395,0.625695,-0.376015,0.1311205,0.445685,-0.250125,0.2469605,0.641255,-0.379235,-0.3091495,0.805215,-0.522245,0.2934405,0.828065,-0.5201749999999999,-0.06904650000000001,-0.0003650000000000042,0.001475000000000004,0.06904650000000001,0.0003650000000000042,-0.001475000000000004,-0.1356195,-0.20123500000000002,-0.24962299999999998,0.1464405,-0.19624500000000003,-0.249462,-0.11833950000000001,-0.537995,-0.170227,0.1245105,-0.536905,-0.18233
126,0.002948000000000001,0.644325,-0.288929,-0.135714,0.456405,-0.229651,-0.25224399999999997,0.6443650000000001,-0.35656,0.132646,0.453155,-0.236786,0.24609599999999998,0.654655,-0.36193,-0.31130399999999997,0.8249850000000001,-0.4965,0.29132600000000003,0.8448450000000001,-0.49676,-0.068829,-0.00028500000000000747,0.0015300000000000036,0.068829,0.00028500000000000747,-0.0015299999999999758,-0.134224,-0.214015,-0.23565399999999997,0.144776,-0.20891500000000002,-0.23557999999999998,-0.11893400000000001,-0.5539350000000001,-0.15953699999999998,0.125166,-0.5526850000000001,-0.172556
127,0.0032454999999999984,0.6506000000000001,-0.270716,-0.1362815,0.46795,-0.21554,-0.2526315,0.66096,-0.336015,0.13411849999999997,0.45885,-0.222668,0.2457185,0.66672,-0.342955,-0.3125215,0.84599,-0.467385,0.2894385,0.8633,-0.47103500000000004,-0.0685055,0.00032999999999999696,0.0015049999999999786,0.0685055,-0.00032999999999999696,-0.0015050000000000063,-0.13270150000000003,-0.22559,-0.221393,0.1433585,-0.22144999999999998,-0.221455,-0.1196615,-0.56863,-0.14992,0.12607849999999998,-0.5679700000000001,-0.16259
128,0.003762499999999995,0.65972,-0.253164,-0.1366385,0.47463999999999995,-0.20182599999999998,-0.2529985,0.67722,-0.314895,0.1363315,0.46992999999999996,-0.20882699999999998,0.2449715,0.68128,-0.323935,-0.3131985,0.8665200000000001,-0.437255,0.2876215,0.87981,-0.445225,-0.0683915,0.00030999999999999084,0.0015650000000000108,0.0683915,-0.0003100000000000047,-0.001564999999999983,-0.1312885,-0.23609,-0.20707499999999998,0.1413015,-0.23274999999999998,-0.20693599999999998,-0.12033850000000001,-0.58173,-0.140281,0.1271415,-0.58144,-0.15165499999999998
129,0.004078,0.6680484999999999,-0.23650000000000002,-0.13686399999999999,0.4831185,-0.18896000000000002,-0.253364,0.6865184999999999,-0.29481500000000005,0.138486,0.47842850000000003,-0.19587100000000002,0.244296,0.6945785,-0.30506500000000003,-0.313754,0.8860184999999999,-0.40749500000000005,0.285736,0.8971485,-0.420595,-0.06799,0.0006614999999999954,0.0015349999999999808,0.06799,-0.0006615000000000093,-0.0015350000000000086,-0.129884,-0.24534150000000002,-0.19349300000000003,0.138916,-0.2438215,-0.19312100000000001,-0.12098400000000001,-0.5930115,-0.13121300000000002,0.128136,-0.5936115000000001,-0.141025
130,0.004453999999999998,0.675534,-0.220924,-0.137083,0.48872399999999994,-0.1768,-0.252873,0.6964739999999999,-0.27456,0.140297,0.48511400000000005,-0.183819,0.24389699999999997,0.7063039999999999,-0.28722000000000003,-0.314303,0.902814,-0.37977000000000005,0.28391700000000003,0.911804,-0.39641000000000004,-0.067701,0.0007439999999999947,0.0019799999999999818,0.067701,-0.0007440000000000085,-0.0019800000000000095,-0.12888300000000003,-0.252166,-0.18048000000000003,0.13648700000000002,-0.25266600000000006,-0.17993,-0.121603,-0.6009760000000001,-0.12219600000000001,0.12821700000000003,-0.603086,-0.130394
131,0.004851999999999995,0.682012,-0.20589000000000002,-0.137541,0.495242,-0.16495400000000002,-0.252571,0.706422,-0.25441,0.141479,0.491502,-0.172158,0.242679,0.7156319999999999,-0.26974,-0.31515099999999996,0.918542,-0.35221,0.28203900000000004,0.923402,-0.37306,-0.067662,0.0008690000000000017,0.002610000000000001,0.067662,-0.0008689999999999948,-0.002610000000000001,-0.12815100000000001,-0.257728,-0.16789500000000002,0.133709,-0.260488,-0.166904,-0.12262100000000001,-0.607538,-0.11246500000000001,0.127929,-0.611118,-0.12009
132,0.005764499999999999,0.6892885000000001,-0.19456999999999997,-0.1375565,0.49967849999999997,-0.15612299999999998,-0.2519165,0.7154985,-0.23884999999999998,0.14265350000000002,0.4958685,-0.163508,0.2424335,0.7211785000000001,-0.25439999999999996,-0.3148665,0.9329085,-0.32913,0.2808035,0.9356885,-0.35314,-0.0673915,0.0010104999999999975,0.0028700000000000114,0.0673915,-0.0010104999999999975,-0.0028699999999999837,-0.1270665,-0.26525150000000003,-0.15926099999999999,0.1315335,-0.2690615,-0.156825,-0.1224865,-0.6153615,-0.10513499999999998,0.1280635,-0.6163015,-0.11275999999999997
133,0.006780000000000001,0.6950045,-0.184875,-0.13741399999999998,0.5034745,-0.148313,-0.25101399999999996,0.7200845,-0.2247,0.14374599999999998,0.5001945,-0.155579,0.24236600000000003,0.7271945,-0.24009,-0.31413399999999997,0.9436045,-0.30907,0.27962600000000004,0.9448544999999999,-0.33437,-0.067259,0.0011634999999999979,0.00315,0.067259,-0.0011635000000000048,-0.00315,-0.125944,-0.2728955,-0.1512,0.129276,-0.27668550000000003,-0.147426,-0.122324,-0.6230055000000001,-0.098565,0.12819599999999998,-0.6170454999999999,-0.104654
134,0.0077319999999999976,0.7005995,-0.17236400000000002,-0.137467,0.5061295,-0.137241,-0.249817,0.7247895,-0.206774,0.14477299999999999,0.5037795,-0.143919,0.24238300000000002,0.7297395,-0.22248,-0.312797,0.9499595,-0.28533,0.27846299999999996,0.9532295,-0.31252,-0.067273,0.0015035000000000048,0.0030899999999999955,0.067273,-0.001503499999999998,-0.0030899999999999955,-0.124877,-0.2802405,-0.139745,0.12678299999999998,-0.2839605,-0.133695,-0.122217,-0.6303505,-0.088755,0.12826300000000002,-0.6243905,-0.093074
135,0.008284,0.703588,-0.152945,-0.13802499999999998,0.508268,-0.117983,-0.24915500000000002,0.724508,-0.181626,0.145965,0.506328,-0.124801,0.241705,0.7341580000000001,-0.198195,-0.311115,0.953708,-0.25460499999999997,0.277585,0.957028,-0.283975,-0.067302,0.0014959999999999973,0.0031219999999999998,0.067302,-0.0014960000000000008,-0.0031219999999999998,-0.12359499999999998,-0.288712,-0.118946,0.12370500000000001,-0.292302,-0.110658,-0.122145,-0.638822,-0.069674,0.127515,-0.6328619999999999,-0.072733
136,0.008560500000000002,0.707293,-0.1353605,-0.13852750000000003,0.506653,-0.09997249999999999,-0.2481875,0.722613,-0.1589215,0.1471225,0.507613,-0.1072075,0.2412225,0.738843,-0.1767515,-0.3090575,0.950183,-0.2283175,0.27687249999999997,0.957793,-0.2590175,-0.0673265,0.0011549999999999998,0.0031725000000000086,0.0673265,-0.0011549999999999998,-0.0031724999999999948,-0.1224175,-0.296387,-0.0989015,0.1206625,-0.300617,-0.0884145,-0.12196749999999999,-0.646857,-0.051249499999999996,0.12652249999999998,-0.640477,-0.052849499999999994
137,0.008813499999999998,0.7072149999999999,-0.11870800000000001,-0.13899050000000002,0.506865,-0.082877,-0.2470805,0.722695,-0.138302,0.14758949999999998,0.504285,-0.090527,0.2408995,0.739595,-0.156612,-0.30595049999999996,0.948255,-0.202339,0.2763495,0.9579449999999999,-0.233969,-0.0673385,0.0011549999999999998,0.003137000000000001,0.0673385,-0.0011549999999999998,-0.003137000000000001,-0.12137049999999999,-0.30271499999999996,-0.07977300000000001,0.11830950000000001,-0.307075,-0.06775400000000001,-0.12178050000000001,-0.653485,-0.033327,0.1255495,-0.6472950000000001,-0.033549
138,0.009021000000000001,0.7074010000000001,-0.102155,-0.139415,0.507041,-0.065872,-0.246005,0.723041,-0.11824,0.14799500000000002,0.501821,-0.073928,0.240605,0.739861,-0.137234,-0.302805,0.945611,-0.177881,0.275945,0.955531,-0.209251,-0.067235,0.0011719999999999994,0.0031149999999999997,0.067235,-0.0011719999999999994,-0.0031149999999999997,-0.120535,-0.308569,-0.060620999999999994,0.11622500000000001,-0.313189,-0.047081,-0.121645,-0.659539,-0.015081999999999998,0.124275,-0.653189,-0.013548999999999999
139,0.009092000000000003,0.7066385,-0.08776899999999999,-0.139851,0.5078185,-0.050282999999999994,-0.245311,0.7234284999999999,-0.100368,0.148309,0.4999385,-0.05953699999999999,0.240619,0.7391085,-0.119421,-0.29989099999999996,0.9428285,-0.15620299999999998,0.275939,0.9519985,-0.188053,-0.06725400000000001,0.0013365,0.0027630000000000016,0.06725400000000001,-0.0013365,-0.0027629999999999946,-0.119811,-0.3147315,-0.04266,0.11418900000000001,-0.3188015,-0.027923999999999997,-0.12127099999999999,-0.6655815,0.0031970000000000054,0.12275900000000001,-0.6584015000000001,0.0053460000000000035
140,0.009199000000000002,0.7057295,-0.073278,-0.140181,0.5081595000000001,-0.035345,-0.24437099999999998,0.7235395,-0.08335699999999999,0.148629,0.4982795,-0.044940999999999995,0.240299,0.7393895,-0.10231799999999999,-0.29713100000000003,0.9403995,-0.13542,0.275559,0.9493295,-0.16782,-0.06728500000000001,0.0015025,0.002368000000000002,0.06728500000000001,-0.0015025,-0.0023679999999999986,-0.11905099999999999,-0.3215505,-0.025076,0.11235900000000001,-0.3253005,-0.009215,-0.12088099999999999,-0.6722805,0.020789000000000002,0.121399,-0.6644705,0.022517000000000002
141,0.009381499999999996,0.702866,-0.0583805,-0.1405655,0.508276,-0.0202355,-0.2431655,0.723316,-0.0659485,0.1489945,0.496686,-0.0301715,0.2401145,0.739966,-0.0840765,-0.2943855,0.938056,-0.11429550000000001,0.2759545,0.946966,-0.1464855,-0.06737950000000001,0.0016229999999999999,0.0020825,0.06737950000000001,-0.0016229999999999999,-0.0020824999999999997,-0.1184155,-0.328524,-0.0069495,0.11109449999999998,-0.331504,0.0096655,-0.12055550000000001,-0.679244,0.038679500000000006,0.1201845,-0.670794,0.039667499999999994
142,0.009489999999999998,0.7004175,-0.0436545,-0.141013,0.5087375000000001,-0.005420499999999998,-0.242173,0.7234975,-0.0492775,0.149307,0.49541749999999996,-0.0156595,0.240117,0.7413275,-0.0670215,-0.291783,0.9356475000000001,-0.0937755,0.276637,0.9451875000000001,-0.1262355,-0.067465,0.0016435,0.001867500000000001,0.067465,-0.0016434999999999998,-0.0018674999999999994,-0.118033,-0.3348625,0.0106955,0.110077,-0.33711250000000004,0.0279035,-0.120363,-0.6855125,0.0560455,0.119537,-0.6763925,0.0549355
143,0.009622000000000002,0.699033,-0.033249,-0.141299,0.509293,0.004987999999999998,-0.241139,0.7242230000000001,-0.037251,0.149661,0.49517300000000003,-0.005435000000000002,0.24062099999999997,0.742233,-0.054594000000000004,-0.28939899999999996,0.933803,-0.078636,0.277581,0.9438030000000001,-0.111006,-0.067563,0.0013959999999999997,0.001847999999999999,0.067563,-0.001396,-0.0018480000000000024,-0.117699,-0.340167,0.023343999999999997,0.109411,-0.341507,0.040816,-0.120119,-0.690747,0.068362,0.118961,-0.680697,0.065836
144,0.009846999999999996,0.699033,-0.031424,-0.141415,0.509293,0.005956000000000001,-0.24001499999999998,0.724643,-0.033715,0.14958500000000002,0.495253,-0.004445000000000001,0.241365,0.743683,-0.050771,-0.287085,0.932633,-0.072336,0.279015,0.943553,-0.104807,-0.06766,0.0013959999999999997,0.0018430000000000009,0.06766,-0.001396,-0.0018430000000000009,-0.117745,-0.340257,0.025536,0.10925499999999999,-0.34174699999999997,0.043463,-0.12023500000000001,-0.691117,0.070339,0.118835,-0.683377,0.067414
145,0.010144500000000004,0.699013,-0.029593500000000002,-0.1414355,0.509293,0.006980499999999997,-0.2390155,0.724923,-0.030226500000000003,0.1496245,0.495253,-0.003397500000000001,0.2422345,0.7437130000000001,-0.0470725,-0.28489549999999997,0.931353,-0.0663685,0.28069449999999996,0.942303,-0.0988345,-0.0676615,0.0013959999999999997,0.001910499999999999,0.0676615,-0.001396,-0.0019105000000000025,-0.1177255,-0.340367,0.027777499999999997,0.10920450000000001,-0.342037,0.0461715,-0.1202755,-0.691277,0.0722805,0.1187945,-0.691017,0.0690645
146,0.010419999999999997,0.698693,-0.027815,-0.141456,0.509293,0.007973,-0.238066,0.725113,-0.026999000000000002,0.149654,0.495253,-0.002360000000000001,0.243154,0.7443730000000001,-0.043224,-0.283716,0.931303,-0.062508,0.282484,0.941253,-0.093902,-0.067662,0.0013959999999999997,0.0019309999999999987,0.067662,-0.001396,-0.0019310000000000022,-0.117706,-0.34046699999999996,0.029841,0.10914399999999999,-0.342317,0.048867999999999995,-0.120306,-0.691387,0.07408999999999999,0.118764,-0.691307,0.070637
147,0.010664,0.6994870000000001,-0.025939499999999997,-0.14134999999999998,0.509827,0.0089455,-0.23722,0.726457,-0.0238875,0.14965,0.495987,-0.0013234999999999983,0.24397999999999997,0.7453270000000001,-0.0395345,-0.28258,0.932447,-0.058611500000000004,0.28440000000000004,0.941577,-0.08897450000000001,-0.067611,0.0014389999999999997,0.0019605000000000004,0.067611,-0.001439,-0.0019605000000000004,-0.1178,-0.339393,0.0317775,0.10908,-0.341153,0.0514045,-0.12064,-0.690303,0.0758615,0.11892,-0.690483,0.0721385
148,0.0109105,0.7000385,-0.024151000000000006,-0.1412655,0.5103085,0.009848999999999997,-0.2364155,0.7276385,-0.021063000000000005,0.1496245,0.4965985,-0.00031000000000000125,0.24489450000000001,0.7449685,-0.036157,-0.28150549999999996,0.9334285,-0.054872000000000004,0.2861945,0.9402185,-0.084491,-0.0675185,0.0014795,0.0019889999999999977,0.0675185,-0.0014795000000000001,-0.001989000000000001,-0.1179055,-0.3385315,0.033245,0.1090145,-0.3402515,0.053537,-0.1209955,-0.6893914999999999,0.077508,0.1190345,-0.6899215,0.07342
149,0.011055499999999994,0.7004655000000001,-0.022455500000000003,-0.1412515,0.5106455000000001,0.0107045,-0.2359615,0.7283155,-0.0187545,0.1495385,0.4969955,0.0006565000000000008,0.2457485,0.7443455000000001,-0.0328455,-0.28065150000000005,0.9346455,-0.0516785,0.28780849999999997,0.9378655,-0.0801305,-0.06743350000000001,0.0015165,0.0020265000000000005,0.06743350000000001,-0.0015165,-0.0020265000000000005,-0.1180515,-0.3378745,0.0343305,0.10890849999999999,-0.3396245,0.0551295,-0.12136150000000001,-0.6886644999999999,0.0789705,0.1189085,-0.6888445,0.0747095
150,0.0111425,0.700647,-0.021622499999999996,-0.14135750000000002,0.510997,0.011335500000000002,-0.2358175,0.728647,-0.017819500000000002,0.1494125,0.497117,0.0013365000000000009,0.2464825,0.743337,-0.0315055,-0.2801775,0.934997,-0.0502175,0.2885125,0.936877,-0.0782605,-0.0673465,0.001496,0.0019895000000000017,0.0673465,-0.001496,-0.001989499999999998,-0.1182375,-0.33775299999999997,0.034972500000000004,0.1088425,-0.339653,0.055774500000000005,-0.1217275,-0.688313,0.0798575,0.11869249999999999,-0.688343,0.0754135
151,0.011183499999999997,0.7006935,-0.020977000000000003,-0.14152350000000002,0.5111835,0.011961,-0.23573349999999998,0.7287235,-0.017173,0.1491765,0.49730349999999995,0.0020139999999999984,0.24695650000000002,0.7423635,-0.030445,-0.27985350000000003,0.9351835,-0.049092,0.2890165,0.9370634999999999,-0.076615,-0.0672905,0.0014875,0.0019939999999999992,0.0672905,-0.0014875,-0.0019940000000000027,-0.1185635,-0.3377965,0.03561,0.1086365,-0.3398065,0.056415,-0.1222635,-0.6881365,0.080737,0.1183065,-0.6881565000000001,0.07607900000000001
152,0.011276999999999999,0.7006935,-0.020343,-0.141767,0.5111835,0.012529000000000002,-0.23560699999999998,0.7285735,-0.016537999999999997,0.148853,0.49730349999999995,0.0026429999999999995,0.247193,0.7423135,-0.029808,-0.279617,0.9351835,-0.048455000000000005,0.28940299999999997,0.9368434999999999,-0.075875,-0.06726599999999999,0.0014875,0.0020219999999999995,0.06726599999999999,-0.0014875,-0.0020219999999999995,-0.11899699999999999,-0.3380165,0.036233,0.10838300000000001,-0.3400865,0.057041,-0.12292700000000001,-0.6880865,0.081532,0.117783,-0.6881565000000001,0.0767
153,0.011649499999999998,0.7006935,-0.019606999999999996,-0.1417075,0.5114434999999999,0.01318,-0.2352775,0.7287235,-0.015803,0.14895250000000002,0.49730349999999995,0.003374000000000002,0.2473525,0.7429835,-0.029077000000000002,-0.2790475,0.9347835,-0.04771500000000001,0.28947249999999997,0.9376035,-0.075144,-0.0672575,0.0014875,0.00204,0.0672575,-0.0014875,-0.00204,-0.1195975,-0.33833650000000004,0.036728,0.10809250000000001,-0.3402465,0.057691000000000006,-0.12382750000000001,-0.6880765,0.082346,0.11701249999999999,-0.6884665,0.077412
154,0.012283499999999998,0.700834,-0.019031,-0.1411995,0.512374,0.013740000000000002,-0.2345495,0.728974,-0.015198999999999997,0.1502405,0.497834,0.004100000000000003,0.24749049999999997,0.744284,-0.028435000000000002,-0.2782395,0.934454,-0.04699899999999999,0.2905805,0.939074,-0.07441700000000001,-0.0672295,0.001433,0.002034000000000001,0.0672295,-0.001433,-0.0020339999999999976,-0.1202995,-0.338456,0.037211,0.1079305,-0.340116,0.057959000000000004,-0.1248895,-0.6879460000000001,0.083023,0.1160105,-0.688686,0.078091
155,0.013336500000000005,0.7009905,-0.018705,-0.1407435,0.5123205,0.014394000000000002,-0.2334435,0.7290505,-0.015169999999999996,0.1517665,0.4983805,0.0052280000000000035,0.24849649999999998,0.7442805,-0.028007999999999998,-0.27688349999999995,0.9339805,-0.046609,0.2924565,0.9400905,-0.07326099999999999,-0.06722249999999999,0.0013635000000000001,0.0020230000000000005,0.06722249999999999,-0.0013635000000000001,-0.002022999999999997,-0.12139349999999999,-0.3386595,0.037899,0.1074765,-0.3402695,0.058133000000000004,-0.1268335,-0.6879595,0.08409900000000001,0.1141865,-0.6890295,0.079069
156,0.014453500000000001,0.7011845,-0.018768,-0.1396145,0.5124245,0.014776999999999998,-0.2322545,0.7291145,-0.015990000000000004,0.15339550000000002,0.4990045,0.006207999999999998,0.24969550000000001,0.7435744999999999,-0.027767,-0.2755145,0.9333545,-0.047105999999999995,0.2938555,0.9393845,-0.072043,-0.06723950000000001,0.0013195,0.0020230000000000005,0.06723950000000001,-0.0013195,-0.0020230000000000005,-0.12250449999999999,-0.33889549999999996,0.038600999999999996,0.10701549999999999,-0.3403655,0.058016,-0.1291345,-0.6879955000000001,0.085318,0.1120255,-0.6892855,0.080122
157,0.016225000000000003,0.701336,-0.018942,-0.138696,0.5124059999999999,0.01509,-0.231156,0.7291059999999999,-0.01788,0.15456399999999998,0.499906,0.007511999999999998,0.251224,0.7425759999999999,-0.027607,-0.274246,0.9325159999999999,-0.049208999999999996,0.29561400000000004,0.938506,-0.07125400000000001,-0.067289,0.001325,0.0020890000000000006,0.067289,-0.001325,-0.0020890000000000006,-0.12401599999999999,-0.339154,0.039196999999999996,0.106434,-0.34049399999999996,0.057416999999999996,-0.132486,-0.6879240000000001,0.086867,0.109004,-0.6894840000000001,0.081374
158,0.0181405,0.7014319999999999,-0.019050499999999998,-0.1372735,0.512262,0.0146745,-0.2302235,0.728942,-0.021594500000000003,0.15766650000000001,0.5007919999999999,0.0091935,0.2543165,0.742192,-0.0281425,-0.2732235,0.931062,-0.0548055,0.2994365,0.9382419999999999,-0.0738875,-0.0671915,0.001318,0.0017874999999999974,0.0671915,-0.001318,-0.0017874999999999974,-0.1257335,-0.339688,0.0391065,0.10521649999999999,-0.340518,0.056444499999999995,-0.1373235,-0.687798,0.0886165,0.10464649999999999,-0.689728,0.0828905
159,0.02014,0.701458,-0.019344,-0.135886,0.512078,0.013992000000000004,-0.229336,0.728358,-0.026601,0.160764,0.500858,0.011027000000000002,0.257604,0.740658,-0.028936000000000003,-0.272116,0.928938,-0.062424999999999994,0.305054,0.935998,-0.077694,-0.067095,0.0013059999999999999,0.001353,0.067095,-0.001306,-0.001353,-0.127196,-0.341032,0.037875000000000006,0.10387400000000001,-0.340552,0.05491,-0.142796,-0.687572,0.090303,0.099654,-0.689992,0.08423900000000001
160,0.022259,0.701851,-0.0198975,-0.134269,0.510981,0.012057500000000002,-0.229079,0.725941,-0.03442049999999999,0.164171,0.501331,0.013086500000000004,0.262951,0.738711,-0.031148499999999996,-0.270729,0.923891,-0.0766925,0.311521,0.9327909999999999,-0.08379249999999999,-0.067012,0.0012629999999999998,0.0009105000000000016,0.067012,-0.001263,-0.0009104999999999946,-0.128147,-0.34295899999999996,0.0314325,0.101551,-0.34078899999999995,0.052547500000000004,-0.14974900000000002,-0.6871090000000001,0.0905655,0.092791,-0.6902090000000001,0.0855185
161,0.023753999999999997,0.702832,-0.020353000000000003,-0.133031,0.5097320000000001,0.00988,-0.229791,0.722442,-0.043961999999999994,0.166069,0.5024620000000001,0.015508999999999998,0.268759,0.732562,-0.033186,-0.270121,0.918142,-0.09192900000000001,0.317629,0.925272,-0.090529,-0.06705900000000001,0.0012560000000000002,0.00041999999999999676,0.067059,-0.0012559999999999997,-0.00041999999999999676,-0.129264,-0.346058,0.022886,0.09844900000000001,-0.34271799999999997,0.04981,-0.157921,-0.686068,0.08984,0.084499,-0.691288,0.087123
162,0.024340500000000008,0.704191,-0.020513000000000003,-0.1325715,0.507991,0.0073659999999999975,-0.2316975,0.715121,-0.053922,0.1673925,0.503661,0.018120999999999998,0.27468250000000005,0.725241,-0.035192,-0.2696475,0.9125610000000001,-0.11152899999999999,0.3239925,0.9158310000000001,-0.099159,-0.06725249999999999,0.0012860000000000003,-0.00016499999999999848,0.06725249999999999,-0.0012859999999999998,0.00016499999999999848,-0.1303865,-0.34973899999999997,0.010895000000000002,0.0937625,-0.34407899999999997,0.047289,-0.1669675,-0.684119,0.08771699999999999,0.0746425,-0.6915789999999999,0.088831
163,0.02463950000000001,0.7053465,-0.020624000000000003,-0.13379649999999998,0.5065865,0.004949999999999996,-0.2351705,0.7059265,-0.06464400000000001,0.1662795,0.5048165,0.020704999999999994,0.2824995,0.7146265,-0.037744,-0.26928050000000003,0.9052465000000001,-0.133664,0.33029949999999997,0.9026065,-0.10963400000000001,-0.0672895,0.0012624999999999997,-0.0008790000000000048,0.0672895,-0.0012624999999999997,0.0008789999999999978,-0.1305895,-0.3527835,-0.0034410000000000066,0.08819950000000001,-0.34657350000000003,0.044979,-0.1755805,-0.6823035,0.084007,0.0626795,-0.6894935,0.090486
164,0.024234499999999992,0.7067135,-0.020540499999999996,-0.1335545,0.5040335,0.0020364999999999966,-0.2407025,0.6944335,-0.07693849999999999,0.1660875,0.5056135,0.0234585,0.2920975,0.7023135,-0.03756350000000001,-0.2689725,0.8941135,-0.1595385,0.3349075,0.8892835,-0.12127849999999998,-0.0674975,0.0013685000000000008,-0.0014725000000000016,0.06749749999999999,-0.0013685,0.0014725000000000016,-0.1295325,-0.35548650000000004,-0.020117500000000003,0.08014750000000001,-0.3493665,0.0461535,-0.1814425,-0.6797565,0.0762115,0.04972750000000001,-0.6890965,0.0919145
165,0.022861999999999993,0.70849,-0.020198500000000008,-0.13769,0.50011,-0.0006265000000000021,-0.250978,0.67088,-0.09372450000000002,0.162012,0.50553,0.027707499999999996,0.29808199999999996,0.67613,-0.03427050000000001,-0.268778,0.86355,-0.1915145,0.338952,0.858,-0.1371445,-0.06778200000000001,0.0011260000000000003,-0.0023535000000000014,0.067782,-0.0011260000000000003,0.0023534999999999945,-0.12431500000000001,-0.35715,-0.04319450000000001,0.067062,-0.35374,0.046778499999999994,-0.179267,-0.676,0.0588195,0.030951999999999993,-0.68727,0.09533449999999999
166,0.02329000000000002,0.710792,-0.020762000000000003,-0.138983,0.49435199999999996,-0.004986000000000004,-0.25773999999999997,0.631722,-0.108037,0.1597,0.502512,0.031431999999999995,0.3014,0.633862,-0.027828000000000006,-0.26325,0.807862,-0.22476700000000002,0.34397,0.798682,-0.146657,-0.06811999999999999,0.0011579999999999993,-0.003275,0.06812,-0.0011580000000000028,0.003274999999999993,-0.11172099999999999,-0.358208,-0.07034699999999999,0.0528,-0.357338,0.04979599999999999,-0.16105999999999998,-0.671048,0.027831999999999996,0.01194000000000002,-0.684238,0.100879
167,0.023674,0.7144475,-0.02085300000000001,-0.136558,0.4891375,-0.010920000000000013,-0.263296,0.5877275000000001,-0.11904100000000001,0.155674,0.4995275,0.034977999999999995,0.302574,0.5873775,-0.021982,-0.254066,0.7481675,-0.245331,0.34555400000000003,0.7320875,-0.147281,-0.068424,0.0015504999999999998,-0.004168000000000005,0.06842399999999998,-0.0015504999999999998,0.004167999999999991,-0.09964700000000001,-0.3572125,-0.09593100000000002,0.041294,-0.3599425,0.05423099999999999,-0.138444,-0.6648824999999999,-0.006036000000000014,-0.006036000000000014,-0.6800824999999999,0.10821399999999999
168,0.025735499999999994,0.7169125,-0.02219,-0.1343465,0.4834025,-0.017320000000000002,-0.2652645,0.5418425,-0.1267,0.15276549999999997,0.4933425,0.039460999999999996,0.3012355,0.5354924999999999,-0.012559,-0.23971150000000002,0.6810124999999999,-0.2603,0.3431655,0.6548425,-0.14454,-0.0682055,0.002101499999999999,-0.006598000000000007,0.0682055,-0.002101499999999999,0.006597999999999993,-0.0873305,-0.3494275,-0.12077000000000002,0.0287655,-0.3605375,0.062229999999999994,-0.1063415,-0.6573375,-0.045660000000000006,-0.02534450000000002,-0.6720975,0.118824
169,0.028155000000000013,0.719983,-0.023925500000000002,-0.13346,0.477873,-0.022445499999999993,-0.266208,0.495743,-0.1299655,0.149155,0.486583,0.0441085,0.29664500000000005,0.484553,-0.0040655,-0.225605,0.594683,-0.2663455,0.338515,0.573883,-0.1379555,-0.068425,0.0025459999999999997,-0.008635500000000004,0.06842500000000001,-0.0025459999999999997,0.008635500000000004,-0.076237,-0.344137,-0.1352755,0.018055000000000015,-0.361247,0.0704085,-0.071715,-0.650927,-0.08359549999999999,-0.04403499999999999,-0.664357,0.1304555
170,0.028904999999999986,0.7243325,-0.027260000000000006,-0.134848,0.4738225,-0.029870000000000008,-0.26646000000000003,0.4460325,-0.12509,0.14450500000000002,0.4811725,0.047196,0.283555,0.4369525,0.01038,-0.218666,0.5047225,-0.26566,0.32755500000000004,0.4881425,-0.12521000000000002,-0.06848499999999999,0.002959499999999997,-0.010660000000000003,0.06848499999999999,-0.002959500000000004,0.010660000000000003,-0.06442500000000001,-0.3370975,-0.14592000000000002,0.0011249999999999871,-0.3549775,0.082541,-0.03823499999999999,-0.6451475,-0.11585000000000001,-0.06962499999999999,-0.6562275,0.147641
171,0.031010000000000038,0.728341,-0.030680000000000013,-0.135037,0.47080099999999997,-0.035910000000000025,-0.263434,0.399711,-0.11614000000000002,0.14057000000000003,0.476711,0.05007099999999998,0.26918000000000003,0.39053099999999996,0.031059999999999977,-0.21259399999999998,0.410371,-0.25466,0.31327,0.39947099999999997,-0.10838000000000003,-0.06850999999999999,0.003480999999999998,-0.012060000000000015,0.06851000000000002,-0.003480999999999998,0.012059999999999987,-0.05099999999999999,-0.330189,-0.14672000000000002,-0.01368999999999998,-0.353459,0.09739499999999998,-0.006959999999999994,-0.6403490000000001,-0.14071,-0.09323999999999999,-0.648339,0.169536
172,0.03320500000000004,0.7322465,-0.03369500000000003,-0.13337499999999997,0.46777650000000004,-0.04184500000000002,-0.258874,0.3539165,-0.10479500000000003,0.13834500000000005,0.47198650000000003,0.05339499999999997,0.252525,0.34821650000000004,0.05372499999999997,-0.20766599999999996,0.31724650000000004,-0.23935500000000004,0.2961750000000001,0.3144965,-0.087175,-0.06894499999999998,0.003660500000000004,-0.012645000000000017,0.06894500000000003,-0.003660499999999997,0.01264499999999999,-0.037784999999999985,-0.3240035,-0.142015,-0.02510499999999996,-0.3516235,0.11090399999999997,0.02257500000000001,-0.6371034999999999,-0.160545,-0.11508499999999997,-0.6400635,0.19300399999999998
173,0.03684000000000004,0.7354405,-0.03734500000000002,-0.13174999999999998,0.4663805,-0.04757499999999998,-0.25006799999999996,0.3103905,-0.09253499999999998,0.13533,0.4680305,0.05588500000000002,0.23386000000000007,0.3083305,0.075515,-0.20361799999999997,0.2279405,-0.217775,0.27724000000000004,0.2300205,-0.05905499999999997,-0.06883999999999998,0.0032404999999999934,-0.013264999999999999,0.06884000000000001,-0.0032405000000000073,0.013264999999999999,-0.02890999999999999,-0.31822950000000005,-0.131565,-0.02999999999999997,-0.3461795,0.09363500000000001,0.04708000000000001,-0.6346695,-0.171645,-0.12838999999999998,-0.6292895,0.19842500000000002
174,0.03960999999999998,0.738455,-0.041580000000000006,-0.12781,0.465715,-0.05402999999999997,-0.23819,0.278715,-0.07628999999999997,0.13429000000000002,0.465095,0.0567,0.21739000000000003,0.282115,0.09526000000000001,-0.20052999999999999,0.15793600000000002,-0.19222,0.26008000000000003,0.159325,-0.03271000000000002,-0.06795999999999999,0.003009999999999999,-0.014429999999999998,0.06796000000000002,-0.003009999999999999,0.014429999999999998,-0.024909999999999988,-0.312945,-0.11709999999999998,-0.029679999999999984,-0.346285,0.07485,0.06161,-0.634675,-0.17308999999999997,-0.13017,-0.621005,0.19648900000000002
175,0.03919,0.7406699999999999,-0.04594999999999999,-0.12747000000000003,0.46743999999999997,-0.05939,-0.23034000000000002,0.26588,-0.06253000000000003,0.13144,0.46492999999999995,0.05706999999999998,0.20124999999999993,0.27591,0.11279,-0.20315000000000003,0.117764,-0.16970000000000002,0.24038000000000004,0.124885,-0.008599999999999997,-0.06742999999999999,0.002678999999999987,-0.015539999999999998,0.06742999999999999,-0.002679000000000001,0.015539999999999998,-0.027590000000000003,-0.30989999999999995,-0.09831000000000001,-0.030210000000000015,-0.34270999999999996,0.05459,0.05901000000000001,-0.6341800000000001,-0.16081,-0.12890000000000001,-0.61572,0.191867
176,0.03841499999999998,0.7407334999999999,-0.05175999999999997,-0.131845,0.46929350000000003,-0.06334000000000001,-0.224535,0.2596235,-0.05051,0.12726499999999996,0.4644435,0.05704999999999999,0.185195,0.26937350000000004,0.13056,-0.209755,0.0842895,-0.14984999999999998,0.223275,0.10039250000000001,0.011919999999999986,-0.06695499999999999,0.0022614999999999996,-0.016600000000000004,0.06695499999999999,-0.0022614999999999996,0.016600000000000004,-0.030264999999999986,-0.30910649999999995,-0.07991999999999999,-0.03171499999999999,-0.34079649999999995,0.03383999999999998,0.051035,-0.6353765,-0.14447,-0.128315,-0.6097665,0.17995
177,0.035640000000000005,0.7410745,-0.05672499999999997,-0.13678,0.47092449999999997,-0.06637499999999996,-0.22232,0.2567545,-0.04140499999999997,0.12185000000000001,0.46524449999999995,0.05555500000000002,0.17098999999999998,0.26772450000000003,0.14562500000000003,-0.22152999999999998,0.060481499999999994,-0.13065499999999997,0.20806999999999998,0.0921635,0.035465000000000024,-0.06702999999999998,0.0020024999999999904,-0.015924999999999967,0.06703000000000003,-0.0020025000000000043,0.015925000000000022,-0.03062999999999999,-0.31017550000000005,-0.06595499999999999,-0.03276000000000001,-0.33410550000000006,0.008904999999999996,0.03212000000000004,-0.6354955,-0.121035,-0.12398999999999999,-0.6049355,0.15624500000000002
