sb224sc-HT22-VT27/4dt907/src/data/kinect_good_vs_bad_not_preprocessed_A13_mediapipe/G55.csv
FrameNo,nose_3d_x,nose_3d_y,nose_3d_z,left_shoulder_3d_x,left_shoulder_3d_y,left_shoulder_3d_z,left_elbow_3d_x,left_elbow_3d_y,left_elbow_3d_z,right_shoulder_3d_x,right_shoulder_3d_y,right_shoulder_3d_z,right_elbow_3d_x,right_elbow_3d_y,right_elbow_3d_z,left_wrist_3d_x,left_wrist_3d_y,left_wrist_3d_z,right_wrist_3d_x,right_wrist_3d_y,right_wrist_3d_z,left_hip_3d_x,left_hip_3d_y,left_hip_3d_z,right_hip_3d_x,right_hip_3d_y,right_hip_3d_z,left_knee_3d_x,left_knee_3d_y,left_knee_3d_z,right_knee_3d_x,right_knee_3d_y,right_knee_3d_z,left_ankle_3d_x,left_ankle_3d_y,left_ankle_3d_z,right_ankle_3d_x,right_ankle_3d_y,right_ankle_3d_z
0,0.0130915,0.713974,-0.0008924999999999975,-0.1465185,0.49942400000000003,0.0128295,-0.2527385,0.7287440000000001,-0.0369365,0.1553515,0.503514,0.022031500000000002,0.24996149999999998,0.744594,-0.008892499999999998,-0.30494849999999996,0.9346140000000001,-0.0895535,0.2896115,0.940034,-0.048841499999999996,-0.0685635,-0.0003979999999999999,0.0005015000000000019,0.0685635,0.0003979999999999999,-0.000501499999999995,-0.1262085,-0.346506,0.017760500000000002,0.1057515,-0.33083599999999996,0.035369500000000005,-0.1333085,-0.657776,0.0543235,0.1288215,-0.633316,0.0630665
1,0.013873,0.714338,-0.0014850000000000002,-0.146102,0.498498,0.013734000000000003,-0.248452,0.731438,-0.033614,0.156788,0.501378,0.022488,0.24954800000000002,0.744568,-0.0057879999999999945,-0.301852,0.955898,-0.071934,0.288358,0.940658,-0.04215,-0.068547,-0.0004329999999999998,0.0006870000000000001,0.068547,0.0004329999999999998,-0.0006870000000000001,-0.125662,-0.347452,0.018215000000000002,0.105478,-0.32833199999999996,0.035754,-0.131822,-0.663482,0.055733000000000005,0.129098,-0.633282,0.064059
2,0.014076,0.712978,-0.0004834999999999978,-0.145609,0.498288,0.014738499999999998,-0.244049,0.735058,-0.029877499999999994,0.158001,0.498658,0.0223365,0.249321,0.744178,-0.003749500000000003,-0.299049,0.9536779999999999,-0.0693365,0.287651,0.941168,-0.039341499999999995,-0.06865,-0.00030599999999999985,0.0007285,0.06865,0.0003060000000000003,-0.0007285,-0.125309,-0.347922,0.0184235,0.105391,-0.328162,0.0363145,-0.131599,-0.662182,0.0558535,0.129391,-0.6338720000000001,0.0646135
3,0.014618000000000003,0.712044,5.2499999999996994e-05,-0.140854,0.5032439999999999,0.0177065,-0.240264,0.735904,-0.026195500000000004,0.157256,0.498234,0.023164499999999998,0.249386,0.7417039999999999,-0.0014894999999999978,-0.29535399999999995,0.948514,-0.06317049999999999,0.28749600000000003,0.939194,-0.036188500000000005,-0.068582,9.5e-05,0.0005254999999999982,0.068582,-9.5e-05,-0.0005254999999999982,-0.125254,-0.35054599999999997,0.0192705,0.105596,-0.331036,0.0377785,-0.13098400000000002,-0.665756,0.0570995,0.125116,-0.6731360000000001,0.0650935
4,0.015166499999999998,0.7124935,0.0002045000000000033,-0.13822650000000003,0.5043635,0.018138500000000002,-0.2357165,0.7336735,-0.022796499999999997,0.1588635,0.4957235,0.0233795,0.2496835,0.7411935,-0.0004725000000000007,-0.2896165,0.9449235,-0.0570765,0.2875235,0.9388735,-0.0348045,-0.0686295,0.0001385,0.0007665000000000033,0.0686295,-0.0001385,-0.0007664999999999964,-0.1249765,-0.3512265,0.0193715,0.10577349999999999,-0.33139650000000004,0.038462500000000004,-0.13056650000000003,-0.6659965,0.0576795,0.1283435,-0.6382965,0.0680935
5,0.015259500000000006,0.7140255000000001,-4.900000000000043e-05,-0.1385495,0.5025955000000001,0.018583000000000002,-0.23306949999999999,0.7360255,-0.020661,0.1596705,0.49481549999999996,0.023613000000000002,0.2496605,0.7414355,0.001018999999999999,-0.2868395,0.9441255000000001,-0.053635,0.2873805,0.9389555,-0.034187999999999996,-0.0685775,0.00010449999999999999,0.0010030000000000039,0.0685775,-0.00010449999999999999,-0.001002999999999997,-0.12490949999999999,-0.3515345,0.019556,0.10565050000000001,-0.3315345,0.038990000000000004,-0.1303395,-0.6670545,0.058581,0.12850050000000002,-0.6384245,0.068439
6,0.015634500000000003,0.7146085,0.00037249999999999783,-0.1386885,0.5014685,0.019264499999999997,-0.2318285,0.7375085,-0.019096500000000002,0.1604615,0.4933985,0.024014499999999998,0.2497715,0.7414185,0.002084499999999996,-0.28542850000000003,0.9467885,-0.052151499999999996,0.2872115,0.9392785,-0.033288500000000006,-0.0685695,0.00015749999999999998,0.0008664999999999992,0.0685695,-0.00015749999999999998,-0.0008664999999999992,-0.1250485,-0.3519715,0.0197185,0.10555149999999999,-0.3318815,0.0397845,-0.1299885,-0.6675015,0.0589745,0.1284215,-0.6392215,0.0688405
7,0.016222500000000004,0.7127475,0.001858499999999999,-0.1389135,0.5018475,0.0199155,-0.2322135,0.7370074999999999,-0.018964500000000002,0.1595665,0.4956975,0.0254295,0.2500665,0.7412875,0.0028325000000000017,-0.2836535,0.9495775,-0.052034500000000004,0.28713649999999996,0.9388974999999999,-0.0324625,-0.0685585,0.0002435,0.000620500000000003,0.0685585,-0.0002435,-0.000620500000000003,-0.1248435,-0.35203249999999997,0.0194765,0.1057265,-0.3324625,0.0400845,-0.12951349999999998,-0.6676725,0.0593665,0.1287665,-0.6395425,0.0683375
8,0.016653499999999998,0.7124545000000001,0.002430500000000002,-0.1386455,0.5018245,0.020529500000000003,-0.2308655,0.7373045,-0.017683499999999998,0.1600545,0.4951645,0.025922500000000005,0.2502245,0.7411045,0.0037985000000000033,-0.28123549999999997,0.9497945000000001,-0.05011549999999999,0.28705450000000005,0.9387645,-0.0314415,-0.0685375,0.0002865000000000001,0.0006085000000000049,0.0685375,-0.0002865000000000001,-0.0006084999999999979,-0.1247155,-0.3523855,0.019569500000000004,0.1057745,-0.3328955,0.040615500000000006,-0.12916550000000002,-0.6682254999999999,0.059902500000000004,0.12885449999999998,-0.6404255,0.06887750000000001
9,0.017035500000000002,0.712359,0.002923000000000002,-0.13829750000000002,0.502029,0.021066,-0.2299875,0.737439,-0.016758999999999996,0.1603325,0.494899,0.026350000000000002,0.2503225,0.740989,0.004785999999999999,-0.2794375,0.949579,-0.049044,0.2869425,0.938639,-0.030492,-0.0685035,0.00032200000000000024,0.0005710000000000021,0.0685035,-0.0003219999999999998,-0.0005710000000000021,-0.1246175,-0.352701,0.019655000000000002,0.10580250000000001,-0.333301,0.041136,-0.1288375,-0.668541,0.060354000000000005,0.12890249999999998,-0.641291,0.069324
10,0.017409,0.7122245,0.003390000000000004,-0.138078,0.5025045,0.0216,-0.229428,0.7374945,-0.016072999999999997,0.160472,0.49491450000000003,0.026792000000000003,0.25037200000000004,0.7407245,0.005650000000000002,-0.277968,0.9495745,-0.048368,0.286842,0.9385045000000001,-0.029553000000000003,-0.068483,0.0003575000000000002,0.0005199999999999996,0.068483,-0.00035749999999999975,-0.0005199999999999996,-0.124528,-0.35300549999999997,0.019752000000000002,0.105832,-0.33372549999999995,0.041655,-0.128608,-0.6689355,0.060807,0.128952,-0.6420855,0.069772
11,0.017769,0.7120915,0.003792500000000004,-0.137849,0.5029115,0.022053500000000004,-0.229019,0.7373715,-0.015567499999999998,0.160701,0.4947915,0.027244500000000005,0.250411,0.7404115,0.006396500000000006,-0.27670900000000004,0.9497615,-0.0478475,0.28674099999999997,0.9381715,-0.02875749999999999,-0.068466,0.00039349999999999975,0.0004965000000000039,0.068466,-0.0003935000000000002,-0.0004964999999999969,-0.12439899999999998,-0.3533185,0.019832500000000006,0.10587099999999999,-0.3341885,0.0420695,-0.12836899999999998,-0.6692785,0.061201500000000006,0.129191,-0.6423584999999999,0.0701985
12,0.018067000000000003,0.711936,0.00417,-0.137764,0.502916,0.022510000000000002,-0.22872399999999998,0.737126,-0.015104,0.160836,0.494896,0.027658000000000002,0.250376,0.740126,0.007051000000000002,-0.275674,0.9499259999999999,-0.047356,0.286676,0.937806,-0.028044999999999994,-0.068442,0.00042200000000000007,0.00046399999999999914,0.068442,-0.00042199999999999963,-0.00046399999999999914,-0.12428399999999998,-0.353584,0.019923,0.10591600000000001,-0.334664,0.04244,-0.12811399999999998,-0.669644,0.061596,0.12923600000000002,-0.643084,0.070437
13,0.018319000000000005,0.711611,0.004549000000000004,-0.137666,0.503031,0.022888000000000006,-0.228486,0.736741,-0.014704999999999996,0.160894,0.495091,0.028001000000000005,0.250244,0.739631,0.007499000000000006,-0.275016,0.949601,-0.046942,0.28666400000000003,0.937301,-0.027483999999999995,-0.06839300000000001,0.0004419999999999997,0.0004400000000000029,0.06839300000000001,-0.0004420000000000001,-0.00043999999999999595,-0.12415600000000002,-0.354009,0.020033000000000006,0.105964,-0.335279,0.042704000000000006,-0.127866,-0.669739,0.061904,0.129304,-0.643939,0.070638
14,0.018540499999999998,0.7112269999999999,0.004931499999999998,-0.1375745,0.503297,0.0232225,-0.22826449999999998,0.736367,-0.014322500000000002,0.16085549999999998,0.49539700000000003,0.028339499999999997,0.2500555,0.739127,0.007866499999999998,-0.2747145,0.949097,-0.046631500000000006,0.28656550000000003,0.936797,-0.027112499999999998,-0.0683435,0.00046600000000000027,0.0003804999999999989,0.0683435,-0.00046600000000000027,-0.0003804999999999989,-0.1240545,-0.354453,0.0201785,0.1060155,-0.335903,0.0429175,-0.1276445,-0.6697430000000001,0.062184500000000004,0.1293455,-0.644733,0.0708345
15,0.018732000000000002,0.7109335,0.0052209999999999965,-0.13756300000000002,0.5044234999999999,0.023335999999999996,-0.228073,0.7361435,-0.014101000000000002,0.160667,0.4955335,0.028595999999999996,0.249777,0.7387935,0.008139,-0.274503,0.9487935,-0.046594,0.28641700000000003,0.9363834999999999,-0.026844000000000007,-0.068307,0.00048150000000000016,0.00035400000000000015,0.068307,-0.0004814999999999993,-0.00035400000000000015,-0.12399299999999999,-0.3547265,0.020266999999999997,0.10603699999999999,-0.3363565,0.043031999999999994,-0.127423,-0.6701765000000001,0.06245099999999999,0.129357,-0.6453065,0.070944
16,0.0188845,0.71072,0.005361499999999998,-0.1375825,0.50571,0.0233775,-0.2279625,0.736,-0.014031500000000002,0.16046749999999999,0.49585,0.028777499999999998,0.2493975,0.73855,0.008327499999999995,-0.2743425,0.94855,-0.04678550000000001,0.2861475,0.93606,-0.02665150000000001,-0.0682825,0.0004789999999999994,0.0003374999999999975,0.0682825,-0.00047900000000000026,-0.00033750000000000446,-0.12397250000000001,-0.35492,0.020281499999999997,0.1060275,-0.33675,0.043033499999999995,-0.1272125,-0.6707,0.0626615,0.1293175,-0.6459199999999999,0.0709825
17,0.018942499999999998,0.7105105,0.0051965,-0.1376725,0.5068205,0.0232905,-0.2279325,0.7358605,-0.014139500000000006,0.16021749999999998,0.49608050000000004,0.028803499999999996,0.24891749999999999,0.7382505,0.008293499999999995,-0.27421249999999997,0.9481505,-0.0472365,0.2857775,0.9356805,-0.026636500000000007,-0.06827050000000001,0.00048150000000000016,0.0002864999999999951,0.06827050000000001,-0.00048150000000000016,-0.00028650000000000203,-0.1239925,-0.3551395,0.020224499999999996,0.10598749999999998,-0.3371495,0.0428025,-0.1271025,-0.6709495,0.06275449999999999,0.1291975,-0.6465695,0.0708895
18,0.018913999999999993,0.709954,0.0049055,-0.137934,0.507654,0.023058500000000003,-0.22805399999999998,0.735664,-0.014388499999999999,0.15988599999999997,0.49638400000000005,0.028504500000000002,0.24824599999999997,0.737784,0.008059500000000004,-0.274374,0.947734,-0.0478885,0.28526599999999996,0.935124,-0.026884499999999992,-0.068286,0.0004780000000000001,0.00028349999999999903,0.068286,-0.00047799999999999926,-0.00028349999999999903,-0.12405400000000001,-0.355416,0.0201155,0.105906,-0.337606,0.042377500000000005,-0.127044,-0.671266,0.0627105,0.129166,-0.6472559999999999,0.0707055
19,0.018782499999999994,0.7095035000000001,0.004542000000000004,-0.1382085,0.5072335,0.022683000000000002,-0.22835850000000002,0.7353235,-0.014724999999999995,0.15973149999999997,0.4963135,0.028191,0.2475615,0.7372635000000001,0.00766,-0.2748585,0.9473735000000001,-0.048599,0.2846415,0.9344635,-0.02750799999999999,-0.0683015,0.0004764999999999995,0.00028300000000000547,0.0683015,-0.00047650000000000036,-0.00028299999999999853,-0.12409850000000001,-0.3557265,0.020008,0.10581149999999999,-0.3380965,0.041923,-0.12696849999999998,-0.6718464999999999,0.062663,0.1290715,-0.6480764999999999,0.07043
20,0.018515,0.7093865,0.003957000000000002,-0.138504,0.5075965,0.022353,-0.228744,0.7349365,-0.015037999999999996,0.159586,0.49592650000000005,0.027831,0.246826,0.7366765000000001,0.0071440000000000045,-0.275434,0.9468165000000001,-0.049373,0.283986,0.9336765,-0.028401999999999997,-0.068306,0.00043349999999999986,0.00028300000000000547,0.068306,-0.00043349999999999986,-0.00028299999999999853,-0.12409400000000001,-0.3560735,0.019919000000000003,0.105776,-0.3385935,0.041396,-0.126864,-0.6727434999999999,0.062616,0.128656,-0.6495434999999999,0.069901
21,0.018188000000000003,0.7089855,0.0033100000000000004,-0.138831,0.5078855,0.021975999999999996,-0.229201,0.7345155,-0.015577,0.159559,0.4952655,0.027282999999999995,0.245959,0.7359555,0.0061209999999999945,-0.276081,0.9461555,-0.05018600000000001,0.283169,0.9328355,-0.029928999999999997,-0.068303,0.00037549999999999997,0.00020799999999999985,0.068303,-0.00037549999999999997,-0.00020799999999999985,-0.124091,-0.3564545,0.019724999999999996,0.10578900000000001,-0.33915449999999997,0.040674999999999996,-0.12676099999999998,-0.6742545,0.062410999999999994,0.127859,-0.6535345,0.06887499999999999
22,0.017787,0.7086765,0.002262999999999994,-0.13913999999999999,0.5085065,0.021348999999999993,-0.22965000000000002,0.7342065,-0.016547000000000006,0.15959,0.4949565,0.026359999999999995,0.24506,0.7354565,0.004569999999999991,-0.27676,0.9455665,-0.05142400000000001,0.28221,0.9320465,-0.03201200000000001,-0.068303,0.0003235,0.00016999999999999654,0.068303,-0.0003235,-0.00017000000000000348,-0.12407,-0.3567035,0.019226999999999994,0.10583,-0.33968349999999997,0.039541999999999994,-0.1266,-0.6759935,0.06179699999999999,0.12697,-0.6576835,0.06723499999999999
23,0.017296,0.708341,0.0009230000000000002,-0.139456,0.509021,0.020531999999999998,-0.230106,0.733841,-0.017803,0.159604,0.49462100000000003,0.0252,0.244154,0.7351209999999999,0.0026219999999999993,-0.277366,0.944871,-0.052979000000000005,0.281254,0.931711,-0.035053999999999995,-0.068325,0.0002700000000000003,3.999999999999837e-05,0.068325,-0.0002700000000000003,-3.999999999999837e-05,-0.12406599999999998,-0.35694899999999996,0.018462,0.10586400000000001,-0.340379,0.038029,-0.12642599999999998,-0.677809,0.060964000000000004,0.125984,-0.662479,0.065368
24,0.016737000000000002,0.707927,-0.001004999999999999,-0.13973799999999997,0.5094069999999999,0.019305999999999997,-0.230568,0.733297,-0.019713,0.15960200000000002,0.49410699999999996,0.023534,0.24325200000000002,0.7347469999999999,-0.00023300000000000404,-0.277858,0.9441269999999999,-0.055248000000000005,0.28027199999999997,0.930997,-0.039095000000000005,-0.0684,0.00021000000000000012,2.2999999999995246e-05,0.0684,-0.00021000000000000012,-2.3000000000002185e-05,-0.124038,-0.35725300000000004,0.017189,0.105882,-0.341163,0.035831999999999996,-0.126228,-0.6802630000000001,0.059616999999999996,0.124412,-0.668093,0.062372
25,0.016141500000000007,0.7074135,-0.0037174999999999986,-0.1399955,0.5087335000000001,0.0175585,-0.23094549999999997,0.7327035000000001,-0.0223285,0.15964450000000002,0.4933735,0.021369500000000003,0.24236449999999998,0.7343835,-0.004080500000000001,-0.2781155,0.9430835,-0.058830499999999994,0.2794945,0.9304935,-0.0440015,-0.0684805,0.00016050000000000092,5.5000000000055005e-06,0.0684805,-0.00016049999999999918,-5.499999999998562e-06,-0.12395549999999998,-0.3576165,0.015394500000000002,0.10594450000000001,-0.3420565,0.0328805,-0.1259155,-0.6832365,0.057732500000000006,0.12284450000000001,-0.6738665,0.0588375
26,0.015649500000000004,0.7069795000000001,-0.007106500000000002,-0.14009850000000001,0.5080895000000001,0.015171500000000001,-0.23118850000000002,0.7320695,-0.025877499999999998,0.15995150000000002,0.49246949999999995,0.0185365,0.24188150000000003,0.7341495,-0.0099355,-0.2780585,0.9418795000000001,-0.0636775,0.2791215,0.9298595000000001,-0.0508035,-0.0685045,9.750000000000036e-05,7.549999999999918e-05,0.0685045,-9.750000000000036e-05,-7.549999999999918e-05,-0.12373849999999999,-0.3578905,0.012938500000000002,0.1061815,-0.3430905,0.029260500000000002,-0.1254885,-0.6860505,0.0552085,0.12158150000000001,-0.6795505,0.054725499999999996
27,0.015197500000000001,0.706433,-0.0114685,-0.1401065,0.507903,0.012205499999999998,-0.2312865,0.731483,-0.030534500000000006,0.1601435,0.49189299999999997,0.015097499999999996,0.2416735,0.7337229999999999,-0.016684500000000005,-0.2777765,0.940303,-0.0700895,0.2789935,0.929283,-0.0589465,-0.0685055,7.700000000000068e-05,-2.2500000000001685e-05,0.0685055,-7.699999999999894e-05,2.2499999999994746e-05,-0.12347649999999999,-0.358097,0.009884499999999997,0.1065335,-0.344337,0.025204499999999998,-0.1250165,-0.688547,0.0519515,0.1204035,-0.685127,0.0500265
28,0.014777500000000002,0.7058880000000001,-0.0167035,-0.14006249999999998,0.507868,0.0085195,-0.2310825,0.730628,-0.036445500000000006,0.1605175,0.491288,0.0109595,0.2415075,0.7334579999999999,-0.024833499999999998,-0.2774525,0.938348,-0.0777915,0.2788475,0.928788,-0.0688995,-0.0685055,0.00011200000000000099,-0.00010749999999999996,0.0685055,-0.00011199999999999925,0.00010749999999999996,-0.12320249999999999,-0.358372,0.0060675,0.10695750000000001,-0.345602,0.0204915,-0.12460249999999998,-0.6908920000000001,0.0478615,0.11927750000000001,-0.6905319999999999,0.0445865
29,0.014584499999999999,0.7047015,-0.023995000000000002,-0.13987750000000002,0.5078515,0.0034950000000000016,-0.2306275,0.7297914999999999,-0.044898999999999994,0.16113249999999998,0.4903815,0.005479999999999999,0.2415425,0.7331615,-0.0356,-0.2769275,0.9354315,-0.088467,0.27938250000000003,0.9282015,-0.082707,-0.06860150000000001,0.00012850000000000014,-6.600000000000009e-05,0.06860150000000001,-0.00012850000000000014,6.600000000000009e-05,-0.12274750000000001,-0.3582785,0.0009459999999999989,0.10759250000000001,-0.3468285,0.014675,-0.12411750000000002,-0.6932385,0.042456,0.1188825,-0.6942885,0.038101
30,0.014494500000000004,0.7031514999999999,-0.032353,-0.13957350000000002,0.5076115,-0.002309000000000002,-0.2300935,0.7283615,-0.054207,0.1619165,0.48917150000000004,-0.0005409999999999998,0.2418965,0.7329515,-0.047403999999999995,-0.27623349999999997,0.9317615,-0.10064100000000001,0.2801365,0.9272714999999999,-0.097771,-0.0687065,0.00012850000000000014,6.399999999999809e-05,0.0687065,-0.00012850000000000014,-6.400000000000156e-05,-0.12222350000000001,-0.35817849999999996,-0.004661000000000002,0.1083365,-0.3478785,0.008587999999999998,-0.12363350000000001,-0.6950685,0.03653,0.1189965,-0.6951985,0.031455
31,0.014593499999999999,0.7013165,-0.0416405,-0.13915850000000002,0.5073464999999999,-0.008757499999999998,-0.2294485,0.7264565,-0.0644685,0.1626515,0.4881765,-0.007127499999999998,0.2425715,0.7312164999999999,-0.0603785,-0.2753685,0.9274264999999999,-0.1144735,0.2810015,0.9251965,-0.1139735,-0.0688355,0.00014349999999999953,0.00015850000000000065,0.0688355,-0.00014350000000000127,-0.00015849999999999892,-0.1216785,-0.35805349999999997,-0.0108685,0.10918149999999999,-0.3488235,0.0021965000000000005,-0.12311850000000002,-0.6965735000000001,0.030111500000000003,0.1193515,-0.6959635000000001,0.0245245
32,0.014835499999999996,0.6990625,-0.0518995,-0.1386615,0.5070325,-0.0157395,-0.22852150000000002,0.7232824999999999,-0.0757955,0.1632585,0.4873225,-0.014228499999999998,0.2433485,0.7288025,-0.0743365,-0.2743615,0.9228225,-0.13021749999999999,0.2820285,0.9231425,-0.13226749999999998,-0.0689685,0.00022950000000000054,0.00027150000000000004,0.0689685,-0.00022950000000000054,-0.00027150000000000004,-0.12108150000000001,-0.3578475,-0.017468499999999998,0.11012849999999999,-0.34956750000000003,-0.0043545,-0.1225215,-0.6973875,0.0231765,0.1199085,-0.6962975,0.0169405
33,0.015211500000000003,0.6964135,-0.06308599999999999,-0.1381905,0.5064934999999999,-0.023559,-0.22743049999999998,0.7202535,-0.088131,0.1639295,0.4866435,-0.021801,0.2442795,0.7259734999999999,-0.089016,-0.2731605,0.9173835,-0.147289,0.2832495,0.9210335,-0.151259,-0.0691135,0.00034350000000000006,0.000358,0.0691135,-0.0003434999999999992,-0.00035800000000000003,-0.1204305,-0.3574165,-0.02444,0.1111995,-0.3500165,-0.011311,-0.12186049999999998,-0.6974865,0.015801,0.1205795,-0.6962065000000001,0.009516
34,0.015674999999999998,0.693228,-0.0745485,-0.137691,0.506018,-0.0315695,-0.22623100000000002,0.715958,-0.10094449999999999,0.164649,0.485888,-0.029707499999999998,0.245269,0.722498,-0.1043285,-0.27202099999999996,0.911958,-0.1647235,0.28491900000000003,0.916998,-0.1725235,-0.069278,0.0004460000000000002,0.0005524999999999992,0.069278,-0.00044599999999999935,-0.0005525,-0.11974100000000001,-0.357002,-0.0316045,0.112349,-0.350202,-0.018458500000000003,-0.121201,-0.697402,0.0082375,0.12128900000000001,-0.695932,0.0019454999999999993
35,0.0160075,0.6896775,-0.0865195,-0.1372265,0.5056475,-0.0396795,-0.22471649999999999,0.7108075,-0.1143635,0.1645635,0.4849375,-0.0389725,0.2463135,0.7186775,-0.11913950000000001,-0.2708665,0.9060175,-0.1832595,0.2868535,0.9129475,-0.19415949999999998,-0.0694675,0.0005215000000000003,0.0007314999999999995,0.0694675,-0.0005215000000000003,-0.0007314999999999995,-0.11916650000000001,-0.3564825,-0.0388435,0.1135435,-0.3499825,-0.0256145,-0.1207965,-0.6971324999999999,0.0004805,0.1219635,-0.6953725,-0.0056995
36,0.0163265,0.6860125,-0.099013,-0.1367685,0.5053525,-0.048119999999999996,-0.2230985,0.7052025,-0.128486,0.1642415,0.48408249999999997,-0.048623,0.2474015,0.7142824999999999,-0.135056,-0.2697585,0.9002625,-0.202736,0.2887315,0.9080225,-0.215756,-0.0696425,0.0006084999999999997,0.0010270000000000001,0.0696425,-0.0006085000000000005,-0.0010270000000000001,-0.11867849999999999,-0.3555475,-0.046211,0.1147615,-0.34918750000000004,-0.032591,-0.1204585,-0.6963775,-0.007460000000000001,0.1232515,-0.6941575,-0.013579
37,0.016486999999999998,0.6820204999999999,-0.1121685,-0.13630599999999998,0.5037904999999999,-0.058243500000000004,-0.221666,0.6995405,-0.1433895,0.163384,0.4830905,-0.0593665,0.248284,0.7100405,-0.15163949999999998,-0.268636,0.8951605,-0.22455950000000002,0.290454,0.9037005,-0.23826950000000002,-0.069842,0.0006464999999999995,0.0013104999999999992,0.069842,-0.0006464999999999999,-0.0013104999999999992,-0.118326,-0.3543195,-0.0538295,0.11587399999999999,-0.34778950000000003,-0.0392755,-0.120266,-0.6952695,-0.0158115,0.12450399999999999,-0.6922295,-0.0218435
38,0.016417499999999995,0.6778565,-0.1243545,-0.13590950000000002,0.5018265,-0.0681455,-0.2205995,0.6933465,-0.1576095,0.16174049999999998,0.4816965,-0.0702855,0.2488205,0.7046065,-0.1670995,-0.2677595,0.8914464999999999,-0.2452395,0.2918905,0.8984765,-0.2594095,-0.0699675,0.0006285000000000002,0.0015334999999999932,0.0699675,-0.0006284999999999997,-0.0015335000000000001,-0.1182395,-0.3529135,-0.0604755,0.1167805,-0.34595349999999997,-0.0448645,-0.1203495,-0.6937535,-0.023439500000000002,0.1254405,-0.6899135000000001,-0.029366500000000004
39,0.016553,0.6737635,-0.1370705,-0.135438,0.49965350000000003,-0.07831250000000001,-0.21920800000000001,0.6872134999999999,-0.17257150000000002,0.15992199999999998,0.4804435,-0.0815185,0.249692,0.6977534999999999,-0.18256150000000002,-0.266618,0.8877535,-0.2669915,0.293182,0.8919834999999999,-0.2803515,-0.06988,0.0006115000000000001,0.0018024999999999985,0.06988,-0.0006115000000000001,-0.0018024999999999985,-0.118138,-0.3502765,-0.0680595,0.117782,-0.3434865,-0.0521635,-0.120238,-0.6917765,-0.031176500000000003,0.126442,-0.6869965,-0.0370355
40,0.016732000000000004,0.6691135,-0.150275,-0.135045,0.49717350000000005,-0.08867900000000001,-0.218005,0.6808635000000001,-0.188468,0.157765,0.4792335,-0.09289,0.250275,0.6910635,-0.198158,-0.26557499999999995,0.8835735,-0.289528,0.29402500000000004,0.8853635000000001,-0.301788,-0.069877,0.0004965,0.0020669999999999994,0.069877,-0.0004965,-0.0020669999999999994,-0.11821500000000001,-0.3467565,-0.075512,0.118725,-0.34045650000000005,-0.059446,-0.120055,-0.6890765,-0.038929000000000005,0.127375,-0.6837765,-0.044564
41,0.017093,0.6642025,-0.1633115,-0.13459700000000002,0.49328249999999996,-0.10011350000000001,-0.216937,0.6759725000000001,-0.20502150000000002,0.155223,0.4771025,-0.10521050000000001,0.250713,0.6850025000000001,-0.21435150000000003,-0.264527,0.8791225,-0.3123815,0.294923,0.8780125000000001,-0.3225015,-0.069869,0.00034350000000000006,0.0022664999999999977,0.069869,-0.00034350000000000006,-0.0022665000000000046,-0.11842699999999999,-0.3420575,-0.0833265,0.11969300000000001,-0.3363875,-0.0670845,-0.12011699999999999,-0.6853874999999999,-0.0470425,0.128103,-0.6799075,-0.052284500000000005
42,0.017355000000000002,0.6583985,-0.183812,-0.131588,0.4872685,-0.119996,-0.215448,0.6673785,-0.232162,0.152742,0.4742785,-0.125633,0.251392,0.6793184999999999,-0.241202,-0.263018,0.8700684999999999,-0.347812,0.296542,0.8663185,-0.35746200000000006,-0.069831,0.00018449999999999717,0.0020849999999999896,0.069831,-0.00018450000000000064,-0.0020850000000000035,-0.11931800000000001,-0.3328215,-0.098662,0.122282,-0.3270015,-0.08208,-0.119728,-0.6764915,-0.062526,0.129392,-0.6706715000000001,-0.06797900000000001
43,0.018160499999999996,0.6530575,-0.205424,-0.1284915,0.4813875,-0.140133,-0.2140915,0.6602675,-0.259414,0.1502685,0.47023750000000003,-0.146538,0.2520985,0.6688474999999999,-0.267634,-0.2614315,0.8604674999999999,-0.38434399999999996,0.2981185,0.8554275,-0.390324,-0.0697935,3.850000000000034e-05,0.0015460000000000057,0.0697935,-3.850000000000034e-05,-0.0015460000000000057,-0.1202715,-0.3222525,-0.114244,0.1250585,-0.3163525,-0.097628,-0.1192415,-0.6661925000000001,-0.077972,0.1305785,-0.6600225000000001,-0.083532
44,0.0189635,0.647853,-0.22623500000000002,-0.1249645,0.473283,-0.160227,-0.2125945,0.653003,-0.287115,0.1486055,0.466783,-0.166041,0.2529455,0.659133,-0.293465,-0.2593745,0.8509930000000001,-0.42027499999999995,0.2997855,0.843453,-0.42240500000000003,-0.0697425,-0.0002030000000000018,0.0008149999999999963,0.0697425,0.0002030000000000018,-0.0008150000000000102,-0.12119450000000001,-0.311227,-0.129726,0.1279055,-0.304737,-0.11335200000000001,-0.11864449999999999,-0.655127,-0.093074,0.13168549999999998,-0.648787,-0.09881000000000001
45,0.019696999999999996,0.639794,-0.24741000000000002,-0.121324,0.466144,-0.18083100000000002,-0.21155400000000002,0.646224,-0.31537000000000004,0.146586,0.459384,-0.185923,0.254056,0.649954,-0.31943,-0.25713400000000003,0.840514,-0.45719,0.301336,0.831944,-0.45630000000000004,-0.069756,-0.0002400000000000041,0.00015999999999999348,0.069756,0.00023999999999999716,-0.00016000000000000736,-0.122384,-0.299146,-0.145992,0.130746,-0.291636,-0.129834,-0.11812399999999999,-0.643056,-0.108547,0.132506,-0.636616,-0.11420000000000001
46,0.020905,0.6292665,-0.267335,-0.11769,0.4586865,-0.19967200000000002,-0.21054,0.6377765,-0.343615,0.14490999999999998,0.4526865,-0.20441900000000002,0.25508,0.6395265,-0.343725,-0.25478,0.8281465,-0.492385,0.30283,0.8160765,-0.488175,-0.069758,-0.0003545000000000076,-0.0006250000000000144,0.069758,0.0003544999999999937,0.0006249999999999867,-0.12366,-0.2872735,-0.16162500000000002,0.13356,-0.2784935,-0.14565100000000003,-0.11758,-0.6313235,-0.12304100000000001,0.13306,-0.6245235,-0.128675
47,0.022348,0.6195815,-0.28706,-0.11461500000000001,0.4515315,-0.218202,-0.20965499999999998,0.6284915000000001,-0.37066,0.14377500000000001,0.44652149999999996,-0.222221,0.256155,0.6269815000000001,-0.36771,-0.252245,0.8118615,-0.52724,0.304155,0.7989315,-0.51853,-0.069759,-0.0004674999999999957,-0.0016500000000000126,0.069759,0.0004674999999999957,0.0016499999999999848,-0.124925,-0.2746385,-0.177547,0.136325,-0.2648585,-0.16171800000000003,-0.11687499999999999,-0.6193885,-0.137498,0.133555,-0.6118484999999999,-0.143077
48,0.023945,0.6104655000000001,-0.3065,-0.110902,0.4438055,-0.23700500000000002,-0.20849199999999998,0.6186155,-0.39711,0.142828,0.4396355,-0.240439,0.257378,0.6157254999999999,-0.39139999999999997,-0.249762,0.7938155,-0.56052,0.30569799999999997,0.7834855000000001,-0.5495300000000001,-0.06975200000000001,-0.0004954999999999959,-0.0024399999999999977,0.06975200000000001,0.0004954999999999959,0.0024399999999999977,-0.126242,-0.2608645,-0.193854,0.13914800000000002,-0.2508145,-0.17855100000000002,-0.11608199999999999,-0.6063845000000001,-0.15199400000000002,0.134108,-0.5979945,-0.15755000000000002
49,0.025946499999999997,0.60214,-0.32569499999999996,-0.1070915,0.43533,-0.25556999999999996,-0.2073915,0.60812,-0.422945,0.14217849999999999,0.432,-0.258841,0.2586685,0.60539,-0.414845,-0.24691150000000003,0.77644,-0.5931949999999999,0.3072585,0.7682599999999999,-0.5810649999999999,-0.0697815,-0.0004699999999999982,-0.003234999999999988,0.0697815,0.0004699999999999982,0.0032350000000000156,-0.12759150000000002,-0.24653999999999998,-0.210696,0.14203849999999998,-0.23620000000000002,-0.19617199999999999,-0.11521150000000001,-0.59239,-0.16658499999999998,0.1347285,-0.58359,-0.17202399999999998
50,0.0280505,0.595405,-0.34608,-0.10336150000000001,0.426935,-0.27305,-0.20619150000000003,0.595755,-0.44772,0.14167849999999999,0.424665,-0.27642100000000003,0.2601185,0.592665,-0.43726,-0.24411150000000004,0.758125,-0.62573,0.3088785,0.750665,-0.6120099999999999,-0.0698515,-0.0004649999999999932,-0.00383,0.0698515,0.00046500000000002095,0.00383,-0.12897150000000002,-0.23222500000000001,-0.227572,0.14505849999999998,-0.222175,-0.214167,-0.11427150000000001,-0.578045,-0.180758,0.1353085,-0.568905,-0.18604500000000002
51,0.0293985,0.589795,-0.35944,-0.1023695,0.42078499999999996,-0.28167600000000004,-0.20508949999999998,0.586255,-0.46126,0.14102050000000002,0.416925,-0.285607,0.2612305,0.5793649999999999,-0.44908000000000003,-0.2415095,0.7440249999999999,-0.64558,0.31014050000000004,0.7368049999999999,-0.6283,-0.0699015,-0.00023500000000001298,-0.00408,0.0699015,0.00023499999999998522,0.00408,-0.1298095,-0.22241500000000003,-0.236042,0.14635050000000002,-0.21248500000000003,-0.22319,-0.11373950000000001,-0.567585,-0.187249,0.13541050000000002,-0.558285,-0.192412
52,0.030606500000000002,0.58123,-0.37232,-0.1013965,0.41311,-0.29113100000000003,-0.20368650000000002,0.57328,-0.47479000000000005,0.1402435,0.40951,-0.29503,0.2625135,0.5693699999999999,-0.46147000000000005,-0.2390365,0.7250099999999999,-0.66532,0.31172350000000004,0.7212099999999999,-0.64669,-0.0697985,-4.999999999999449e-05,-0.004030000000000006,0.0697985,4.999999999999449e-05,0.004030000000000006,-0.1307365,-0.21125,-0.244883,0.14753349999999998,-0.20253,-0.232567,-0.11343650000000001,-0.5559700000000001,-0.193849,0.1352535,-0.54688,-0.19899
53,0.032096,0.5715250000000001,-0.385935,-0.10047199999999999,0.406925,-0.301852,-0.20239200000000002,0.560095,-0.48960499999999996,0.139038,0.399445,-0.30540999999999996,0.263808,0.556725,-0.47490499999999997,-0.23685200000000003,0.703825,-0.687605,0.313458,0.703575,-0.666415,-0.069701,0.0004949999999999954,-0.003814999999999985,0.069701,-0.0004949999999999954,0.003815000000000013,-0.13159200000000001,-0.19837500000000002,-0.254015,0.148668,-0.19171500000000002,-0.24219,-0.11315199999999999,-0.542845,-0.20073499999999997,0.135048,-0.533925,-0.20590199999999997
54,0.032623,0.56156,-0.398485,-0.099876,0.39847,-0.311711,-0.201616,0.54615,-0.502955,0.138194,0.39291,-0.315031,0.26473399999999997,0.54196,-0.487045,-0.23485599999999998,0.682,-0.707375,0.314534,0.68177,-0.683575,-0.069816,0.0006500000000000117,-0.0035550000000000026,0.069816,-0.0006500000000000117,0.0035550000000000026,-0.132276,-0.18728999999999998,-0.262135,0.14966400000000002,-0.18199,-0.251101,-0.112966,-0.5297499999999999,-0.206879,0.134484,-0.5210199999999999,-0.211495
55,0.0328525,0.5553250000000001,-0.41142500000000004,-0.0997575,0.389065,-0.321726,-0.2004475,0.5334749999999999,-0.515765,0.1372425,0.385185,-0.32517799999999997,0.2663025,0.528195,-0.500345,-0.23293750000000002,0.660975,-0.726555,0.3149325,0.664415,-0.701325,-0.0700855,0.0008149999999999824,-0.0030050000000000077,0.0700855,-0.0008150000000000102,0.0030050000000000077,-0.1329775,-0.174865,-0.270551,0.15055249999999998,-0.17106500000000002,-0.26056,-0.1129675,-0.515095,-0.213565,0.1338625,-0.506875,-0.21776
56,0.033021,0.5482199999999999,-0.42403,-0.099926,0.38038,-0.331434,-0.199656,0.51834,-0.52883,0.136134,0.37637,-0.33499999999999996,0.26675400000000005,0.5159199999999999,-0.51432,-0.231136,0.64177,-0.7457,0.31542400000000004,0.6474,-0.72007,-0.070412,0.0012399999999999911,-0.0022000000000000075,0.070412,-0.0012399999999999911,0.0022000000000000075,-0.133716,-0.16266999999999998,-0.27872399999999997,0.151444,-0.16015000000000001,-0.269814,-0.113006,-0.5002500000000001,-0.220029,0.133224,-0.49265,-0.223881
57,0.033068,0.538175,-0.43586,-0.100301,0.371765,-0.34109,-0.199051,0.502105,-0.5422,0.134899,0.367585,-0.34413,0.266829,0.503745,-0.52707,-0.22925099999999998,0.622085,-0.76418,0.31560900000000003,0.630295,-0.73561,-0.070759,0.0017250000000000043,-0.0015300000000000036,0.070759,-0.0017250000000000043,0.0015300000000000036,-0.13453099999999998,-0.150635,-0.28644400000000003,0.152279,-0.14889500000000003,-0.278307,-0.113151,-0.485325,-0.226088,0.132659,-0.478595,-0.22993
58,0.032085,0.52627,-0.446495,-0.100688,0.36385,-0.350735,-0.197928,0.48706,-0.554885,0.134392,0.35843,-0.352565,0.266772,0.48858999999999997,-0.539185,-0.22760799999999998,0.60204,-0.781485,0.315602,0.61054,-0.749795,-0.071013,0.002260000000000012,-0.0007749999999999979,0.071013,-0.0022599999999999842,0.0007749999999999979,-0.13535799999999998,-0.13833,-0.29363300000000003,0.153172,-0.13765,-0.28630300000000003,-0.11344800000000001,-0.47029,-0.231723,0.132112,-0.46441,-0.235468
59,0.0308295,0.51337,-0.45501,-0.1012435,0.35602999999999996,-0.36101,-0.19692349999999997,0.47173,-0.5673600000000001,0.1336365,0.349027,-0.36112,0.26666650000000003,0.47568999999999995,-0.55141,-0.2258035,0.5802799999999999,-0.7978700000000001,0.3164465,0.59107,-0.7635400000000001,-0.0712535,0.0027599999999999847,-0.00028000000000000247,0.0712535,-0.00276000000000004,0.00028000000000000247,-0.13631349999999998,-0.12356,-0.300771,0.1540065,-0.12326000000000004,-0.293978,-0.11382350000000001,-0.45271000000000006,-0.23744800000000002,0.1315365,-0.44809,-0.24102800000000002
60,0.028961999999999995,0.49976999999999994,-0.46175,-0.101305,0.34787399999999996,-0.37076,-0.196115,0.45565999999999995,-0.57982,0.132715,0.339879,-0.36919,0.266075,0.45996,-0.56271,-0.225135,0.55941,-0.81292,0.316015,0.5683499999999999,-0.77667,-0.071405,0.0030599999999999516,0.00020999999999998797,0.071405,-0.003060000000000007,-0.00020999999999998797,-0.13728500000000002,-0.10884000000000005,-0.307105,0.154855,-0.10898000000000002,-0.301129,-0.11426499999999999,-0.43538,-0.242763,0.130945,-0.43210000000000004,-0.246089
61,0.028521500000000005,0.48782000000000003,-0.46723499999999996,-0.1019215,0.339435,-0.378805,-0.19571149999999998,0.44345999999999997,-0.592375,0.1320385,0.330675,-0.375525,0.26482849999999997,0.44745,-0.572465,-0.2247515,0.54,-0.8274250000000001,0.3146985,0.54907,-0.786775,-0.0712695,0.0033400000000000096,0.0006749999999999812,0.0712695,-0.0033400000000000096,-0.0006749999999999812,-0.13840149999999998,-0.09502,-0.312023,0.1553485,-0.09491,-0.306668,-0.1148815,-0.41912000000000005,-0.247223,0.1302685,-0.41708,-0.250205
62,0.0283955,0.47290999999999994,-0.47291,-0.1020885,0.330433,-0.38555,-0.1953485,0.43054,-0.6050800000000001,0.1316215,0.322002,-0.38185,0.2634815,0.43338,-0.5837600000000001,-0.22463850000000002,0.5224,-0.8392299999999999,0.31348149999999997,0.53095,-0.7961100000000001,-0.0713635,0.0034199999999999786,0.0009799999999999809,0.0713635,-0.003420000000000034,-0.0009799999999999809,-0.1393185,-0.08348,-0.31735,0.1560415,-0.08295000000000002,-0.312632,-0.11522850000000001,-0.40535,-0.25229,0.1298115,-0.40453000000000006,-0.254951
63,0.028986500000000002,0.46065,-0.478985,-0.1019495,0.319705,-0.392975,-0.19468950000000002,0.416042,-0.618445,0.1316605,0.31184000000000006,-0.388765,0.2624305,0.42042,-0.595295,-0.2243795,0.50346,-0.8507950000000001,0.3128105,0.5130600000000001,-0.806345,-0.07154150000000001,0.0036900000000000266,0.001344999999999985,0.07154150000000001,-0.003689999999999971,-0.0013450000000000406,-0.1399095,-0.07344999999999996,-0.32270400000000005,0.1571305,-0.07223999999999997,-0.31864000000000003,-0.11530950000000001,-0.39286,-0.25780600000000004,0.1297205,-0.3930699999999999,-0.260137
64,0.03089,0.44822,-0.48571000000000003,-0.10185,0.31102300000000005,-0.39986000000000005,-0.19435,0.399025,-0.63048,0.13102,0.29951300000000003,-0.39415000000000006,0.2611,0.406157,-0.60562,-0.22333,0.48265,-0.86078,0.31185999999999997,0.49407,-0.81532,-0.071551,0.0042500000000000315,0.0015899999999999803,0.071551,-0.004249999999999976,-0.0015900000000000358,-0.14048,-0.06439999999999996,-0.32732600000000006,0.15832000000000002,-0.06286999999999998,-0.3237030000000001,-0.11525,-0.3813599999999999,-0.26255700000000004,0.12975,-0.38241,-0.26465500000000003
65,0.032591999999999996,0.436535,-0.49226000000000003,-0.102022,0.29985,-0.40654,-0.19440200000000002,0.383516,-0.64248,0.131058,0.288318,-0.39869000000000004,0.259648,0.391867,-0.61487,-0.222412,0.462625,-0.86965,0.312338,0.47624500000000003,-0.82377,-0.071548,0.004164999999999974,0.0015099999999999558,0.071548,-0.004164999999999974,-0.0015100000000000113,-0.141162,-0.05526500000000001,-0.331898,0.159458,-0.053954999999999975,-0.32839300000000005,-0.11523200000000001,-0.370065,-0.26724400000000004,0.12978800000000001,-0.37182499999999996,-0.269046
66,0.0306455,0.43205399999999994,-0.49807500000000005,-0.1017725,0.29116899999999996,-0.41261500000000007,-0.1944325,0.373119,-0.653495,0.13165749999999998,0.280775,-0.404575,0.2593275,0.38060099999999997,-0.6244350000000001,-0.2217825,0.44454699999999997,-0.8783150000000001,0.31245749999999994,0.460441,-0.831995,-0.0718525,0.003114999999999979,0.0012349999999999861,0.0718525,-0.0031150000000000344,-0.0012350000000000416,-0.1416925,-0.042995000000000005,-0.33695,0.1608975,-0.042155000000000054,-0.333425,-0.11492250000000001,-0.355475,-0.27249900000000005,0.13013750000000002,-0.358085,-0.27389
67,0.0285575,0.42729900000000004,-0.50365,-0.1015525,0.28127100000000005,-0.41778000000000004,-0.19456250000000003,0.359704,-0.66334,0.1321975,0.27046000000000003,-0.41028000000000003,0.2587575,0.36956700000000003,-0.6338600000000001,-0.2209125,0.42475,-0.88564,0.3126775,0.44592200000000004,-0.8414,-0.0716545,0.0023400000000000087,0.0007299999999999529,0.0716545,-0.0023399999999999532,-0.0007300000000000084,-0.14256249999999998,-0.03245999999999999,-0.34141600000000005,0.1622475,-0.03182999999999997,-0.33826,-0.11461249999999999,-0.34270999999999996,-0.27758700000000003,0.1305075,-0.34612,-0.278571
68,0.026379,0.421695,-0.508395,-0.100699,0.27231,-0.422195,-0.193829,0.34740899999999997,-0.672755,0.133101,0.25995999999999997,-0.415705,0.258931,0.357614,-0.641975,-0.21983899999999998,0.407167,-0.892035,0.313751,0.433017,-0.851155,-0.071719,0.0015999999999999903,0.0003349999999999742,0.071719,-0.0015999999999999903,-0.0003350000000000297,-0.143199,-0.024440000000000017,-0.345055,0.16404100000000002,-0.024900000000000033,-0.342631,-0.11405900000000001,-0.33275000000000005,-0.28216800000000003,0.131201,-0.33669,-0.282775
69,0.025425999999999997,0.410351,-0.5122950000000001,-0.099773,0.26135,-0.42668500000000004,-0.192833,0.335116,-0.6816850000000001,0.133987,0.25039,-0.421225,0.259237,0.34896000000000005,-0.6453850000000001,-0.219133,0.38822100000000004,-0.8983450000000001,0.314477,0.42419900000000005,-0.854585,-0.071881,0.0008400000000000074,-0.00015500000000001624,0.071881,-0.0008399999999999519,0.00015499999999996072,-0.144033,-0.01739999999999997,-0.34847500000000003,0.165847,-0.018799999999999983,-0.34703900000000004,-0.113683,-0.3238599999999999,-0.286775,0.131917,-0.32828,-0.28701200000000004
70,0.024142999999999994,0.400596,-0.518445,-0.098957,0.25165000000000004,-0.432755,-0.193307,0.32092000000000004,-0.6905950000000001,0.134413,0.24217000000000002,-0.426985,0.25921299999999997,0.33808000000000005,-0.651485,-0.219007,0.373555,-0.904795,0.314973,0.411352,-0.859395,-0.07132,0.00034000000000000696,-0.0007150000000000212,0.07132,-0.00033999999999995145,0.0007150000000000212,-0.14549700000000002,-0.011499999999999955,-0.35333,0.16727299999999998,-0.013999999999999957,-0.352785,-0.113797,-0.31633,-0.292987,0.132153,-0.32097999999999993,-0.292895
71,0.023397,0.39488300000000004,-0.522795,-0.098299,0.24261000000000002,-0.43698499999999996,-0.19388899999999998,0.30818,-0.6953149999999999,0.134161,0.23574,-0.43169499999999994,0.258981,0.330046,-0.654325,-0.219119,0.35810000000000003,-0.9094949999999999,0.315041,0.400656,-0.8628049999999999,-0.070631,4.999999999999449e-05,-0.0011849999999999916,0.070631,-4.999999999999449e-05,0.0011850000000000471,-0.147239,-0.005529999999999979,-0.35662499999999997,0.16858099999999998,-0.009089999999999987,-0.35668999999999995,-0.114139,-0.30890999999999996,-0.29780999999999996,0.132131,-0.31393,-0.297473
72,0.022351,0.387616,-0.526375,-0.097606,0.23632500000000004,-0.440295,-0.194366,0.297045,-0.699485,0.134104,0.228505,-0.43506500000000004,0.257584,0.320705,-0.658255,-0.219246,0.34511000000000003,-0.912285,0.315994,0.390153,-0.8669250000000001,-0.069742,-0.00019500000000000073,-0.001794999999999991,0.069742,0.00019500000000000073,0.001794999999999991,-0.148946,0.0010550000000000281,-0.359377,0.170134,-0.003794999999999993,-0.359768,-0.11430599999999999,-0.3014649999999999,-0.302028,0.13217399999999999,-0.30692499999999995,-0.301495
73,0.0235765,0.382217,-0.529015,-0.0963215,0.23357999999999998,-0.443365,-0.1948815,0.29196,-0.703685,0.1343785,0.22913999999999998,-0.439065,0.2564985,0.31640999999999997,-0.660695,-0.21917150000000002,0.33855999999999997,-0.9178249999999999,0.31729850000000004,0.383221,-0.8687450000000001,-0.0688635,0.0023199999999999887,-0.0023250000000000215,0.0688635,-0.0023199999999999887,0.0023250000000000215,-0.15020150000000002,0.010770000000000002,-0.362217,0.1721685,0.0049599999999999644,-0.362691,-0.1141415,-0.29112000000000005,-0.306245,0.1325385,-0.29725,-0.305509
74,0.024769499999999996,0.37586499999999995,-0.53249,-0.09513450000000001,0.23096499999999995,-0.44652000000000003,-0.19544450000000002,0.2866949999999999,-0.70716,0.1347555,0.22813499999999995,-0.44255,0.25509550000000003,0.312445,-0.6593,-0.21933450000000002,0.331095,-0.92126,0.3173555,0.375698,-0.86436,-0.06850049999999999,0.003674999999999984,-0.0024799999999999822,0.06850049999999999,-0.0036750000000000393,0.0024799999999999822,-0.1514445,0.01820499999999997,-0.365051,0.1742355,0.011664999999999981,-0.365507,-0.1140845,-0.28320500000000004,-0.310367,0.1327655,-0.28996500000000003,-0.309457
75,0.0257565,0.36664599999999997,-0.5347999999999999,-0.0944275,0.227605,-0.44845,-0.19635750000000002,0.28007499999999996,-0.70919,0.1353925,0.22591499999999998,-0.44474,0.2552125,0.308455,-0.6606700000000001,-0.2197075,0.325345,-0.92323,0.3188025,0.371244,-0.87246,-0.0682855,0.005344999999999989,-0.0028799999999999937,0.0682855,-0.005344999999999989,0.0028799999999999937,-0.1526575,0.022304999999999964,-0.366925,0.1760825,0.015195000000000014,-0.36723300000000003,-0.1142075,-0.279085,-0.313228,0.1328225,-0.286455,-0.312211
76,0.020758500000000003,0.36217900000000003,-0.532605,-0.09424249999999999,0.23021000000000003,-0.44935500000000006,-0.19735250000000001,0.2803,-0.710655,0.1351675,0.22979000000000002,-0.44610500000000003,0.2536675,0.3116,-0.653885,-0.2204325,0.32823,-0.9239850000000001,0.3191975,0.37012100000000003,-0.869025,-0.0680505,0.006030000000000035,-0.002935000000000021,0.0680505,-0.00602999999999998,0.0029349999999999654,-0.1538325,0.027629999999999988,-0.36799600000000005,0.17747749999999998,0.01976,-0.36780300000000005,-0.1147625,-0.27376,-0.31502600000000003,0.1324675,-0.28173000000000004,-0.31390700000000005
77,0.016310500000000002,0.362626,-0.530355,-0.0943285,0.235175,-0.449775,-0.1978385,0.285575,-0.709985,0.1347215,0.235065,-0.446445,0.2531215,0.316875,-0.651445,-0.22199850000000002,0.333105,-0.9233450000000001,0.3195715,0.373301,-0.8664149999999999,-0.0675925,0.006064999999999987,-0.0029850000000000154,0.0675925,-0.006064999999999987,0.0029850000000000154,-0.1549085,0.03290499999999996,-0.368429,0.17839149999999998,0.025034999999999974,-0.367753,-0.11543849999999999,-0.26847499999999996,-0.316063,0.1318915,-0.27713499999999996,-0.314838
78,0.0152765,0.36784100000000003,-0.528545,-0.0953115,0.24039000000000002,-0.449425,-0.19885150000000001,0.29079,-0.708715,0.1337485,0.24028000000000002,-0.446075,0.25223850000000003,0.32209,-0.649265,-0.2241415,0.33832,-0.922355,0.31962850000000004,0.378516,-0.863205,-0.0666255,0.00609000000000004,-0.0030050000000000354,0.0666255,-0.006089999999999984,0.00300499999999998,-0.15614150000000002,0.03811999999999999,-0.36853500000000006,0.1786285,0.03025,-0.36720600000000003,-0.11640150000000002,-0.26325999999999994,-0.316688,0.13082850000000001,-0.27257999999999993,-0.315342
79,0.013631999999999998,0.367831,-0.525755,-0.097081,0.24038,-0.448835,-0.200351,0.29078000000000004,-0.706655,0.133239,0.24027,-0.445505,0.250739,0.32208000000000003,-0.646655,-0.227331,0.33831,-0.919235,0.319329,0.378506,-0.859685,-0.066222,0.006099999999999994,-0.00298499999999996,0.066222,-0.006099999999999994,0.0029850000000000154,-0.15771100000000002,0.03831000000000001,-0.36790999999999996,0.17790899999999998,0.03023999999999999,-0.366044,-0.11794100000000002,-0.26326999999999995,-0.316748,0.12928900000000002,-0.27285,-0.31528199999999995
80,0.011961,0.36731600000000003,-0.523335,-0.098691,0.23986500000000002,-0.448055,-0.202551,0.290735,-0.705105,0.132559,0.24302500000000002,-0.44552499999999995,0.24953899999999998,0.323525,-0.643995,-0.230521,0.337795,-0.916425,0.31810900000000003,0.377991,-0.851475,-0.065875,0.00575500000000001,-0.0029750000000000054,0.065875,-0.00575500000000001,0.0029750000000000054,-0.159321,0.03801500000000002,-0.367152,0.176819,0.030145000000000033,-0.364988,-0.11952100000000002,-0.26378499999999994,-0.316808,0.127699,-0.27346499999999996,-0.315224
81,0.011940500000000003,0.370159,-0.52112,-0.0996995,0.24313500000000005,-0.44731000000000004,-0.2044695,0.29287500000000005,-0.70276,0.1323705,0.24497500000000005,-0.44453000000000004,0.2484905,0.32513500000000006,-0.64158,-0.2322195,0.33994500000000005,-0.91368,0.3185705,0.37870100000000007,-0.84767,-0.0660115,0.0063750000000000195,-0.002980000000000038,0.0660115,-0.006374999999999964,0.0029799999999999827,-0.16032949999999999,0.036465000000000025,-0.36625900000000006,0.1758605,0.02885500000000002,-0.36401200000000006,-0.12050949999999999,-0.26573499999999994,-0.31673300000000004,0.1267205,-0.2753549999999999,-0.31512100000000004
82,0.012082,0.380757,-0.51573,-0.100745,0.254315,-0.44305999999999995,-0.20582499999999998,0.303895,-0.6969099999999999,0.131045,0.255415,-0.43994999999999995,0.247975,0.336085,-0.63545,-0.23465499999999997,0.352345,-0.90765,0.31988500000000003,0.390655,-0.84395,-0.066739,0.0064649999999999985,-0.00269999999999998,0.066739,-0.0064649999999999985,0.0027000000000000357,-0.161205,0.036715,-0.361679,0.174965,0.029695000000000027,-0.35941899999999993,-0.12133500000000001,-0.265825,-0.31282599999999994,0.126005,-0.275455,-0.31142
83,0.012420500000000003,0.393377,-0.51077,-0.1018555,0.266865,-0.43929999999999997,-0.2067655,0.317395,-0.6924999999999999,0.1295245,0.266345,-0.43554,0.2480845,0.349245,-0.63023,-0.2371455,0.369128,-0.90166,0.3186145,0.404285,-0.83762,-0.0672895,0.007514999999999994,-0.0024699999999999722,0.0672895,-0.007514999999999994,0.0024700000000000277,-0.1616555,0.03485499999999997,-0.35752399999999995,0.17426450000000002,0.028764999999999985,-0.35519799999999996,-0.12189549999999999,-0.268115,-0.309326,0.12556450000000002,-0.277745,-0.30807399999999996
84,0.012909000000000002,0.404285,-0.5059199999999999,-0.10356599999999999,0.27647,-0.435,-0.207486,0.32855999999999996,-0.68746,0.128894,0.27584,-0.43074,0.24954400000000002,0.36198199999999997,-0.62433,-0.23942599999999997,0.382966,-0.8948699999999999,0.319624,0.42068,-0.83239,-0.06775600000000001,0.00811999999999996,-0.0023799999999999932,0.06775600000000001,-0.008120000000000016,0.0023800000000000487,-0.161666,0.026469999999999994,-0.353193,0.173634,0.021629999999999983,-0.350763,-0.12235599999999999,-0.27715,-0.3056,0.125244,-0.28678000000000003,-0.30447799999999997
85,0.01328,0.41643499999999994,-0.500915,-0.105593,0.28540999999999994,-0.429815,-0.208613,0.33999999999999997,-0.680105,0.128867,0.28562999999999994,-0.425245,0.251567,0.373625,-0.623185,-0.241813,0.39719499999999996,-0.887035,0.320987,0.43749299999999997,-0.8277049999999999,-0.068677,0.0045099999999999585,-0.002454999999999985,0.068677,-0.004510000000000014,0.002454999999999985,-0.161463,0.01429999999999998,-0.34791700000000003,0.172557,0.010119999999999962,-0.345439,-0.12301300000000001,-0.29074,-0.300858,0.12472699999999999,-0.30010000000000003,-0.299871
86,0.013799500000000003,0.429929,-0.49576999999999993,-0.1072115,0.2965,-0.42438999999999993,-0.20945149999999998,0.35768,-0.67256,0.1293085,0.29507,-0.41957999999999995,0.2537285,0.387907,-0.6185799999999999,-0.2435515,0.415841,-0.87873,0.32277849999999997,0.455729,-0.82222,-0.0689825,0.0022300000000000098,-0.0022399999999999642,0.0689825,-0.0022300000000000098,0.0022400000000000198,-0.16079149999999998,0.0006599999999999939,-0.34263199999999994,0.1713685,-0.002599999999999991,-0.339993,-0.12329150000000001,-0.30594000000000005,-0.29601399999999994,0.1246585,-0.31483,-0.29519399999999996
87,0.014281999999999998,0.443869,-0.49004000000000003,-0.108901,0.308418,-0.4185,-0.210261,0.37435300000000005,-0.6644399999999999,0.12961899999999998,0.30490500000000004,-0.41351,0.255589,0.40099900000000005,-0.61358,-0.245061,0.43568700000000005,-0.86974,0.324569,0.470662,-0.81588,-0.069139,0.0002950000000000452,-0.0016700000000000048,0.069139,-0.0002949999999999897,0.0016700000000000048,-0.159921,-0.01507499999999995,-0.33702699999999997,0.169929,-0.017004999999999992,-0.334033,-0.12352100000000002,-0.3234349999999999,-0.290782,0.12465899999999999,-0.3315349999999999,-0.289998
88,0.015427,0.45638799999999996,-0.4837,-0.11041699999999999,0.315831,-0.41276,-0.21157700000000002,0.387003,-0.65513,0.129843,0.31153299999999995,-0.4073,0.257003,0.411199,-0.60794,-0.24560700000000002,0.452279,-0.8601099999999999,0.326003,0.48573999999999995,-0.80934,-0.069305,0.0009699999999999709,-0.0013299999999999979,0.069305,-0.0009700000000000264,0.0013299999999999979,-0.158447,-0.03581000000000001,-0.33160100000000003,0.168703,-0.036650000000000016,-0.328222,-0.12328700000000001,-0.34652000000000005,-0.285629,0.125163,-0.35336,-0.284812
89,0.016173,0.47212,-0.47564999999999996,-0.111456,0.327288,-0.40545,-0.213096,0.403021,-0.64294,0.130274,0.321736,-0.39971999999999996,0.258844,0.424419,-0.60134,-0.246806,0.47451,-0.84832,0.32712399999999997,0.50703,-0.80102,-0.06933500000000001,0.0013199999999999878,-0.0012699999999999934,0.06933500000000001,-0.0013199999999999878,0.0012700000000000489,-0.156946,-0.05763999999999997,-0.32477999999999996,0.16689400000000001,-0.05732999999999999,-0.320515,-0.123286,-0.37178999999999995,-0.27906099999999995,0.125494,-0.37732999999999994,-0.278043
90,0.0169795,0.486355,-0.46714,-0.1119105,0.334564,-0.39774,-0.21449049999999997,0.41862499999999997,-0.6283799999999999,0.13054949999999999,0.33033199999999996,-0.39187,0.26040949999999996,0.438555,-0.58904,-0.24806050000000002,0.499115,-0.83524,0.3268295,0.526805,-0.7902,-0.0695625,0.001684999999999992,-0.0012099999999999889,0.0695625,-0.0016850000000000476,0.0012099999999999889,-0.15527049999999998,-0.08049500000000004,-0.317754,0.16506949999999998,-0.07932500000000003,-0.312377,-0.12324049999999999,-0.39866500000000005,-0.272227,0.1258895,-0.40281500000000003,-0.271066
91,0.0184385,0.496885,-0.45855,-0.1115235,0.34186300000000003,-0.39038,-0.2150635,0.433055,-0.61439,0.1315565,0.338139,-0.38429,0.2628965,0.452875,-0.58194,-0.2499135,0.517205,-0.82114,0.3292165,0.545695,-0.78372,-0.0695655,0.001495000000000024,-0.0013000000000000234,0.0695655,-0.0014949999999999686,0.0012999999999999678,-0.1529035,-0.10314499999999999,-0.311128,0.1637565,-0.101495,-0.304404,-0.12266350000000001,-0.42600499999999997,-0.265811,0.1266365,-0.42878499999999997,-0.264519
92,0.0198355,0.507235,-0.44797,-0.11128450000000001,0.34834199999999993,-0.38209000000000004,-0.21511450000000001,0.446105,-0.59839,0.1318455,0.34646999999999994,-0.37612,0.26558550000000003,0.46638499999999994,-0.5690500000000001,-0.25208450000000004,0.538175,-0.8051,0.3310455,0.5645549999999999,-0.77192,-0.0695485,0.0010649999999999826,-0.0014000000000000123,0.0695485,-0.0010650000000000381,0.0013999999999999568,-0.1505045,-0.12472500000000003,-0.303879,0.1622755,-0.12305500000000003,-0.295661,-0.12227450000000001,-0.4525450000000001,-0.258807,0.1272455,-0.4545450000000001,-0.25750700000000004
93,0.0209615,0.5227999999999999,-0.43596,-0.1112715,0.36034,-0.3735,-0.2156815,0.46434,-0.58084,0.1324185,0.35953999999999997,-0.36765,0.2680685,0.48368,-0.55559,-0.2545915,0.56403,-0.78823,0.3328985,0.5884199999999999,-0.7582899999999999,-0.06951650000000001,0.0007399999999999907,-0.0015000000000000013,0.06951650000000001,-0.0007400000000000184,0.0015000000000000013,-0.1483915,-0.14088,-0.295826,0.1605985,-0.13902000000000003,-0.28606699999999996,-0.1221215,-0.47343,-0.251114,0.12774850000000001,-0.47419,-0.2498
94,0.022049,0.535535,-0.421635,-0.111423,0.369985,-0.36299499999999996,-0.216673,0.481745,-0.562335,0.133077,0.368545,-0.356865,0.27010700000000004,0.49983500000000003,-0.540235,-0.25748299999999996,0.587945,-0.7681549999999999,0.334177,0.610335,-0.742065,-0.069433,0.0008650000000000047,-0.002224999999999977,0.069433,-0.0008650000000000047,0.0022250000000000325,-0.146703,-0.158405,-0.28588499999999994,0.158577,-0.15576500000000001,-0.27460199999999996,-0.12223300000000001,-0.49507500000000004,-0.24187199999999998,0.128067,-0.49446500000000004,-0.24041599999999996
95,0.022852,0.548555,-0.405825,-0.11175299999999999,0.380385,-0.351275,-0.21732300000000002,0.497845,-0.542855,0.133927,0.379555,-0.345165,0.271747,0.5159549999999999,-0.524025,-0.259923,0.609135,-0.747375,0.335187,0.6349750000000001,-0.725365,-0.06940199999999999,0.0005749999999999922,-0.0024349999999999927,0.06940199999999999,-0.0005749999999999922,0.0024349999999999927,-0.145103,-0.174265,-0.274704,0.156497,-0.17080499999999998,-0.26231,-0.12251300000000001,-0.514935,-0.231672,0.128297,-0.512875,-0.230354
96,0.023539499999999998,0.5609649999999999,-0.38976500000000003,-0.11170849999999999,0.390355,-0.339395,-0.2180585,0.515995,-0.523015,0.13494150000000002,0.390165,-0.33290600000000004,0.27269150000000003,0.5337449999999999,-0.506845,-0.2622585,0.6365350000000001,-0.7250650000000001,0.3359515,0.660845,-0.7086049999999999,-0.0692065,6.50000000000095e-05,-0.00304500000000002,0.0692065,-6.50000000000095e-05,0.003044999999999992,-0.1435985,-0.188245,-0.263026,0.15439150000000001,-0.18484499999999998,-0.249893,-0.12305849999999999,-0.532715,-0.221135,0.1283515,-0.529945,-0.219984
97,0.024054000000000002,0.574125,-0.37229,-0.11146700000000001,0.40181500000000003,-0.32667,-0.21865700000000002,0.533215,-0.50346,0.137423,0.40326500000000004,-0.31960500000000003,0.274203,0.548875,-0.48927,-0.263797,0.659465,-0.7041200000000001,0.336743,0.684585,-0.68986,-0.068935,-0.0002849999999999797,-0.0033400000000000096,0.068935,0.00028500000000000747,0.0033400000000000096,-0.142007,-0.20137499999999997,-0.250847,0.15215299999999998,-0.19788499999999998,-0.23694400000000002,-0.12354700000000002,-0.548965,-0.210035,0.128453,-0.546175,-0.209188
98,0.024656499999999998,0.58204,-0.35463999999999996,-0.11140649999999999,0.40805,-0.31434,-0.21944650000000002,0.5471,-0.48419,0.1397735,0.4103,-0.306857,0.27492350000000004,0.56352,-0.47165,-0.26471649999999997,0.6823899999999999,-0.68169,0.33786350000000004,0.70838,-0.66985,-0.06869249999999999,-0.00021999999999999797,-0.003250000000000003,0.06869249999999999,0.00021999999999999797,0.003250000000000003,-0.14021650000000002,-0.21298999999999998,-0.23931799999999998,0.1500435,-0.21059999999999998,-0.22505599999999998,-0.12403650000000002,-0.56261,-0.199616,0.1288435,-0.56086,-0.199378
99,0.0252315,0.5885050000000001,-0.33631500000000003,-0.1114855,0.414885,-0.301375,-0.2200655,0.561965,-0.466155,0.1420545,0.417555,-0.293429,0.2755345,0.578315,-0.453695,-0.2657755,0.7025049999999999,-0.657655,0.3386445,0.728515,-0.648955,-0.0685235,-6.499999999999562e-05,-0.0030950000000000144,0.0685235,6.50000000000095e-05,0.0030949999999999867,-0.1386455,-0.224815,-0.227076,0.1478745,-0.22334500000000002,-0.212556,-0.12460550000000001,-0.575815,-0.18915200000000001,0.1292145,-0.5752550000000001,-0.189134
100,0.025707999999999998,0.6004565000000001,-0.31891,-0.111611,0.42563650000000003,-0.287544,-0.219741,0.5777964999999999,-0.44755,0.14524900000000002,0.4281765,-0.279351,0.27584899999999996,0.5921065,-0.43661,-0.26689100000000004,0.7268165,-0.63339,0.338659,0.7496565000000001,-0.62456,-0.068359,0.00021949999999999747,-0.0030100000000000127,0.068359,-0.00021949999999999747,0.003009999999999985,-0.13736099999999998,-0.2320335,-0.215031,0.14577900000000002,-0.2317635,-0.200156,-0.125171,-0.5837535,-0.178924,0.129839,-0.5848335,-0.178981
101,0.0260395,0.609887,-0.30227499999999996,-0.1117715,0.435627,-0.273979,-0.21930149999999998,0.593817,-0.429135,0.1481685,0.437407,-0.264906,0.27630849999999996,0.608447,-0.419385,-0.2676715,0.746017,-0.608525,0.33859849999999997,0.768797,-0.600355,-0.06858249999999999,0.0005460000000000048,-0.002804999999999974,0.06858249999999999,-0.0005460000000000048,0.002805000000000002,-0.1363615,-0.239253,-0.20299699999999998,0.1437785,-0.240083,-0.1881,-0.12580149999999998,-0.591373,-0.168562,0.1304285,-0.593473,-0.168849
102,0.026384499999999995,0.6185835000000001,-0.285715,-0.11218250000000002,0.44301349999999995,-0.259735,-0.2189025,0.6074335000000001,-0.410005,0.1506975,0.4453935,-0.250042,0.2767875,0.6235135,-0.401785,-0.2676925,0.7639535000000001,-0.582335,0.3384975,0.7846135000000001,-0.576005,-0.0688205,0.0008834999999999954,-0.002375000000000016,0.0688205,-0.0008834999999999954,0.0023749999999999882,-0.1352325,-0.2465765,-0.19079000000000002,0.1416775,-0.2491165,-0.175934,-0.1263925,-0.5990165,-0.15775,0.1308175,-0.6027764999999999,-0.15823600000000002
103,0.026516500000000002,0.6309229999999999,-0.27048,-0.1128825,0.451463,-0.245859,-0.2185625,0.621823,-0.39035,0.15277749999999998,0.454943,-0.236042,0.2776675,0.640093,-0.38539999999999996,-0.2675625,0.782943,-0.55466,0.33824750000000003,0.803013,-0.55077,-0.06872249999999999,0.001129000000000005,-0.001480000000000009,0.06872249999999999,-0.001128999999999998,0.001480000000000009,-0.1343225,-0.252287,-0.179618,0.1391475,-0.256587,-0.164832,-0.1272025,-0.604957,-0.148185,0.1306575,-0.6104769999999999,-0.148605
104,0.026704,0.6435715,-0.25678,-0.11347499999999999,0.4586115,-0.233382,-0.218355,0.6344015,-0.37182000000000004,0.154825,0.4641215,-0.223592,0.278565,0.6553614999999999,-0.36989,-0.266385,0.8019115,-0.5286299999999999,0.337965,0.8187515,-0.52702,-0.068611,0.0014715000000000006,-0.0010700000000000154,0.068611,-0.0014715000000000006,0.0010699999999999876,-0.133415,-0.25694849999999997,-0.169654,0.136795,-0.2632485,-0.154888,-0.12784500000000001,-0.6097985,-0.139899,0.130325,-0.6172885,-0.13982
105,0.0269985,0.6557215,-0.24370999999999998,-0.1139095,0.4651215,-0.22147899999999998,-0.2182295,0.6453215,-0.35419,0.1570205,0.4726615,-0.211817,0.2796905,0.6686315,-0.35524,-0.2651995,0.8139415,-0.50399,0.33772050000000003,0.8330215,-0.50401,-0.0684795,0.0017244999999999969,-0.0006599999999999939,0.0684795,-0.0017245000000000038,0.0006599999999999939,-0.13226949999999998,-0.2611785,-0.160911,0.1343105,-0.2692485,-0.145701,-0.1282795,-0.6141584999999999,-0.132271,0.1303105,-0.6234284999999999,-0.131043
106,0.027511000000000004,0.664294,-0.232185,-0.114231,0.468254,-0.211066,-0.218411,0.657414,-0.335995,0.158679,0.477884,-0.20169199999999998,0.28070900000000004,0.682434,-0.341205,-0.26402099999999995,0.827234,-0.478385,0.33760900000000005,0.847444,-0.482105,-0.06830900000000001,0.0018579999999999985,-0.0004949999999999954,0.06830900000000001,-0.0018579999999999985,0.0004949999999999954,-0.130961,-0.264056,-0.15376,0.132119,-0.273686,-0.137923,-0.128601,-0.617116,-0.12601400000000001,0.130429,-0.627966,-0.123263
107,0.028076999999999998,0.6725810000000001,-0.222895,-0.11461299999999999,0.472021,-0.20229200000000003,-0.21926299999999999,0.6663110000000001,-0.321035,0.160287,0.483701,-0.19309400000000002,0.281757,0.692591,-0.32882500000000003,-0.263863,0.836001,-0.45620499999999997,0.33713699999999996,0.854581,-0.46247499999999997,-0.068138,0.0018869999999999998,-0.00039500000000000646,0.068138,-0.0018869999999999998,0.0003949999999999926,-0.129873,-0.266779,-0.148488,0.130047,-0.277019,-0.131924,-0.12881299999999998,-0.6198490000000001,-0.12123600000000001,0.130327,-0.631329,-0.11695900000000001
108,0.028505499999999996,0.681759,-0.21495999999999998,-0.1150015,0.475949,-0.19460899999999998,-0.2196115,0.6727289999999999,-0.30667,0.16188850000000002,0.489879,-0.18551600000000001,0.2828985,0.700449,-0.31692,-0.2639015,0.843069,-0.43533,0.3368785,0.862549,-0.44331,-0.0679475,0.001965999999999999,-0.00032000000000000084,0.0679475,-0.001965999999999999,0.00032000000000000084,-0.12827149999999998,-0.26881099999999997,-0.144809,0.1278585,-0.27974099999999996,-0.12697999999999998,-0.1287915,-0.621811,-0.117057,0.1298685,-0.6340210000000001,-0.11179399999999999
109,0.0289295,0.6894315000000001,-0.20881300000000003,-0.1153455,0.4762315,-0.189477,-0.2200655,0.6802615000000001,-0.29403,0.1625745,0.4925215,-0.180396,0.2840645,0.7089915,-0.30681,-0.2633755,0.8507815000000001,-0.41706000000000004,0.3368245,0.8710015000000001,-0.42802,-0.0677375,0.001989499999999998,-0.0002500000000000002,0.0677375,-0.0019895000000000017,0.0002500000000000002,-0.1264255,-0.2703185,-0.14294400000000002,0.1263845,-0.28132850000000004,-0.123837,-0.1287655,-0.6229885,-0.11418,0.1299845,-0.6355385,-0.10916200000000001
110,0.029616,0.697953,-0.20327800000000001,-0.115589,0.47634299999999996,-0.184886,-0.22064899999999998,0.6867730000000001,-0.28209,0.16323100000000001,0.494693,-0.17596,0.28448100000000004,0.7138030000000001,-0.29548,-0.263169,0.8592730000000001,-0.40066,0.336721,0.878783,-0.41146,-0.067506,0.0020219999999999995,-0.00021999999999999797,0.067506,-0.0020219999999999995,0.00021999999999999797,-0.124059,-0.27182700000000004,-0.142099,0.124401,-0.28382700000000005,-0.121059,-0.128359,-0.6241669999999999,-0.111814,0.129641,-0.637007,-0.10606399999999999
111,0.030320500000000004,0.7057399999999999,-0.19929200000000002,-0.1157725,0.47651,-0.182087,-0.2211925,0.69339,-0.27212000000000003,0.16394750000000002,0.49737000000000003,-0.173126,0.2844775,0.7189099999999999,-0.28652,-0.2639325,0.86769,-0.38687,0.3367275,0.88666,-0.39696,-0.0672555,0.00204,-0.0003500000000000031,0.0672555,-0.00204,0.0003499999999999892,-0.1218725,-0.27371,-0.142768,0.1225975,-0.28571,-0.11963700000000001,-0.1280325,-0.6259300000000001,-0.11051100000000001,0.1292675,-0.63673,-0.10422000000000001
112,0.030316999999999997,0.7092729999999999,-0.193621,-0.116554,0.476043,-0.17807800000000001,-0.222074,0.697643,-0.262255,0.163746,0.49766299999999997,-0.16875600000000002,0.283426,0.721853,-0.275475,-0.264864,0.8742329999999999,-0.37138499999999997,0.336076,0.891483,-0.38212500000000005,-0.067417,0.0020440000000000007,-0.00011500000000000399,0.067417,-0.0020440000000000007,0.00011500000000000399,-0.120464,-0.27498700000000004,-0.139573,0.120596,-0.28698700000000005,-0.116426,-0.128044,-0.6272070000000001,-0.107076,0.12785600000000003,-0.638007,-0.099274
113,0.0303145,0.711409,-0.187871,-0.11737550000000001,0.475419,-0.173789,-0.22301549999999998,0.700869,-0.25184,0.16352450000000002,0.497929,-0.164109,0.2823245,0.724239,-0.26377,-0.26587550000000004,0.880639,-0.35607999999999995,0.3352445,0.895859,-0.36639,-0.0676345,0.0021369999999999983,1.9999999999992246e-05,0.0676345,-0.002137,-2.0000000000006124e-05,-0.1191955,-0.276241,-0.13614199999999999,0.1185045,-0.288241,-0.111961,-0.1280155,-0.628461,-0.103108,0.12628450000000002,-0.639261,-0.093586
114,0.030213499999999997,0.7136239999999999,-0.17911749999999999,-0.11834549999999999,0.47492399999999996,-0.1666625,-0.2239755,0.704174,-0.2382435,0.16310449999999999,0.498034,-0.1566685,0.2811245,0.726434,-0.2489235,-0.2670255,0.887224,-0.3381335,0.3342945,0.8996339999999999,-0.3481535,-0.06786049999999999,0.0022120000000000004,-0.0005614999999999926,0.06786049999999999,-0.0022120000000000004,0.0005615000000000064,-0.1182955,-0.277536,-0.1298895,0.1165445,-0.28950600000000004,-0.10465849999999999,-0.12802550000000001,-0.6295660000000001,-0.09688849999999999,0.12449449999999998,-0.640366,-0.0850455
115,0.029348500000000007,0.7141430000000001,-0.1609385,-0.1200785,0.477813,-0.1471725,-0.22592849999999998,0.7045030000000001,-0.2169045,0.1627315,0.498573,-0.1372635,0.27908150000000004,0.7264830000000001,-0.2253145,-0.2695585,0.8911730000000001,-0.3114845,0.3324615,0.9015930000000001,-0.3200345,-0.0677635,0.0020890000000000006,-0.0006715000000000054,0.0677635,-0.002088999999999999,0.0006714999999999915,-0.1183485,-0.285037,-0.11347850000000001,0.11393149999999999,-0.295107,-0.08662450000000001,-0.1288585,-0.6354669999999999,-0.07862250000000001,0.1216015,-0.643917,-0.0659275
116,0.028539999999999996,0.71475,-0.143032,-0.1217,0.48083,-0.127851,-0.22783,0.70527,-0.19551000000000002,0.16243,0.49919,-0.117973,0.27698,0.7264,-0.2019,-0.27215,0.89517,-0.28558,0.33058,0.90333,-0.29214,-0.067677,0.0020139999999999993,-0.0007549999999999987,0.067677,-0.002014,0.0007549999999999987,-0.11850000000000001,-0.29231,-0.096994,0.11155,-0.30065000000000003,-0.068084,-0.12975,-0.64154,-0.060341,0.11882999999999999,-0.64741,-0.046699000000000004
117,0.0276535,0.7142965,-0.1252295,-0.12322849999999999,0.48396649999999997,-0.1086705,-0.2296685,0.7057865000000001,-0.1747095,0.1621115,0.4998165,-0.0988545,0.2748515,0.7260565,-0.1791195,-0.2746685,0.8985065000000001,-0.2608295,0.3287815,0.9045165000000001,-0.2653595,-0.0676365,0.0018995000000000001,-0.0008275000000000018,0.0676365,-0.0018995000000000001,0.0008275000000000018,-0.11917849999999999,-0.2998535,-0.07975850000000001,0.1093915,-0.3062035,-0.049425500000000004,-0.1308785,-0.6472935,-0.0415245,0.11610150000000001,-0.6503034999999999,-0.0273415
118,0.0267315,0.7134469999999999,-0.10748250000000001,-0.1247425,0.48710699999999996,-0.0894635,-0.23142249999999998,0.705917,-0.1539015,0.1617675,0.500447,-0.0797825,0.27257750000000003,0.725607,-0.15649149999999998,-0.2774025,0.901757,-0.2361515,0.3269975,0.905297,-0.23873149999999999,-0.0676105,0.0017510000000000004,-0.0008824999999999979,0.0676105,-0.001751,0.0008825000000000013,-0.1200425,-0.307433,-0.0623605,0.1074675,-0.31185300000000005,-0.030750499999999997,-0.1320725,-0.653473,-0.022598499999999997,0.1136375,-0.653263,-0.008396499999999998
119,0.025546000000000003,0.7119775,-0.089663,-0.12627,0.4902375,-0.070185,-0.2332,0.7056675,-0.133796,0.16140000000000002,0.5011175,-0.060578999999999994,0.27019,0.7250875,-0.135376,-0.27981,0.9034575,-0.211286,0.32526,0.9065375,-0.213366,-0.067609,0.0015905000000000003,-0.0008109999999999992,0.067609,-0.0015905,0.0008109999999999992,-0.1215,-0.31507250000000003,-0.044654,0.10554000000000001,-0.3176125,-0.011965,-0.13337,-0.6597324999999999,-0.0034649999999999993,0.11129,-0.6565225,0.010551000000000001
120,0.0243095,0.7105360000000001,-0.07185949999999999,-0.1278385,0.493356,-0.050820500000000005,-0.2349485,0.705636,-0.1136045,0.1609915,0.501696,-0.0413105,0.26781150000000004,0.724436,-0.11408449999999999,-0.2821785,0.905196,-0.18578450000000002,0.32333150000000005,0.907326,-0.1880245,-0.06761349999999999,0.00142,-0.0006855000000000003,0.06761349999999999,-0.0014199999999999998,0.0006854999999999999,-0.12296850000000001,-0.322914,-0.0264015,0.1038215,-0.323324,0.0069075,-0.1348985,-0.6663439999999999,0.0161165,0.1087315,-0.659814,0.0295625
121,0.023528,0.7093155000000001,-0.056816000000000005,-0.129026,0.4966655,-0.034001,-0.23621599999999998,0.7058555000000001,-0.096127,0.161014,0.5021555000000001,-0.024964,0.26635400000000004,0.7238555000000001,-0.095377,-0.283616,0.9066355,-0.165877,0.322004,0.9077555,-0.166057,-0.067272,0.0013345,-0.0008480000000000015,0.067272,-0.0013345,0.0008479999999999981,-0.123986,-0.3302345,-0.010571000000000004,0.102774,-0.32883450000000003,0.023131999999999996,-0.13597599999999999,-0.6728544999999999,0.033121,0.107234,-0.6627244999999999,0.044648999999999994
122,0.022744999999999998,0.708098,-0.042077,-0.130279,0.500108,-0.017317000000000006,-0.237329,0.706608,-0.07875800000000001,0.161011,0.5026980000000001,-0.008769000000000006,0.26500100000000004,0.723438,-0.07725800000000001,-0.28495899999999996,0.905958,-0.145038,0.32061100000000003,0.908408,-0.144768,-0.066951,0.00117,-0.0008540000000000006,0.066951,-0.00117,0.0008539999999999971,-0.125009,-0.337382,0.005549999999999996,0.101781,-0.33335200000000004,0.03798,-0.137179,-0.6792119999999999,0.049950999999999995,0.10598099999999999,-0.665152,0.059413999999999995
123,0.022098499999999997,0.7073470000000001,-0.030434500000000003,-0.1314295,0.503907,-0.0035775000000000043,-0.2383395,0.707787,-0.0642455,0.1611505,0.503247,0.004326499999999997,0.2640305,0.723247,-0.0626355,-0.2861595,0.905397,-0.1263955,0.3194005,0.9094570000000001,-0.1265055,-0.0666615,0.0009919999999999998,-0.00019450000000000023,0.0666615,-0.0009919999999999998,0.00019450000000000023,-0.1259395,-0.342863,0.0190825,0.10091049999999999,-0.33708299999999997,0.0495875,-0.1382595,-0.683923,0.0637565,0.1050305,-0.668233,0.0712645
124,0.022088500000000004,0.707757,-0.028544500000000007,-0.1316195,0.504077,-0.0018065000000000025,-0.2386395,0.710087,-0.05911450000000001,0.1613105,0.503267,0.006110499999999998,0.2637205,0.724567,-0.057584500000000004,-0.28688949999999996,0.9087770000000001,-0.11781450000000002,0.3190005,0.911587,-0.1190245,-0.06666949999999999,0.0009919999999999998,7.449999999999818e-05,0.06666949999999999,-0.0009919999999999998,-7.449999999999818e-05,-0.1261295,-0.342863,0.0208535,0.10072049999999999,-0.33708299999999997,0.0513585,-0.1385195,-0.6846329999999999,0.0659065,0.1048405,-0.668713,0.0730755
125,0.022120499999999998,0.708217,-0.026562500000000003,-0.1318085,0.504237,0.00016749999999999404,-0.2389785,0.712087,-0.05414050000000001,0.1614515,0.503267,0.008097499999999994,0.2634315,0.725977,-0.053028500000000006,-0.28760850000000004,0.911687,-0.1089405,0.31863149999999996,0.913657,-0.11218050000000002,-0.0666005,0.0009919999999999998,0.0003434999999999966,0.0666005,-0.0009919999999999998,-0.0003435000000000035,-0.1263185,-0.342873,0.022827499999999997,0.1007815,-0.337113,0.05334149999999999,-0.1387785,-0.6850729999999999,0.0682575,0.10465150000000001,-0.669773,0.07504949999999999
126,0.022065500000000002,0.7086870000000001,-0.0242,-0.1322535,0.5043070000000001,0.0025159999999999974,-0.2394435,0.713977,-0.049464999999999995,0.1614865,0.503267,0.010463,0.2629365,0.727257,-0.048681,-0.2880935,0.911667,-0.10056200000000001,0.3180265,0.915617,-0.105402,-0.0665235,0.0009919999999999998,0.0005259999999999987,0.0665235,-0.0009919999999999998,-0.0005259999999999987,-0.12669350000000001,-0.342873,0.025178,0.10087650000000001,-0.337113,0.055709,-0.1392335,-0.685663,0.070935,0.10420650000000001,-0.670723,0.077398
127,0.022028000000000006,0.7094404999999999,-0.021692500000000003,-0.13269999999999998,0.5046904999999999,0.0047805,-0.23998,0.7161004999999999,-0.045454499999999995,0.16158999999999998,0.5033504999999999,0.012381500000000004,0.26297,0.7289605,-0.04493949999999999,-0.28882,0.9139805,-0.0931035,0.31751999999999997,0.9179305,-0.09918350000000001,-0.06651599999999999,0.0010325,0.0007915000000000005,0.06651599999999999,-0.0010325,-0.0007914999999999936,-0.12714,-0.3422995,0.027574500000000002,0.10099,-0.3365895,0.057489500000000006,-0.13995,-0.6858495,0.07365150000000001,0.10409000000000002,-0.6703095,0.0798565
128,0.021985999999999995,0.71025,-0.01936700000000001,-0.133217,0.50505,0.006865999999999997,-0.240627,0.71734,-0.042988,0.161773,0.50333,0.013858999999999996,0.263113,0.73023,-0.04149,-0.28968700000000003,0.91535,-0.087681,0.31715299999999996,0.91944,-0.094341,-0.0665,0.0010110000000000002,0.0009419999999999984,0.0665,-0.001011,-0.0009420000000000053,-0.12770700000000001,-0.34191,0.029780999999999995,0.101093,-0.33599,0.058767999999999994,-0.140707,-0.68574,0.07613299999999999,0.103783,-0.66992,0.082214
129,0.021978000000000004,0.711008,-0.017167500000000002,-0.133556,0.505428,0.008596499999999993,-0.241506,0.7183879999999999,-0.0402425,0.162124,0.5031979999999999,0.015041499999999992,0.263264,0.731178,-0.03807450000000001,-0.290956,0.9162579999999999,-0.08346850000000001,0.317124,0.9206179999999999,-0.0895885,-0.066453,0.0009659999999999998,0.0009744999999999962,0.066453,-0.0009660000000000001,-0.0009745000000000031,-0.128336,-0.341522,0.031931499999999995,0.10118400000000001,-0.335402,0.059767499999999994,-0.141926,-0.6856920000000001,0.07886549999999999,0.10304400000000001,-0.670042,0.0844245
130,0.021978,0.711765,-0.015121499999999996,-0.134063,0.506045,0.0102195,-0.242473,0.719915,-0.037309499999999995,0.162397,0.503165,0.016133500000000002,0.263817,0.733085,-0.03508549999999999,-0.292083,0.917535,-0.08054049999999999,0.317487,0.922865,-0.0860205,-0.066413,0.0009109999999999999,0.0009665000000000021,0.066413,-0.0009110000000000001,-0.0009664999999999951,-0.129113,-0.341045,0.0339565,0.10109699999999999,-0.334835,0.0605605,-0.14357299999999998,-0.685275,0.0817735,0.10188699999999999,-0.670745,0.0865435
131,0.0225495,0.7123475,-0.013796500000000003,-0.13429049999999998,0.5065675,0.011192500000000001,-0.24253049999999998,0.7208875,-0.0340505,0.16267949999999998,0.5032774999999999,0.0171385,0.2641795,0.7350975,-0.0317505,-0.29269049999999996,0.9188875,-0.0772395,0.3180895,0.9251675,-0.0826795,-0.0663825,0.0008454999999999999,0.000840500000000001,0.0663825,-0.0008455,-0.000840499999999994,-0.1301705,-0.34078250000000004,0.0357155,0.10088950000000001,-0.33450250000000004,0.0610155,-0.1459605,-0.6850025000000001,0.0850075,0.1000195,-0.6718325,0.0889305
132,0.023289999999999998,0.7129719999999999,-0.012748999999999996,-0.134946,0.5073219999999999,0.012003,-0.242336,0.721552,-0.031793,0.162564,0.5036419999999999,0.017869000000000003,0.264514,0.737202,-0.028449000000000002,-0.293076,0.919372,-0.073969,0.31871400000000005,0.927472,-0.079359,-0.066402,0.000771,0.0007780000000000009,0.066402,-0.000771,-0.0007780000000000009,-0.130906,-0.34044800000000003,0.036813,0.100524,-0.33401800000000004,0.061163,-0.14871600000000001,-0.685138,0.08794,0.097674,-0.6734180000000001,0.09117600000000001
133,0.024199000000000005,0.713425,-0.012418500000000013,-0.134888,0.508085,0.011582499999999996,-0.241938,0.722005,-0.0312375,0.16418200000000002,0.504095,0.01846049999999999,0.26573199999999997,0.739195,-0.0258815,-0.293488,0.919825,-0.0710285,0.321022,0.929395,-0.07618849999999999,-0.066379,0.0006490000000000001,0.0005954999999999988,0.066379,-0.0006490000000000001,-0.0005955000000000127,-0.131548,-0.340375,0.037025499999999996,0.10009200000000001,-0.333635,0.06059849999999999,-0.151928,-0.684685,0.0904295,0.09471199999999999,-0.675075,0.0931625
134,0.025005999999999994,0.713835,-0.012096999999999997,-0.134855,0.508475,0.010782999999999994,-0.24151499999999998,0.722415,-0.031652,0.16557499999999997,0.504505,0.019075999999999996,0.26702499999999996,0.741295,-0.023585999999999996,-0.29358500000000004,0.919745,-0.070242,0.323995,0.931315,-0.072772,-0.066277,0.00053,0.00016199999999999548,0.066277,-0.0005300000000000001,-0.00016200000000000936,-0.132185,-0.340745,0.036737,0.09915500000000001,-0.333305,0.059962,-0.155785,-0.6846749999999999,0.092888,0.090765,-0.676665,0.095331
135,0.025930500000000002,0.7141689999999999,-0.012488500000000013,-0.1344225,0.508639,0.009140499999999996,-0.2403385,0.722479,-0.034122500000000014,0.1670015,0.5048389999999999,0.01967949999999999,0.2685015,0.742569,-0.021681500000000006,-0.29280849999999997,0.918839,-0.0725625,0.32615150000000004,0.932339,-0.07014250000000002,-0.0662415,0.00046600000000000005,-0.0002575000000000077,0.06624150000000001,-0.00046600000000000005,0.00025749999999999384,-0.1321435,-0.342021,0.03397149999999999,0.09769149999999999,-0.33366100000000004,0.05845249999999999,-0.1606185,-0.684441,0.09487649999999999,0.08539150000000001,-0.678621,0.09743749999999998
136,0.0264625,0.71449,-0.012979499999999991,-0.1343105,0.50867,0.007153500000000007,-0.2395275,0.7222999999999999,-0.0375345,0.16786250000000003,0.50545,0.020440500000000007,0.2691425,0.74314,-0.020238499999999993,-0.2922475,0.9176799999999999,-0.07635449999999999,0.3277125,0.93254,-0.06807450000000001,-0.0661625,0.000389,-0.0007854999999999945,0.0661625,-0.000389,0.0007855000000000084,-0.1322035,-0.34357,0.0294615,0.09529250000000002,-0.33443,0.0568385,-0.16578749999999998,-0.68427,0.0958765,0.07884250000000001,-0.68098,0.09968250000000001
137,0.026943,0.7147165,-0.013532500000000003,-0.132807,0.5075665,0.003981499999999999,-0.23758300000000002,0.7208765,-0.0419765,0.167607,0.5063365,0.0216955,0.270127,0.7442465,-0.0189965,-0.290663,0.9170365,-0.0823365,0.329707,0.9333764999999999,-0.0665365,-0.066037,0.0003355000000000001,-0.0014945000000000097,0.06603700000000001,-0.00033549999999999986,0.0014944999999999958,-0.131879,-0.3465235,0.022600499999999996,0.09262699999999999,-0.3363535,0.05512349999999999,-0.171233,-0.6836735,0.0962915,0.07147700000000001,-0.6830635,0.1020045
138,0.02715300000000001,0.714692,-0.014300999999999994,-0.132734,0.506552,0.0012720000000000092,-0.23659999999999998,0.7194119999999999,-0.04728099999999999,0.16613,0.507512,0.023315000000000002,0.27080000000000004,0.744892,-0.018090999999999996,-0.28939,0.9156519999999999,-0.08977099999999999,0.3311,0.9340219999999999,-0.06562099999999998,-0.06609,0.0004040000000000003,-0.0021549999999999903,0.06609,-0.00040399999999999985,0.002155000000000004,-0.131159,-0.350258,0.013565000000000008,0.08902,-0.338408,0.053502,-0.17601,-0.6833680000000001,0.095362,0.06329,-0.684728,0.104257
139,0.026958999999999997,0.7143835000000001,-0.015150499999999997,-0.133626,0.5053535,-0.0009764999999999913,-0.23614200000000002,0.7176935,-0.05343049999999999,0.16342800000000002,0.5084335,0.02566650000000001,0.270818,0.7447735,-0.016620499999999996,-0.288902,0.9134135,-0.09824049999999998,0.33205799999999996,0.9338435,-0.0651205,-0.066208,0.0005235000000000001,-0.0028104999999999936,0.066208,-0.0005235000000000001,0.0028105000000000074,-0.130042,-0.3554165,0.0019175000000000025,0.08428800000000002,-0.3406665,0.05247050000000001,-0.180442,-0.6830465,0.09373550000000001,0.054018,-0.6847964999999999,0.10710150000000002
140,0.026037000000000005,0.7140055,-0.015487,-0.133953,0.5036354999999999,-0.0035290000000000044,-0.237143,0.7153854999999999,-0.059636999999999996,0.16364700000000001,0.5093354999999999,0.027800000000000005,0.271727,0.7442955,-0.015936999999999993,-0.288753,0.9112454999999999,-0.10841699999999999,0.333147,0.9331155,-0.06536700000000001,-0.06641699999999999,0.0005655000000000005,-0.003473000000000004,0.066417,-0.0005655,0.003473000000000004,-0.127611,-0.3583445,-0.012227000000000002,0.078737,-0.3447345,0.05208,-0.182534,-0.6822245,0.08972000000000001,0.044087000000000015,-0.6852245,0.109996
141,0.025053000000000006,0.713578,-0.015841000000000008,-0.13414299999999998,0.5019979999999999,-0.006151000000000004,-0.238257,0.712898,-0.06617100000000001,0.16373300000000002,0.509978,0.030456999999999984,0.272733,0.744428,-0.01512100000000001,-0.289107,0.909048,-0.11880100000000002,0.334733,0.932718,-0.06623100000000001,-0.066533,0.0006559999999999999,-0.004361000000000004,0.066533,-0.0006560000000000003,0.00436099999999999,-0.12449099999999999,-0.360642,-0.026250999999999997,0.07269300000000002,-0.344082,0.05209699999999999,-0.18314599999999998,-0.681752,0.08435399999999998,0.03361300000000002,-0.684572,0.113283
142,0.023534,0.7131575,-0.016,-0.135466,0.5004375,-0.008319999999999994,-0.240026,0.7107975000000001,-0.07287999999999999,0.16136399999999998,0.5106375000000001,0.033603999999999995,0.272354,0.7429975000000001,-0.013789999999999997,-0.28925599999999996,0.9067775,-0.13056,0.334294,0.9304275000000001,-0.06677000000000001,-0.066644,0.0007334999999999998,-0.005269999999999997,0.06664400000000001,-0.0007334999999999998,0.005269999999999997,-0.119558,-0.3628025,-0.04259,0.06601399999999999,-0.3434225,0.052628,-0.179728,-0.6814524999999999,0.075405,0.022604000000000013,-0.6839124999999999,0.11657100000000001
143,0.022055500000000006,0.71204,-0.016619999999999996,-0.1369795,0.49786,-0.011359999999999995,-0.2413345,0.70603,-0.08213000000000001,0.1588855,0.51131,0.036646,0.2726655,0.73729,-0.012200000000000003,-0.2894445,0.90243,-0.14569000000000001,0.33380550000000003,0.92358,-0.06858999999999998,-0.0667955,0.000791,-0.0061200000000000004,0.06679550000000001,-0.0007909999999999992,0.0061200000000000004,-0.11079449999999999,-0.36501,-0.06478,0.06078550000000002,-0.34275,0.053487,-0.16890149999999998,-0.68118,0.057554,0.011655500000000013,-0.68321,0.118462
144,0.021009,0.7106925,-0.016640000000000016,-0.13887200000000002,0.4950925,-0.014250000000000013,-0.24395100000000003,0.6991625,-0.09233,0.15660899999999997,0.5121825,0.040347999999999995,0.275069,0.7278924999999999,-0.009980000000000017,-0.28930100000000003,0.8952224999999999,-0.16307000000000002,0.33569899999999997,0.9151925,-0.07189000000000001,-0.06701900000000001,0.0010115000000000002,-0.0068100000000000105,0.067019,-0.0010115000000000002,0.006809999999999997,-0.09892600000000001,-0.36660750000000003,-0.08684,0.05814899999999998,-0.34096750000000003,0.051949999999999996,-0.14652900000000002,-0.6811175,0.031694,0.0005889999999999784,-0.6765675,0.120486
145,0.021104999999999985,0.709151,-0.017099999999999976,-0.140132,0.49202100000000004,-0.01762999999999998,-0.246369,0.6910609999999999,-0.10454,0.15513499999999997,0.512941,0.043935000000000016,0.279375,0.715671,-0.007669999999999982,-0.287925,0.885201,-0.18251999999999996,0.339285,0.900521,-0.07616999999999999,-0.06728500000000001,0.0013409999999999993,-0.007309999999999983,0.06728499999999998,-0.0013410000000000002,0.007310000000000011,-0.086602,-0.36843899999999996,-0.10686999999999999,0.04949499999999998,-0.345489,0.05544200000000002,-0.12062600000000001,-0.680759,0.0028600000000000153,-0.013805000000000012,-0.676609,0.12692900000000001
146,0.02108950000000001,0.7081594999999999,-0.017185000000000006,-0.1429535,0.4902695,-0.019565000000000027,-0.2501125,0.6822995,-0.11774499999999999,0.1545395,0.5129794999999999,0.04756599999999998,0.2844295,0.7011295,-0.004825000000000024,-0.2872105,0.8732095,-0.20266500000000004,0.3416895,0.8857495,-0.07950500000000002,-0.0676295,0.0015875000000000004,-0.007615000000000011,0.06762950000000001,-0.0015875000000000004,0.007614999999999983,-0.0744605,-0.3685305,-0.124415,0.04092950000000001,-0.3501605,0.05979899999999999,-0.08981449999999999,-0.6806805,-0.02920500000000001,-0.026570499999999997,-0.6695205000000001,0.130824
147,0.02189000000000002,0.707183,-0.01683499999999999,-0.143812,0.487693,-0.022424999999999973,-0.253112,0.672833,-0.13400499999999999,0.15531000000000003,0.512343,0.051456000000000016,0.29229000000000005,0.683443,-0.0009049999999999891,-0.28456,0.861673,-0.22362499999999996,0.34608000000000005,0.866373,-0.08252499999999999,-0.06782999999999999,0.0016499999999999987,-0.008044999999999997,0.06783,-0.0016500000000000004,0.008045000000000024,-0.06269999999999999,-0.365817,-0.139615,0.036000000000000004,-0.35391700000000004,0.06251500000000002,-0.05535999999999999,-0.677567,-0.06378499999999998,-0.041069999999999995,-0.668037,0.13950400000000002
148,0.023540000000000005,0.706511,-0.016470000000000012,-0.14286,0.484251,-0.025790000000000007,-0.255586,0.662061,-0.15154,0.15769000000000002,0.510881,0.05513999999999998,0.30268000000000006,0.664651,0.0016499999999999848,-0.279122,0.8497410000000001,-0.24544,0.35047000000000006,0.846871,-0.08626,-0.06795999999999999,0.0015610000000000016,-0.00854000000000002,0.06795999999999999,-0.0015609999999999999,0.008539999999999992,-0.051419999999999993,-0.362429,-0.15259,0.032330000000000025,-0.356829,0.06553999999999999,-0.019579999999999986,-0.674179,-0.09836,-0.05445,-0.665619,0.148467
149,0.02537500000000001,0.7064410000000001,-0.015825000000000006,-0.142913,0.48095099999999996,-0.028184999999999988,-0.257781,0.6483610000000001,-0.17085499999999998,0.15703499999999998,0.509401,0.05977500000000001,0.31137499999999996,0.6442410000000001,0.006434999999999996,-0.272704,0.834951,-0.267185,0.35523499999999997,0.8237110000000001,-0.09019499999999997,-0.06795499999999999,0.0016080000000000018,-0.009144999999999986,0.06795499999999999,-0.0016079999999999983,0.009145000000000014,-0.041655,-0.35801900000000003,-0.163425,0.028455000000000008,-0.35718900000000003,0.069065,0.014855000000000007,-0.669349,-0.13078499999999998,-0.066605,-0.661449,0.157696
150,0.02434,0.708014,-0.016839999999999994,-0.144889,0.477784,-0.03251999999999999,-0.26257,0.6251140000000001,-0.18655999999999998,0.15374000000000002,0.507824,0.06379,0.31809,0.618334,0.011509999999999992,-0.266812,0.811214,-0.29152999999999996,0.35499,0.793794,-0.09485999999999997,-0.0678,0.0013050000000000006,-0.009739999999999999,0.0678,-0.0013050000000000006,0.009739999999999999,-0.029740000000000016,-0.34597599999999995,-0.17515,0.018449999999999994,-0.35656600000000005,0.07536,0.042550000000000004,-0.6626259999999999,-0.1601,-0.08334,-0.6552359999999999,0.168587
151,0.024935000000000013,0.7104524999999999,-0.01697499999999999,-0.14497500000000002,0.47341249999999996,-0.035415,-0.265868,0.5977125,-0.20543499999999998,0.153255,0.5049125,0.06822500000000001,0.32577500000000004,0.5865724999999999,0.020655000000000007,-0.258765,0.7804525,-0.313585,0.3562350000000001,0.7578725,-0.097715,-0.06765499999999999,0.0010844999999999952,-0.010784999999999989,0.06765499999999999,-0.0010845000000000021,0.010784999999999989,-0.018875000000000003,-0.3402075,-0.18312499999999998,0.009574999999999972,-0.3559675,0.08333499999999999,0.06658499999999998,-0.6589175,-0.183265,-0.099215,-0.6476275,0.182669
152,0.026019999999999988,0.7138005,-0.016555000000000014,-0.14515000000000003,0.4708405,-0.036225000000000035,-0.268442,0.5674305,-0.21478500000000003,0.15372999999999998,0.5008405,0.073015,0.32723,0.5545505,0.032695,-0.25008600000000003,0.7447005,-0.33165500000000003,0.35609,0.7204005,-0.098355,-0.06793000000000002,0.0014375000000000013,-0.010825000000000001,0.06792999999999999,-0.0014375000000000013,0.010825000000000001,-0.010030000000000039,-0.3343595,-0.18387499999999998,0.00010999999999994348,-0.3540395,0.09346499999999999,0.08313999999999999,-0.6562895000000001,-0.19496500000000003,-0.11346000000000003,-0.6358395,0.198048
153,0.027884999999999993,0.7180005,-0.015710000000000002,-0.14228500000000002,0.4688405,-0.03803999999999996,-0.268394,0.5349705,-0.21842,0.15437499999999998,0.4967705,0.07811000000000001,0.32523499999999994,0.5211705,0.04658000000000001,-0.24100200000000002,0.7056805,-0.34075999999999995,0.35489499999999996,0.6773905,-0.09603999999999996,-0.06788500000000003,0.0010755,-0.01088,0.06788499999999997,-0.0010755,0.010880000000000029,-0.004904999999999993,-0.32890949999999997,-0.18031999999999998,-0.007335000000000036,-0.3507095,0.10257000000000002,0.089055,-0.6527995,-0.19524999999999998,-0.12744500000000003,-0.6251395,0.21572700000000003
154,0.026814999999999978,0.722624,-0.014579999999999982,-0.140545,0.467424,-0.03915000000000002,-0.26998700000000003,0.498544,-0.21667999999999998,0.152345,0.492224,0.08143999999999998,0.319635,0.485834,0.06248000000000001,-0.23477,0.6617540000000001,-0.34175000000000005,0.349765,0.630604,-0.09079999999999999,-0.067775,0.0008659999999999987,-0.011290000000000022,0.06777499999999997,-0.0008659999999999987,0.011290000000000022,2.4999999999997247e-05,-0.323606,-0.17607,-0.014745000000000008,-0.347476,0.11060999999999999,0.08796500000000002,-0.6499159999999999,-0.18982,-0.14078500000000002,-0.6219159999999999,0.2321
155,0.026539999999999953,0.726746,-0.015945000000000042,-0.13900000000000004,0.46634600000000004,-0.04114500000000004,-0.269299,0.46173600000000004,-0.207665,0.14937999999999996,0.48510600000000004,0.08606499999999997,0.30669,0.447456,0.08271499999999996,-0.22887000000000002,0.595106,-0.3335450000000001,0.33838999999999997,0.562906,-0.08161500000000005,-0.06634000000000001,0.0008599999999999997,-0.013815000000000022,0.06633999999999995,-0.0008599999999999997,0.013814999999999966,-0.00042000000000003146,-0.321224,-0.16859500000000005,-0.024280000000000024,-0.344974,0.11763499999999996,0.07605999999999996,-0.6490739999999999,-0.17417500000000002,-0.15076000000000003,-0.618054,0.24191599999999996
156,0.02685000000000004,0.7305455,-0.018644999999999967,-0.13971999999999996,0.4663555,-0.04280499999999998,-0.26870099999999997,0.42331549999999996,-0.1922149999999999,0.14663000000000004,0.4786355,0.08926500000000004,0.2898900000000001,0.4104055,0.09947500000000004,-0.22270999999999996,0.5211555,-0.3190449999999999,0.3225800000000001,0.4921055,-0.06905499999999998,-0.06553999999999999,0.0009274999999999978,-0.015484999999999971,0.06554000000000004,-0.0009275000000000047,0.015485000000000027,-0.0006499999999999839,-0.32223450000000003,-0.15805499999999995,-0.02196999999999999,-0.3508345,0.11206500000000003,0.05729000000000006,-0.6477145,-0.15230499999999997,-0.15144999999999997,-0.6219945,0.24067400000000005
157,0.027264999999999984,0.7328455,-0.021645000000000025,-0.14081500000000002,0.4675155,-0.04433500000000001,-0.26644500000000004,0.3867555,-0.17478500000000002,0.14415499999999992,0.4731455,0.09175499999999998,0.269815,0.3740555,0.11496499999999998,-0.21740500000000001,0.4465555,-0.299425,0.305775,0.42077549999999997,-0.05739500000000003,-0.064975,0.0009104999999999946,-0.01633499999999999,0.06497499999999995,-0.0009105000000000016,0.01633499999999999,-0.001735000000000042,-0.3236045,-0.14526500000000003,-0.016475000000000017,-0.3470445,0.10117499999999996,0.036294999999999966,-0.6465945,-0.12832500000000002,-0.13726500000000003,-0.6232145,0.225675
158,0.028330000000000022,0.7345955,-0.025509999999999977,-0.14144,0.4689955,-0.04644999999999999,-0.26388999999999996,0.35377549999999996,-0.15322999999999998,0.14203,0.4677655,0.09318000000000004,0.25058,0.3401855,0.12912,-0.2148,0.3743855,-0.2758999999999999,0.28671,0.3571155,-0.04804999999999998,-0.06411,0.0009224999999999928,-0.01712999999999998,0.06411,-0.0009225000000000066,0.017130000000000034,-0.003280000000000005,-0.3268545,-0.13090999999999997,-0.00768000000000002,-0.3437745,0.08900000000000002,0.014670000000000016,-0.6431245000000001,-0.10309999999999997,-0.12326999999999999,-0.6241445000000001,0.21009000000000003
159,0.032799999999999996,0.7356659999999999,-0.02773500000000001,-0.13981,0.470526,-0.04592500000000005,-0.25793,0.331456,-0.13250499999999998,0.14383000000000007,0.46324600000000005,0.09462499999999996,0.23474,0.312596,0.14082499999999998,-0.21159999999999998,0.309346,-0.24743500000000007,0.27093000000000006,0.305206,-0.03785500000000003,-0.06390999999999997,0.0007559999999999928,-0.016945000000000043,0.06390999999999997,-0.0007560000000000067,0.016944999999999988,-0.00874999999999998,-0.32932400000000006,-0.11551500000000003,0.010560000000000014,-0.34137399999999996,0.07388499999999998,-0.0026499999999999857,-0.641634,-0.07783500000000004,-0.09725999999999996,-0.624834,0.18830499999999997
160,0.037195000000000034,0.7365525,-0.03219500000000003,-0.138845,0.4713625,-0.047075000000000033,-0.251965,0.3124925,-0.10850500000000007,0.14437499999999998,0.45906250000000004,0.09440499999999996,0.21847500000000003,0.2914625,0.15056499999999995,-0.212185,0.2493025,-0.221445,0.253345,0.2614925,-0.027435000000000043,-0.062915,0.0011245000000000005,-0.017685000000000006,0.062915,-0.0011245000000000005,0.01768499999999995,-0.017735,-0.3310075,-0.09933500000000006,0.03399499999999994,-0.33953750000000005,0.051035,-0.022855000000000014,-0.6404875,-0.05261500000000002,-0.056475,-0.6200375,0.15217499999999995
161,0.04215999999999992,0.7378145,-0.03756000000000004,-0.13675000000000004,0.4718845,-0.049490000000000034,-0.24625000000000002,0.29813449999999997,-0.08784999999999998,0.14509999999999995,0.4568545,0.09332999999999997,0.20373999999999998,0.2780045,0.15871999999999997,-0.21378000000000003,0.1957045,-0.19861000000000006,0.23901,0.2297345,-0.01907000000000003,-0.06224000000000002,0.0017865000000000103,-0.01827000000000001,0.06224000000000002,-0.0017864999999999964,0.018269999999999953,-0.029720000000000024,-0.3321955,-0.08408000000000004,0.059079999999999966,-0.3363855,0.027129999999999987,-0.04353000000000001,-0.6390555,-0.02920000000000006,-0.009160000000000057,-0.6177855000000001,0.11066999999999999
162,0.04681000000000002,0.7390479999999999,-0.04379500000000003,-0.13694,0.473838,-0.05013500000000004,-0.24180000000000001,0.286568,-0.07067500000000004,0.14589999999999992,0.454188,0.091445,0.19289,0.270958,0.162985,-0.21725000000000005,0.146733,-0.17781500000000006,0.22758,0.208428,-0.015565000000000051,-0.060850000000000015,0.002467999999999998,-0.02073500000000006,0.06084999999999996,-0.002467999999999998,0.020735000000000003,-0.04288000000000003,-0.340702,-0.070515,0.08353999999999995,-0.332272,0.003534999999999955,-0.06542000000000003,-0.640412,-0.00739500000000004,0.041039999999999965,-0.611732,0.06478499999999998
163,0.05416499999999991,0.7393115,-0.0504,-0.13588500000000003,0.47623150000000003,-0.05047999999999997,-0.23555500000000001,0.2799315,-0.05245999999999995,0.150185,0.45239149999999995,0.09089000000000003,0.18542499999999995,0.2672815,0.16582000000000002,-0.21792500000000004,0.1058735,-0.15647,0.22099499999999994,0.1965515,-0.012639999999999985,-0.060475000000000056,0.0027955000000000063,-0.021809999999999996,0.060474999999999945,-0.0027955000000000063,0.021809999999999996,-0.05699500000000002,-0.3427985,-0.05727000000000004,0.109545,-0.3283785,-0.019730000000000025,-0.08475500000000002,-0.6381884999999999,0.013399999999999967,0.09460499999999994,-0.6061385,0.018350000000000033
164,0.06182500000000002,0.7378065,-0.055849999999999955,-0.13388499999999992,0.4805065,-0.049350000000000005,-0.23076499999999994,0.2792565,-0.03834000000000004,0.15510500000000005,0.45500650000000004,0.08632000000000001,0.18786500000000006,0.2699065,0.16455000000000003,-0.22027499999999994,0.0935695,-0.13559999999999994,0.22477500000000006,0.1991765,-0.015240000000000031,-0.061634999999999995,0.0030504999999999977,-0.01969999999999994,0.061635000000000106,-0.0030504999999999977,0.01970000000000005,-0.06899499999999997,-0.34317349999999996,-0.04515999999999998,0.13583500000000004,-0.3236435,-0.03976999999999997,-0.10138499999999995,-0.6355635,0.03215000000000001,0.14449500000000004,-0.6039935,-0.021950000000000025
165,0.06877999999999995,0.7347025,-0.061585,-0.13036000000000003,0.4833725,-0.04695499999999997,-0.22583000000000003,0.2814325,-0.025614999999999943,0.16184999999999994,0.4578125,0.08057500000000001,0.19760999999999995,0.2727125,0.15674500000000002,-0.22722000000000003,0.08900649999999999,-0.11446499999999993,0.23622999999999994,0.2019825,-0.029774999999999996,-0.062450000000000006,0.003632499999999997,-0.017874999999999974,0.062450000000000006,-0.0036325000000000107,0.017874999999999974,-0.08394999999999997,-0.3407675,-0.03481499999999993,0.14993,-0.3183575,-0.04889500000000002,-0.11995,-0.6327575,0.050915000000000044,0.18347000000000002,-0.6025175,-0.04879500000000003
166,0.07582,0.7291705,-0.06789999999999996,-0.12677000000000005,0.4869405,-0.044499999999999984,-0.22239000000000003,0.2826705,-0.014499999999999957,0.16904999999999992,0.4598205,0.07330999999999999,0.21329999999999993,0.27472050000000003,0.14890000000000003,-0.23590000000000005,0.0864085,-0.09399000000000002,0.2501,0.20399050000000002,-0.044949999999999934,-0.06317000000000006,0.004457500000000003,-0.01634000000000002,0.06316999999999995,-0.004457500000000003,0.01634000000000002,-0.09837000000000007,-0.3387595,-0.026150000000000007,0.1618099999999999,-0.3127895,-0.05406,-0.13968000000000003,-0.6295395,0.06799,0.20678999999999992,-0.6037795,-0.062289999999999957
167,0.08256000000000008,0.722828,-0.07572500000000004,-0.12292999999999998,0.488668,-0.04190500000000008,-0.21742999999999996,0.28344800000000003,-0.007525000000000004,0.17453000000000007,0.461848,0.062344999999999984,0.23167000000000004,0.277368,0.13514499999999996,-0.24267,0.084677,-0.07191500000000006,0.26307,0.214258,-0.06287500000000001,-0.06424999999999992,0.005205000000000001,-0.014045000000000085,0.06425000000000003,-0.005205000000000001,0.014044999999999974,-0.11324999999999996,-0.337082,-0.019305000000000017,0.16875000000000007,-0.306762,-0.059145,-0.16497999999999996,-0.626122,0.08604499999999993,0.23443999999999998,-0.606942,-0.08047500000000007
168,0.08897500000000003,0.716105,-0.08394500000000005,-0.11766499999999991,0.490305,-0.04066499999999995,-0.2124549999999999,0.283895,-0.0015850000000000586,0.17943500000000012,0.46338500000000005,0.04999500000000001,0.25014500000000006,0.282685,0.12094499999999997,-0.2480949999999999,0.08475600000000001,-0.053915000000000046,0.2764550000000001,0.235015,-0.08218499999999995,-0.06506499999999993,0.00583800000000001,-0.01232500000000003,0.06506500000000004,-0.005837999999999996,0.01232500000000003,-0.12731499999999996,-0.33579499999999995,-0.012745000000000006,0.17210500000000006,-0.30193499999999995,-0.06269500000000006,-0.1882149999999999,-0.622285,0.10197500000000004,0.2561350000000001,-0.6105349999999999,-0.09428499999999995
169,0.09433999999999998,0.7099535,-0.09189000000000003,-0.11320999999999992,0.4913435,-0.03894999999999993,-0.20703999999999995,0.2841635,0.004750000000000032,0.18322000000000005,0.4645835,0.03642000000000001,0.26704000000000006,0.28913350000000004,0.10216000000000003,-0.25112999999999996,0.0854585,-0.04137999999999997,0.28852,0.2600235,-0.10587999999999997,-0.06674999999999998,0.006298500000000012,-0.00880000000000003,0.06674999999999998,-0.0062984999999999985,0.00880000000000003,-0.13869999999999993,-0.3345065,-0.008680000000000021,0.17137999999999998,-0.2993165,-0.06384000000000001,-0.20692,-0.6175865,0.11443000000000003,0.26367000000000007,-0.6101865,-0.09744999999999993
170,0.09967999999999999,0.7047859999999999,-0.10006499999999996,-0.1079,0.492426,-0.03787499999999999,-0.20172,0.283816,0.011515000000000053,0.18525999999999998,0.465066,0.02134500000000006,0.2830999999999999,0.295936,0.08140500000000006,-0.25293000000000004,0.085396,-0.031164999999999998,0.29590000000000005,0.283136,-0.129135,-0.06792000000000009,0.006517999999999996,-0.005815000000000015,0.06791999999999998,-0.006517999999999996,0.005815000000000015,-0.14970000000000006,-0.331384,-0.005164999999999975,0.16845999999999994,-0.297944,-0.06382500000000002,-0.22483000000000003,-0.613424,0.12539500000000003,0.26517999999999997,-0.6124240000000001,-0.09624500000000002
171,0.10536499999999993,0.701162,-0.10902500000000004,-0.10267500000000007,0.493512,-0.03719500000000009,-0.19576500000000008,0.283192,0.018484999999999974,0.185365,0.465442,0.004234999999999989,0.2941149999999999,0.301902,0.060314999999999896,-0.25301500000000005,0.085022,-0.02336500000000008,0.287315,0.304162,-0.1507050000000001,-0.070075,0.006705000000000003,-0.0007850000000000357,0.070075,-0.006705000000000003,0.0007849999999999246,-0.15734500000000007,-0.328598,-0.002475000000000116,0.164605,-0.296828,-0.0637350000000001,-0.23833500000000007,-0.6092080000000001,0.1336949999999999,0.26221499999999986,-0.614338,-0.09235500000000008
