sb224sc-HT22-VT27/4dt907/src/data/kinect_good_vs_bad_not_preprocessed_A13_mediapipe/G58.csv
FrameNo,nose_3d_x,nose_3d_y,nose_3d_z,left_shoulder_3d_x,left_shoulder_3d_y,left_shoulder_3d_z,left_elbow_3d_x,left_elbow_3d_y,left_elbow_3d_z,right_shoulder_3d_x,right_shoulder_3d_y,right_shoulder_3d_z,right_elbow_3d_x,right_elbow_3d_y,right_elbow_3d_z,left_wrist_3d_x,left_wrist_3d_y,left_wrist_3d_z,right_wrist_3d_x,right_wrist_3d_y,right_wrist_3d_z,left_hip_3d_x,left_hip_3d_y,left_hip_3d_z,right_hip_3d_x,right_hip_3d_y,right_hip_3d_z,left_knee_3d_x,left_knee_3d_y,left_knee_3d_z,right_knee_3d_x,right_knee_3d_y,right_knee_3d_z,left_ankle_3d_x,left_ankle_3d_y,left_ankle_3d_z,right_ankle_3d_x,right_ankle_3d_y,right_ankle_3d_z
0,0.013813500000000001,0.705586,0.003858500000000001,-0.1349405,0.500106,0.018478500000000002,-0.2297305,0.737566,-0.0022234999999999963,0.1579395,0.48429599999999995,0.007643500000000001,0.2359695,0.7349760000000001,-0.0070635,-0.2690905,0.9516560000000001,-0.022537499999999995,0.2654595,0.944156,-0.031723499999999995,-0.0692995,0.0001910000000000002,0.0002904999999999991,0.0692995,-0.0001910000000000002,-0.0002904999999999991,-0.1205405,-0.35488400000000003,0.021317500000000003,0.1086295,-0.353824,0.027706500000000002,-0.1248905,-0.6774439999999999,0.0489295,0.1204295,-0.674024,0.048960500000000004
1,0.013957999999999996,0.7055494999999999,0.004079500000000003,-0.134739,0.5002295,0.0186645,-0.22944900000000001,0.7376294999999999,-0.0021194999999999964,0.157991,0.48370949999999996,0.007544500000000003,0.23638099999999998,0.7352394999999999,-0.0069455,-0.26869899999999997,0.9517795,-0.022512499999999998,0.265811,0.9443095,-0.031517500000000004,-0.06929099999999999,0.0002205000000000002,0.00011450000000000349,0.06929099999999999,-0.0002205000000000002,-0.00011449999999999655,-0.12031900000000001,-0.35487050000000003,0.0212035,0.10883099999999998,-0.3538105,0.027796500000000002,-0.124669,-0.6771405,0.0490255,0.118391,-0.6954505,0.0446785
2,0.014208500000000006,0.705638,0.004355500000000005,-0.13454149999999998,0.500238,0.018839500000000006,-0.22911149999999997,0.737628,-0.0021034999999999943,0.1582785,0.483618,0.007852500000000005,0.2367085,0.735248,-0.006437499999999992,-0.2683215,0.951778,-0.0224575,0.2660985,0.9443779999999999,-0.03113049999999999,-0.0693405,0.0002530000000000006,-3.949999999999787e-05,0.0693405,-0.00025299999999999975,3.950000000000481e-05,-0.12013149999999999,-0.354862,0.021344500000000002,0.1090585,-0.353872,0.027901500000000003,-0.1245215,-0.6770120000000001,0.049011500000000006,0.1181085,-0.698932,0.044243500000000005
3,0.0140705,0.705828,0.004747499999999998,-0.1344955,0.499278,0.0189855,-0.2289255,0.7375280000000001,-0.0018724999999999992,0.1586445,0.483608,0.008324499999999999,0.2369445,0.735228,-0.0057425000000000045,-0.2678555,0.951598,-0.022837500000000004,0.2662445,0.944168,-0.0301945,-0.0693535,0.00020300000000000006,-0.00013450000000000267,0.0693535,-0.00020300000000000006,0.00013449999999999573,-0.12027550000000001,-0.354642,0.0214335,0.1089845,-0.35372200000000004,0.028076499999999997,-0.1241255,-0.678782,0.0490585,0.1190345,-0.695962,0.045967499999999994
4,0.014110999999999997,0.7062959999999999,0.005242999999999998,-0.13430399999999998,0.498636,0.018914,-0.22881400000000002,0.737856,-0.0017350000000000004,0.158906,0.483956,0.008634,0.23710599999999998,0.735686,-0.005366000000000003,-0.267524,0.951716,-0.022899000000000003,0.26629600000000003,0.9441459999999999,-0.029956000000000003,-0.069448,0.00021600000000000005,-8.99999999999998e-05,0.069448,-0.00021600000000000005,8.99999999999998e-05,-0.120204,-0.354174,0.021511,0.109046,-0.35331399999999996,0.028186,-0.123904,-0.679374,0.048823,0.12289599999999999,-0.677474,0.04881
5,0.013899000000000002,0.706371,0.0058414999999999995,-0.13423,0.498031,0.019064499999999998,-0.22865,0.737481,-0.0018164999999999987,0.15893000000000002,0.484071,0.008660500000000002,0.23726,0.735741,-0.005039500000000002,-0.26747000000000004,0.952081,-0.022887499999999998,0.26631,0.944221,-0.0298685,-0.06945599999999999,0.00019399999999999973,-6.450000000000206e-05,0.06945599999999999,-0.0001940000000000006,6.450000000000206e-05,-0.12023999999999999,-0.354109,0.0213645,0.10907,-0.353139,0.0282255,-0.12351999999999999,-0.680369,0.0485725,0.12437999999999999,-0.671949,0.0492975
6,0.013905000000000004,0.7064965,0.005986499999999995,-0.134252,0.4974765,0.019286499999999995,-0.228572,0.7374765,-0.0015055000000000068,0.159098,0.48429649999999996,0.008937499999999994,0.237318,0.7355765,-0.004593500000000007,-0.26740200000000003,0.9521965,-0.022760500000000003,0.266458,0.9442265,-0.0298055,-0.069472,0.00023950000000000013,5.049999999999499e-05,0.069472,-0.00023950000000000013,-5.050000000000193e-05,-0.120222,-0.35396350000000004,0.021338499999999996,0.10908800000000002,-0.3530435,0.028241499999999996,-0.12343199999999999,-0.6803935,0.048335499999999997,0.118928,-0.7001035,0.04482749999999999
7,0.013888000000000001,0.7067599999999999,0.006058499999999998,-0.134341,0.4981,0.019235499999999996,-0.228561,0.7370199999999999,-0.0013195000000000012,0.15884900000000002,0.48426,0.008910499999999998,0.237229,0.7358399999999999,-0.004569500000000004,-0.267281,0.9522999999999999,-0.0227105,0.266369,0.94478,-0.030171500000000004,-0.06942899999999999,0.00023399999999999983,9.449999999999736e-05,0.06942899999999999,-0.00023399999999999983,-9.45000000000043e-05,-0.120171,-0.35397,0.0212725,0.108909,-0.35285,0.028144499999999996,-0.123311,-0.6804300000000001,0.0486785,0.119809,-0.69005,0.0469505
8,0.013861499999999999,0.7069845,0.006273500000000001,-0.1342525,0.49791450000000004,0.0192965,-0.2284525,0.7370245,-0.0012635000000000007,0.1588975,0.48437450000000004,0.0090235,0.2372975,0.7359945,-0.0043865000000000015,-0.26705249999999997,0.9524645,-0.022741499999999998,0.2664075,0.9449145,-0.0300975,-0.0694305,0.0002434999999999998,0.00016250000000000292,0.0694305,-0.0002434999999999998,-0.00016249999999999598,-0.12017249999999999,-0.3538555,0.021184500000000002,0.1088875,-0.35266549999999997,0.0281475,-0.1230425,-0.6806654999999999,0.0486845,0.1196575,-0.6921355,0.0468705
9,0.013823500000000002,0.7071934999999999,0.0064589999999999995,-0.1341435,0.49781349999999996,0.019346999999999996,-0.2282735,0.7370535,-0.0012160000000000018,0.1589365,0.48448349999999996,0.009113,0.23734650000000002,0.7360935,-0.004305000000000003,-0.26676350000000004,0.9526135,-0.022846000000000005,0.26643649999999997,0.9450335,-0.030049,-0.06944149999999999,0.0002525000000000001,0.0002360000000000001,0.06944149999999999,-0.0002525000000000001,-0.0002360000000000001,-0.1201535,-0.35376650000000004,0.021072999999999998,0.1088565,-0.3525265,0.028142999999999998,-0.1228435,-0.6804665,0.048687999999999995,0.11981649999999999,-0.6909165,0.047423999999999994
10,0.0137795,0.707382,0.006586999999999999,-0.1340535,0.497792,0.019396999999999998,-0.2280935,0.737142,-0.0011719999999999994,0.15897650000000002,0.484562,0.009196,0.2373565,0.736192,-0.004226000000000001,-0.2664235,0.952812,-0.023017000000000003,0.2664665,0.945182,-0.030067999999999998,-0.0694545,0.0002669999999999999,0.0003140000000000018,0.0694545,-0.0002669999999999999,-0.0003140000000000018,-0.12014349999999999,-0.353678,0.020982,0.1088065,-0.35236799999999996,0.028142,-0.1227135,-0.680268,0.04872,0.11997650000000001,-0.689328,0.048012
11,0.013741999999999999,0.7075805,0.006736499999999996,-0.13398,0.4979105,0.0194745,-0.22788999999999998,0.7372505,-0.0011795,0.15904000000000001,0.4846305,0.009273499999999997,0.23737000000000003,0.7363105,-0.004151500000000002,-0.26603,0.9530005,-0.023227500000000005,0.2665,0.9452305,-0.030262500000000005,-0.069466,0.00027749999999999997,0.00038849999999999996,0.069466,-0.00027750000000000084,-0.00038849999999999996,-0.1201,-0.3535995,0.020880499999999996,0.10876,-0.3522195,0.028142499999999997,-0.12258000000000001,-0.6800795,0.0487735,0.12005,-0.6871095,0.048557499999999996
12,0.013688000000000002,0.7077969999999999,0.0069064999999999994,-0.13392199999999999,0.498127,0.0195825,-0.227632,0.737447,-0.0012414999999999995,0.15909800000000002,0.48473700000000003,0.009375499999999998,0.237358,0.736367,-0.0040514999999999995,-0.265582,0.953247,-0.023545500000000004,0.26652800000000004,0.9453069999999999,-0.030487500000000008,-0.069469,0.0002919999999999997,0.000507500000000001,0.069469,-0.0002919999999999997,-0.000507500000000001,-0.120072,-0.353493,0.020805499999999998,0.108688,-0.352023,0.028173499999999997,-0.122482,-0.679803,0.0488765,0.119728,-0.686523,0.0488395
13,0.0136355,0.7080029999999999,0.007046,-0.1338615,0.498213,0.019638000000000003,-0.2273715,0.737633,-0.0013309999999999989,0.15916850000000002,0.484853,0.009462000000000002,0.23734850000000002,0.736363,-0.004041000000000003,-0.2648615,0.954083,-0.024036000000000002,0.2665785,0.945283,-0.030805999999999993,-0.06947249999999999,0.0003129999999999999,0.0006169999999999995,0.06947249999999999,-0.0003129999999999999,-0.0006169999999999995,-0.12003149999999999,-0.353407,0.020714,0.1086385,-0.35188699999999995,0.028191,-0.12244150000000001,-0.6793870000000001,0.048963,0.1193485,-0.689067,0.048652
14,0.013573000000000005,0.708207,0.007179000000000001,-0.13379999999999997,0.49827699999999997,0.019669,-0.22710999999999998,0.737807,-0.001465000000000001,0.15925,0.48494699999999996,0.009532000000000002,0.23732999999999999,0.7363569999999999,-0.004116000000000002,-0.26410999999999996,0.954407,-0.024572999999999998,0.26664000000000004,0.945267,-0.031155000000000002,-0.069478,0.0003420000000000003,0.0007339999999999985,0.069478,-0.0003420000000000003,-0.0007339999999999985,-0.12000999999999999,-0.353293,0.020628,0.10858000000000001,-0.35176300000000005,0.028227000000000002,-0.1225,-0.678933,0.04908,0.11955,-0.685983,0.049379
15,0.013511499999999997,0.708354,0.007300000000000001,-0.13373849999999998,0.498234,0.019681000000000004,-0.22681849999999998,0.737924,-0.0016250000000000014,0.1593615,0.48499400000000004,0.009588000000000003,0.23734149999999998,0.736284,-0.004251999999999999,-0.2633185,0.954684,-0.025104999999999995,0.2667915,0.945084,-0.03163099999999999,-0.0694905,0.0003539999999999993,0.0008610000000000007,0.0694905,-0.00035400000000000015,-0.0008610000000000007,-0.1199685,-0.353226,0.020548000000000004,0.1085315,-0.35170599999999996,0.028268,-0.1225285,-0.6783859999999999,0.049211000000000005,0.1200415,-0.682486,0.050191
16,0.013455999999999996,0.7085985,0.007510500000000003,-0.133685,0.49829850000000003,0.019689500000000002,-0.226505,0.7381485,-0.001863499999999997,0.159495,0.4850685,0.009646500000000002,0.23740499999999998,0.7362285,-0.004469500000000001,-0.262575,0.9547685,-0.0255405,0.267015,0.9447985,-0.032163500000000005,-0.0695,0.0003654999999999995,0.0009904999999999983,0.0695,-0.0003654999999999995,-0.0009904999999999983,-0.119945,-0.3531215,0.0205075,0.10849500000000001,-0.3516415,0.028313500000000002,-0.122645,-0.6775415,0.049364500000000006,0.12059500000000001,-0.6793815000000001,0.0507495
17,0.013395499999999996,0.7089265,0.007816499999999997,-0.1336125,0.49834649999999997,0.019680499999999997,-0.2261825,0.7384165,-0.002099500000000004,0.1596175,0.48512649999999996,0.009676499999999998,0.2374975,0.7361865,-0.0047595,-0.2616525,0.9548665,-0.025827500000000003,0.2673575,0.9443564999999999,-0.0327935,-0.0695115,0.00037949999999999963,0.0011455000000000007,0.0695115,-0.00037950000000000136,-0.0011455000000000007,-0.1199125,-0.3529935,0.020512499999999996,0.1084775,-0.3516035,0.028373499999999996,-0.1226525,-0.6772835,0.0494625,0.1210775,-0.6763435,0.051281499999999994
18,0.013358499999999994,0.709299,0.008167999999999998,-0.1335345,0.49849899999999997,0.019665,-0.2259045,0.7387290000000001,-0.002238000000000004,0.1597555,0.485149,0.009688999999999996,0.2376355,0.7361390000000001,-0.005038000000000001,-0.2607945,0.954949,-0.026049000000000003,0.2677455,0.943899,-0.033386,-0.0695145,0.00038900000000000046,0.0012849999999999945,0.0695145,-0.0003889999999999987,-0.0012850000000000014,-0.1198745,-0.352881,0.020540999999999997,0.1084755,-0.351571,0.028439999999999997,-0.12266450000000001,-0.6769809999999999,0.0496,0.1210755,-0.6762309999999999,0.051364999999999994
19,0.013292,0.7096425000000001,0.008496000000000004,-0.13346599999999997,0.49874250000000003,0.019647000000000005,-0.225576,0.7389825,-0.002373,0.15984399999999999,0.48514250000000003,0.009652000000000004,0.23777399999999999,0.7360525,-0.005359999999999997,-0.259926,0.9550125,-0.026241999999999994,0.268174,0.9433525,-0.03401599999999999,-0.069518,0.0003955,0.0014290000000000067,0.069518,-0.0003955,-0.0014289999999999997,-0.119836,-0.3527875,0.020567000000000002,0.108494,-0.35154749999999996,0.028503000000000004,-0.122786,-0.6762575,0.049743,0.121004,-0.6764875,0.051404000000000005
20,0.013202999999999998,0.710002,0.0088645,-0.13339800000000002,0.499002,0.019630500000000002,-0.225288,0.739202,-0.0024744999999999975,0.159862,0.485122,0.0096055,0.23787199999999997,0.735972,-0.0057274999999999965,-0.259198,0.955102,-0.0264435,0.26852200000000004,0.9428719999999999,-0.034577500000000004,-0.069521,0.0004010000000000003,0.0015565000000000023,0.069521,-0.0004010000000000003,-0.0015565000000000023,-0.119798,-0.352658,0.0206125,0.108502,-0.351538,0.0285665,-0.122878,-0.675628,0.0498285,0.120812,-0.677928,0.051166500000000004
21,0.013112,0.710357,0.0092665,-0.133341,0.49923700000000004,0.0196155,-0.225071,0.739387,-0.002542500000000003,0.159879,0.485057,0.0095155,0.237969,0.735907,-0.006106500000000001,-0.258591,0.955197,-0.0265865,0.268779,0.9424669999999999,-0.0351895,-0.069527,0.0003999999999999993,0.001638500000000001,0.069527,-0.00040000000000000105,-0.001638500000000001,-0.119751,-0.352533,0.0206585,0.108539,-0.351543,0.0286145,-0.122891,-0.675473,0.049876500000000004,0.120339,-0.680813,0.050806500000000004
22,0.012988,0.7106819999999999,0.009691500000000002,-0.13329800000000003,0.49945199999999995,0.0195635,-0.22494799999999998,0.739552,-0.0026004999999999986,0.159902,0.484902,0.009389500000000002,0.238012,0.735862,-0.006476499999999996,-0.258348,0.955202,-0.026700499999999995,0.26894199999999996,0.942112,-0.0357225,-0.069532,0.00038799999999999946,0.0017124999999999987,0.069532,-0.0003880000000000012,-0.0017124999999999987,-0.119708,-0.35243800000000003,0.0207105,0.108562,-0.351548,0.0286685,-0.122968,-0.675438,0.0499255,0.119802,-0.683748,0.0504415
23,0.012733000000000001,0.7109719999999999,0.010018000000000003,-0.13331,0.49963199999999997,0.01957,-0.22487,0.739682,-0.0027249999999999983,0.15989,0.48491199999999995,0.009166,0.238,0.735852,-0.006877000000000001,-0.2582,0.955162,-0.026910999999999997,0.269,0.9417519999999999,-0.03633,-0.069537,0.00038799999999999946,0.0017189999999999983,0.069537,-0.0003880000000000012,-0.0017189999999999983,-0.11969,-0.352368,0.020707000000000003,0.10858,-0.351588,0.02866,-0.12304,-0.675438,0.04988,0.11964,-0.684268,0.050293000000000004
24,0.012459000000000001,0.71124,0.010340499999999999,-0.133309,0.49983999999999995,0.0195645,-0.22478900000000002,0.73982,-0.0029215000000000005,0.159891,0.48490999999999995,0.008903499999999998,0.238031,0.73585,-0.007289499999999997,-0.258129,0.95516,-0.027138500000000003,0.269031,0.94147,-0.036879499999999996,-0.06953000000000001,0.0003880000000000012,0.0017345,0.06953000000000001,-0.00038799999999999946,-0.0017345,-0.119639,-0.35231999999999997,0.0206765,0.108621,-0.35165,0.0286305,-0.12301899999999999,-0.67555,0.0498605,0.11916099999999999,-0.68752,0.0494565
25,0.0121185,0.711403,0.0106015,-0.13331949999999998,0.500043,0.019577499999999998,-0.22465949999999998,0.739933,-0.0031704999999999997,0.1598405,0.484903,0.0086445,0.23804050000000002,0.735843,-0.007628500000000003,-0.2580495,0.954373,-0.0273175,0.2690405,0.941183,-0.0373545,-0.0695315,0.0003820000000000004,0.0017485,0.0695315,-0.00038199999999999866,-0.0017485,-0.1195995,-0.352287,0.0206415,0.1086405,-0.351717,0.0286075,-0.1230195,-0.675807,0.0498415,0.1188305,-0.690937,0.0485815
26,0.011778,0.7114125,0.010790500000000001,-0.133394,0.5013725,0.0195935,-0.224554,0.7399225,-0.003415500000000002,0.159166,0.4849225,0.0085235,0.238046,0.7357425000000001,-0.0079035,-0.257714,0.9540025000000001,-0.027468499999999993,0.269056,0.9409525000000001,-0.0376905,-0.069526,0.00032850000000000067,0.0017614999999999992,0.069526,-0.00032849999999999893,-0.0017614999999999992,-0.119544,-0.3523875,0.020611499999999998,0.108656,-0.35185750000000005,0.0285785,-0.123014,-0.6761375,0.0497815,0.119066,-0.6911775,0.0477665
27,0.011399,0.7112455,0.010882000000000003,-0.133491,0.5031855,0.019577000000000004,-0.224461,0.7397754999999999,-0.003803000000000001,0.158169,0.48501550000000004,0.008405000000000003,0.23793899999999998,0.7355554999999999,-0.008293999999999996,-0.257441,0.9534555,-0.027773999999999993,0.26892900000000003,0.9405555,-0.03817999999999999,-0.069528,0.0002625000000000006,0.0017020000000000021,0.069528,-0.00026249999999999885,-0.0017019999999999952,-0.119501,-0.3526445,0.020499000000000003,0.10866899999999999,-0.35215450000000004,0.028449000000000002,-0.12271099999999999,-0.6777945000000001,0.049523000000000005,0.11868899999999999,-0.6942345,0.046665
28,0.010934999999999999,0.7109935000000001,0.010778000000000003,-0.13363000000000003,0.5050435,0.019408,-0.22436,0.7394735,-0.004760999999999994,0.15703,0.4853335,0.008087000000000004,0.23767,0.7352135000000001,-0.008911999999999996,-0.25716,0.9524635,-0.02874,0.26860999999999996,0.9399735,-0.038899,-0.069504,0.0001454999999999998,0.0015550000000000008,0.069504,-0.00014550000000000066,-0.0015550000000000008,-0.11943000000000001,-0.3530865,0.020162000000000003,0.10867,-0.3526765,0.027948,-0.12228,-0.6797765,0.049046000000000006,0.11873,-0.6939265,0.045629
29,0.010416000000000002,0.7104944999999999,0.0102795,-0.13380999999999998,0.5068444999999999,0.0189165,-0.22405,0.7388144999999999,-0.0065915,0.15562,0.48565450000000004,0.0073995,0.23707,0.7345345,-0.010057499999999997,-0.25698,0.9503545,-0.031257499999999994,0.26776999999999995,0.9389645,-0.0402805,-0.06948,-1.249999999999949e-05,0.001280499999999997,0.06948,1.2500000000000358e-05,-0.001280499999999997,-0.11927,-0.35392549999999995,0.019422500000000002,0.10871,-0.35366549999999997,0.0266915,-0.12163,-0.6824455,0.0480935,0.11801,-0.6979655,0.0435755
30,0.009850500000000002,0.709844,0.009386500000000002,-0.13398749999999998,0.5080340000000001,0.017897500000000004,-0.2236675,0.738684,-0.009896499999999996,0.1542125,0.486024,0.006384500000000001,0.2362525,0.733674,-0.011765499999999998,-0.2564075,0.948134,-0.03588449999999999,0.26655249999999997,0.937494,-0.042533499999999995,-0.0694535,-0.00013900000000000023,0.0010135000000000005,0.0694535,0.00013900000000000023,-0.0010135000000000005,-0.11905750000000001,-0.355136,0.0182625,0.1089225,-0.355476,0.024566500000000005,-0.12097749999999999,-0.6853859999999999,0.0466965,0.11750250000000001,-0.701326,0.0416045
31,0.009239000000000002,0.7093480000000001,0.008171499999999998,-0.134104,0.509088,0.016439499999999996,-0.22332400000000002,0.738938,-0.013769500000000004,0.152766,0.48652799999999996,0.005079499999999997,0.235296,0.732998,-0.013913500000000002,-0.255894,0.9460780000000001,-0.0412015,0.265156,0.9361480000000001,-0.0454075,-0.069426,-0.00027099999999999954,0.0007184999999999969,0.069426,0.0002710000000000004,-0.0007185000000000039,-0.118824,-0.356342,0.016728499999999997,0.109256,-0.357452,0.021983499999999996,-0.120234,-0.688222,0.044941499999999995,0.117146,-0.703182,0.039300499999999995
32,0.008714499999999997,0.7089515,0.006689000000000004,-0.1342265,0.5098415,0.014717000000000003,-0.2229065,0.7379414999999999,-0.018492999999999996,0.1511835,0.4871615,0.0035270000000000024,0.2342435,0.7323715,-0.016508999999999996,-0.2552765,0.9438015,-0.047374999999999994,0.2636835,0.9348015,-0.04885,-0.0694015,-0.00041149999999999954,0.0004390000000000019,0.0694015,0.0004115,-0.0004389999999999984,-0.1185965,-0.3574985,0.014914000000000004,0.1096635,-0.35961849999999995,0.018946000000000005,-0.1194965,-0.6908785000000001,0.042928,0.11675349999999998,-0.7053785,0.036666000000000004
33,0.008216499999999998,0.7085835,0.004768999999999999,-0.1343865,0.5107735,0.01258,-0.22246649999999998,0.7369235000000001,-0.023988000000000002,0.1495435,0.48777349999999997,0.001621000000000001,0.2331035,0.7317735000000001,-0.019680000000000003,-0.2544665,0.9412935,-0.054447999999999996,0.2621735,0.9333935,-0.053024,-0.0693935,-0.0005315000000000003,0.0003139999999999983,0.0693935,0.0005314999999999999,-0.0003140000000000018,-0.1183865,-0.3587865,0.012683999999999999,0.1100535,-0.3619565,0.015597999999999999,-0.1187165,-0.6936865,0.040508,0.1163235,-0.7073465,0.034056
34,0.007647000000000001,0.70823,0.0024845000000000006,-0.134598,0.51152,0.010155500000000001,-0.22200799999999998,0.7359600000000001,-0.030315500000000002,0.14780200000000002,0.48854000000000003,-0.0004895000000000004,0.23173200000000002,0.73126,-0.0234015,-0.253428,0.93866,-0.0626225,0.260562,0.93205,-0.058106500000000005,-0.069417,-0.0006430000000000001,0.00019550000000000123,0.069417,0.000643,-0.00019549999999999776,-0.118258,-0.36007999999999996,0.010084500000000001,0.11038200000000001,-0.36432,0.012108500000000001,-0.11799799999999999,-0.69626,0.037832500000000005,0.115792,-0.70939,0.0312215
35,0.0070230000000000015,0.7080955,-6.0999999999998555e-05,-0.134845,0.5110155,0.007359000000000001,-0.22109499999999999,0.7354555,-0.03711,0.146565,0.48933550000000003,-0.0028049999999999985,0.23017500000000002,0.7311955,-0.027559,-0.25182499999999997,0.9353255,-0.071746,0.25894500000000004,0.9310455,-0.064212,-0.069462,-0.0007294999999999999,0.0001559999999999999,0.069462,0.0007295000000000001,-0.0001559999999999999,-0.11816499999999999,-0.3611045,0.006984000000000001,0.11064500000000001,-0.3663645,0.00843,-0.11730499999999999,-0.6982945,0.034863000000000005,0.115175,-0.7113445,0.028002
36,0.006410999999999997,0.708116,-0.0029710000000000014,-0.13506900000000002,0.5109659999999999,0.004139,-0.220149,0.7353759999999999,-0.044829999999999995,0.14593099999999998,0.48965600000000004,-0.0055150000000000025,0.228661,0.731596,-0.03310300000000001,-0.250099,0.932356,-0.08190599999999999,0.257591,0.931006,-0.07116,-0.06953000000000001,-0.0007379999999999999,0.0001559999999999999,0.06953000000000001,0.0007379999999999999,-0.0001559999999999999,-0.118039,-0.361834,0.003306,0.111041,-0.368284,0.004442999999999999,-0.116929,-0.698924,0.031480999999999995,0.114781,-0.7108340000000001,0.024423999999999998
37,0.005826500000000006,0.708116,-0.006222499999999999,-0.1352725,0.5109659999999999,0.0005394999999999983,-0.2191125,0.735236,-0.052552499999999995,0.1452275,0.48965600000000004,-0.0084655,0.2271175,0.731856,-0.0393975,-0.2481725,0.929756,-0.0925965,0.2564075,0.931006,-0.0790485,-0.0696805,-0.0007379999999999999,0.00011850000000000055,0.0696805,0.0007379999999999999,-0.00011850000000000055,-0.1179325,-0.36263399999999996,-0.0008225000000000003,0.11148750000000002,-0.370324,0.00036550000000000124,-0.1166925,-0.699424,0.027750499999999997,0.11453750000000001,-0.710124,0.0207305
38,0.005150000000000004,0.708116,-0.010085,-0.135485,0.510016,-0.004161999999999999,-0.218245,0.734896,-0.061294,0.144745,0.48965600000000004,-0.012198999999999998,0.22576500000000002,0.731856,-0.046861,-0.246195,0.9276059999999999,-0.104983,0.255515,0.930076,-0.089033,-0.06989000000000001,-0.0007379999999999999,0.0002960000000000011,0.06989000000000001,0.0007379999999999999,-0.0002959999999999994,-0.117865,-0.36340399999999995,-0.005860999999999998,0.111985,-0.37250399999999995,-0.004011000000000001,-0.116595,-0.699764,0.023289999999999998,0.11435500000000001,-0.710084,0.016423
39,0.004425,0.708116,-0.014090499999999999,-0.13562600000000002,0.5079859999999999,-0.0090375,-0.21738600000000002,0.733866,-0.0697255,0.144484,0.48965600000000004,-0.016233499999999998,0.22443400000000002,0.731856,-0.05559549999999999,-0.244496,0.925456,-0.11634349999999999,0.255044,0.929186,-0.1014635,-0.070069,-0.0007379999999999999,0.00039950000000000055,0.070069,0.0007379999999999999,-0.0003994999999999988,-0.117846,-0.364274,-0.011158499999999998,0.112344,-0.37340399999999996,-0.008281499999999997,-0.116636,-0.701084,0.0184555,0.114254,-0.709994,0.012029500000000002
40,0.0036364999999999982,0.707907,-0.018250999999999996,-0.1357695,0.5059469999999999,-0.014087999999999998,-0.21629949999999998,0.7324269999999999,-0.07876100000000001,0.14444049999999997,0.489767,-0.020406,0.2232205,0.7320369999999999,-0.064739,-0.2426895,0.923487,-0.128696,0.2546905,0.928387,-0.114036,-0.0702125,-0.0006839999999999999,0.000451,0.0702125,0.0006840000000000001,-0.000451,-0.1178495,-0.365043,-0.016669999999999997,0.1126505,-0.373793,-0.01274,-0.1166595,-0.7024630000000001,0.013389,0.1140605,-0.709813,0.007466
41,0.0028010000000000066,0.7077325,-0.022557999999999998,-0.135824,0.5037225,-0.019445,-0.21499400000000002,0.7283825,-0.087371,0.14422600000000002,0.4898325,-0.024598,0.222036,0.7314225,-0.074259,-0.24076399999999998,0.9216425,-0.141666,0.25429599999999997,0.9269525000000001,-0.127586,-0.070215,-0.0005825000000000001,0.00041,0.070215,0.0005824999999999999,-0.00041,-0.117714,-0.3654175,-0.022463999999999998,0.11304600000000001,-0.3734475,-0.017342,-0.116534,-0.7033874999999999,0.008144,0.113916,-0.7104575,0.0027429999999999998
42,0.0018639999999999963,0.7073435,-0.027332500000000003,-0.135829,0.5018835,-0.0251505,-0.21362899999999999,0.7233235,-0.0964375,0.144011,0.4893835,-0.0292485,0.220821,0.7301635000000001,-0.0844925,-0.238729,0.9193835,-0.15657349999999998,0.253841,0.9232035000000001,-0.14247349999999998,-0.070304,-0.0005205000000000001,0.00023649999999999973,0.070304,0.0005204999999999997,-0.00023649999999999973,-0.11746899999999999,-0.3651965,-0.028941500000000002,0.113561,-0.3726965,-0.0223865,-0.116309,-0.7039765,0.0023625,0.113931,-0.7104564999999999,-0.0025635000000000002
43,0.0007215000000000012,0.7064100000000001,-0.0324805,-0.1358145,0.49989,-0.031058500000000003,-0.21228450000000001,0.71736,-0.1057145,0.14389549999999998,0.48874,-0.0342185,0.21985549999999998,0.7283700000000001,-0.09512949999999999,-0.2367845,0.9165300000000001,-0.17206749999999998,0.25331549999999997,0.9191400000000001,-0.1574175,-0.07043450000000001,-0.0004549999999999997,6.349999999999932e-05,0.07043450000000001,0.0004549999999999997,-6.350000000000106e-05,-0.11717449999999999,-0.36471000000000003,-0.0358225,0.1141855,-0.37233,-0.0277195,-0.1162945,-0.70451,-0.003893500000000001,0.11400550000000001,-0.71041,-0.0083545
44,-0.0004620000000000015,0.704577,-0.038997500000000004,-0.135776,0.497037,-0.038650500000000004,-0.211066,0.7120070000000001,-0.1182435,0.14352399999999998,0.487407,-0.040524500000000005,0.219024,0.7262270000000001,-0.1090005,-0.234626,0.914297,-0.1920035,0.252094,0.9160170000000001,-0.1776535,-0.070823,-0.0005009999999999997,0.00011949999999999808,0.070823,0.0005010000000000006,-0.00011950000000000155,-0.11682600000000001,-0.363383,-0.0443575,0.115144,-0.370703,-0.0344855,-0.116176,-0.703973,-0.0116605,0.114544,-0.7084429999999999,-0.0153795
45,-0.0015995000000000002,0.701874,-0.0464085,-0.1354535,0.494244,-0.0471295,-0.2096535,0.706974,-0.1324545,0.1428765,0.485504,-0.0477115,0.2182765,0.723564,-0.12364449999999999,-0.2316435,0.912394,-0.2136345,0.2509965,0.9117540000000001,-0.20084449999999998,-0.0712045,-0.00046000000000000034,6.250000000000006e-05,0.0712045,0.00046000000000000034,-6.249999999999659e-05,-0.1163935,-0.361516,-0.054168499999999994,0.1164265,-0.367896,-0.0425875,-0.1157635,-0.702836,-0.020360499999999997,0.1154565,-0.705546,-0.0235235
46,-0.0025734999999999994,0.6988209999999999,-0.0543515,-0.1348995,0.491811,-0.055860499999999993,-0.2079395,0.6990409999999999,-0.14747949999999999,0.1421405,0.483441,-0.0553025,0.2174005,0.7184109999999999,-0.1404995,-0.2278595,0.909411,-0.2378495,0.24969049999999998,0.906901,-0.22479949999999999,-0.07155349999999999,-0.00041799999999999997,6.0500000000001525e-05,0.07155349999999999,0.00041799999999999997,-6.0499999999998055e-05,-0.1158495,-0.359929,-0.0651345,0.11795050000000001,-0.36449899999999996,-0.051977499999999996,-0.11517949999999999,-0.7008190000000001,-0.029577499999999996,0.11659050000000001,-0.702179,-0.0323465
47,-0.003184499999999999,0.695228,-0.062081,-0.13371850000000002,0.48844800000000005,-0.06429,-0.20616849999999998,0.6929179999999999,-0.162222,0.1415615,0.48050800000000005,-0.062589,0.2168115,0.713638,-0.156622,-0.22387849999999998,0.9065679999999999,-0.260972,0.2484015,0.902378,-0.24832200000000001,-0.0720435,-0.0002909999999999996,-0.00011800000000000005,0.0720435,0.0002909999999999996,0.00011800000000000005,-0.1150685,-0.35765199999999997,-0.075732,0.1197215,-0.360392,-0.061291,-0.1143485,-0.697862,-0.038484000000000004,0.1182015,-0.697692,-0.041002000000000004
48,-0.003687999999999997,0.6921255000000001,-0.0700615,-0.132598,0.4860455,-0.0728385,-0.204588,0.6856455,-0.1767455,0.140822,0.4780355,-0.0701295,0.216212,0.7072555,-0.1719255,-0.219878,0.9035655,-0.28456549999999997,0.246762,0.8965355,-0.26985549999999997,-0.07258400000000001,-0.0002124999999999974,-0.0003584999999999977,0.07258400000000001,0.00021250000000000088,0.00035850000000000465,-0.114458,-0.35535449999999996,-0.0867785,0.121442,-0.3553145,-0.0709725,-0.113598,-0.6933644999999999,-0.0472465,0.119752,-0.6923045,-0.049805499999999996
49,-0.004082999999999998,0.6889204999999999,-0.0784535,-0.13137400000000002,0.4822205,-0.0817085,-0.203104,0.6806405,-0.1930475,0.140306,0.47600050000000005,-0.0778865,0.215446,0.7003105,-0.1877975,-0.215594,0.8999305,-0.3093975,0.24490599999999998,0.8894004999999999,-0.29367750000000004,-0.072688,-0.00031950000000000034,-0.0004284999999999983,0.072688,0.00031950000000000034,0.0004284999999999983,-0.113924,-0.35255949999999997,-0.09838150000000001,0.12354599999999999,-0.35066949999999997,-0.08244850000000001,-0.11282400000000001,-0.6874995,-0.0562995,0.12135599999999999,-0.6856395000000001,-0.0589435
50,-0.004396499999999996,0.685056,-0.08753649999999999,-0.1302435,0.47887599999999997,-0.0901705,-0.2012135,0.677976,-0.2096575,0.13950649999999998,0.472866,-0.0863025,0.21447650000000001,0.693766,-0.2038875,-0.21141349999999998,0.896676,-0.3344775,0.24300650000000001,0.8819060000000001,-0.3177975,-0.0727395,-0.0004289999999999988,-0.0003984999999999961,0.0727395,0.0004289999999999988,0.000398500000000003,-0.1136435,-0.34552400000000005,-0.1103925,0.12556650000000003,-0.34225399999999995,-0.0946575,-0.1121435,-0.6801039999999999,-0.0658055,0.1227165,-0.677384,-0.0684755
51,-0.0043275,0.6816504999999999,-0.09606150000000001,-0.12925050000000002,0.4751605,-0.0980085,-0.1995105,0.6729305,-0.22524650000000002,0.13831949999999998,0.4705405,-0.0939855,0.2130095,0.6873104999999999,-0.21931650000000003,-0.20715050000000002,0.8898105,-0.3570365,0.2409695,0.8759005,-0.34053649999999996,-0.0727505,-0.0005384999999999973,-0.0004004999999999981,0.0727505,0.0005385000000000043,0.0004004999999999981,-0.1137805,-0.3382195,-0.1222055,0.1273995,-0.3335095,-0.10626450000000001,-0.11135049999999999,-0.6722795,-0.07452650000000001,0.12388949999999999,-0.6689095,-0.0771655
52,-0.003985499999999998,0.6785245000000001,-0.11001250000000001,-0.12810749999999999,0.4732345,-0.11097850000000001,-0.1975575,0.6693345,-0.24559450000000002,0.13756249999999998,0.46797449999999996,-0.10705650000000001,0.2112525,0.6818445000000001,-0.2404745,-0.2027775,0.8845045,-0.3854345,0.23907250000000002,0.8702445000000001,-0.3698445,-0.0727305,-0.0005084999999999951,-0.0005765000000000076,0.0727305,0.0005085000000000089,0.0005764999999999937,-0.1137175,-0.3287255,-0.1390015,0.12935249999999998,-0.32295549999999995,-0.12334350000000001,-0.1101875,-0.6621155,-0.08822550000000001,0.1251425,-0.6581055,-0.09097250000000001
53,-0.003395000000000002,0.68062,-0.12469,-0.12763400000000003,0.46997,-0.124747,-0.19468400000000002,0.6658900000000001,-0.264597,0.136226,0.4692,-0.12085,0.209476,0.6795100000000001,-0.261327,-0.198324,0.87954,-0.411897,0.23682599999999998,0.8655200000000001,-0.397687,-0.072698,-0.0008459999999999995,-0.001124,0.072698,0.0008459999999999995,0.001124,-0.114244,-0.31346,-0.15876200000000001,0.13134600000000002,-0.30723,-0.142594,-0.109214,-0.6469,-0.102351,0.126186,-0.64242,-0.105239
54,-0.0030350000000000012,0.68197,-0.13832,-0.12664599999999998,0.46667,-0.136836,-0.192026,0.66222,-0.281205,0.135184,0.47076999999999997,-0.13351000000000002,0.207724,0.67643,-0.280445,-0.194636,0.87408,-0.436505,0.234534,0.8610599999999999,-0.422315,-0.07262099999999999,-0.0012899999999999995,-0.001564999999999997,0.07262099999999999,0.0012899999999999995,0.001564999999999997,-0.114816,-0.29879,-0.176749,0.132994,-0.29327000000000003,-0.160243,-0.10850599999999999,-0.63226,-0.115179,0.126924,-0.6278400000000001,-0.118081
55,-0.002638500000000002,0.6822649999999999,-0.15162899999999999,-0.1256545,0.46342500000000003,-0.148643,-0.1893845,0.661195,-0.29869,0.1343055,0.471895,-0.14618899999999999,0.20624550000000003,0.674255,-0.29747999999999997,-0.19173449999999997,0.867955,-0.45880999999999994,0.2322555,0.8553250000000001,-0.44620000000000004,-0.0725855,-0.0018049999999999872,-0.0019499999999999934,0.0725855,0.001805000000000001,0.0019500000000000073,-0.1153645,-0.283495,-0.193431,0.1347255,-0.278495,-0.177082,-0.1078545,-0.6174550000000001,-0.12742499999999998,0.12760549999999998,-0.612725,-0.13027899999999998
56,-0.0020139999999999967,0.6827099999999999,-0.164675,-0.124091,0.46143,-0.160522,-0.186531,0.65855,-0.315755,0.133399,0.47211,-0.159032,0.204779,0.6701999999999999,-0.314185,-0.188951,0.8598399999999999,-0.480455,0.23027899999999998,0.8476999999999999,-0.468715,-0.072624,-0.0021100000000000008,-0.0023249999999999937,0.072624,0.0021100000000000008,0.0023249999999999937,-0.11594100000000002,-0.26918000000000003,-0.209595,0.136619,-0.26422,-0.193544,-0.107021,-0.60335,-0.139166,0.128329,-0.59829,-0.142022
57,-0.0014259999999999967,0.68225,-0.17837299999999998,-0.12269700000000001,0.45611,-0.172944,-0.183547,0.65425,-0.33383999999999997,0.132463,0.47203,-0.172228,0.203513,0.66769,-0.33116,-0.186667,0.85157,-0.50302,0.22826300000000002,0.83917,-0.49124999999999996,-0.072843,-0.00270999999999999,-0.0025299999999999767,0.072843,0.002710000000000018,0.0025300000000000045,-0.11659699999999999,-0.25465,-0.22579899999999997,0.13848300000000002,-0.24914999999999998,-0.21037799999999998,-0.106237,-0.58787,-0.15127999999999997,0.128933,-0.58271,-0.15415299999999998
58,-0.0007735000000000016,0.68201,-0.191715,-0.12133050000000001,0.45292,-0.185359,-0.1806305,0.64792,-0.34755,0.1312295,0.47121999999999997,-0.185114,0.2021695,0.66455,-0.34524,-0.1845705,0.84242,-0.52418,0.2263695,0.83196,-0.51192,-0.07304150000000001,-0.003030000000000005,-0.0027699999999999947,0.07304150000000001,0.003030000000000005,0.0027699999999999947,-0.11728049999999998,-0.24048999999999998,-0.241471,0.1400695,-0.23473,-0.225624,-0.10551050000000001,-0.5728500000000001,-0.162959,0.1294795,-0.56768,-0.16591
59,-3.799999999999984e-05,0.682115,-0.20475700000000002,-0.120013,0.44856500000000005,-0.19734000000000002,-0.17794300000000002,0.641435,-0.363615,0.12983699999999998,0.471385,-0.197809,0.201007,0.661775,-0.36180500000000004,-0.182813,0.832095,-0.544335,0.22446700000000003,0.8264250000000001,-0.532565,-0.073088,-0.003454999999999986,-0.003134999999999999,0.073088,0.0034550000000000136,0.003134999999999999,-0.118073,-0.22623499999999996,-0.256895,0.141507,-0.22063499999999997,-0.24041800000000002,-0.104953,-0.557885,-0.174297,0.129907,-0.552825,-0.177324
60,0.0005185000000000033,0.679905,-0.21934000000000003,-0.1189105,0.444355,-0.21080800000000002,-0.1751805,0.636265,-0.38127,0.1278895,0.46835499999999997,-0.21236900000000003,0.2001395,0.658025,-0.37895,-0.18164049999999998,0.825625,-0.56628,0.2222395,0.821925,-0.55449,-0.0732415,-0.003695000000000004,-0.003370000000000012,0.0732415,0.003695000000000004,0.003369999999999984,-0.11878049999999998,-0.20690499999999998,-0.273573,0.14292950000000001,-0.20111500000000002,-0.256705,-0.1046005,-0.537505,-0.18713300000000002,0.1301495,-0.532655,-0.190178
61,0.0011075000000000008,0.677315,-0.227638,-0.1178765,0.43876499999999996,-0.21893400000000002,-0.1727265,0.625955,-0.393185,0.1258435,0.465765,-0.22107700000000002,0.1992235,0.648095,-0.388925,-0.1799065,0.812195,-0.583685,0.2197435,0.811635,-0.571615,-0.0733655,-0.004085000000000005,-0.0034450000000000036,0.0733655,0.004085000000000005,0.0034450000000000036,-0.11956649999999999,-0.18891500000000003,-0.284685,0.1443535,-0.183295,-0.267044,-0.10431649999999999,-0.519355,-0.194313,0.1303535,-0.514735,-0.197384
62,0.0017184999999999995,0.66837,-0.23369700000000002,-0.1169135,0.43778,-0.224775,-0.1714235,0.61616,-0.404355,0.1246465,0.45771,-0.228168,0.1986365,0.63595,-0.396875,-0.1785735,0.79807,-0.5978950000000001,0.2184765,0.79841,-0.584735,-0.07346950000000001,-0.003400000000000014,-0.003365000000000007,0.07346950000000001,0.0033999999999999864,0.003364999999999979,-0.1201835,-0.16893000000000002,-0.291995,0.14578649999999999,-0.16355999999999998,-0.27454500000000004,-0.1039835,-0.49858,-0.199322,0.1305465,-0.49395999999999995,-0.20247300000000001
63,0.0022889999999999994,0.66153,-0.23946300000000004,-0.116355,0.43187,-0.23031700000000002,-0.170565,0.60829,-0.41561000000000003,0.12335499999999999,0.45111,-0.23504600000000003,0.198325,0.62488,-0.40452,-0.177285,0.78462,-0.61175,0.21732500000000002,0.7866299999999999,-0.59723,-0.073438,-0.003650000000000042,-0.0033400000000000096,0.073438,0.0036499999999999866,0.003339999999999982,-0.121045,-0.14519000000000004,-0.29944000000000004,0.147035,-0.14093,-0.282386,-0.10380500000000001,-0.47487999999999997,-0.20408300000000001,0.130555,-0.47037000000000007,-0.20744300000000002
64,0.0028950000000000017,0.65537,-0.243485,-0.11633800000000001,0.42613,-0.234742,-0.16992800000000002,0.60007,-0.42527000000000004,0.12223200000000001,0.44521999999999995,-0.240222,0.197872,0.61349,-0.41117000000000004,-0.176018,0.77241,-0.62376,0.21672200000000003,0.7754099999999999,-0.6081300000000001,-0.073878,-0.003740000000000021,-0.003040000000000015,0.073878,0.0037399999999999656,0.003039999999999987,-0.121958,-0.12197000000000002,-0.30613,0.148092,-0.11771000000000004,-0.289042,-0.103628,-0.45149000000000006,-0.207897,0.130552,-0.44694,-0.211416
65,0.0031420000000000007,0.649105,-0.24676199999999998,-0.11584299999999999,0.421534,-0.239846,-0.16908299999999998,0.592955,-0.43466499999999997,0.121497,0.441205,-0.244448,0.19753700000000002,0.604805,-0.417245,-0.17490299999999998,0.762095,-0.634325,0.21618700000000002,0.766765,-0.6185350000000001,-0.07421,-0.004014999999999991,-0.0028549999999999964,0.07421,0.004014999999999991,0.002855000000000024,-0.122963,-0.102325,-0.312485,0.14904699999999999,-0.09717500000000001,-0.295214,-0.103523,-0.42691500000000004,-0.211472,0.130607,-0.422585,-0.21514399999999997
66,0.0031775000000000015,0.6429750000000001,-0.248577,-0.1155965,0.42041700000000004,-0.24348,-0.1691665,0.587055,-0.440665,0.1208535,0.43856100000000003,-0.24686,0.19746350000000001,0.596225,-0.42395499999999997,-0.17342649999999998,0.750305,-0.642195,0.2158535,0.7589950000000001,-0.627355,-0.0744385,-0.00414500000000001,-0.002805000000000002,0.0744385,0.00414500000000001,0.002805000000000002,-0.12409650000000001,-0.08364499999999997,-0.317355,0.14976350000000002,-0.07809499999999997,-0.299852,-0.1035365,-0.40347500000000003,-0.213619,0.1306135,-0.39944499999999994,-0.21751900000000002
67,0.003162,0.6367149999999999,-0.249554,-0.115474,0.419563,-0.245769,-0.169404,0.581845,-0.44527,0.120386,0.431627,-0.24826399999999998,0.197246,0.588445,-0.42952,-0.172344,0.7399249999999999,-0.64749,0.21554600000000002,0.751225,-0.63272,-0.07479,-0.003664999999999974,-0.0027699999999999947,0.07479,0.003664999999999974,0.0027700000000000224,-0.125334,-0.06459500000000001,-0.32133999999999996,0.150196,-0.05865500000000001,-0.30342,-0.103694,-0.37968500000000005,-0.21498599999999998,0.130486,-0.375965,-0.219056
68,0.0026400000000000035,0.63172,-0.249399,-0.116251,0.41585099999999997,-0.245784,-0.170101,0.57635,-0.44889500000000004,0.119259,0.426612,-0.248287,0.196759,0.58284,-0.434145,-0.17208099999999998,0.73169,-0.651725,0.214869,0.74404,-0.637265,-0.075499,-0.0037900000000000156,-0.0027850000000000097,0.075499,0.0037900000000000156,0.0027850000000000097,-0.126981,-0.04424,-0.324025,0.150079,-0.03793000000000002,-0.305975,-0.10430099999999999,-0.35424,-0.214997,0.129919,-0.35121,-0.219504
69,0.001609499999999998,0.62779,-0.248329,-0.11682550000000001,0.414134,-0.245799,-0.1708155,0.572,-0.45136,0.1178745,0.424614,-0.248443,0.19611450000000002,0.57767,-0.43854000000000004,-0.17206549999999998,0.7228399999999999,-0.65574,0.2139545,0.7351,-0.64149,-0.0765035,-0.0040100000000000136,-0.002810000000000007,0.0765035,0.0040100000000000136,0.002810000000000007,-0.1287355,-0.02743000000000001,-0.32592,0.14992450000000002,-0.021160000000000012,-0.30823,-0.1051155,-0.33321999999999996,-0.215123,0.1289545,-0.33057000000000003,-0.219689
70,0.0004560000000000033,0.624615,-0.246587,-0.11763699999999999,0.41289000000000003,-0.245817,-0.171987,0.572485,-0.454535,0.11616300000000002,0.423368,-0.248482,0.195193,0.5783750000000001,-0.441145,-0.17266700000000001,0.718095,-0.656165,0.212873,0.729715,-0.643185,-0.077298,-0.004244999999999999,-0.002824999999999994,0.077298,0.004244999999999999,0.002824999999999994,-0.130477,-0.009434999999999971,-0.327455,0.149773,-0.0030449999999999644,-0.309105,-0.10600699999999999,-0.311095,-0.215326,0.127843,-0.308805,-0.219714
71,-0.0010424999999999966,0.62119,-0.243112,-0.11878949999999999,0.411925,-0.245531,-0.1736695,0.57333,-0.455515,0.11474050000000001,0.426211,-0.248218,0.1942405,0.57596,-0.444525,-0.17375949999999998,0.71309,-0.655905,0.2114705,0.7255400000000001,-0.643545,-0.0780535,-0.0047900000000000165,-0.003044999999999992,0.0780535,0.0047900000000000165,0.003044999999999992,-0.13201949999999998,0.003740000000000021,-0.327195,0.1496405,0.011390000000000011,-0.308785,-0.1071395,-0.29427000000000003,-0.215039,0.1264205,-0.29278000000000004,-0.219434
72,-0.0029850000000000015,0.619015,-0.23852800000000002,-0.120288,0.41045299999999996,-0.24338900000000002,-0.176338,0.570328,-0.45534,0.112882,0.42704,-0.24633400000000003,0.192362,0.5760029999999999,-0.44457,-0.175368,0.709565,-0.6545300000000001,0.210072,0.722145,-0.6410100000000001,-0.078334,-0.005505000000000038,-0.003370000000000012,0.078334,0.005504999999999982,0.003369999999999984,-0.133758,0.016735,-0.32572,0.149582,0.026164999999999994,-0.30728,-0.108548,-0.277045,-0.21355600000000002,0.124682,-0.27598500000000004,-0.217959
73,-0.005221000000000003,0.61852,-0.23342999999999997,-0.12226900000000002,0.410788,-0.24302399999999996,-0.17943900000000002,0.569105,-0.45525499999999997,0.111131,0.426356,-0.24428899999999998,0.191331,0.577996,-0.44647499999999996,-0.177269,0.70573,-0.653175,0.208871,0.72125,-0.6398649999999999,-0.078845,-0.005400000000000016,-0.003674999999999984,0.078845,0.005400000000000016,0.0036750000000000116,-0.135759,0.031799999999999995,-0.32420499999999997,0.149221,0.042310000000000014,-0.30572499999999997,-0.110219,-0.25754000000000005,-0.21183099999999996,0.122581,-0.25716999999999995,-0.21595199999999998
74,-0.007085000000000001,0.617513,-0.228603,-0.125207,0.41074,-0.241786,-0.182377,0.566115,-0.45517,0.109123,0.42538,-0.241354,0.18978299999999998,0.578745,-0.44658,-0.17899700000000002,0.70099,-0.6522,0.20781300000000003,0.7170099999999999,-0.63832,-0.079238,-0.005469999999999975,-0.004070000000000018,0.079238,0.005469999999999975,0.00406999999999999,-0.13754699999999997,0.04554999999999998,-0.32294,0.14915299999999998,0.05730999999999997,-0.30401,-0.110737,-0.23940000000000006,-0.208568,0.120573,-0.23956,-0.21410500000000002
75,-0.009181500000000006,0.6168429999999999,-0.223768,-0.1271445,0.41056499999999996,-0.23952099999999998,-0.1850245,0.5637319999999999,-0.45425499999999996,0.1079455,0.42353499999999994,-0.2387,0.1887555,0.5780639999999999,-0.44677500000000003,-0.1807445,0.697635,-0.650715,0.2067955,0.711395,-0.637405,-0.0797485,-0.005415000000000059,-0.004415000000000002,0.0797485,0.005414999999999948,0.004415000000000002,-0.1392645,0.05924499999999994,-0.321435,0.1491755,0.07244499999999993,-0.301745,-0.11099450000000001,-0.2214250000000001,-0.204919,0.11845549999999999,-0.22158500000000003,-0.211737
76,-0.011147500000000001,0.6158329999999999,-0.21983,-0.1288495,0.4091599999999999,-0.23785299999999998,-0.1876495,0.5610169999999999,-0.45320499999999997,0.1061405,0.4250999999999999,-0.236367,0.18739050000000002,0.5775089999999999,-0.446435,-0.1824695,0.6936899999999999,-0.650085,0.20568050000000002,0.7061399999999999,-0.638005,-0.08023949999999999,-0.006010000000000071,-0.004805000000000004,0.08023949999999999,0.00600999999999996,0.004805000000000004,-0.14086949999999998,0.07186999999999993,-0.320255,0.14962050000000002,0.08621999999999991,-0.29961499999999996,-0.11112949999999999,-0.20462000000000014,-0.201902,0.11634049999999999,-0.20478000000000007,-0.209676
77,-0.012716499999999999,0.6139330000000001,-0.21602200000000002,-0.1302025,0.4117900000000001,-0.23651400000000003,-0.18989250000000002,0.5590930000000001,-0.45299500000000004,0.1046475,0.42573000000000005,-0.23411900000000002,0.18649749999999998,0.5744950000000001,-0.446245,-0.1838825,0.68825,-0.649255,0.2047075,0.7008800000000001,-0.637805,-0.08043049999999999,-0.005589999999999984,-0.0050150000000000194,0.08043049999999999,0.005590000000000095,0.005014999999999992,-0.1421325,0.08267000000000008,-0.318985,0.1505475,0.09780000000000005,-0.29735500000000004,-0.11082249999999999,-0.1897399999999999,-0.19890700000000003,0.1143575,-0.19007999999999992,-0.207353
78,-0.014013999999999997,0.61345,-0.21274,-0.131262,0.4102,-0.23442200000000002,-0.191602,0.557,-0.45225000000000004,0.103468,0.42497000000000007,-0.23152100000000003,0.185748,0.5729810000000001,-0.44508000000000003,-0.18537199999999998,0.6840900000000001,-0.64872,0.203888,0.6976600000000001,-0.63756,-0.080348,-0.005529999999999924,-0.0050100000000000144,0.080348,0.005530000000000035,0.005009999999999987,-0.143062,0.09292000000000006,-0.31772,0.151478,0.10856000000000005,-0.29503900000000005,-0.109872,-0.17587999999999993,-0.19564900000000002,0.111648,-0.1763,-0.20409300000000002
79,-0.015078499999999998,0.6136170000000001,-0.21004899999999999,-0.1311945,0.409295,-0.231884,-0.1927645,0.55566,-0.45167,0.10255550000000001,0.423675,-0.22914299999999999,0.1852055,0.571418,-0.44431,-0.1863745,0.682085,-0.64853,0.20337550000000001,0.697175,-0.63785,-0.0803625,-0.005325000000000024,-0.005319999999999991,0.0803625,0.005325000000000024,0.005319999999999991,-0.1437345,0.10345500000000002,-0.31645,0.1525255,0.11949500000000002,-0.292923,-0.1085545,-0.16192499999999999,-0.192502,0.10935550000000001,-0.162945,-0.201704
80,-0.015819500000000004,0.6156090000000001,-0.208131,-0.1318245,0.4061,-0.229754,-0.1935745,0.553686,-0.45113000000000003,0.10149549999999999,0.42103,-0.226773,0.1849755,0.572187,-0.44384,-0.18717450000000002,0.680764,-0.64845,0.2031955,0.696177,-0.63815,-0.08032149999999999,-0.00537999999999994,-0.005630000000000024,0.08032149999999999,0.005380000000000051,0.005629999999999996,-0.1440845,0.11194000000000004,-0.31502,0.15335549999999998,0.12766000000000005,-0.290755,-0.10674449999999999,-0.15067999999999993,-0.189066,0.10698549999999998,-0.15135999999999994,-0.19878800000000002
81,-0.0163185,0.615388,-0.20650699999999997,-0.13210249999999998,0.40841,-0.22792899999999996,-0.1940825,0.552801,-0.45176,0.10060749999999999,0.41922000000000004,-0.22476499999999996,0.18489750000000002,0.570457,-0.44333999999999996,-0.18769249999999998,0.676972,-0.64877,0.2033975,0.6933050000000001,-0.6387700000000001,-0.0805295,-0.0043400000000000105,-0.006059999999999982,0.0805295,0.0043400000000000105,0.00606000000000001,-0.1441525,0.11770000000000003,-0.31404,0.1541275,0.13285000000000002,-0.288937,-0.1042265,-0.14271999999999996,-0.18571899999999997,0.10495750000000001,-0.14281999999999995,-0.19629899999999997
82,-0.016458999999999994,0.614537,-0.20583600000000002,-0.132221,0.40887500000000004,-0.226769,-0.194331,0.550892,-0.452915,0.10006899999999999,0.41961500000000007,-0.223518,0.185139,0.5688460000000001,-0.443415,-0.187831,0.674122,-0.649695,0.203949,0.689644,-0.6409050000000001,-0.080562,-0.00405499999999992,-0.006505000000000011,0.080562,0.004055000000000031,0.006504999999999983,-0.144001,0.12154500000000007,-0.313855,0.155159,0.13662500000000005,-0.288914,-0.101302,-0.1369849999999999,-0.18307900000000002,0.10192899999999999,-0.13675499999999996,-0.19315400000000002
83,-0.016497000000000005,0.614481,-0.206011,-0.13213200000000003,0.40925500000000004,-0.22765200000000002,-0.193932,0.5496150000000001,-0.45399,0.099858,0.42010500000000006,-0.223387,0.18564799999999998,0.5669240000000001,-0.44426,-0.187402,0.671316,-0.65114,0.204608,0.687942,-0.64306,-0.080542,-0.003674999999999984,-0.006620000000000015,0.080542,0.003675000000000095,0.006619999999999987,-0.143752,0.12546500000000005,-0.31465,0.15611799999999998,0.14020500000000002,-0.289859,-0.099181,-0.1319349999999999,-0.182987,0.09805799999999999,-0.13077499999999997,-0.190589
84,-0.016233500000000005,0.614219,-0.205788,-0.1321695,0.408845,-0.22803600000000002,-0.1939895,0.548018,-0.45550999999999997,0.0999605,0.420495,-0.222893,0.1863405,0.565779,-0.44472,-0.1867495,0.667952,-0.65185,0.2051605,0.687662,-0.64471,-0.0805525,-0.0033849999999999714,-0.006739999999999996,0.0805525,0.0033849999999999714,0.006739999999999996,-0.1434095,0.12859500000000001,-0.31501999999999997,0.1570005,0.14299499999999998,-0.290489,-0.09717250000000001,-0.12736499999999995,-0.182791,0.0941905,-0.12594499999999997,-0.187876
85,-0.015724500000000002,0.614455,-0.205738,-0.1322345,0.40853999999999996,-0.228455,-0.1936345,0.5465819999999999,-0.456295,0.10057550000000001,0.42155999999999993,-0.22306,0.18772550000000002,0.5644199999999999,-0.445835,-0.18605449999999998,0.664986,-0.652735,0.2057755,0.6857019999999999,-0.646265,-0.0804995,-0.003190000000000026,-0.006855,0.0804995,0.003189999999999915,0.006855,-0.14292449999999998,0.13193999999999995,-0.315615,0.1575355,0.14625999999999995,-0.29159599999999997,-0.09513250000000001,-0.12291000000000007,-0.182565,0.0901245,-0.12121000000000004,-0.185178
86,-0.015166500000000001,0.614842,-0.20574399999999998,-0.1321235,0.40781,-0.228595,-0.1926835,0.544529,-0.454685,0.1005665,0.42181,-0.22328299999999998,0.1889665,0.563909,-0.446415,-0.1852235,0.662235,-0.6534249999999999,0.2064865,0.68284,-0.648385,-0.0804385,-0.0033400000000000096,-0.007034999999999986,0.0804385,0.0033400000000000096,0.0070350000000000135,-0.1423235,0.13467000000000007,-0.316135,0.1579365,0.14907000000000004,-0.29274599999999995,-0.0922925,-0.11959999999999993,-0.181833,0.0862415,-0.11739,-0.182606
87,-0.014442999999999998,0.614765,-0.205559,-0.131992,0.40972,-0.22941,-0.191922,0.5430729999999999,-0.45245,0.101408,0.42328,-0.224136,0.19042800000000001,0.563101,-0.44714,-0.184402,0.659712,-0.65379,0.207238,0.680097,-0.64996,-0.080363,-0.0032200000000000006,-0.0071199999999999875,0.080363,0.0032200000000000006,0.007120000000000015,-0.141652,0.13685999999999998,-0.31656,0.158178,0.15152999999999994,-0.293837,-0.08971,-0.11714000000000002,-0.18132399999999999,0.083228,-0.11429,-0.18040699999999998
88,-0.013757999999999998,0.6139140000000001,-0.204953,-0.131726,0.41044500000000006,-0.229672,-0.191146,0.540365,-0.44943,0.101444,0.42386500000000005,-0.224067,0.191854,0.5621510000000001,-0.44721,-0.183686,0.6567280000000001,-0.65332,0.207804,0.677162,-0.65048,-0.080318,-0.0031249999999999334,-0.00716,0.080318,0.0031250000000000444,0.00716,-0.140976,0.1378250000000001,-0.31658,0.158244,0.15276500000000004,-0.294327,-0.087419,-0.11624499999999993,-0.18056299999999997,0.080387,-0.11256499999999992,-0.178331
89,-0.013114000000000002,0.613554,-0.204367,-0.131517,0.41104,-0.229784,-0.190527,0.53813,-0.44587,0.102273,0.42421000000000003,-0.22380599999999998,0.19310300000000002,0.561547,-0.44781,-0.18323699999999998,0.654935,-0.6525399999999999,0.20827299999999999,0.675088,-0.65086,-0.080317,-0.0029599999999999627,-0.007199999999999984,0.080317,0.0029600000000000737,0.007200000000000012,-0.140447,0.13894000000000006,-0.31678999999999996,0.15825299999999998,0.15392,-0.294707,-0.085493,-0.11561999999999995,-0.179941,0.07760399999999999,-0.11104000000000003,-0.17631299999999997
90,-0.012360500000000005,0.613576,-0.20375,-0.1312355,0.411775,-0.22977199999999998,-0.18992550000000002,0.536695,-0.442265,0.1023645,0.424645,-0.223515,0.1944245,0.5610999999999999,-0.447895,-0.1829055,0.653903,-0.651755,0.2087445,0.67377,-0.651165,-0.0803525,-0.002755000000000063,-0.0072349999999999914,0.0803525,0.002754999999999952,0.007235000000000019,-0.1399255,0.140355,-0.31708499999999995,0.15835449999999998,0.15514499999999998,-0.29516699999999996,-0.0840205,-0.11501499999999998,-0.17978199999999997,0.07499449999999999,-0.110155,-0.17439999999999997
91,-0.011460000000000001,0.613276,-0.203109,-0.13092499999999999,0.411905,-0.229549,-0.189585,0.5351250000000001,-0.438145,0.10325499999999999,0.424875,-0.223109,0.195645,0.560562,-0.448195,-0.182755,0.653004,-0.650785,0.209255,0.672443,-0.651285,-0.080312,-0.0027449999999999974,-0.007294999999999996,0.080312,0.0027449999999999974,0.007294999999999996,-0.139355,0.14115500000000003,-0.317205,0.158535,0.155835,-0.295712,-0.08268500000000001,-0.11482499999999995,-0.179603,0.073854,-0.10990500000000003,-0.174143
92,-0.010488,0.6131780000000001,-0.20241699999999999,-0.130577,0.41217000000000004,-0.22924899999999998,-0.189307,0.5342100000000001,-0.43317,0.104153,0.4252600000000001,-0.22269599999999998,0.19680299999999998,0.5602750000000001,-0.44843,-0.182567,0.653081,-0.64998,0.209833,0.671699,-0.6512100000000001,-0.08022699999999999,-0.0027199999999999447,-0.007309999999999983,0.08022699999999999,0.0027200000000000557,0.007310000000000011,-0.138797,0.1419800000000001,-0.31716,0.15859299999999998,0.15657000000000004,-0.296617,-0.08149899999999999,-0.11455999999999988,-0.17940899999999999,0.073771,-0.10960999999999999,-0.174094
93,-0.009542499999999999,0.6132890000000001,-0.201858,-0.1302305,0.4123500000000001,-0.228897,-0.1891505,0.5335000000000001,-0.428155,0.1050595,0.42524000000000006,-0.222151,0.1977895,0.5602410000000001,-0.448295,-0.1823705,0.6530050000000001,-0.649295,0.2103895,0.6715580000000001,-0.650945,-0.0801295,-0.002589999999999981,-0.007314999999999988,0.0801295,0.0025900000000000922,0.007315000000000016,-0.1382405,0.14262000000000008,-0.317205,0.1585695,0.15716000000000008,-0.297603,-0.0804625,-0.11424999999999996,-0.179391,0.0739875,-0.10919999999999996,-0.174129
94,-0.008825500000000002,0.613927,-0.2016,-0.1299485,0.41259,-0.22853300000000001,-0.1890885,0.53415,-0.42255,0.1058615,0.42564,-0.221698,0.1982915,0.560891,-0.44811,-0.18222850000000002,0.653655,-0.64852,0.21092149999999998,0.672208,-0.65045,-0.0800565,-0.002449999999999952,-0.007320000000000021,0.0800565,0.002449999999999952,0.007319999999999993,-0.1378285,0.14305999999999996,-0.31724,0.1584915,0.15760000000000002,-0.29863,-0.0792115,-0.11399999999999999,-0.178923,0.0741795,-0.10848000000000002,-0.17411400000000002
95,-0.008095,0.613957,-0.201572,-0.129755,0.41262,-0.228209,-0.188965,0.53418,-0.419215,0.10667499999999999,0.42563999999999996,-0.221252,0.19880499999999998,0.560921,-0.447755,-0.182315,0.653685,-0.647755,0.211465,0.672238,-0.649965,-0.079962,-0.0024199999999999777,-0.007335000000000008,0.079962,0.0024199999999999777,0.007335000000000008,-0.137345,0.14252999999999993,-0.317315,0.158375,0.15743999999999997,-0.29978,-0.079008,-0.11408000000000007,-0.17890799999999998,0.074383,-0.10845000000000005,-0.174099
96,-0.007435999999999999,0.613957,-0.201552,-0.129563,0.41262,-0.227917,-0.188773,0.53418,-0.418655,0.107417,0.42584999999999995,-0.22082400000000002,0.199037,0.560921,-0.447485,-0.182743,0.653685,-0.645735,0.211957,0.672238,-0.649375,-0.079886,-0.0024199999999999777,-0.007335000000000008,0.079886,0.0024199999999999777,0.00733499999999998,-0.136853,0.14198,-0.317375,0.158157,0.15725999999999996,-0.301186,-0.078806,-0.11408000000000007,-0.178898,0.075328,-0.10880000000000001,-0.175105
97,-0.006885499999999999,0.613977,-0.201524,-0.1295635,0.41262,-0.227626,-0.1888435,0.5350699999999999,-0.41718,0.1076965,0.42589,-0.220802,0.19922649999999997,0.561085,-0.44723999999999997,-0.18361349999999999,0.6558309999999999,-0.64345,0.2122365,0.6735949999999999,-0.64852,-0.0798865,-0.0024199999999999777,-0.007330000000000003,0.0798865,0.0024199999999999777,0.007330000000000003,-0.13659349999999998,0.14159999999999995,-0.31756,0.1576265,0.15709999999999996,-0.302778,-0.0788055,-0.11408000000000007,-0.17890699999999998,0.0765115,-0.10899000000000003,-0.17723
98,-0.006383500000000001,0.615321,-0.20136099999999998,-0.1295705,0.41281,-0.22719499999999998,-0.1890405,0.5378000000000001,-0.414495,0.10781949999999998,0.42584,-0.220575,0.1992995,0.562619,-0.446315,-0.1844605,0.659058,-0.638665,0.2128795,0.677642,-0.646965,-0.07992550000000001,-0.0023600000000000287,-0.007294999999999996,0.07992550000000001,0.0023600000000000287,0.007294999999999996,-0.1362905,0.14122,-0.318495,0.1568195,0.15704,-0.304716,-0.07926749999999999,-0.11434999999999995,-0.179173,0.07953949999999999,-0.10931000000000002,-0.180738
99,-0.0057230000000000015,0.617764,-0.201319,-0.129481,0.41277,-0.22656700000000002,-0.18904100000000001,0.5447200000000001,-0.411755,0.108069,0.42508,-0.220143,0.199459,0.5649930000000001,-0.444765,-0.185091,0.666382,-0.631975,0.213789,0.6817650000000001,-0.644725,-0.079845,-0.0022999999999999687,-0.007235000000000019,0.079845,0.0023000000000000798,0.0072349999999999914,-0.135691,0.14019000000000004,-0.319765,0.155879,0.15624000000000005,-0.306777,-0.07995100000000001,-0.11529999999999996,-0.179481,0.083084,-0.11041000000000001,-0.184415
100,-0.005119500000000004,0.6210169999999999,-0.200469,-0.1295045,0.41170499999999993,-0.224755,-0.1890445,0.5509599999999999,-0.40715,0.10868549999999999,0.42599499999999996,-0.218677,0.19965549999999999,0.568751,-0.44139,-0.1855545,0.672102,-0.62373,0.2146155,0.6894399999999999,-0.64113,-0.0798615,-0.002555000000000085,-0.00717000000000001,0.0798615,0.002554999999999974,0.007169999999999982,-0.1349045,0.13727499999999992,-0.32044,0.1544255,0.15324499999999996,-0.3083,-0.08199150000000001,-0.11844500000000002,-0.180431,0.0865705,-0.1139650000000001,-0.18691700000000003
101,-0.0044895000000000004,0.6247510000000001,-0.19958700000000001,-0.12949049999999998,0.41131,-0.222862,-0.1894305,0.556369,-0.402305,0.1093395,0.42533,-0.21707800000000002,0.19987950000000002,0.572545,-0.437245,-0.1857405,0.67722,-0.6144850000000001,0.2154895,0.695865,-0.636985,-0.07990349999999999,-0.0027000000000000357,-0.0069150000000000045,0.07990349999999999,0.0027000000000000357,0.0069150000000000045,-0.1338905,0.13263999999999998,-0.321395,0.1529295,0.14851999999999999,-0.309685,-0.08520349999999999,-0.12355000000000005,-0.182982,0.0902705,-0.11936000000000002,-0.189372
102,-0.0036295000000000016,0.628963,-0.198618,-0.1293735,0.4098,-0.220689,-0.1892435,0.560982,-0.39818,0.1105265,0.42459,-0.215231,0.19998649999999998,0.576808,-0.43233,-0.1856635,0.683373,-0.60936,0.2166265,0.702958,-0.6322,-0.07998849999999999,-0.002929999999999988,-0.006729999999999986,0.07998849999999999,0.002929999999999988,0.006730000000000014,-0.1325735,0.12593,-0.3225,0.15149649999999998,0.14181,-0.31082,-0.0885435,-0.13098999999999994,-0.185707,0.09427250000000001,-0.12705,-0.192056
103,-0.002752499999999997,0.6336299999999999,-0.197096,-0.12938550000000001,0.4082199999999999,-0.217611,-0.1892055,0.5641619999999999,-0.39281,0.11190449999999999,0.42679999999999996,-0.212555,0.2000045,0.5814219999999999,-0.42617,-0.1859855,0.688004,-0.5989,0.2173845,0.7099639999999999,-0.62657,-0.07984050000000001,-0.003650000000000042,-0.006200000000000011,0.07984050000000001,0.003649999999999931,0.006200000000000011,-0.1313655,0.11642999999999992,-0.32312,0.1498045,0.13231999999999994,-0.31117,-0.09202949999999999,-0.14119000000000004,-0.187648,0.09821450000000001,-0.1378100000000001,-0.194259
104,-0.001650999999999998,0.638644,-0.195224,-0.129133,0.412075,-0.214473,-0.189133,0.5688840000000001,-0.386215,0.113487,0.428115,-0.209587,0.200127,0.5866210000000001,-0.41796500000000003,-0.186133,0.692918,-0.587515,0.218497,0.7175750000000001,-0.619115,-0.079848,-0.003754999999999953,-0.005854999999999999,0.079848,0.003755000000000064,0.005854999999999999,-0.13009300000000001,0.10617500000000002,-0.324055,0.14818699999999999,0.12184500000000004,-0.311205,-0.09537799999999999,-0.152405,-0.189164,0.10236700000000001,-0.14964499999999992,-0.196107
105,-0.0002884999999999971,0.645919,-0.19349800000000003,-0.1287025,0.414995,-0.21074900000000002,-0.1885625,0.578013,-0.38207,0.1152175,0.431585,-0.20649100000000004,0.2002875,0.5912390000000001,-0.40700000000000003,-0.1858525,0.7059650000000001,-0.58039,0.21966750000000002,0.7249450000000001,-0.6090800000000001,-0.0798145,-0.004224999999999923,-0.005560000000000009,0.0798145,0.004225000000000034,0.005559999999999982,-0.1287325,0.09443500000000005,-0.32469000000000003,0.14667750000000002,0.10943500000000006,-0.31063,-0.0985385,-0.16554499999999994,-0.19008300000000003,0.1057375,-0.1634049999999999,-0.19647900000000001
106,0.0012175000000000042,0.654054,-0.19136099999999998,-0.1280465,0.4204650000000001,-0.20687299999999997,-0.1875965,0.584758,-0.37575,0.11726349999999999,0.4341050000000001,-0.203256,0.2005135,0.5956060000000001,-0.39509,-0.1855165,0.715775,-0.56925,0.2205135,0.734955,-0.59861,-0.07957349999999999,-0.004444999999999921,-0.005149999999999988,0.07957349999999999,0.004445000000000032,0.005150000000000016,-0.12735649999999998,0.08062500000000006,-0.32572999999999996,0.1455735,0.09505500000000006,-0.31072,-0.10135049999999998,-0.18139499999999997,-0.19066699999999998,0.10929350000000002,-0.1797749999999999,-0.196146
107,0.003309999999999997,0.6604109999999999,-0.189026,-0.126552,0.4235699999999999,-0.203011,-0.186232,0.5883809999999999,-0.36916499999999997,0.12021799999999999,0.4385699999999999,-0.200151,0.20141799999999999,0.5993129999999999,-0.382915,-0.184552,0.7212,-0.557535,0.221838,0.7422599999999999,-0.587755,-0.079002,-0.004310000000000036,-0.004934999999999995,0.079002,0.004309999999999925,0.004934999999999995,-0.12548199999999998,0.0630599999999999,-0.325485,0.145638,0.07598999999999989,-0.31037499999999996,-0.103262,-0.20140000000000013,-0.191277,0.11183799999999999,-0.20028000000000012,-0.194288
108,0.005283999999999996,0.6676199999999999,-0.18635200000000002,-0.125135,0.4268099999999999,-0.19937400000000002,-0.184755,0.5944649999999999,-0.36399000000000004,0.12343499999999999,0.4432799999999999,-0.19720000000000001,0.20208500000000001,0.6046189999999999,-0.37136,-0.183215,0.7344099999999999,-0.5472600000000001,0.223165,0.7532699999999999,-0.5769200000000001,-0.078326,-0.0041600000000000525,-0.004650000000000015,0.078326,0.0041599999999999415,0.0046499999999999875,-0.123785,0.0461399999999999,-0.32442000000000004,0.145855,0.057399999999999896,-0.30973,-0.104905,-0.2212400000000001,-0.19157400000000002,0.114035,-0.21981000000000006,-0.19221700000000003
109,0.006758500000000004,0.67188,-0.184049,-0.1241015,0.432103,-0.196487,-0.18389149999999999,0.598916,-0.35689,0.12574849999999999,0.447146,-0.195189,0.2020485,0.6079680000000001,-0.36075,-0.18275149999999998,0.74277,-0.53773,0.2240085,0.76161,-0.56625,-0.0777115,-0.00385000000000002,-0.0044500000000000095,0.0777115,0.00385000000000002,0.0044500000000000095,-0.1227215,0.02090000000000003,-0.32286000000000004,0.1460085,0.03053,-0.3087,-0.1055815,-0.25059,-0.190834,0.1157185,-0.24951999999999996,-0.190863
110,0.007810499999999996,0.67836,-0.17932,-0.12316350000000001,0.437816,-0.19201200000000002,-0.1830735,0.61003,-0.348785,0.12796649999999998,0.453192,-0.191562,0.2017665,0.61564,-0.349095,-0.1827735,0.76082,-0.528035,0.2242065,0.7762899999999999,-0.553055,-0.0768775,-0.003709999999999991,-0.004234999999999989,0.0768775,0.003709999999999991,0.004234999999999989,-0.12166350000000001,-0.00878000000000001,-0.318215,0.1461665,-0.0013000000000000234,-0.304365,-0.1056035,-0.28800000000000003,-0.186683,0.1172165,-0.28711,-0.187829
111,0.0085475,0.68482,-0.17422700000000002,-0.1224205,0.44530400000000003,-0.187429,-0.1825405,0.62248,-0.33909500000000004,0.1296895,0.461241,-0.187538,0.20119949999999998,0.62346,-0.337015,-0.18335050000000003,0.7774000000000001,-0.515625,0.22390949999999998,0.79191,-0.538815,-0.0759585,-0.003489999999999993,-0.0037650000000000183,0.0759585,0.0034900000000000486,0.0037649999999999906,-0.1207605,-0.038199999999999956,-0.312645,0.1461695,-0.03230999999999995,-0.29886500000000005,-0.1055905,-0.32572999999999996,-0.181543,0.1183795,-0.32509999999999994,-0.18393900000000002
112,0.009371000000000004,0.691335,-0.168692,-0.121487,0.452387,-0.182926,-0.181917,0.635135,-0.33004,0.13126300000000002,0.465543,-0.183402,0.200623,0.634155,-0.32416,-0.183407,0.7937049999999999,-0.5031399999999999,0.22342299999999998,0.8092349999999999,-0.52347,-0.075157,-0.0028750000000000164,-0.0037599999999999856,0.075157,0.002874999999999961,0.0037600000000000133,-0.119777,-0.06659500000000002,-0.3071,0.14648300000000003,-0.06233500000000003,-0.29334,-0.105457,-0.362815,-0.176334,0.119643,-0.362695,-0.179693
113,0.010112000000000003,0.697195,-0.161937,-0.120646,0.45414,-0.176815,-0.181896,0.647925,-0.32035499999999995,0.13273400000000002,0.47218499999999997,-0.17779999999999999,0.19978400000000002,0.640075,-0.311315,-0.184336,0.815905,-0.488885,0.222524,0.823595,-0.505575,-0.07425999999999999,-0.002784999999999982,-0.0036249999999999893,0.07425999999999999,0.002784999999999982,0.003625000000000017,-0.118726,-0.09653499999999998,-0.300345,0.146624,-0.09346500000000002,-0.286605,-0.10547599999999999,-0.40103500000000003,-0.170346,0.12087400000000001,-0.401775,-0.17473899999999998
114,0.0106635,0.699775,-0.155107,-0.12011350000000001,0.459725,-0.17035099999999997,-0.1819935,0.657695,-0.310915,0.13393649999999999,0.475495,-0.17159799999999997,0.19881649999999998,0.648965,-0.300405,-0.18581350000000002,0.8307150000000001,-0.474495,0.2212665,0.8413550000000001,-0.489015,-0.07329849999999999,-0.0023250000000000215,-0.00325499999999998,0.07329849999999999,0.0023250000000000215,0.003255000000000008,-0.11806349999999999,-0.12584499999999998,-0.292705,0.1466565,-0.123865,-0.27978499999999995,-0.10573350000000001,-0.438355,-0.16447299999999998,0.12191650000000001,-0.44004499999999996,-0.169567
115,0.010722000000000002,0.702175,-0.14761700000000003,-0.11979200000000001,0.46209500000000003,-0.16342600000000002,-0.182142,0.667775,-0.30213,0.134208,0.480195,-0.16523900000000002,0.197968,0.6607149999999999,-0.28963000000000005,-0.188132,0.8497950000000001,-0.45955,0.220158,0.858805,-0.47205,-0.07253699999999999,-0.0019850000000000145,-0.0030100000000000127,0.07253699999999999,0.0019850000000000145,0.003009999999999985,-0.117782,-0.15296500000000002,-0.28412000000000004,0.146388,-0.15186500000000003,-0.27186,-0.106232,-0.472825,-0.15847900000000004,0.12268799999999999,-0.474975,-0.16397100000000003
116,0.010221999999999995,0.7062999999999999,-0.139347,-0.11995800000000001,0.46760999999999997,-0.15570099999999998,-0.182898,0.68057,-0.28935500000000003,0.13414199999999998,0.48519999999999996,-0.157665,0.196612,0.67679,-0.278725,-0.19145800000000002,0.8737299999999999,-0.441595,0.218742,0.8795299999999999,-0.453275,-0.071921,-0.001930000000000015,-0.0025249999999999995,0.071921,0.0019299999999999873,0.0025249999999999995,-0.117938,-0.17593000000000003,-0.27275499999999997,0.145552,-0.17454000000000003,-0.261385,-0.107188,-0.5030300000000001,-0.151671,0.122962,-0.5048900000000001,-0.157516
117,0.009595999999999997,0.706545,-0.127254,-0.12008100000000001,0.473045,-0.145846,-0.18434099999999998,0.686695,-0.27056,0.13454899999999997,0.489055,-0.147865,0.19536900000000001,0.689775,-0.26249,-0.19548100000000002,0.8866449999999999,-0.41551,0.217609,0.899615,-0.42791,-0.071453,-0.0016750000000000098,-0.0017800000000000038,0.071453,0.001674999999999982,0.0017800000000000038,-0.118021,-0.20036500000000002,-0.25719,0.14463900000000002,-0.20005499999999998,-0.24645,-0.108751,-0.535145,-0.143899,0.124179,-0.5380050000000001,-0.149202
118,0.009212999999999995,0.708765,-0.115123,-0.120162,0.478695,-0.135836,-0.18557200000000001,0.695415,-0.25243,0.134928,0.494715,-0.138297,0.19447799999999998,0.705015,-0.24828,-0.19974200000000003,0.905755,-0.38724000000000003,0.21698800000000001,0.921135,-0.40134000000000003,-0.071116,-0.0015150000000000163,-0.0008299999999999974,0.071116,0.0015149999999999886,0.0008299999999999974,-0.117702,-0.21698499999999998,-0.24007,0.143758,-0.217895,-0.22888999999999998,-0.110242,-0.558665,-0.135592,0.125748,-0.5626450000000001,-0.139605
119,0.008071999999999998,0.708165,-0.10566400000000001,-0.121424,0.483425,-0.12768000000000002,-0.187804,0.703515,-0.235735,0.133996,0.500505,-0.130498,0.192826,0.717135,-0.232855,-0.204514,0.916595,-0.35767499999999997,0.215406,0.938805,-0.375255,-0.070802,-0.0014149999999999996,-3.500000000000725e-05,0.070802,0.0014149999999999996,3.499999999999337e-05,-0.11830399999999999,-0.231375,-0.22412500000000002,0.141226,-0.23139500000000002,-0.211895,-0.11161399999999999,-0.576355,-0.127804,0.124646,-0.579815,-0.13181
120,0.006873499999999996,0.70707,-0.096876,-0.1226875,0.48773,-0.11993400000000001,-0.1899775,0.71132,-0.21669100000000002,0.1330925,0.5043799999999999,-0.12317,0.1915725,0.72891,-0.21713100000000002,-0.2092975,0.9282199999999999,-0.329901,0.2139125,0.95517,-0.349711,-0.0705185,-0.0012599999999999972,0.0004109999999999947,0.0705185,0.0012599999999999972,-0.0004110000000000086,-0.1187575,-0.24413999999999997,-0.20859100000000003,0.1387025,-0.24370999999999998,-0.195201,-0.1128775,-0.5918300000000001,-0.120483,0.1236225,-0.59497,-0.12448500000000001
121,0.005811000000000002,0.705265,-0.0856835,-0.123779,0.492645,-0.10918049999999999,-0.192179,0.720605,-0.19561849999999997,0.132321,0.508995,-0.11289849999999998,0.19040100000000001,0.737705,-0.1983585,-0.214119,0.942015,-0.2978285,0.212501,0.970305,-0.32078850000000003,-0.070428,-0.0010450000000000043,0.002408500000000008,0.070428,0.0010449999999999904,-0.002408499999999994,-0.11878899999999999,-0.256085,-0.18962849999999998,0.136091,-0.254985,-0.1734065,-0.113939,-0.605865,-0.11044549999999999,0.122641,-0.6083649999999999,-0.1135515
122,0.004343000000000001,0.7048835,-0.0703275,-0.125975,0.4970935,-0.0928045,-0.19580499999999998,0.7249435,-0.1699975,0.131225,0.5062734999999999,-0.0977575,0.188885,0.7433035,-0.1758895,-0.219695,0.9450734999999999,-0.2614995,0.21105500000000002,0.9800534999999999,-0.2886495,-0.07012099999999999,-0.0008314999999999989,0.0026774999999999993,0.07012099999999999,0.0008314999999999989,-0.0026774999999999993,-0.11829500000000001,-0.2734165,-0.16338049999999998,0.131795,-0.2717565,-0.14546350000000002,-0.115315,-0.6246165,-0.0940025,0.12124499999999999,-0.6264465,-0.0959615
123,0.002908499999999997,0.70547,-0.0558725,-0.1280325,0.49871000000000004,-0.0773895,-0.1992025,0.72794,-0.1448885,0.12991750000000002,0.50471,-0.0833795,0.1875075,0.74669,-0.1536295,-0.22503250000000002,0.94718,-0.2241655,0.20990750000000002,0.98693,-0.25648550000000003,-0.0698855,-0.0006110000000000004,0.002758499999999997,0.0698855,0.0006110000000000004,-0.002758500000000004,-0.1178925,-0.28979,-0.13871450000000002,0.1275575,-0.28759999999999997,-0.1187855,-0.1166525,-0.64202,-0.0783745,0.1198175,-0.64301,-0.0789285
124,0.0017725000000000032,0.7050544999999999,-0.042457,-0.1298695,0.5010745,-0.062397999999999995,-0.2021695,0.7312044999999999,-0.12071399999999999,0.1290905,0.5034445,-0.06908,0.18664050000000001,0.7474345,-0.131856,-0.2297495,0.9466445,-0.18801,0.2088805,0.9916345,-0.22465000000000002,-0.0693855,-0.0005015000000000019,0.0028509999999999994,0.0693855,0.0005015000000000019,-0.0028509999999999994,-0.11735949999999999,-0.3061355,-0.11457600000000001,0.12367050000000002,-0.3038055,-0.09304,-0.11771949999999999,-0.6592355000000001,-0.06276899999999999,0.1186305,-0.6596955,-0.062221
125,0.0007720000000000001,0.703913,-0.030072,-0.13163,0.502883,-0.048083,-0.20487,0.7344729999999999,-0.099376,0.12844,0.500053,-0.055790000000000006,0.18636,0.7441329999999999,-0.110629,-0.23381,0.945803,-0.15635500000000002,0.20842,0.994613,-0.194735,-0.069012,-0.0003769999999999954,0.0028759999999999966,0.069012,0.00037700000000000233,-0.002876,-0.11722,-0.32058699999999996,-0.092543,0.11992,-0.31829700000000005,-0.06956999999999999,-0.11879,-0.6737270000000001,-0.047523,0.11738,-0.6741670000000001,-0.045935000000000004
126,-0.00017650000000000087,0.70485,-0.0199715,-0.1331625,0.50487,-0.036088499999999996,-0.2072225,0.73779,-0.0832785,0.1277975,0.49778,-0.044741500000000003,0.1864175,0.74191,-0.0942365,-0.23731249999999998,0.94438,-0.1318415,0.2085475,0.99469,-0.1705215,-0.0686485,-0.00040899999999999964,0.002572500000000002,0.0686485,0.00040899999999999964,-0.0025724999999999984,-0.1170425,-0.33055,-0.0740165,0.11642749999999999,-0.32837000000000005,-0.049424499999999996,-0.11969250000000001,-0.6836800000000001,-0.0340515,0.11620749999999999,-0.6842400000000001,-0.0316365
127,-0.0010045000000000024,0.705702,-0.010074000000000001,-0.1346775,0.505532,-0.024879,-0.2097175,0.7408020000000001,-0.068662,0.12707249999999998,0.49412199999999995,-0.033784,0.18663249999999998,0.738402,-0.077731,-0.24060750000000003,0.943142,-0.109404,0.2083525,0.992772,-0.147755,-0.0684355,-0.000279999999999999,0.002116999999999999,0.0684355,0.000279999999999999,-0.002117000000000001,-0.1171475,-0.338618,-0.056603,0.1129525,-0.336588,-0.030864,-0.1206075,-0.6917479999999999,-0.020727000000000002,0.1150925,-0.692458,-0.01754
128,-0.001788,0.706851,-0.00021599999999999983,-0.13613,0.506061,-0.013703,-0.21214,0.7386210000000001,-0.054411,0.12655,0.490091,-0.022823,0.18701,0.733901,-0.062268,-0.24348,0.9412010000000001,-0.08972200000000001,0.20811,0.989531,-0.126767,-0.068285,-5.400000000000023e-05,0.001608,0.068285,5.400000000000023e-05,-0.0016079999999999998,-0.11736,-0.34746900000000003,-0.039917,0.11011,-0.346269,-0.013104000000000001,-0.12145,-0.701059,-0.007278999999999999,0.11397,-0.7020689999999999,-0.0034409999999999996
129,-0.002515000000000005,0.7080475,0.008752499999999998,-0.13757600000000003,0.5064375,-0.0026285000000000006,-0.21451599999999998,0.7362375,-0.0400045,0.126054,0.48576749999999996,-0.0121555,0.187344,0.7293575,-0.0467875,-0.24619600000000003,0.9389075,-0.0705845,0.207994,0.9862375,-0.1048275,-0.068191,0.0001535,0.001237499999999999,0.068191,-0.0001535,-0.0012375000000000008,-0.117596,-0.35927250000000005,-0.0234025,0.107234,-0.3573025,0.004921499999999999,-0.121606,-0.7122925,0.0076704999999999985,0.111914,-0.7123524999999999,0.010985499999999999
130,-0.0032014999999999978,0.709554,0.014003,-0.1389615,0.506784,0.005117999999999999,-0.2166815,0.733704,-0.029734999999999998,0.1256385,0.48143400000000003,-0.004961999999999999,0.1878285,0.724734,-0.035455,-0.2486015,0.936484,-0.05703799999999999,0.20800849999999999,0.9791139999999999,-0.087746,-0.0681575,0.00039900000000000005,-0.0006280000000000001,0.0681575,-0.00039900000000000005,0.0006280000000000001,-0.11779150000000001,-0.36990599999999996,-0.011528000000000002,0.1045785,-0.367096,0.017089,-0.1217015,-0.721986,0.018482,0.10965849999999999,-0.721006,0.019812
131,-0.0031749999999999986,0.709554,0.0141175,-0.138983,0.5070239999999999,0.0057935,-0.217003,0.7340639999999999,-0.025353499999999998,0.125837,0.48242399999999996,-0.0042355,0.18945700000000001,0.7272339999999999,-0.029641499999999998,-0.249533,0.938124,-0.04921650000000001,0.209197,0.9791139999999999,-0.0765965,-0.068159,0.00039900000000000005,-0.0005455000000000008,0.068159,-0.00039900000000000005,0.0005454999999999991,-0.117803,-0.370046,-0.009195499999999999,0.104267,-0.368096,0.0206025,-0.121683,-0.721986,0.0201275,0.109607,-0.7212160000000001,0.0209165
132,-0.0031769999999999984,0.709554,0.014192500000000002,-0.13901,0.507254,0.0067445000000000005,-0.21728,0.7342839999999999,-0.0204505,0.12618000000000001,0.483664,-0.0032715,0.19086,0.729534,-0.024150500000000002,-0.25048,0.9398139999999999,-0.0426705,0.21087,0.9791139999999999,-0.0653995,-0.06816,0.00039900000000000005,-0.0005234999999999997,0.06816,-0.00039900000000000005,0.0005235000000000014,-0.11779,-0.37019599999999997,-0.006696499999999998,0.10399,-0.36912599999999995,0.0240775,-0.12167,-0.721986,0.0219085,0.10955,-0.7213160000000001,0.022143500000000003
133,-0.0032939999999999975,0.709554,0.014355000000000001,-0.13905,0.507504,0.007812000000000001,-0.21758,0.734594,-0.015667,0.1263,0.484104,-0.0024389999999999967,0.19215,0.731584,-0.018769999999999995,-0.25142,0.941684,-0.035684,0.2132,0.978054,-0.053411999999999994,-0.068161,0.00039900000000000005,-0.0004789999999999968,0.068161,-0.00039900000000000005,0.00047900000000000026,-0.11781,-0.37034599999999995,-0.004421999999999999,0.10373,-0.370166,0.027256000000000002,-0.12167,-0.721986,0.023693000000000002,0.10952,-0.7213160000000001,0.023463
134,-0.003204500000000001,0.7096954999999999,0.014799000000000001,-0.1388585,0.5080155,0.009194,-0.21758850000000002,0.7353855,-0.010773999999999999,0.1265915,0.48501550000000004,-0.0012789999999999989,0.1935115,0.7337254999999999,-0.013375999999999999,-0.2521985,0.9421955,-0.028017,0.2159915,0.9768055,-0.041944999999999996,-0.0680515,0.0005094999999999995,-0.0005039999999999975,0.0680515,-0.0005095000000000004,0.000504000000000001,-0.1178285,-0.3699645,-0.0020529999999999993,0.1037215,-0.3706845,0.030294,-0.1215785,-0.7212945000000001,0.025631,0.1097215,-0.7208045000000001,0.025133000000000003
135,-0.0030214999999999986,0.7099375,0.015856500000000003,-0.13860550000000002,0.5089775,0.011191500000000002,-0.21753550000000002,0.7364775,-0.005493499999999998,0.12693449999999998,0.4861275,0.0004935000000000009,0.1951045,0.7357275,-0.007800499999999998,-0.2526955,0.9446075,-0.020124499999999997,0.2190345,0.9763175000000001,-0.0313945,-0.0679535,0.0006045,-0.0005434999999999988,0.0679535,-0.0006044999999999996,0.0005435000000000023,-0.1177255,-0.3693725,0.0004735000000000017,0.1038245,-0.37068249999999997,0.0329565,-0.1214455,-0.7204125,0.028039500000000002,0.1099745,-0.7200925,0.027353500000000003
136,-0.002785499999999998,0.7101645,0.017245499999999997,-0.13832950000000002,0.5101045000000001,0.013495499999999999,-0.2174295,0.7376045,-0.0004585000000000006,0.1274205,0.4873545,0.002952499999999997,0.1965905,0.7375345,-0.0023975000000000003,-0.25297949999999997,0.9468345,-0.012587500000000001,0.2223205,0.9746345000000001,-0.021406500000000002,-0.0678285,0.0006735,-0.0006575000000000018,0.0678285,-0.0006735,0.0006574999999999984,-0.1175495,-0.3686855,0.0030754999999999984,0.1039805,-0.3705555,0.0353415,-0.12129949999999999,-0.7194254999999999,0.0307355,0.11026050000000001,-0.7191455,0.029901499999999998
137,-0.0025394999999999992,0.710431,0.0189345,-0.1380825,0.511261,0.0160245,-0.2173125,0.738771,0.0045555000000000005,0.1279375,0.488831,0.005777500000000001,0.1981175,0.739271,0.0029854999999999986,-0.2532625,0.949091,-0.0051445,0.2257775,0.972371,-0.011914500000000001,-0.0677015,0.0007019999999999999,-0.0007144999999999999,0.0677015,-0.0007019999999999999,0.0007144999999999999,-0.1173625,-0.367909,0.005698499999999999,0.1040775,-0.370329,0.037712499999999996,-0.1211325,-0.718369,0.033571500000000004,0.1105075,-0.718089,0.0327005
138,-0.0023664999999999992,0.7107865,0.0207955,-0.13790650000000002,0.5123865,0.0185585,-0.2172365,0.7399264999999999,0.0089885,0.1283935,0.4902865,0.008656500000000001,0.1996435,0.7410964999999999,0.007787499999999999,-0.2535165,0.9510464999999999,0.0012315,0.2291935,0.9696465,-0.004369500000000002,-0.06758549999999999,0.0007274999999999998,-0.0007155000000000009,0.06758549999999999,-0.0007275000000000001,0.0007155000000000009,-0.1171565,-0.36715349999999997,0.0081425,0.1041235,-0.3702135,0.0401525,-0.1209065,-0.7173535000000001,0.036143499999999995,0.1107635,-0.7169735,0.0354345
139,-0.0022285000000000043,0.7112045,0.022749500000000002,-0.1377555,0.5134545,0.021157500000000003,-0.2172255,0.7411045,0.013102500000000003,0.12905450000000002,0.4913745,0.0109805,0.2013645,0.7424045,0.012604500000000001,-0.25376550000000003,0.9529745000000001,0.007208500000000003,0.2326745,0.9662445000000001,0.002933500000000002,-0.0674525,0.0007645,-0.0005734999999999976,0.0674525,-0.0007645,0.0005735000000000011,-0.11697550000000001,-0.3663955,0.010742500000000002,0.10414449999999999,-0.37004549999999997,0.0427485,-0.12069550000000001,-0.7163155,0.0388695,0.11100449999999999,-0.7158154999999999,0.038226500000000004
140,-0.002205499999999999,0.7113980000000001,0.024607,-0.1376475,0.514298,0.023645,-0.21727749999999998,0.742048,0.016571,0.1295725,0.492078,0.0131,0.2026225,0.743368,0.016432000000000002,-0.2540675,0.9543480000000001,0.012226,0.2360025,0.9623980000000001,0.008687,-0.06732550000000001,0.00069,-0.0006600000000000009,0.06732550000000001,-0.00069,0.0006600000000000009,-0.11684749999999999,-0.365872,0.013229999999999999,0.1040825,-0.369902,0.045135999999999996,-0.1205775,-0.715482,0.041471,0.11118249999999999,-0.7148819999999999,0.040813
141,-0.0020770000000000025,0.7115505,0.0265785,-0.13761400000000001,0.5149805,0.0259765,-0.21740400000000001,0.7426005,0.0188985,0.130136,0.4927205,0.0151185,0.204006,0.7445305,0.0199095,-0.25435399999999997,0.9553704999999999,0.0152335,0.23896599999999998,0.9580905,0.012861500000000001,-0.067187,0.0006444999999999999,-0.0006675000000000014,0.067187,-0.0006445000000000001,0.0006675000000000014,-0.116734,-0.3654795,0.0153755,0.103946,-0.3697195,0.0467165,-0.12051400000000001,-0.7146895000000001,0.0438725,0.11126599999999999,-0.7139095000000001,0.0431685
142,-0.0019775000000000014,0.7116625,0.028482499999999997,-0.1375905,0.5156425,0.028412499999999997,-0.21754050000000003,0.7430425,0.021352499999999996,0.1307195,0.4934025,0.017255499999999997,0.2054095,0.7456725,0.022977499999999998,-0.2545905,0.9560425,0.017685499999999996,0.2413695,0.9581225,0.015376499999999998,-0.0670715,0.0005694999999999999,-0.000736500000000001,0.0670715,-0.0005694999999999999,0.0007364999999999941,-0.11661049999999999,-0.3651275,0.017426499999999998,0.1037895,-0.3696475,0.0479855,-0.1204505,-0.7139175,0.046343499999999996,0.1113095,-0.7130575,0.0456435
143,-0.001935499999999998,0.7118,0.030139500000000003,-0.1375945,0.51606,0.0305225,-0.2175545,0.7432,0.023565500000000003,0.1315355,0.49521000000000004,0.019185500000000005,0.2066555,0.7464999999999999,0.025301500000000005,-0.2546745,0.95646,0.019896500000000004,0.2435555,0.9580599999999999,0.017641500000000004,-0.0670335,0.0005070000000000001,-0.000727499999999999,0.0670335,-0.0005070000000000001,0.0007275000000000059,-0.1165645,-0.36505,0.019079500000000003,0.10355550000000001,-0.36988,0.0487855,-0.1204745,-0.71345,0.048558500000000004,0.1112755,-0.7126,0.047858500000000005
144,-0.0019309999999999957,0.7117335,0.030839000000000002,-0.137637,0.5162135,0.031990000000000005,-0.217587,0.7433535,0.024999,0.132423,0.4971235,0.020795,0.207583,0.7470235,0.027113,-0.25471699999999997,0.9566135,0.021685000000000003,0.24552300000000002,0.9576935,0.019478000000000002,-0.067032,0.0004454999999999997,-0.0007749999999999979,0.067032,-0.00044550000000000015,0.0007750000000000049,-0.116557,-0.3654865,0.020166000000000003,0.103243,-0.3704765,0.049087000000000006,-0.120557,-0.7132465,0.050347,0.111203,-0.7123365,0.049647000000000004
145,-0.0018569999999999993,0.711585,0.0310905,-0.13765899999999998,0.516215,0.0330605,-0.217609,0.743095,0.025553500000000003,0.133341,0.499025,0.022048500000000002,0.208521,0.747185,0.0286485,-0.254749,0.956635,0.0227335,0.247371,0.957265,0.0209865,-0.067026,0.0004239999999999999,-0.0007855000000000015,0.067026,-0.0004239999999999999,0.0007855000000000015,-0.116539,-0.366005,0.0209785,0.103001,-0.371135,0.0491225,-0.120659,-0.713175,0.0518575,0.111111,-0.712195,0.0511585
146,-0.0015695000000000019,0.7113745,0.030699999999999995,-0.1376125,0.5161144999999999,0.03321299999999999,-0.2177225,0.7422745,0.025068999999999994,0.1348375,0.5012845,0.023319999999999994,0.2096575,0.7472245,0.029989999999999996,-0.2548225,0.9563645,0.022219999999999997,0.2492275,0.9568745,0.021550999999999994,-0.0669405,0.00038449999999999986,-0.0009250000000000022,0.0669405,-0.00038449999999999986,0.0009249999999999953,-0.1166025,-0.3665055,0.021761999999999997,0.1029175,-0.37174549999999995,0.049114,-0.12087250000000001,-0.7130855,0.05316699999999999,0.1109475,-0.7121255000000001,0.05243
147,-0.0011185000000000006,0.7112320000000001,0.029789499999999997,-0.1375445,0.5158720000000001,0.0327065,-0.21802449999999998,0.7413620000000001,0.0236835,0.13643550000000002,0.5036120000000001,0.024402499999999997,0.2109855,0.7471220000000001,0.0305425,-0.2547845,0.955272,0.0197835,0.2510655,0.9559420000000001,0.021016499999999997,-0.06682450000000001,0.0003150000000000002,-0.0010975000000000013,0.06682450000000001,-0.00031499999999999974,0.0010975000000000013,-0.1168045,-0.366898,0.022588499999999997,0.1027055,-0.372178,0.0490255,-0.12122450000000001,-0.712978,0.054364499999999996,0.11065549999999999,-0.712028,0.053587499999999996
148,-0.0004680000000000014,0.7111465,0.0280825,-0.13764099999999999,0.5156165,0.031773499999999996,-0.218271,0.7403265,0.0212685,0.137969,0.5050865,0.025357499999999998,0.212359,0.7472265,0.030206499999999997,-0.254581,0.9535965,0.0153475,0.253059,0.9549465,0.0192185,-0.066734,0.0003185000000000002,-0.0013784999999999978,0.066734,-0.00031849999999999977,0.0013784999999999978,-0.117171,-0.3671935,0.023428499999999998,0.102329,-0.3723435,0.0487895,-0.121741,-0.7127735000000001,0.055377499999999996,0.110239,-0.7118435,0.0544715
149,0.0007864999999999981,0.7108515,0.025710999999999998,-0.13782650000000002,0.5151715,0.030146999999999997,-0.2187765,0.7391015,0.015522999999999999,0.1401335,0.5055314999999999,0.025833,0.21586349999999999,0.7460114999999999,0.027801999999999997,-0.25378649999999997,0.9502815,0.0066789999999999974,0.2564335,0.9515215,0.013911,-0.06666949999999999,0.0002685000000000001,-0.0015950000000000061,0.06666949999999999,-0.0002685000000000001,0.0015949999999999992,-0.11761650000000001,-0.36761849999999996,0.024361999999999998,0.1018635,-0.3725785,0.048264999999999995,-0.12247650000000002,-0.7126085000000001,0.056347999999999995,0.1096135,-0.7117785,0.055263999999999994
150,0.0024129999999999967,0.710468,0.022871500000000003,-0.13816299999999998,0.514678,0.028444500000000005,-0.219553,0.7377379999999999,0.007964500000000006,0.14197700000000002,0.5056679999999999,0.026206500000000004,0.22107700000000002,0.744548,0.024104500000000004,-0.252733,0.946298,-0.005179499999999997,0.26065699999999997,0.947418,0.0067995,-0.066594,0.00022199999999999998,-0.0018384999999999999,0.066594,-0.00022199999999999998,0.0018384999999999999,-0.118143,-0.368172,0.025256500000000005,0.10149699999999999,-0.37286199999999997,0.0473895,-0.123383,-0.7124720000000001,0.057260500000000006,0.108787,-0.7118620000000001,0.055872500000000005
151,0.0041870000000000015,0.7105945,0.019349,-0.138825,0.5127645000000001,0.025282000000000002,-0.221235,0.7298945,-0.0027449999999999974,0.144465,0.5049545,0.025873,0.23036500000000001,0.7384645,0.018128000000000002,-0.252045,0.9395745,-0.024867999999999994,0.26748500000000003,0.9433345000000001,-0.006376,-0.06658700000000001,0.00016150000000000019,-0.002006000000000001,0.06658700000000001,-0.00016150000000000019,0.002006000000000001,-0.119285,-0.3684655,0.026025000000000003,0.10067500000000001,-0.37219549999999996,0.045682,-0.125275,-0.7116255,0.058191,0.106955,-0.7111855,0.05638
152,0.006396499999999996,0.711125,0.015724000000000002,-0.13953149999999997,0.510865,0.021623000000000003,-0.22328150000000002,0.720545,-0.015020999999999993,0.14731850000000002,0.504985,0.025518000000000002,0.24173849999999997,0.7307349999999999,0.010702000000000003,-0.2511715,0.9314049999999999,-0.05061399999999999,0.2760585,0.935225,-0.02373,-0.0665955,0.00010600000000000019,-0.0021849999999999994,0.0665955,-0.00010600000000000019,0.0021849999999999994,-0.1205415,-0.368305,0.026655,0.0997385,-0.370805,0.043648000000000006,-0.1275715,-0.7101550000000001,0.05914,0.10482849999999999,-0.7099150000000001,0.056805
153,0.008740000000000005,0.711881,0.012483499999999995,-0.13987699999999997,0.5084810000000001,0.0178445,-0.225437,0.7088610000000001,-0.029172500000000004,0.15074300000000002,0.505521,0.025273499999999997,0.25562300000000004,0.719081,0.002070499999999996,-0.249637,0.9201210000000001,-0.0810575,0.286043,0.920651,-0.042981500000000006,-0.066635,8.99999999999998e-05,-0.0022615000000000066,0.066635,-8.99999999999998e-05,0.0022614999999999996,-0.122047,-0.367729,0.027295499999999997,0.098703,-0.36910899999999996,0.0415045,-0.130327,-0.708319,0.060134499999999994,0.102263,-0.708589,0.0570455
154,0.010848500000000004,0.7130545,0.009301499999999997,-0.1399325,0.5054945,0.013613499999999994,-0.2284525,0.6950545,-0.04549550000000001,0.1542775,0.5073945,0.025283499999999997,0.2703175,0.7025145,-0.006476500000000003,-0.2477425,0.9044245,-0.1166175,0.2972575,0.8987345,-0.0635275,-0.06666949999999999,5.149999999999946e-05,-0.0023525000000000004,0.06666949999999999,-5.15000000000012e-05,0.0023525000000000004,-0.1241325,-0.3665855,0.028260499999999997,0.0976875,-0.3673455,0.038753499999999996,-0.1340225,-0.7056955,0.061315499999999995,0.0988575,-0.7065155,0.0573845
155,0.013085999999999997,0.7144595,0.006386500000000003,-0.139654,0.5019494999999999,0.009631500000000001,-0.232024,0.6772395,-0.0638765,0.157156,0.5085295,0.025436500000000004,0.287386,0.6804195000000001,-0.0125445,-0.244664,0.8822095,-0.1572465,0.308816,0.8713695,-0.08663649999999999,-0.066757,5.149999999999946e-05,-0.0024824999999999986,0.066757,-5.149999999999946e-05,0.0024825000000000055,-0.12659399999999998,-0.3651905,0.0295515,0.096496,-0.36513049999999997,0.03586450000000001,-0.138394,-0.7022605,0.0627045,0.09493599999999999,-0.7039005,0.057800500000000005
156,0.0155895,0.7165625,0.003581000000000001,-0.1394155,0.4983325,0.005968000000000001,-0.23588550000000003,0.6552325,-0.08289600000000001,0.15992449999999997,0.5091924999999999,0.025539,0.2997745,0.6523125,-0.013592999999999994,-0.2411355,0.8502525,-0.199256,0.32040450000000004,0.8367925,-0.107636,-0.0668735,5.250000000000046e-05,-0.0026129999999999973,0.0668735,-5.250000000000046e-05,0.0026129999999999973,-0.1293255,-0.3634575,0.030999,0.0954645,-0.3621475,0.032667,-0.1434955,-0.6980175,0.064306,0.09042449999999999,-0.7004875,0.058321
157,0.018032500000000007,0.7197095,0.0011809999999999946,-0.1379305,0.4941095,0.0016929999999999931,-0.2405405,0.6278495000000001,-0.09737400000000002,0.1623395,0.5093095,0.025803999999999997,0.3072595,0.6175695,-0.011174000000000003,-0.2373905,0.8102095,-0.23425400000000002,0.3312495,0.7921395,-0.118834,-0.0670495,0.00018349999999999964,-0.002686000000000001,0.0670495,-0.00018349999999999964,0.002685999999999994,-0.1323385,-0.36099050000000005,0.032246,0.09380949999999999,-0.3580005,0.029765999999999997,-0.14970050000000001,-0.6928105,0.06637799999999999,0.08495950000000001,-0.6958605,0.059171999999999995
158,0.020097999999999998,0.7237720000000001,-0.0008319999999999994,-0.136141,0.490582,-0.0025169999999999984,-0.244609,0.5951219999999999,-0.104213,0.164011,0.506842,0.026065000000000005,0.310681,0.5789820000000001,-0.00835699999999999,-0.234309,0.7615620000000001,-0.24865299999999999,0.33742099999999997,0.7414320000000001,-0.121443,-0.06731100000000001,0.0002689999999999984,-0.002695999999999997,0.06731100000000001,-0.0002690000000000019,0.002696000000000004,-0.134953,-0.357648,0.032694,0.091671,-0.353088,0.027397000000000005,-0.156659,-0.6863680000000001,0.068774,0.07867099999999999,-0.6894279999999999,0.060327000000000006
159,0.022972500000000007,0.7285115,-0.003572999999999993,-0.1303245,0.4862915,-0.009855000000000003,-0.2452415,0.5518715,-0.103879,0.16607850000000002,0.5027315,0.026259000000000005,0.3093285,0.5320215,-0.005125999999999992,-0.2320315,0.6946515,-0.24905899999999997,0.33770849999999997,0.6700515,-0.11737899999999998,-0.0674285,0.0008275000000000018,-0.002934999999999993,0.0674285,-0.0008275000000000018,0.002935000000000007,-0.13679249999999998,-0.35336850000000003,0.029766,0.0882885,-0.3488885,0.026518000000000007,-0.1653015,-0.6788085,0.071552,0.0697485,-0.6826485,0.062846
160,0.02197199999999999,0.732625,-0.0033299999999999857,-0.128799,0.483255,-0.014239999999999989,-0.24698900000000001,0.510935,-0.100604,0.165161,0.49858499999999994,0.02908200000000001,0.30506099999999997,0.48333499999999996,-0.0032119999999999926,-0.228759,0.628035,-0.241224,0.333771,0.582425,-0.110294,-0.067641,0.0011470000000000022,-0.004128999999999994,0.067641,-0.0011470000000000022,0.004129000000000008,-0.137171,-0.35050499999999996,0.02251800000000001,0.08116099999999998,-0.345815,0.029680000000000012,-0.17296899999999998,-0.672185,0.07447200000000001,0.056970999999999994,-0.675775,0.06868900000000001
161,0.024888499999999994,0.735543,-0.006890999999999994,-0.1271695,0.480163,-0.019299999999999998,-0.2447515,0.468113,-0.09578600000000001,0.1633485,0.493833,0.031726000000000004,0.29718849999999997,0.435203,-0.0009720000000000006,-0.2267215,0.540333,-0.231816,0.3260885,0.491893,-0.10320599999999999,-0.06758850000000001,0.0015590000000000048,-0.005486999999999992,0.0675885,-0.0015589999999999979,0.005487000000000006,-0.1343065,-0.34434699999999996,0.007512000000000005,0.0740585,-0.343327,0.033119,-0.1753745,-0.666037,0.072858,0.04236849999999999,-0.669347,0.075932
162,0.027575000000000002,0.737892,-0.0133775,-0.125962,0.476952,-0.025697499999999998,-0.24190499999999998,0.425612,-0.0927675,0.159485,0.488972,0.030647499999999994,0.28474499999999997,0.390612,0.0028114999999999946,-0.22573500000000002,0.45584199999999997,-0.2207075,0.313065,0.403022,-0.09541750000000002,-0.067955,0.0018970000000000029,-0.006647500000000001,0.067955,-0.001896999999999996,0.006647500000000001,-0.128097,-0.338338,-0.014337500000000003,0.065145,-0.340878,0.03757049999999999,-0.169939,-0.660968,0.0623755,0.024305000000000007,-0.662968,0.0811305
163,0.031027499999999986,0.737433,-0.021887000000000018,-0.12479350000000002,0.47336300000000003,-0.032097000000000014,-0.23807250000000002,0.38533300000000004,-0.08269699999999999,0.15494750000000002,0.483993,0.029613,0.26812749999999996,0.35041300000000003,0.015659999999999993,-0.22597450000000002,0.374853,-0.196997,0.29260749999999996,0.322373,-0.08718700000000001,-0.06838750000000002,0.0019580000000000014,-0.007937,0.06838749999999999,-0.0019580000000000014,0.007937,-0.11463550000000002,-0.332677,-0.04078700000000002,0.05083749999999998,-0.337887,0.048930999999999995,-0.14437750000000002,-0.656607,0.032563999999999996,0.0008674999999999933,-0.657907,0.095465
164,0.033757499999999996,0.7366545,-0.030505000000000004,-0.1245415,0.4702945,-0.03837499999999999,-0.2334525,0.3495545,-0.07111499999999998,0.1505475,0.4791745,0.027115,0.2500175,0.3150045,0.031518000000000004,-0.2291125,0.3007845,-0.17213499999999998,0.2734875,0.2472345,-0.077265,-0.0688275,0.001983499999999999,-0.009424999999999989,0.06882750000000001,-0.001983499999999999,0.009425000000000003,-0.0973735,-0.3272955,-0.067965,0.03688749999999999,-0.3348955,0.06171700000000001,-0.1144675,-0.6526755,-0.0018749999999999878,-0.022902499999999992,-0.6504655,0.109673
165,0.03619999999999998,0.7351139999999999,-0.040495,-0.125008,0.46734400000000004,-0.04517499999999999,-0.230136,0.317904,-0.06131500000000001,0.14514,0.474304,0.02445499999999999,0.23160999999999998,0.286024,0.049845,-0.233649,0.23703400000000002,-0.147945,0.25512999999999997,0.182234,-0.06368500000000002,-0.06943,0.0021079999999999988,-0.010624999999999996,0.06942999999999999,-0.0021079999999999988,0.010624999999999996,-0.08096000000000002,-0.325116,-0.09465500000000002,0.020589999999999997,-0.332666,0.075026,-0.08197000000000002,-0.649626,-0.037455000000000016,-0.04792000000000002,-0.6461060000000001,0.12470799999999999
166,0.03681999999999999,0.7323045,-0.04912,-0.127665,0.4651145,-0.05013000000000001,-0.228403,0.2911345,-0.042899999999999994,0.13849999999999998,0.4698445,0.02282999999999999,0.21258000000000002,0.2623445,0.06931999999999999,-0.242576,0.1807745,-0.11947000000000002,0.23899,0.12767050000000002,-0.041929999999999995,-0.07008,0.0021145000000000053,-0.011869999999999992,0.07008,-0.0021144999999999914,0.011869999999999992,-0.06404000000000001,-0.32556549999999995,-0.12091000000000002,0.003939999999999999,-0.3323355,0.089905,-0.05019000000000001,-0.6485655,-0.06802,-0.07713999999999999,-0.6377955000000001,0.14607
167,0.03694999999999998,0.729369,-0.05713499999999999,-0.13018000000000002,0.46304900000000004,-0.054574999999999985,-0.22829400000000002,0.270699,-0.021994999999999987,0.13177,0.46591899999999997,0.021915000000000018,0.19005,0.245259,0.089395,-0.25322500000000003,0.134242,-0.09208499999999997,0.22502,0.082473,-0.015924999999999995,-0.0708,0.0021730000000000083,-0.012814999999999993,0.07079999999999997,-0.0021729999999999944,0.012814999999999993,-0.047490000000000004,-0.32696099999999995,-0.14560499999999998,-0.012150000000000022,-0.33123100000000005,0.10394500000000001,-0.019360000000000016,-0.650111,-0.09615499999999999,-0.10775000000000001,-0.629591,0.170167
168,0.035914999999999975,0.7253620000000001,-0.06418500000000002,-0.136835,0.461572,-0.05558500000000002,-0.23083800000000002,0.26118199999999997,-0.002835000000000004,0.125965,0.463762,0.020094999999999974,0.17384499999999997,0.23758200000000002,0.107375,-0.264073,0.10613299999999999,-0.06286500000000003,0.21300499999999994,0.059821,0.010244999999999976,-0.071745,0.001804,-0.013094999999999996,0.071745,-0.001804,0.013094999999999996,-0.028274999999999995,-0.328668,-0.164085,-0.026485000000000036,-0.332678,0.11662499999999999,0.011824999999999974,-0.653058,-0.121895,-0.13664500000000002,-0.625178,0.19266099999999997
169,0.03826499999999999,0.7213824999999999,-0.07271500000000003,-0.138555,0.46076249999999996,-0.057935000000000014,-0.23169500000000004,0.2574725,0.012135000000000007,0.12244499999999997,0.4620025,0.017664999999999986,0.16335499999999997,0.2349025,0.11837499999999998,-0.275921,0.08273749999999999,-0.031335,0.20921499999999993,0.05459549999999999,0.02845499999999998,-0.07227500000000003,0.0017874999999999974,-0.012614999999999987,0.07227499999999998,-0.0017875000000000113,0.012614999999999987,-0.009955000000000047,-0.3270875,-0.17651500000000003,-0.03579500000000002,-0.3337375,0.125525,0.04107499999999997,-0.6557075,-0.14513500000000001,-0.15372500000000003,-0.6179575,0.208814
170,0.037105000000000055,0.718261,-0.07842500000000002,-0.14015499999999997,0.460441,-0.060014999999999985,-0.23541499999999999,0.25783100000000003,0.024714999999999987,0.11983500000000002,0.461491,0.014245000000000008,0.15593500000000005,0.234491,0.12467499999999998,-0.28595299999999996,0.083116,0.0003049999999999997,0.205565,0.054973999999999995,0.046215000000000006,-0.07305499999999998,0.001671999999999993,-0.012064999999999992,0.07305500000000004,-0.0016720000000000068,0.012064999999999992,0.003945000000000032,-0.32774899999999996,-0.180365,-0.041854999999999976,-0.33492900000000003,0.125375,0.06373500000000004,-0.658169,-0.162605,-0.16659499999999997,-0.613269,0.22400199999999998
171,0.03545999999999999,0.716079,-0.08105999999999997,-0.14193999999999998,0.46077900000000005,-0.060939999999999994,-0.23853999999999997,0.258169,0.02755000000000002,0.11871000000000004,0.46169899999999997,0.015710000000000002,0.15593000000000007,0.234829,0.12433,-0.293865,0.083454,0.02531,0.20483,0.055312,0.055540000000000034,-0.07304,0.0013340000000000019,-0.012209999999999999,0.07304,-0.0013340000000000019,0.012209999999999999,0.012670000000000015,-0.326241,-0.17612,-0.04764999999999997,-0.336831,0.12648,0.07651000000000002,-0.659441,-0.16951999999999995,-0.17689999999999997,-0.610141,0.23416700000000001
