sb224sc-HT22-VT27/4dt907/src/data/kinect_good_vs_bad_not_preprocessed_A13_mediapipe/G64.csv
FrameNo,nose_3d_x,nose_3d_y,nose_3d_z,left_shoulder_3d_x,left_shoulder_3d_y,left_shoulder_3d_z,left_elbow_3d_x,left_elbow_3d_y,left_elbow_3d_z,right_shoulder_3d_x,right_shoulder_3d_y,right_shoulder_3d_z,right_elbow_3d_x,right_elbow_3d_y,right_elbow_3d_z,left_wrist_3d_x,left_wrist_3d_y,left_wrist_3d_z,right_wrist_3d_x,right_wrist_3d_y,right_wrist_3d_z,left_hip_3d_x,left_hip_3d_y,left_hip_3d_z,right_hip_3d_x,right_hip_3d_y,right_hip_3d_z,left_knee_3d_x,left_knee_3d_y,left_knee_3d_z,right_knee_3d_x,right_knee_3d_y,right_knee_3d_z,left_ankle_3d_x,left_ankle_3d_y,left_ankle_3d_z,right_ankle_3d_x,right_ankle_3d_y,right_ankle_3d_z
0,0.0259755,0.7151875,0.011369999999999998,-0.14362450000000002,0.4895675,-0.005204,-0.29137450000000004,0.6280175,-0.11326200000000002,0.1822855,0.4884875,0.0029649999999999954,0.3254355,0.6231075,-0.102122,-0.3782445,0.8410675,-0.27911199999999997,0.4099755,0.7878975,-0.25118199999999996,-0.0730305,0.0015815,0.001129999999999999,0.0730305,-0.0015815000000000004,-0.001129999999999999,-0.12644450000000002,-0.3229925,0.015756999999999997,0.11525550000000001,-0.3303125,0.030549999999999997,-0.1327145,-0.6396625,0.035552999999999994,0.13126549999999998,-0.6457225,0.043065
1,0.0248165,0.7104965000000001,0.010079000000000001,-0.1441245,0.4930265,-0.0075850000000000015,-0.28548450000000003,0.6645565000000001,-0.09410199999999999,0.1801655,0.4932865,0.002481000000000004,0.31810550000000004,0.6768065000000001,-0.077092,-0.3499945,0.8797865,-0.20816199999999999,0.3762455,0.8888565,-0.199642,-0.0726315,0.0010395,0.0003640000000000032,0.0726315,-0.0010395,-0.00036399999999999627,-0.12744450000000002,-0.3284335,0.016104,0.1140255,-0.3351535,0.03127,-0.1342745,-0.6461534999999999,0.036585,0.1298655,-0.6536535,0.044101
2,0.0244005,0.706987,0.009431000000000002,-0.1447455,0.500047,-0.006902999999999999,-0.2749955,0.694377,-0.090147,0.1787945,0.49526699999999996,0.004305000000000003,0.3115645,0.678157,-0.073827,-0.34828549999999997,0.8944070000000001,-0.198077,0.3633745,0.8711570000000001,-0.177507,-0.07229150000000001,0.00098,-0.0005930000000000032,0.07229150000000001,-0.00098,0.0005930000000000032,-0.1276655,-0.332243,0.01637,0.11395449999999999,-0.338633,0.031634,-0.1345355,-0.649073,0.037095,0.1293145,-0.6585129999999999,0.044950000000000004
3,0.0241855,0.70515,0.006891499999999998,-0.1451715,0.50325,-0.006054500000000004,-0.2735015,0.70061,-0.08666750000000001,0.1776185,0.49480999999999997,0.005100500000000001,0.3031785,0.69015,-0.0667975,-0.3443315,0.90193,-0.18447750000000002,0.3533985,0.8751,-0.16023749999999998,-0.0721155,0.000876,-0.0009375000000000008,0.0721155,-0.000876,0.0009375000000000008,-0.12799149999999998,-0.33475,0.0166305,0.1137985,-0.34097,0.031786499999999995,-0.1333915,-0.6684,0.0368005,0.1293085,-0.66051,0.045592499999999994
4,0.0240415,0.703924,0.005273,-0.1449975,0.5045839999999999,-0.005731,-0.2708475,0.704214,-0.083449,0.1768425,0.496454,0.006100000000000001,0.2974025,0.694944,-0.060325000000000004,-0.3393975,0.9063239999999999,-0.173099,0.3446025,0.878644,-0.145129,-0.0719185,0.0008720000000000012,-0.0012150000000000008,0.0719185,-0.0008719999999999995,0.0012150000000000008,-0.1279475,-0.337876,0.016697,0.1138325,-0.344086,0.031805,-0.1349575,-0.6624460000000001,0.036744,0.12923250000000003,-0.663906,0.04577
5,0.024323,0.7031345,0.0027024999999999966,-0.145374,0.5068745,-0.004339500000000003,-0.269254,0.7177745,-0.0806525,0.175676,0.49609449999999994,0.006328500000000001,0.293896,0.7189445,-0.0558945,-0.332404,0.9162745,-0.1548425,0.341746,0.9029445,-0.1391925,-0.07183600000000001,0.0006475000000000005,-0.0009995000000000004,0.07183600000000001,-0.0006475000000000005,0.0009995000000000004,-0.127944,-0.33941550000000004,0.0165645,0.114006,-0.3452055,0.0314465,-0.13497399999999998,-0.6644654999999999,0.0368565,0.12970600000000002,-0.6646655,0.0459785
6,0.024558499999999994,0.7024055,-0.001286500000000003,-0.1448755,0.5082755,-0.0033935000000000007,-0.26369549999999997,0.7192755,-0.06826750000000001,0.1727345,0.49769549999999996,0.008096499999999996,0.2863145,0.7275254999999999,-0.0475965,-0.3265555,0.9228655,-0.13902750000000003,0.3266045,0.9202655,-0.1084375,-0.0715955,0.0003804999999999989,-0.001532500000000006,0.0715955,-0.0003804999999999989,0.0015324999999999991,-0.12780550000000002,-0.34249450000000004,0.016222499999999997,0.1137745,-0.3452445,0.0298065,-0.1357455,-0.6654545000000001,0.036933499999999994,0.1292645,-0.6725045000000001,0.045850499999999995
7,0.024253999999999998,0.7008425,-0.0012530000000000041,-0.144733,0.5080125,-0.0027560000000000015,-0.263003,0.7223425,-0.068111,0.17257699999999998,0.4943225,0.006734999999999998,0.28246699999999997,0.7221825,-0.045448999999999996,-0.325083,0.9258625,-0.134831,0.325267,0.9142725,-0.10820100000000002,-0.071717,0.00041050000000000114,-0.0014230000000000007,0.071717,-0.00041050000000000114,0.0014230000000000007,-0.127773,-0.3428275,0.01578,0.11393700000000001,-0.34617749999999997,0.030074999999999998,-0.13537300000000002,-0.6642275,0.037408,0.12978699999999999,-0.6680875,0.046299999999999994
8,0.024158000000000002,0.6998709999999999,-0.002798000000000002,-0.14459799999999998,0.508841,-0.002479000000000002,-0.260758,0.7265309999999999,-0.063875,0.171662,0.49374100000000004,0.006987999999999994,0.27762200000000004,0.7276009999999999,-0.040685,-0.321228,0.9309609999999999,-0.124575,0.319282,0.920261,-0.09747499999999999,-0.07167899999999999,0.0003569999999999997,-0.0014940000000000023,0.07167899999999999,-0.0003569999999999997,0.0014939999999999953,-0.127738,-0.344269,0.015604999999999997,0.11396200000000001,-0.347049,0.029830999999999996,-0.135518,-0.665969,0.037447999999999995,0.12973200000000001,-0.6696390000000001,0.046578999999999995
9,0.024015999999999992,0.6989580000000001,-0.004187999999999997,-0.144478,0.509448,-0.0018849999999999978,-0.258678,0.7303780000000001,-0.05978,0.170862,0.492838,0.007139000000000003,0.27322199999999996,0.732568,-0.036385,-0.317668,0.935658,-0.11525,0.314092,0.926698,-0.08800999999999999,-0.071645,0.00029699999999999865,-0.0015279999999999946,0.071645,-0.00029699999999999865,0.0015280000000000016,-0.127668,-0.34543199999999996,0.015416000000000003,0.114022,-0.347672,0.029592000000000004,-0.135608,-0.667432,0.037478000000000004,0.12969199999999997,-0.671322,0.046742000000000006
10,0.0237985,0.698048,-0.005238,-0.14431349999999998,0.509668,-0.0013820000000000013,-0.2565035,0.732828,-0.055561,0.1701765,0.491818,0.007311999999999996,0.2689165,0.734758,-0.032130000000000006,-0.3143035,0.939288,-0.106984,0.30884649999999997,0.9303980000000001,-0.078394,-0.0716195,0.0002669999999999999,-0.0015580000000000038,0.0716195,-0.0002669999999999999,0.0015579999999999969,-0.1275935,-0.346502,0.015234999999999999,0.11408650000000001,-0.34827199999999997,0.029425,-0.1357035,-0.668952,0.037536,0.12966650000000002,-0.673072,0.046951999999999994
11,0.023490000000000004,0.6971974999999999,-0.005845999999999997,-0.144173,0.5096974999999999,-0.0009679999999999966,-0.254803,0.7351175,-0.052506,0.169817,0.49064749999999996,0.007353000000000002,0.265417,0.7359374999999999,-0.028729000000000005,-0.311403,0.9422775,-0.10013799999999999,0.305207,0.9321275,-0.072098,-0.071603,0.00026349999999999985,-0.0015839999999999951,0.071603,-0.00026349999999999985,0.001584000000000002,-0.127493,-0.3471725,0.015024000000000003,0.114177,-0.3488825,0.029433,-0.135763,-0.6696025000000001,0.037698,0.129657,-0.6745325000000001,0.047093
12,0.0230785,0.6965915,-0.006276499999999997,-0.14404050000000002,0.5096315,-0.0006414999999999962,-0.2531805,0.7369015,-0.049464499999999995,0.1696095,0.4897015,0.007428500000000001,0.2622195,0.7370015,-0.025354500000000002,-0.30851049999999997,0.9452015,-0.09378349999999999,0.3017595,0.9337115,-0.0660135,-0.0715945,0.0002894999999999981,-0.0016035000000000008,0.0715945,-0.00028950000000000156,0.0016035000000000008,-0.1273905,-0.3476285,0.014801500000000002,0.1142395,-0.3493385,0.0294585,-0.1358205,-0.6700285,0.0378485,0.12943949999999999,-0.6773485,0.0472305
13,0.022653500000000003,0.6960815,-0.006636999999999997,-0.1439165,0.5096515,-0.0002920000000000006,-0.2517065,0.7381415,-0.046608,0.1695735,0.4888615,0.007509999999999999,0.2595835,0.7377815000000001,-0.022413000000000002,-0.30584649999999997,0.9473815,-0.088313,0.2988235,0.9348715000000001,-0.060963,-0.0715835,0.0003254999999999994,-0.0016429999999999986,0.0715835,-0.0003254999999999994,0.0016429999999999986,-0.1272965,-0.3479685,0.014554999999999998,0.11428350000000001,-0.3496785,0.02948,-0.1358665,-0.6703684999999999,0.037899999999999996,0.1291935,-0.6799784999999999,0.047257
14,0.022232,0.695627,-0.006805499999999999,-0.143797,0.509467,3.150000000000375e-05,-0.250357,0.739097,-0.0438815,0.169543,0.48788699999999996,0.007574500000000001,0.25738300000000003,0.738207,-0.0197665,-0.303347,0.949157,-0.08322950000000001,0.296453,0.935587,-0.0567045,-0.07158600000000001,0.0003589999999999982,-0.001632500000000002,0.07158600000000001,-0.0003590000000000017,0.001632500000000002,-0.127197,-0.34836300000000003,0.0143475,0.11433299999999999,-0.350063,0.0295235,-0.135877,-0.670873,0.0379615,0.128983,-0.682153,0.0473055
15,0.0218385,0.695314,-0.006769500000000005,-0.1437405,0.509424,0.00037949999999999096,-0.2493605,0.739824,-0.04167850000000001,0.1695295,0.48706400000000005,0.007642499999999993,0.2560695,0.738274,-0.017859500000000007,-0.3011905,0.949894,-0.0797495,0.2950795,0.935734,-0.0542305,-0.0715885,0.0003699999999999988,-0.0016055000000000028,0.0715885,-0.0003699999999999988,0.0016054999999999958,-0.1271105,-0.348686,0.014193499999999994,0.11434949999999999,-0.350516,0.029560499999999997,-0.1358905,-0.671216,0.03807049999999999,0.1287495,-0.684596,0.047354499999999994
16,0.0214585,0.695123,-0.0066820000000000004,-0.14373049999999998,0.509193,0.000786999999999996,-0.24840050000000002,0.740383,-0.03953400000000001,0.16954950000000002,0.48640300000000003,0.007762999999999996,0.2550295,0.738283,-0.016046000000000005,-0.2990905,0.950523,-0.07644900000000002,0.29389950000000004,0.935843,-0.051933,-0.0716005,0.0003730000000000018,-0.001575,0.0716005,-0.00037299999999999833,0.001575,-0.1270305,-0.34890699999999997,0.014060999999999997,0.1143795,-0.350867,0.029646999999999996,-0.1359205,-0.671397,0.038228,0.12882949999999999,-0.684847,0.047404999999999996
17,0.0211075,0.6949775,-0.006653000000000006,-0.1437035,0.5089875,0.0011699999999999974,-0.2475535,0.7407575,-0.03768600000000001,0.1695865,0.4857975,0.007823999999999994,0.2543265,0.7377475,-0.014584000000000007,-0.29710349999999996,0.9509775,-0.07341800000000001,0.29299650000000005,0.9355675,-0.050276,-0.0716125,0.00037650000000000183,-0.0015160000000000035,0.0716125,-0.00037649999999999836,0.0015159999999999965,-0.1269435,-0.34909250000000003,0.013828999999999994,0.1144165,-0.3512325,0.029671999999999997,-0.1359435,-0.6715625,0.038332,0.1287365,-0.6854825,0.047403999999999995
18,0.020787999999999997,0.694891,-0.006578500000000001,-0.143685,0.5088710000000001,0.0015965000000000007,-0.24671500000000002,0.7410410000000001,-0.0358065,0.16958499999999999,0.485251,0.007936500000000003,0.25384500000000004,0.737291,-0.013298499999999998,-0.29522499999999996,0.9513710000000001,-0.07082250000000001,0.292325,0.935111,-0.04933149999999999,-0.071629,0.00038100000000000286,-0.0014645000000000005,0.071629,-0.0003809999999999994,0.0014645000000000005,-0.126825,-0.34916899999999995,0.013517500000000002,0.11446500000000001,-0.351539,0.0296415,-0.135905,-0.671709,0.0383765,0.128635,-0.6864589999999999,0.047309500000000004
19,0.020458499999999994,0.6948635000000001,-0.006353499999999998,-0.1436705,0.5088935,0.0020285000000000025,-0.2460905,0.7412435,-0.0343755,0.1695495,0.4848335,0.008043500000000002,0.2536395,0.7369535,-0.012531499999999994,-0.2938105,0.9517235000000001,-0.0693905,0.2920495,0.9347735,-0.0493345,-0.0716495,0.00037550000000000083,-0.0014464999999999964,0.0716495,-0.0003755000000000043,0.0014465000000000033,-0.1267205,-0.34920650000000003,0.013210500000000003,0.1144895,-0.3518065,0.029552500000000002,-0.1358805,-0.6717965,0.0384385,0.1282595,-0.6897265,0.0469665
20,0.02015,0.6947964999999999,-0.006055999999999999,-0.143648,0.5089365,0.002465000000000002,-0.245528,0.7413865,-0.033263,0.169502,0.48452649999999997,0.008162000000000003,0.253212,0.7361365,-0.011935999999999995,-0.29246799999999995,0.9519565,-0.06848,0.29176199999999997,0.9344665,-0.049359,-0.071668,0.00037449999999999983,-0.001447999999999998,0.071668,-0.00037449999999999636,0.0014480000000000048,-0.12664799999999998,-0.3493235,0.012963000000000002,0.114512,-0.35211349999999997,0.029431000000000006,-0.135868,-0.6717535,0.038483,0.128092,-0.6928135,0.046526000000000005
21,0.0198505,0.694673,-0.0057035,-0.1436035,0.508923,0.002869500000000004,-0.24495350000000002,0.7413930000000001,-0.0324825,0.1694465,0.484233,0.008283500000000003,0.2528565,0.735283,-0.0116705,-0.2914335,0.951963,-0.0682125,0.29152649999999997,0.9341630000000001,-0.049380499999999994,-0.0716765,0.00037199999999999733,-0.0014454999999999954,0.0716765,-0.0003720000000000008,0.0014455000000000023,-0.1265835,-0.34946699999999997,0.0127385,0.11450650000000001,-0.35237700000000005,0.029310500000000003,-0.1358635,-0.671697,0.0385175,0.1281765,-0.692647,0.0464825
22,0.019490499999999997,0.694542,-0.005364000000000008,-0.1435365,0.5088919999999999,0.0031969999999999985,-0.2443365,0.7414019999999999,-0.032082,0.1693635,0.483952,0.008355999999999995,0.25251349999999995,0.7345619999999999,-0.011747000000000007,-0.29042650000000003,0.9521919999999999,-0.06818,0.2913135,0.9337219999999999,-0.049476000000000006,-0.0716845,0.00036399999999999627,-0.0013980000000000034,0.0716845,-0.0003640000000000032,0.0013979999999999965,-0.12650650000000002,-0.349588,0.012480999999999996,0.1145235,-0.352618,0.029142999999999995,-0.1358165,-0.6716280000000001,0.038446999999999995,0.1281935,-0.692928,0.046359
23,0.019051,0.6942265000000001,-0.005486499999999998,-0.14343,0.5088365,0.0034645000000000023,-0.24351,0.7413165,-0.0321075,0.16891,0.48380650000000003,0.0084955,0.25212999999999997,0.7342365000000001,-0.0118715,-0.28939000000000004,0.9524665,-0.0681825,0.29105,0.9332165,-0.0498575,-0.071692,0.0003405000000000005,-0.0013135000000000022,0.071692,-0.0003405000000000005,0.0013135000000000022,-0.12642,-0.3497435,0.0121865,0.11454,-0.35289349999999997,0.0289245,-0.13572,-0.6720134999999999,0.0383155,0.12822999999999998,-0.6943035,0.0459305
24,0.018537,0.693876,-0.005677500000000002,-0.14332,0.508756,0.003668499999999998,-0.24264,0.741126,-0.0321905,0.16825,0.48392599999999997,0.008645499999999997,0.25172,0.733976,-0.012060500000000002,-0.28843,0.952746,-0.0682585,0.29068,0.9329459999999999,-0.0508025,-0.07172100000000001,0.00031699999999999784,-0.0012365000000000015,0.07172100000000001,-0.0003170000000000048,0.0012364999999999945,-0.12633,-0.349934,0.011838499999999998,0.11455000000000001,-0.353234,0.028652499999999997,-0.13560999999999998,-0.672404,0.038114499999999996,0.12865000000000001,-0.692654,0.045385499999999995
25,0.0180055,0.6933860000000001,-0.005906499999999995,-0.14295549999999999,0.509256,0.004188500000000005,-0.2416255,0.740796,-0.0322935,0.1674745,0.48407600000000006,0.008831500000000003,0.25122449999999996,0.7329060000000001,-0.012288499999999994,-0.2872055,0.952896,-0.0688255,0.29019449999999997,0.932486,-0.052102499999999996,-0.0717575,0.0002889999999999976,-0.001168499999999996,0.0717575,-0.0002889999999999976,0.0011685000000000029,-0.1261555,-0.350224,0.011472500000000004,0.1145545,-0.353684,0.028282500000000002,-0.1354455,-0.672894,0.0378635,0.1288445,-0.692244,0.0446695
26,0.016859499999999996,0.6914275000000001,-0.006565500000000002,-0.1424765,0.5106575000000001,0.004807499999999992,-0.2395965,0.7415775,-0.0342365,0.1653135,0.4850275,0.009137499999999996,0.24992349999999997,0.7303075,-0.013868500000000006,-0.2839565,0.9520375000000001,-0.07263750000000001,0.2885735,0.9309075,-0.0554365,-0.0717815,0.00017850000000000504,-0.001174500000000002,0.0717815,-0.0001784999999999981,0.001174499999999995,-0.1257365,-0.3512325,0.010273499999999994,0.1144435,-0.3550025,0.027321499999999995,-0.1351565,-0.6746924999999999,0.036893499999999996,0.12881349999999997,-0.6923125,0.04353049999999999
27,0.015526999999999996,0.6888145,-0.0074679999999999955,-0.14207599999999998,0.5118045,0.005208000000000001,-0.23748600000000003,0.7421745,-0.036934,0.163024,0.48568449999999996,0.009154000000000002,0.248274,0.7278945,-0.016666999999999994,-0.279966,0.9543945,-0.07805200000000001,0.286794,0.9299245,-0.05972499999999999,-0.071795,5.6500000000000994e-05,-0.0011929999999999996,0.071795,-5.6500000000000994e-05,0.0011929999999999996,-0.125366,-0.3528055,0.008842000000000003,0.114144,-0.3566955,0.026086,-0.13491599999999998,-0.6773255,0.035599000000000006,0.128544,-0.6940655,0.042128
28,0.014013500000000002,0.685431,-0.008694499999999994,-0.14160250000000002,0.513141,0.005252500000000004,-0.2349525,0.7426609999999999,-0.040709499999999996,0.1605475,0.486141,0.008969500000000005,0.24547750000000002,0.725281,-0.019862499999999998,-0.27593249999999997,0.956201,-0.08413849999999999,0.2833775,0.930731,-0.0663685,-0.0717465,-3.899999999999737e-05,-0.001286499999999996,0.0717465,3.899999999999737e-05,0.001286500000000003,-0.1248925,-0.355109,0.006752500000000005,0.1137475,-0.358869,0.024303500000000006,-0.1346925,-0.680559,0.033855500000000004,0.1280675,-0.696619,0.0401465
29,0.012483000000000001,0.6817945,-0.010143,-0.14112,0.5144945,0.005131999999999998,-0.23227,0.7430345,-0.044900999999999996,0.15807000000000002,0.48644450000000006,0.008499999999999997,0.24269000000000002,0.7215045,-0.023249,-0.27147000000000004,0.9574345,-0.090962,0.2797,0.9328045,-0.073402,-0.07170199999999999,-0.0001224999999999976,-0.0014300000000000007,0.07170199999999999,0.00012250000000000455,0.0014300000000000007,-0.12428,-0.3576355,0.004253,0.11335999999999999,-0.3613555,0.022079,-0.1344,-0.6839355,0.031929,0.12757000000000002,-0.6995454999999999,0.03789
30,0.010966000000000004,0.6780205,-0.011909999999999997,-0.140609,0.5157805,0.004769000000000002,-0.229239,0.7433405,-0.049825999999999995,0.155531,0.4864505,0.007797000000000002,0.239761,0.7186505,-0.027467,-0.266469,0.9563105000000001,-0.09841,0.275781,0.9351505,-0.08069,-0.071628,-0.00016250000000000292,-0.0015620000000000009,0.071628,0.00016249999999999598,0.0015620000000000009,-0.123539,-0.3604895,0.001233999999999999,0.113021,-0.3642495,0.019226,-0.134079,-0.6875695000000001,0.029576,0.127221,-0.7023995,0.03531
31,0.009496499999999998,0.67382,-0.014385500000000002,-0.1399735,0.51734,0.003855499999999998,-0.22593349999999998,0.74321,-0.055512500000000006,0.1530465,0.48587,0.0065194999999999975,0.2365765,0.71668,-0.032310500000000006,-0.2610635,0.9543699999999999,-0.10655950000000002,0.27171649999999997,0.93718,-0.08842950000000001,-0.0715115,-0.0002309999999999951,-0.001742500000000001,0.0715115,0.00023100000000000204,0.0017424999999999975,-0.1227135,-0.36373,-0.0025995000000000046,0.1127165,-0.36754,0.015292499999999997,-0.1336235,-0.69178,0.026554499999999998,0.12641650000000001,-0.7084,0.0319065
32,0.008106499999999997,0.6695595,-0.0173565,-0.1393415,0.5186595,0.0023894999999999993,-0.22250150000000002,0.7422795,-0.061673500000000006,0.15093849999999998,0.4849095,0.004722500000000001,0.23235850000000002,0.7142495,-0.03802850000000001,-0.2550715,0.9520095000000001,-0.1153395,0.26721849999999997,0.9388195,-0.09675950000000001,-0.0713925,-0.0001994999999999983,-0.0017905000000000004,0.0713925,0.00019950000000000523,0.0017905000000000004,-0.1217815,-0.3669905,-0.007195500000000004,0.1125985,-0.3708705,0.0105605,-0.1328915,-0.6961105,0.0228745,0.12567849999999997,-0.7138305,0.0280465
33,0.0071465,0.6652399999999999,-0.020981499999999997,-0.1386375,0.51982,4.749999999999893e-05,-0.2187375,0.74012,-0.0685735,0.1489725,0.4845,0.002264499999999999,0.2282425,0.7110099999999999,-0.0451395,-0.2478475,0.94877,-0.1251495,0.26246250000000004,0.93916,-0.10566949999999999,-0.0712515,-0.00014000000000000123,-0.0019775,0.0712515,0.0001399999999999943,0.0019775,-0.1209375,-0.37038,-0.012752500000000003,0.11253250000000001,-0.37462,0.0048915,-0.1326575,-0.70033,0.0185305,0.1250425,-0.71914,0.0236085
34,0.006874,0.6616395,-0.025405499999999998,-0.138123,0.5174295,-0.0032954999999999963,-0.21458300000000002,0.7377295,-0.0766255,0.147067,0.48210949999999997,-0.0006774999999999975,0.22418700000000003,0.7086195,-0.052873500000000004,-0.240593,0.9463795,-0.1354935,0.25732700000000003,0.9386995,-0.11555349999999999,-0.071103,-1.5000000000015001e-06,-0.0022914999999999984,0.071103,1.5000000000015001e-06,0.002291500000000002,-0.12030300000000001,-0.3733105,-0.019394499999999995,0.112547,-0.3776005,-0.0015734999999999985,-0.132493,-0.7040105,0.013368500000000004,0.124927,-0.7219905,0.018576500000000003
35,0.007361000000000005,0.6598895,-0.0313345,-0.137015,0.5174295,-0.008210499999999999,-0.209895,0.7377295,-0.08594650000000001,0.147055,0.48210949999999997,-0.005428499999999999,0.220165,0.7079195,-0.0617915,-0.232265,0.9461795000000001,-0.1476065,0.25263500000000005,0.9386995,-0.12676649999999998,-0.07109,-1.5000000000015001e-06,-0.002451499999999999,0.07109,1.5000000000015001e-06,0.0024515000000000006,-0.119435,-0.3742105,-0.0281655,0.11336500000000001,-0.37835050000000003,-0.010197499999999998,-0.131845,-0.7053605000000001,0.0063265000000000005,0.125335,-0.7225105,0.0112955
36,0.007932499999999995,0.6548495,-0.0383035,-0.13566750000000002,0.5174295,-0.0142025,-0.20443750000000002,0.7377295,-0.0979685,0.1471025,0.48210949999999997,-0.0113365,0.2151025,0.7070895,-0.0722505,-0.2234075,0.9453794999999999,-0.1618785,0.2468425,0.9386995,-0.1406985,-0.0710565,-1.5000000000015001e-06,-0.0028585,0.0710565,1.5000000000015001e-06,0.0028585,-0.11852750000000001,-0.3754905,-0.0392115,0.1146125,-0.3792505,-0.020853499999999997,-0.1311275,-0.7082505,-0.0024215,0.1256825,-0.7248805,0.0028164999999999996
37,0.0113785,0.6454695,-0.046528,-0.13362549999999998,0.5171795,-0.022216,-0.1976655,0.7348395,-0.112541,0.1452845,0.47862950000000004,-0.018956999999999998,0.2103545,0.7052695,-0.085338,-0.21261549999999999,0.9412695,-0.180821,0.2414345,0.9386995,-0.156431,-0.07104450000000001,-1.5000000000015001e-06,-0.0029089999999999997,0.07104450000000001,1.5000000000015001e-06,0.002909,-0.11748549999999999,-0.3776305,-0.052004,0.11636450000000001,-0.3814505,-0.033721,-0.1303155,-0.7112505,-0.012402999999999999,0.1261645,-0.7275105000000001,-0.006912
38,0.016254499999999998,0.635692,-0.0564005,-0.13151849999999998,0.5145320000000001,-0.0325565,-0.1893485,0.725862,-0.1293555,0.1435015,0.47371199999999997,-0.0281165,0.2049515,0.7026720000000001,-0.1025305,-0.2009185,0.9352520000000001,-0.2022755,0.2351215,0.9390820000000001,-0.17560550000000003,-0.0705285,0.0004880000000000023,-0.0029295,0.0705285,-0.0004879999999999954,0.0029295,-0.11628850000000002,-0.38069800000000004,-0.0667485,0.1183815,-0.384738,-0.0484485,-0.1293885,-0.7140679999999999,-0.0238655,0.1267715,-0.7289479999999999,-0.0181295
39,0.027053,0.6288499999999999,-0.0665035,-0.128239,0.51469,-0.0468975,-0.18076899999999999,0.71902,-0.1492365,0.14261100000000002,0.47029000000000004,-0.0380645,0.200021,0.70004,-0.1215465,-0.187829,0.9248799999999999,-0.2255765,0.22912100000000002,0.93524,-0.1973565,-0.06997,0.0010480000000000003,-0.0030825,0.06997,-0.0010480000000000003,0.003082500000000002,-0.11465900000000001,-0.38282,-0.0824515,0.12124100000000002,-0.38688999999999996,-0.0643015,-0.127979,-0.7144400000000001,-0.0359695,0.12796100000000002,-0.72707,-0.0298585
40,0.038197499999999995,0.625738,-0.076577,-0.1260535,0.517038,-0.059054999999999996,-0.1731735,0.713198,-0.17101,0.1409665,0.46968799999999994,-0.049187999999999996,0.1946465,0.6944980000000001,-0.14103,-0.1746735,0.914108,-0.25383,0.22290649999999998,0.9273180000000001,-0.22296,-0.0698735,0.0012860000000000024,-0.003531999999999997,0.0698735,-0.0012859999999999955,0.0035320000000000004,-0.1138635,-0.382612,-0.100433,0.1236265,-0.386332,-0.08205499999999999,-0.1270535,-0.710742,-0.049679,0.12865649999999998,-0.7205619999999999,-0.04326
41,0.03847199999999999,0.6267325,-0.088152,-0.12546100000000002,0.5200325,-0.071886,-0.167331,0.7082625,-0.19186799999999998,0.138819,0.4699225,-0.060961999999999995,0.190329,0.6925125,-0.161328,-0.162671,0.9051925,-0.282008,0.21744899999999998,0.9169125,-0.248398,-0.06979199999999999,0.0015825000000000006,-0.004243999999999998,0.06979199999999999,-0.0015825000000000006,0.004244000000000005,-0.113571,-0.37739750000000005,-0.12012199999999999,0.12597899999999998,-0.38054750000000004,-0.10178,-0.12629100000000001,-0.7020275,-0.063484,0.129099,-0.7090075,-0.056931999999999996
42,0.039049,0.6246755,-0.10380900000000001,-0.123167,0.5203955,-0.08740200000000001,-0.160487,0.7024755,-0.214742,0.136783,0.4663355,-0.076737,0.186223,0.6902155,-0.182722,-0.151717,0.8963055,-0.314362,0.213013,0.9075855,-0.278552,-0.069729,0.0019865000000000004,-0.0047729999999999995,0.069729,-0.0019865000000000004,0.0047729999999999995,-0.113307,-0.3691345,-0.143542,0.128603,-0.3713045,-0.125273,-0.125307,-0.6900944999999999,-0.081064,0.129643,-0.6947045,-0.07452500000000001
43,0.0395035,0.619277,-0.12284400000000001,-0.1201345,0.518027,-0.106159,-0.15387450000000003,0.702167,-0.242643,0.1341855,0.464467,-0.095306,0.1825055,0.690587,-0.208043,-0.1412545,0.893277,-0.350003,0.20935549999999997,0.907187,-0.311703,-0.0699895,0.001954000000000001,-0.0050100000000000006,0.0699895,-0.0019539999999999974,0.0050100000000000006,-0.1137745,-0.348653,-0.172643,0.1314455,-0.350213,-0.154684,-0.1245045,-0.666693,-0.101734,0.1299555,-0.668673,-0.095123
44,0.040260500000000005,0.6102795000000001,-0.140206,-0.1172965,0.5114695,-0.123366,-0.1485565,0.6983895,-0.267001,0.1310835,0.4636395,-0.11188400000000001,0.17961349999999998,0.6927095000000001,-0.23063100000000003,-0.1337765,0.8889795,-0.381791,0.2066335,0.9005894999999999,-0.341781,-0.07037650000000001,0.001299500000000002,-0.005373000000000003,0.07037650000000001,-0.001299499999999995,0.005373000000000003,-0.11472650000000001,-0.3268905,-0.199101,0.1337635,-0.3279905,-0.181575,-0.1243165,-0.6421205000000001,-0.120109,0.1299035,-0.6416504999999999,-0.113357
45,0.0453455,0.6075535000000001,-0.1577,-0.1134965,0.5050235000000001,-0.141749,-0.14303649999999998,0.6953134999999999,-0.290095,0.1291835,0.4646735,-0.129701,0.1796035,0.6948335000000001,-0.254035,-0.1281365,0.8900835,-0.411965,0.2072135,0.8993935,-0.369745,-0.0709275,0.0004585000000000006,-0.005474999999999994,0.0709275,-0.0004585000000000006,0.005475000000000008,-0.11481649999999999,-0.2984765,-0.22486499999999998,0.13682350000000001,-0.2993165,-0.20802500000000002,-0.1228465,-0.6096465,-0.138215,0.1307335,-0.6082665,-0.131595
46,0.0483335,0.6084149999999999,-0.173817,-0.1097365,0.500375,-0.15850999999999998,-0.1394265,0.695055,-0.31066499999999997,0.12909350000000003,0.469965,-0.145365,0.1802335,0.6962649999999999,-0.27520500000000003,-0.12501649999999997,0.8940049999999999,-0.437045,0.2084435,0.898245,-0.39361500000000005,-0.0713665,-0.0003049999999999997,-0.005845000000000003,0.0713665,0.0003049999999999997,0.005844999999999989,-0.1151065,-0.271105,-0.248555,0.1395035,-0.271245,-0.231845,-0.12167649999999999,-0.5773649999999999,-0.15470699999999998,0.13132349999999998,-0.5750649999999999,-0.148019
47,0.051531999999999994,0.6075349999999999,-0.18891,-0.10661600000000002,0.49894499999999997,-0.17452199999999998,-0.136156,0.700935,-0.33055,0.129314,0.470435,-0.160217,0.181574,0.696645,-0.2931,-0.123196,0.901815,-0.46063,0.20966400000000002,0.900955,-0.4148,-0.07172100000000001,-0.0004250000000000087,-0.006259999999999988,0.07172100000000001,0.0004250000000000087,0.0062600000000000156,-0.11540600000000001,-0.23945500000000003,-0.27103,0.14197400000000002,-0.238425,-0.25388,-0.120536,-0.541045,-0.170087,0.131684,-0.538365,-0.16342199999999998
48,0.0558565,0.6045,-0.20291399999999998,-0.10359449999999999,0.49223,-0.18947999999999998,-0.1340845,0.70246,-0.34875999999999996,0.1300555,0.47314,-0.17452099999999998,0.18288549999999998,0.69946,-0.31015,-0.1213245,0.90492,-0.48163,0.2110455,0.90293,-0.434,-0.0721205,-0.0010100000000000109,-0.0065800000000000025,0.0721205,0.0010099999999999831,0.0065800000000000025,-0.1157545,-0.19683,-0.29123,0.14402550000000003,-0.19493,-0.27393999999999996,-0.1191145,-0.49538,-0.184473,0.13203550000000003,-0.49313,-0.177751
49,0.056100000000000004,0.5945050000000001,-0.216073,-0.10313,0.484185,-0.201834,-0.13273000000000001,0.703625,-0.36413,0.13080999999999998,0.470865,-0.18735,0.18358,0.7047950000000001,-0.32544,-0.1202,0.909215,-0.49801,0.21176999999999999,0.906285,-0.44956,-0.07241900000000001,-0.0011149999999999771,-0.00655,0.07241900000000001,0.0011149999999999771,0.00655,-0.11665999999999999,-0.154335,-0.30826,0.14543999999999999,-0.152215,-0.29069,-0.11821999999999999,-0.451715,-0.196986,0.13191,-0.45030499999999996,-0.19024
50,0.0546415,0.58151,-0.229113,-0.10340450000000001,0.47537000000000007,-0.213821,-0.1319145,0.7031400000000001,-0.376265,0.13069550000000002,0.46888,-0.19909200000000002,0.1839655,0.7052700000000001,-0.33955500000000005,-0.11950449999999999,0.9119400000000001,-0.514725,0.2126655,0.90915,-0.464015,-0.0728435,-0.0014799999999999813,-0.006355000000000027,0.0728435,0.0014800000000000368,0.0063549999999999995,-0.1182645,-0.11617999999999995,-0.32189500000000004,0.14604550000000002,-0.11349999999999999,-0.303735,-0.1179945,-0.41208999999999996,-0.20858700000000002,0.1310455,-0.41108999999999996,-0.20193100000000003
51,0.047608000000000004,0.5703349999999999,-0.23830199999999999,-0.102625,0.465815,-0.21742899999999998,-0.13148500000000002,0.700745,-0.38368,0.130205,0.471085,-0.20632399999999998,0.18437499999999998,0.705735,-0.34662,-0.11979499999999998,0.916675,-0.52603,0.213975,0.909365,-0.47336999999999996,-0.07347000000000001,-0.0022050000000000125,-0.00627999999999998,0.07347000000000001,0.002204999999999957,0.006280000000000008,-0.120005,-0.07960500000000004,-0.33031999999999995,0.146525,-0.07637500000000003,-0.31145999999999996,-0.11793499999999998,-0.374085,-0.21558699999999997,0.130235,-0.372915,-0.20872799999999997
52,0.040878000000000005,0.5611200000000001,-0.243081,-0.100882,0.459303,-0.220449,-0.130342,0.69293,-0.38556,0.130498,0.47212,-0.209463,0.18573800000000001,0.70322,-0.35074,-0.120932,0.9159200000000001,-0.53217,0.216308,0.90001,-0.479,-0.07338,-0.0024899999999999922,-0.006220000000000003,0.07338,0.0024899999999999922,0.006220000000000003,-0.120362,-0.05347999999999997,-0.33351,0.14782800000000001,-0.04963000000000001,-0.31452,-0.117362,-0.34573000000000004,-0.218333,0.13029800000000002,-0.34434000000000003,-0.211156
53,0.0401555,0.5577300000000001,-0.246876,-0.0991975,0.455548,-0.22344,-0.1293375,0.68704,-0.387465,0.13089250000000002,0.468034,-0.212986,0.1869925,0.6995,-0.352715,-0.1218975,0.9133,-0.539155,0.21849249999999998,0.89649,-0.484445,-0.0732925,-0.0016599999999999948,-0.006285000000000013,0.0732925,0.0016599999999999948,0.006284999999999985,-0.1206675,-0.021909999999999985,-0.336665,0.14943250000000002,-0.016189999999999982,-0.317515,-0.1168975,-0.31335,-0.221041,0.1304325,-0.31210000000000004,-0.213685
54,0.039291,0.54893,-0.248649,-0.09851499999999999,0.452223,-0.225086,-0.12868500000000002,0.6821999999999999,-0.38898,0.130885,0.462674,-0.214982,0.188495,0.69282,-0.35217,-0.123305,0.90265,-0.54384,0.220325,0.8886799999999999,-0.48871000000000003,-0.07310900000000001,-0.0007099999999999884,-0.0063600000000000045,0.07310900000000001,0.0007099999999999884,0.006359999999999977,-0.12101500000000001,0.0040799999999999725,-0.33839,0.15134499999999998,0.011139999999999983,-0.31906,-0.11668500000000001,-0.28646,-0.222393,0.130345,-0.28529,-0.214868
55,0.039832,0.538769,-0.25382,-0.096683,0.447647,-0.22788000000000003,-0.12684299999999998,0.67734,-0.392205,0.133307,0.457362,-0.21916200000000002,0.191527,0.68733,-0.354425,-0.12364299999999999,0.89194,-0.549455,0.22385700000000003,0.88066,-0.493575,-0.072578,-3.999999999998449e-05,-0.006605,0.072578,3.999999999998449e-05,0.006605,-0.120403,0.02740999999999999,-0.338005,0.15525699999999998,0.0358,-0.318515,-0.114763,-0.25834,-0.22359,0.131287,-0.25682000000000005,-0.215873
56,0.043406999999999994,0.527185,-0.25911100000000004,-0.095051,0.437366,-0.23087700000000003,-0.12528,0.66743,-0.39651000000000003,0.13573,0.454939,-0.22335500000000003,0.19416999999999998,0.67913,-0.35586,-0.124,0.87775,-0.5550200000000001,0.22755,0.86721,-0.49817,-0.07219,-0.00041000000000002146,-0.006980000000000014,0.07219,0.00040999999999996595,0.006979999999999986,-0.11979999999999999,0.04626999999999998,-0.33736,0.1593,0.05560999999999999,-0.31765,-0.11318,-0.23501000000000005,-0.22516000000000003,0.13215,-0.23287999999999998,-0.21694900000000003
57,0.0451345,0.515517,-0.26434799999999997,-0.0940535,0.42964100000000005,-0.23405199999999998,-0.12451550000000002,0.65946,-0.40117,0.13799450000000002,0.448817,-0.227158,0.1973145,0.66495,-0.35838000000000003,-0.1243055,0.86899,-0.5607,0.2306245,0.85764,-0.50187,-0.0717715,-0.00046999999999997044,-0.007369999999999988,0.0717715,0.00047000000000002595,0.007370000000000015,-0.1194155,0.05478000000000005,-0.33634,0.1631745,0.06496000000000002,-0.31632,-0.1119755,-0.22355000000000003,-0.227091,0.1329845,-0.21977000000000002,-0.218029
58,0.0467805,0.5080870000000001,-0.270108,-0.0930435,0.421172,-0.237749,-0.1232605,0.650995,-0.406795,0.1399995,0.446251,-0.231567,0.2005195,0.654165,-0.361755,-0.1242105,0.860085,-0.566035,0.2340095,0.849165,-0.505865,-0.07134750000000001,-0.0008049999999999446,-0.007855000000000001,0.07134750000000001,0.0008050000000000557,0.007855000000000001,-0.1190405,0.06253500000000001,-0.335435,0.1669795,0.07336500000000001,-0.315295,-0.11082049999999999,-0.21308499999999997,-0.22958299999999998,0.13376949999999999,-0.20767499999999994,-0.219547
59,0.0476475,0.49978999999999996,-0.276351,-0.0919685,0.41255,-0.24191000000000001,-0.1222645,0.64262,-0.412795,0.1420455,0.44160599999999994,-0.23614100000000002,0.2035455,0.6442699999999999,-0.365615,-0.1242945,0.85114,-0.571205,0.2379055,0.84151,-0.510395,-0.0709505,-0.0009100000000000774,-0.008395000000000014,0.0709505,0.0009099999999999664,0.008394999999999986,-0.1187745,0.06986999999999993,-0.334375,0.1703955,0.08146999999999993,-0.31500500000000003,-0.1098445,-0.2034100000000001,-0.232497,0.1345055,-0.19608000000000003,-0.22149000000000002
60,0.047259,0.49283200000000005,-0.28155600000000003,-0.091287,0.4073150000000001,-0.245794,-0.121726,0.636985,-0.41832,0.143324,0.4368580000000001,-0.240699,0.206044,0.633905,-0.36796,-0.12432599999999999,0.8421450000000001,-0.57679,0.241364,0.8346750000000001,-0.5149600000000001,-0.070669,-0.0007949999999999902,-0.008890000000000009,0.070669,0.0007950000000001012,0.008889999999999981,-0.118706,0.07702500000000007,-0.33403000000000005,0.173284,0.08825500000000008,-0.31497,-0.109216,-0.19472499999999993,-0.235599,0.134934,-0.18572499999999992,-0.223773
61,0.047630500000000006,0.487708,-0.286427,-0.0906775,0.40145,-0.249614,-0.1212945,0.631416,-0.42386999999999997,0.1442855,0.43167999999999995,-0.24528999999999998,0.2084555,0.6237349999999999,-0.37058,-0.1243445,0.8328899999999999,-0.58249,0.2454955,0.8288899999999999,-0.51971,-0.07040350000000001,-0.0006300000000000194,-0.009519999999999973,0.07040350000000001,0.0006300000000000194,0.00952,-0.1185245,0.08316999999999997,-0.33369,0.1758955,0.09411999999999998,-0.31528999999999996,-0.1085345,-0.18713000000000002,-0.238525,0.1350855,-0.17662,-0.22597299999999998
62,0.04805799999999999,0.48139899999999997,-0.291112,-0.090048,0.39735,-0.252969,-0.12088399999999999,0.6282059999999999,-0.42779999999999996,0.145036,0.43034999999999995,-0.249687,0.210826,0.614363,-0.37327,-0.124524,0.8269899999999999,-0.5877399999999999,0.249306,0.8239,-0.52462,-0.07014,-0.0009900000000000464,-0.009969999999999979,0.07014,0.0009899999999999354,0.009970000000000007,-0.118114,0.08568999999999993,-0.33426,0.177926,0.09651999999999994,-0.31664,-0.107934,-0.18407000000000007,-0.24157499999999998,0.135296,-0.17198000000000002,-0.22806099999999999
63,0.047434000000000004,0.47812999999999994,-0.29591500000000004,-0.089564,0.39192499999999997,-0.2565,-0.120838,0.6235219999999999,-0.432555,0.145622,0.42846499999999993,-0.253952,0.212422,0.60783,-0.375935,-0.125278,0.825445,-0.593345,0.253502,0.819415,-0.5309550000000001,-0.070008,-0.001375000000000015,-0.010404999999999998,0.070008,0.001374999999999904,0.010404999999999998,-0.117568,0.08812499999999995,-0.335245,0.179382,0.09920499999999993,-0.318795,-0.107448,-0.18132500000000007,-0.24474800000000002,0.135382,-0.16737500000000005,-0.23031200000000002
64,0.0464285,0.47651800000000005,-0.299639,-0.08896949999999999,0.389185,-0.259291,-0.12099850000000001,0.619092,-0.43517,0.1461415,0.426785,-0.257211,0.2138615,0.60087,-0.37853000000000003,-0.1264485,0.8234650000000001,-0.59779,0.2571115,0.8161050000000001,-0.53694,-0.0699375,-0.0016249999999999876,-0.01063,0.0699375,0.0016249999999999876,0.01063,-0.11686849999999999,0.08976500000000004,-0.33675,0.1801215,0.10083500000000001,-0.320963,-0.1072685,-0.179975,-0.247555,0.1356115,-0.16363499999999997,-0.232885
65,0.045503,0.47773099999999996,-0.302081,-0.088545,0.38721999999999995,-0.261394,-0.12117199999999999,0.6155499999999999,-0.439095,0.146418,0.42545999999999995,-0.259845,0.215138,0.597892,-0.38051500000000005,-0.12802200000000002,0.82155,-0.602815,0.260148,0.81484,-0.542025,-0.069821,-0.0018700000000000383,-0.010654999999999998,0.069821,0.0018699999999999273,0.010654999999999998,-0.116332,0.09101999999999993,-0.337855,0.180388,0.10239999999999994,-0.322853,-0.107212,-0.17907000000000006,-0.24964,0.13574799999999998,-0.1604,-0.23472900000000002
66,0.044532,0.4788320000000001,-0.3043,-0.08825,0.3856600000000001,-0.263324,-0.12146499999999999,0.6127070000000001,-0.44247000000000003,0.146595,0.4238700000000001,-0.262252,0.215595,0.5973580000000001,-0.38234999999999997,-0.129495,0.8200900000000001,-0.60842,0.262825,0.8138400000000001,-0.5468299999999999,-0.06969,-0.0019899999999999363,-0.010639999999999983,0.06969,0.0019900000000000473,0.01064000000000001,-0.115885,0.0921900000000001,-0.33901,0.180345,0.10415000000000008,-0.324728,-0.107255,-0.17769999999999986,-0.251515,0.135775,-0.15742999999999996,-0.236518
67,0.043356000000000006,0.479468,-0.30573900000000004,-0.08824499999999999,0.38369000000000003,-0.26439,-0.12208000000000001,0.6098,-0.44467,0.14649,0.42151000000000005,-0.263907,0.21581,0.596099,-0.38345,-0.13116,0.81854,-0.61276,0.26476,0.8125600000000001,-0.55044,-0.069829,-0.0020000000000000018,-0.010560000000000014,0.069829,0.0020000000000000018,0.010559999999999986,-0.11566,0.09277000000000002,-0.33977,0.18003000000000002,0.10537000000000002,-0.32586800000000005,-0.10794,-0.17699999999999994,-0.25330400000000003,0.13533,-0.15533999999999992,-0.23745400000000003
68,0.04220650000000001,0.48002900000000004,-0.306523,-0.0883945,0.38201000000000007,-0.264807,-0.12273550000000001,0.607846,-0.44527,0.1462545,0.42028000000000004,-0.264988,0.21625450000000002,0.595439,-0.38380000000000003,-0.13262549999999998,0.81748,-0.61544,0.26598449999999996,0.8123900000000001,-0.5531200000000001,-0.0699425,-0.0020499999999999963,-0.010470000000000007,0.0699425,0.0020499999999999963,0.010470000000000007,-0.1155055,0.09295000000000003,-0.34031,0.17970450000000002,0.10602000000000006,-0.32644799999999996,-0.1084855,-0.17679,-0.254256,0.13474450000000002,-0.15430999999999995,-0.237782
69,0.0412755,0.480704,-0.307151,-0.08853249999999999,0.380335,-0.26512600000000003,-0.12333950000000002,0.60612,-0.44576000000000005,0.1460405,0.41903500000000005,-0.265932,0.2166705,0.594805,-0.38445,-0.1340595,0.816865,-0.61751,0.26695050000000003,0.812835,-0.5554600000000001,-0.07004450000000001,-0.0021050000000000235,-0.01039000000000001,0.07004450000000001,0.0021050000000000235,0.010389999999999983,-0.1153795,0.093115,-0.34074000000000004,0.1791805,0.10653499999999999,-0.327208,-0.1089195,-0.17662500000000003,-0.255072,0.13396049999999998,-0.15353499999999998,-0.238018
70,0.040329000000000004,0.48121900000000006,-0.307658,-0.08873,0.3788600000000001,-0.265422,-0.12393000000000001,0.6048720000000001,-0.4461,0.14581,0.4181100000000001,-0.266722,0.21703999999999998,0.594507,-0.38471,-0.13545000000000001,0.81667,-0.61873,0.26738,0.8133000000000001,-0.55663,-0.07014200000000001,-0.0021499999999999853,-0.010280000000000011,0.07014200000000001,0.0021500000000000963,0.010280000000000011,-0.11538000000000001,0.09322000000000008,-0.34103,0.17844,0.10698000000000008,-0.32817,-0.10938,-0.17657999999999996,-0.255711,0.13316,-0.15301999999999993,-0.23813499999999999
71,0.039180999999999994,0.4814940000000001,-0.30797800000000003,-0.08899699999999999,0.3773250000000001,-0.265469,-0.124665,0.6038640000000001,-0.446195,0.145455,0.41764500000000004,-0.267179,0.217335,0.5941500000000001,-0.38478500000000004,-0.136795,0.8167650000000001,-0.618935,0.267465,0.8135750000000002,-0.556955,-0.07023299999999999,-0.0022649999999999615,-0.010185,0.07023299999999999,0.0022650000000000725,0.010185,-0.11538500000000002,0.09311500000000006,-0.341355,0.17776499999999998,0.10737500000000011,-0.329135,-0.109795,-0.17644499999999996,-0.256116,0.132375,-0.1527449999999999,-0.23817500000000003
72,0.038427,0.4816060000000001,-0.30818,-0.089222,0.3771550000000001,-0.265484,-0.12524999999999997,0.6038640000000001,-0.44589,0.14525,0.41749500000000006,-0.26748099999999997,0.21766999999999997,0.593647,-0.38475000000000004,-0.13779000000000002,0.816745,-0.61902,0.26724,0.8135750000000002,-0.55697,-0.070246,-0.0022649999999999615,-0.010190000000000005,0.070246,0.0022650000000000725,0.010190000000000005,-0.11543,0.09291500000000008,-0.34191,0.17723,0.10737500000000011,-0.33016,-0.11003,-0.17644499999999996,-0.25633,0.13165,-0.15278499999999995,-0.237894
73,0.0381405,0.48197600000000007,-0.308344,-0.0893345,0.3771550000000001,-0.265494,-0.1257425,0.6038640000000001,-0.4455,0.1451375,0.41749500000000006,-0.267729,0.2179175,0.5932970000000001,-0.38455,-0.1384725,0.816745,-0.61907,0.2671375,0.8135750000000002,-0.55698,-0.0702545,-0.0022649999999999615,-0.010190000000000005,0.0702545,0.0022650000000000725,0.010190000000000005,-0.1153525,0.09274500000000008,-0.34276,0.1767875,0.10733500000000007,-0.33126,-0.1101325,-0.17644499999999996,-0.256462,0.13098749999999998,-0.15263499999999997,-0.23775500000000002
74,0.037868,0.4828900000000001,-0.308492,-0.08940899999999999,0.3771550000000001,-0.265479,-0.126207,0.6038640000000001,-0.44498499999999996,0.14502299999999999,0.41749500000000006,-0.267827,0.218183,0.5932970000000001,-0.384075,-0.138967,0.816745,-0.618765,0.267083,0.8143750000000001,-0.5569649999999999,-0.07026299999999999,-0.0022649999999999615,-0.010165000000000007,0.07026299999999999,0.0022650000000000725,0.010165000000000007,-0.115197,0.09244500000000011,-0.344095,0.176373,0.1072050000000001,-0.332735,-0.11016699999999999,-0.17656499999999986,-0.256612,0.130143,-0.15251499999999996,-0.237359
75,0.0377965,0.4835870000000001,-0.30834,-0.0895205,0.37691500000000006,-0.265518,-0.12677149999999998,0.603987,-0.44416999999999995,0.1448885,0.41725500000000004,-0.267648,0.21802850000000001,0.593493,-0.38300999999999996,-0.13951149999999998,0.816735,-0.61723,0.26677850000000003,0.8147550000000001,-0.55528,-0.0702815,-0.002334999999999976,-0.010059999999999986,0.0702815,0.002335000000000087,0.010060000000000013,-0.11503150000000001,0.09180500000000008,-0.34553,0.17592850000000002,0.10684500000000008,-0.33399999999999996,-0.1102215,-0.17680499999999988,-0.256305,0.1293585,-0.15287499999999998,-0.23657799999999998
76,0.0377845,0.4843139999999999,-0.308002,-0.0896495,0.3764599999999999,-0.265268,-0.12734449999999997,0.604343,-0.44314,0.14473550000000002,0.4169099999999999,-0.267292,0.2180955,0.5937359999999999,-0.38267,-0.1399045,0.8170499999999999,-0.61463,0.2662655,0.81521,-0.55292,-0.0702965,-0.0024000000000000687,-0.009959999999999997,0.0702965,0.0023999999999999577,0.009959999999999997,-0.1149345,0.09130999999999995,-0.34704,0.17543550000000002,0.10618999999999995,-0.33506,-0.1103145,-0.1773,-0.255936,0.12958550000000002,-0.15409000000000006,-0.236617
77,0.037908500000000005,0.4848760000000001,-0.30730599999999997,-0.0898945,0.37689000000000006,-0.264935,-0.12807449999999998,0.6056790000000001,-0.44153,0.1447155,0.41670000000000007,-0.266758,0.2183755,0.5934370000000001,-0.38186,-0.14022449999999997,0.8173000000000001,-0.61124,0.2657055,0.8159900000000001,-0.55017,-0.0703145,-0.0023799999999999377,-0.009830000000000005,0.0703145,0.0023800000000000487,0.009830000000000005,-0.1148145,0.0903500000000001,-0.34839,0.1749655,0.1052300000000001,-0.3358,-0.1102845,-0.17825999999999986,-0.255258,0.12949549999999999,-0.15571999999999997,-0.235922
78,0.037311000000000004,0.489079,-0.30385799999999996,-0.090417,0.38279,-0.26240399999999997,-0.128978,0.610115,-0.43676000000000004,0.14419200000000001,0.41893,-0.263433,0.217652,0.595983,-0.37695,-0.141128,0.8186,-0.60405,0.264382,0.8159000000000001,-0.5439700000000001,-0.070464,-0.0023999999999999577,-0.008860000000000007,0.070464,0.0023999999999999577,0.008860000000000007,-0.115008,0.08722000000000002,-0.34709999999999996,0.173892,0.10210000000000002,-0.33352,-0.110608,-0.18120000000000003,-0.251202,0.128952,-0.15998999999999997,-0.231866
79,0.0365735,0.4946079999999999,-0.30017499999999997,-0.0910935,0.3877049999999999,-0.259448,-0.1305285,0.6161309999999999,-0.43110000000000004,0.1435515,0.4224549999999999,-0.260266,0.2168515,0.6068209999999999,-0.37246,-0.1423885,0.8256949999999998,-0.59656,0.2628115,0.8250949999999999,-0.5369900000000001,-0.0706435,-0.002415000000000056,-0.008230000000000015,0.0706435,0.002414999999999945,0.008229999999999987,-0.1148985,0.08387499999999992,-0.34843,0.1725615,0.0975649999999999,-0.33153,-0.1111085,-0.1852950000000001,-0.246839,0.1281715,-0.16586500000000004,-0.227567
80,0.035626500000000005,0.503951,-0.29389699999999996,-0.0921775,0.39571,-0.254649,-0.13260650000000002,0.623582,-0.42262,0.1431535,0.42684,-0.25471,0.21562350000000002,0.61073,-0.36515,-0.14382650000000002,0.83283,-0.5861799999999999,0.2609935,0.83184,-0.5274399999999999,-0.0708855,-0.0019099999999999673,-0.007830000000000004,0.0708855,0.0019099999999999673,0.007830000000000004,-0.1146065,0.06674000000000002,-0.348,0.1713035,0.07898,-0.3287,-0.1117565,-0.20433999999999997,-0.240445,0.1273135,-0.18639000000000006,-0.22128299999999998
81,0.0339435,0.5199929999999999,-0.287002,-0.09389349999999999,0.406975,-0.24947,-0.1351075,0.6362749999999999,-0.41361000000000003,0.14281249999999998,0.42995799999999995,-0.249014,0.2142125,0.6218549999999999,-0.35682,-0.1457675,0.846835,-0.5747099999999999,0.2586125,0.8452949999999999,-0.51737,-0.07124649999999999,-0.0014049999999999896,-0.007459999999999994,0.07124649999999999,0.0014049999999999896,0.007459999999999994,-0.1147675,0.048504999999999965,-0.34604,0.1696425,0.05894499999999997,-0.32545,-0.11287749999999999,-0.22502500000000003,-0.233507,0.1260425,-0.20860500000000004,-0.21456999999999998
82,0.0327955,0.53757,-0.279866,-0.0954125,0.41647500000000004,-0.243368,-0.1376165,0.647285,-0.404,0.1425235,0.440275,-0.241822,0.2127035,0.634555,-0.34721,-0.1476765,0.860385,-0.56256,0.25627350000000004,0.859265,-0.5059,-0.0714355,-0.0019349999999999645,-0.007610000000000006,0.0714355,0.00193500000000002,0.007609999999999978,-0.1148565,0.026085000000000025,-0.34276,0.1680835,0.034555,-0.321,-0.1139665,-0.250545,-0.22579700000000003,0.1253235,-0.235695,-0.207355
83,0.03179,0.55428,-0.272443,-0.096704,0.426282,-0.23697200000000002,-0.14035,0.65619,-0.39374,0.14234,0.448509,-0.23439000000000002,0.21078,0.6447700000000001,-0.33728,-0.14989,0.8700600000000001,-0.54883,0.25355000000000005,0.87008,-0.49312,-0.071755,-0.0019500000000000073,-0.007610000000000006,0.071755,0.0019500000000000073,0.007609999999999978,-0.11513,-0.0013400000000000079,-0.33812,0.16627,0.00491999999999998,-0.31537000000000004,-0.11537,-0.28253999999999996,-0.21785900000000002,0.12470999999999999,-0.26955,-0.20038
84,0.030329999999999996,0.56872,-0.263922,-0.098024,0.437866,-0.22954000000000002,-0.14337,0.66935,-0.381715,0.14093,0.456182,-0.22651100000000002,0.20914,0.65894,-0.326425,-0.15256,0.88239,-0.5311250000000001,0.25069,0.8858,-0.478295,-0.07209299999999999,-0.0016599999999999948,-0.007525000000000004,0.07209299999999999,0.0016599999999999948,0.007525000000000004,-0.11552000000000001,-0.032189999999999996,-0.330625,0.16421,-0.02811999999999998,-0.307145,-0.11684,-0.31883,-0.20908000000000002,0.12408,-0.3088,-0.192198
85,0.029163,0.5815950000000001,-0.255046,-0.09936299999999999,0.45243500000000003,-0.221286,-0.146348,0.684175,-0.36907999999999996,0.140682,0.46335400000000004,-0.217787,0.207762,0.6708750000000001,-0.3161,-0.155178,0.894385,-0.51295,0.248382,0.900745,-0.46221,-0.072182,-0.0011149999999999771,-0.007190000000000002,0.072182,0.0011150000000000326,0.007190000000000002,-0.115758,-0.06491499999999994,-0.32172999999999996,0.162282,-0.06243499999999996,-0.29794,-0.118098,-0.357205,-0.200011,0.12385199999999999,-0.349765,-0.183837
86,0.0274135,0.596835,-0.245629,-0.1016015,0.467105,-0.212661,-0.1500165,0.6982349999999999,-0.35646,0.14019350000000003,0.471315,-0.20799399999999998,0.20568350000000002,0.6823349999999999,-0.30489,-0.15886650000000002,0.909795,-0.49349,0.24548349999999997,0.915405,-0.44440999999999997,-0.0724185,-0.0008950000000000347,-0.006860000000000005,0.0724185,0.0008949999999999791,0.006860000000000005,-0.1164465,-0.09664500000000004,-0.31157,0.1597535,-0.096615,-0.28713,-0.1196565,-0.39505500000000005,-0.191124,0.12324349999999999,-0.390825,-0.175553
87,0.026231000000000004,0.6082350000000001,-0.237369,-0.10380999999999999,0.4721850000000001,-0.204794,-0.153142,0.7082950000000001,-0.34469,0.140018,0.48047500000000004,-0.20006300000000002,0.204098,0.692175,-0.29546,-0.162782,0.927085,-0.47563,0.243218,0.9321750000000001,-0.42762,-0.07231699999999999,-0.0009449999999999736,-0.007350000000000023,0.07231699999999999,0.0009450000000000292,0.007349999999999995,-0.116862,-0.12766499999999997,-0.30269,0.157548,-0.12984499999999993,-0.2784,-0.120982,-0.4337249999999999,-0.184427,0.12340799999999999,-0.43176499999999995,-0.169966
88,0.024930999999999995,0.61866,-0.22808,-0.106039,0.48138000000000003,-0.196087,-0.156236,0.71724,-0.33121,0.139814,0.48609,-0.19071800000000003,0.20260399999999998,0.69844,-0.28458000000000006,-0.166726,0.93482,-0.45679000000000003,0.240984,0.94242,-0.41061000000000003,-0.07228699999999999,-0.0003599999999999992,-0.00743000000000002,0.07228699999999999,0.0003599999999999992,0.007429999999999992,-0.117456,-0.16152,-0.29307000000000005,0.15542399999999998,-0.16460999999999998,-0.26890000000000003,-0.12235599999999999,-0.47411000000000003,-0.176711,0.123364,-0.47467000000000004,-0.162949
89,0.023941999999999998,0.62849,-0.22082400000000002,-0.10807800000000001,0.48973999999999995,-0.188802,-0.158076,0.72375,-0.31867999999999996,0.139824,0.49463999999999997,-0.183596,0.201384,0.71031,-0.27577,-0.170846,0.94263,-0.4385,0.238844,0.95538,-0.39392,-0.071846,-0.0007000000000000062,-0.007210000000000008,0.071846,0.0007000000000000062,0.007209999999999994,-0.117956,-0.18203,-0.28566,0.153264,-0.18415,-0.26119000000000003,-0.123646,-0.5001300000000001,-0.170738,0.12334400000000001,-0.50159,-0.157723
90,0.022554000000000005,0.62976,-0.214202,-0.109535,0.4931,-0.181408,-0.16102899999999998,0.72361,-0.30562500000000004,0.139401,0.50386,-0.176187,0.200621,0.71999,-0.266735,-0.174979,0.94345,-0.41946500000000003,0.236701,0.96372,-0.37644500000000003,-0.07138,-0.0012500000000000011,-0.006855000000000014,0.07138,0.0012500000000000011,0.006855,-0.11846899999999999,-0.20237,-0.277635,0.15092100000000003,-0.20273000000000002,-0.25190500000000005,-0.125159,-0.5254,-0.164748,0.123291,-0.52641,-0.15241300000000002
91,0.021401499999999997,0.62933,-0.20746199999999998,-0.1105845,0.49739,-0.17465999999999998,-0.16383150000000002,0.72476,-0.293155,0.1387985,0.50573,-0.169343,0.1996985,0.72769,-0.256545,-0.1793115,0.94529,-0.399955,0.2349585,0.9727399999999999,-0.359965,-0.07098650000000001,-0.0007400000000000184,-0.005995,0.07098650000000001,0.0007399999999999907,0.005995,-0.1191015,-0.21813,-0.266375,0.1486485,-0.21725,-0.24217499999999997,-0.1264115,-0.54565,-0.159368,0.12347849999999999,-0.5464100000000001,-0.147741
92,0.020240499999999998,0.626925,-0.200133,-0.1117495,0.500955,-0.167719,-0.1666445,0.725595,-0.2797,0.1381155,0.507965,-0.161769,0.1984555,0.736175,-0.24603,-0.1833245,0.949365,-0.3805,0.2336055,0.9852449999999999,-0.34316,-0.0699505,-0.0005850000000000022,-0.005269999999999997,0.0699505,0.0005850000000000022,0.005270000000000011,-0.1197945,-0.22839500000000001,-0.25209,0.1459655,-0.22768500000000003,-0.22912,-0.1276945,-0.5597049999999999,-0.153614,0.1235455,-0.5616749999999999,-0.142797
93,0.020030499999999996,0.6268965,-0.193108,-0.11350650000000001,0.5048865,-0.161261,-0.1695875,0.7314665,-0.26651199999999997,0.1372525,0.5106065,-0.155677,0.1973625,0.7407364999999999,-0.235282,-0.1880075,0.9572065000000001,-0.362262,0.23232250000000002,0.9926165,-0.326922,-0.0690235,-0.00025949999999999585,-0.004958000000000004,0.0690235,0.0002595000000000097,0.004958000000000004,-0.1215075,-0.2360735,-0.23919200000000002,0.1429125,-0.23632350000000002,-0.21540199999999998,-0.1290375,-0.5703335,-0.148463,0.1233625,-0.5735935000000001,-0.13797
94,0.020354500000000005,0.6328705,-0.18564999999999998,-0.1146225,0.5078805,-0.154989,-0.17167949999999998,0.7372805,-0.254154,0.13656050000000003,0.5151505,-0.149369,0.19678050000000002,0.7482705,-0.224334,-0.1919995,0.9655604999999999,-0.344444,0.23131050000000003,1.0015705,-0.311404,-0.0686875,-0.00020549999999999735,-0.004908999999999997,0.0686875,0.00020549999999999735,0.004909000000000011,-0.12265949999999999,-0.24163949999999998,-0.226884,0.14017049999999998,-0.24318949999999998,-0.201984,-0.1298695,-0.5785995,-0.143911,0.1234805,-0.5833395,-0.132353
95,0.020453500000000003,0.6397245,-0.177529,-0.1155205,0.5102745,-0.149069,-0.1741175,0.7434645,-0.241171,0.13551249999999998,0.5179845,-0.142779,0.1956325,0.7555845,-0.21281099999999997,-0.1959075,0.9699045000000001,-0.327181,0.23001249999999998,1.0101445,-0.296071,-0.0680525,0.0002935000000000021,-0.004948999999999995,0.0680525,-0.00029349999999999515,0.004949000000000009,-0.1240675,-0.24865549999999997,-0.214121,0.1363925,-0.2511755,-0.187737,-0.1313375,-0.5880255,-0.13977599999999998,0.1230325,-0.5938455,-0.126496
96,0.020446999999999993,0.6467425,-0.16991699999999998,-0.11660200000000001,0.5169625,-0.144013,-0.17592,0.7497925000000001,-0.230645,0.13451,0.5177025000000001,-0.13781,0.19448,0.7623025000000001,-0.20269500000000001,-0.19933,0.9719225,-0.311025,0.22893,1.0181025,-0.282225,-0.06765,0.0011024999999999993,-0.004956000000000002,0.06765,-0.0011024999999999993,0.004956000000000002,-0.12458000000000001,-0.2581375,-0.203875,0.13237,-0.26086750000000003,-0.17497200000000002,-0.13274000000000002,-0.5994474999999999,-0.135244,0.12193999999999999,-0.6055474999999999,-0.12193999999999999
97,0.020471999999999997,0.652978,-0.163182,-0.117909,0.520318,-0.14005800000000002,-0.177327,0.756258,-0.222332,0.133483,0.519428,-0.134233,0.193623,0.7642779999999999,-0.194582,-0.202617,0.977348,-0.296172,0.227543,1.023208,-0.269752,-0.067471,0.0009839999999999988,-0.005040000000000003,0.067471,-0.0009839999999999988,0.005039999999999989,-0.125057,-0.265302,-0.195442,0.128413,-0.267852,-0.16321600000000003,-0.134007,-0.6082620000000001,-0.13198400000000002,0.12093299999999998,-0.614322,-0.118616
98,0.019986000000000004,0.6547405,-0.1553795,-0.119342,0.5203105,-0.1350495,-0.17878899999999998,0.7625505,-0.2138425,0.132741,0.5162804999999999,-0.1291685,0.192751,0.7658205,-0.1851825,-0.205409,0.9815404999999999,-0.2817925,0.22629100000000002,1.0266804999999999,-0.25756249999999997,-0.067272,0.0007875,-0.004413500000000001,0.067272,-0.0007875,0.004413500000000001,-0.125439,-0.2732295,-0.18524249999999998,0.124601,-0.2776195,-0.15045150000000002,-0.135249,-0.6176195,-0.1272555,0.11984099999999999,-0.6242995,-0.1125815
99,0.01976,0.655014,-0.1401395,-0.121081,0.518704,-0.12199750000000001,-0.181208,0.762944,-0.1982015,0.13309200000000002,0.512124,-0.1152895,0.191592,0.756104,-0.1688715,-0.208398,0.980254,-0.2607115,0.22462200000000002,1.021624,-0.2381815,-0.06713,0.001361,-0.004784500000000004,0.06713,-0.001361,0.004784499999999997,-0.125908,-0.287486,-0.1626175,0.12046200000000001,-0.293176,-0.1276735,-0.137158,-0.633136,-0.1113565,0.118122,-0.639856,-0.0966955
100,0.019334999999999998,0.655701,-0.12546449999999998,-0.123003,0.5180710000000001,-0.1092025,-0.183723,0.767541,-0.18364350000000002,0.133217,0.508261,-0.1017115,0.191297,0.748351,-0.1530635,-0.211453,0.980001,-0.2406835,0.22276700000000002,1.015491,-0.21923349999999997,-0.06728100000000001,0.0018719999999999987,-0.005160499999999998,0.06728100000000001,-0.0018720000000000004,0.005160500000000005,-0.126753,-0.301749,-0.1408005,0.116177,-0.307909,-0.1053755,-0.139413,-0.647769,-0.0955385,0.11605700000000002,-0.654589,-0.0807145
101,0.019166,0.6589595,-0.1109665,-0.12434400000000001,0.5183194999999999,-0.0966105,-0.186434,0.7747195,-0.1693915,0.133266,0.5063394999999999,-0.08864749999999999,0.19129600000000002,0.7429095,-0.1375885,-0.21409399999999998,0.9817595,-0.2221615,0.22148600000000002,1.0092595000000002,-0.2012715,-0.067314,0.0022454999999999975,-0.0054815,0.067314,-0.002245500000000001,0.0054815,-0.12723399999999999,-0.3130105,-0.1207445,0.112556,-0.3194405,-0.0844155,-0.141294,-0.6591505,-0.0799205,0.11409599999999999,-0.6670805000000001,-0.06464349999999999
102,0.019379499999999997,0.662285,-0.096754,-0.12541650000000001,0.516575,-0.084671,-0.1888365,0.7730849999999999,-0.155846,0.1339135,0.5047149999999999,-0.07588,0.1912535,0.7376849999999999,-0.12382099999999999,-0.2154165,0.977865,-0.206416,0.2204535,1.002565,-0.184196,-0.0673345,0.002121000000000005,-0.005490999999999999,0.0673345,-0.002120999999999998,0.005491000000000003,-0.1275165,-0.322685,-0.10111799999999999,0.1094235,-0.330715,-0.064529,-0.1428265,-0.668985,-0.06502,0.11242350000000001,-0.679255,-0.048868999999999996
103,0.018993,0.6612644999999999,-0.084283,-0.126534,0.5129345,-0.072602,-0.190904,0.7699745,-0.142579,0.134546,0.5019045,-0.06316,0.191286,0.7331645,-0.109376,-0.216824,0.9739945,-0.190559,0.21943600000000002,0.9952944999999999,-0.167659,-0.06737599999999999,0.0020205000000000015,-0.005566,0.06737599999999999,-0.0020205000000000015,0.0055660000000000015,-0.128004,-0.3322055,-0.081205,0.10657599999999999,-0.3423655,-0.044451000000000004,-0.14435399999999998,-0.6794255,-0.050061,0.110586,-0.6917255,-0.032738
104,0.017999,0.657094,-0.07256750000000001,-0.127716,0.510054,-0.0609575,-0.192926,0.767644,-0.1302905,0.13512400000000002,0.499954,-0.050908499999999995,0.191694,0.732494,-0.0970275,-0.21831599999999998,0.9709340000000001,-0.1753605,0.218394,0.988034,-0.1524805,-0.06767999999999999,0.001807000000000003,-0.005563500000000001,0.06767999999999999,-0.0018069999999999961,0.005563499999999999,-0.128906,-0.343426,-0.0623165,0.104264,-0.35439600000000004,-0.0256755,-0.145936,-0.691076,-0.0339505,0.10864400000000002,-0.7039460000000001,-0.0170685
105,0.016926499999999997,0.6530035,-0.060753999999999996,-0.1289455,0.5068835,-0.049409,-0.19493549999999998,0.7651235,-0.11746300000000001,0.1357545,0.4976035,-0.038701,0.1923145,0.7316935,-0.085785,-0.2196155,0.9675435,-0.160933,0.2174345,0.9802434999999999,-0.138033,-0.06801750000000001,0.0015524999999999983,-0.005523999999999999,0.06801750000000001,-0.0015525000000000053,0.005523999999999999,-0.1300255,-0.3550665,-0.043311999999999996,0.1024445,-0.3662665,-0.007596,-0.1475455,-0.7031465,-0.018713,0.1067545,-0.7159965,-0.0015210000000000002
106,0.015921,0.6493224999999999,-0.04897,-0.130296,0.5039524999999999,-0.037858,-0.196696,0.7624725,-0.104751,0.13641399999999998,0.4955925,-0.02641,0.19328399999999998,0.7316125,-0.074491,-0.220896,0.9644124999999999,-0.14621099999999998,0.21651399999999998,0.9726124999999999,-0.12358100000000001,-0.068386,0.0015634999999999954,-0.005507999999999999,0.068386,-0.0015635000000000093,0.005508,-0.131096,-0.3662075,-0.02426,0.100874,-0.3776075,0.010029,-0.149096,-0.7146575000000001,-0.0030600000000000002,0.10510400000000002,-0.7275875,0.013249
107,0.014908999999999999,0.6470604999999999,-0.0386105,-0.13144,0.5022905,-0.027721499999999996,-0.19845,0.7609305,-0.0935385,0.13725,0.49481049999999993,-0.015563500000000001,0.19447,0.7327905,-0.0647595,-0.22205,0.9624805000000001,-0.13304850000000001,0.21597,0.9666805,-0.11099849999999999,-0.06864400000000001,0.0020504999999999968,-0.0061435,0.06864400000000001,-0.0020504999999999968,0.006143500000000001,-0.13211,-0.37628950000000005,-0.0078605,0.09962000000000001,-0.38728949999999995,0.024816500000000002,-0.15044,-0.7250195,0.0104375,0.10367000000000001,-0.7373795000000001,0.0259155
108,0.014666499999999999,0.6471304999999999,-0.036504999999999996,-0.1316155,0.5029705,-0.026213,-0.1994155,0.7656405,-0.091089,0.1372945,0.49481049999999993,-0.014044000000000001,0.1960145,0.7394904999999999,-0.06258,-0.22243549999999998,0.9649805,-0.128389,0.21625450000000002,0.9670805,-0.10700899999999999,-0.0688355,0.0020504999999999968,-0.005866,0.0688355,-0.0020504999999999968,0.005866000000000001,-0.1321755,-0.3763495,-0.004937,0.09947450000000002,-0.3879595,0.028148,-0.1504355,-0.7250595000000001,0.012433000000000001,0.1035945,-0.7380695,0.028662
109,0.0145395,0.6471304999999999,-0.034602,-0.1317315,0.5034605,-0.024702,-0.19971150000000001,0.7664605,-0.088705,0.1373585,0.49481049999999993,-0.012518000000000001,0.1965485,0.7447205,-0.06101,-0.2229015,0.9659804999999999,-0.12398500000000001,0.2165985,0.9670805,-0.103625,-0.0690295,0.0020504999999999968,-0.005562000000000001,0.0690295,-0.0020504999999999968,0.0055619999999999975,-0.1322215,-0.3764995,-0.0022910000000000014,0.0993385,-0.3886195,0.031271999999999994,-0.1504315,-0.7251895,0.014423999999999998,0.10346849999999999,-0.7387495000000001,0.031153999999999998
110,0.014714999999999999,0.6473105,-0.033089,-0.131853,0.5037005,-0.023212999999999998,-0.19994299999999998,0.7671104999999999,-0.087061,0.137327,0.49481049999999993,-0.011021999999999997,0.196997,0.7496705,-0.059474,-0.223053,0.9667805,-0.121321,0.216847,0.9670805,-0.10210100000000001,-0.06911700000000001,0.0020504999999999968,-0.005245,0.06911700000000001,-0.0020504999999999968,0.005245,-0.132353,-0.3768395,-3.699999999999884e-05,0.099267,-0.3890395,0.033742,-0.150533,-0.7254195,0.016433,0.103237,-0.7391895,0.033401
111,0.014950999999999999,0.6483745000000001,-0.031536,-0.131617,0.5048245,-0.021696,-0.199627,0.7683045000000001,-0.086498,0.137573,0.4957245,-0.009502000000000003,0.197813,0.7556145000000001,-0.05863,-0.222827,0.9680445000000001,-0.119438,0.217443,0.9671445,-0.10051800000000001,-0.06914200000000001,0.001957500000000001,-0.004864,0.06914200000000001,-0.001957499999999987,0.004864,-0.13264700000000001,-0.37577550000000004,0.0018850000000000013,0.09956299999999998,-0.3882755,0.035424,-0.150537,-0.7243755,0.018431,0.10344299999999998,-0.7384155,0.035397
112,0.015350999999999997,0.6490085000000001,-0.029850500000000002,-0.13139499999999998,0.5055185,-0.020291500000000004,-0.199425,0.7690485,-0.0847985,0.137795,0.4963585,-0.007973500000000001,0.19861499999999999,0.7562485000000001,-0.05688050000000001,-0.222465,0.9688785,-0.11772849999999999,0.218205,0.9679784999999999,-0.09877849999999999,-0.069132,0.001860500000000001,-0.004589500000000003,0.069132,-0.001860500000000001,0.0045895,-0.132935,-0.3751415,0.0035474999999999986,0.099825,-0.38764149999999997,0.037128499999999995,-0.150595,-0.7237615,0.0205375,0.103625,-0.7377815000000001,0.0373595
113,0.015889499999999997,0.649463,-0.028741999999999997,-0.1312895,0.505933,-0.019172999999999996,-0.1993795,0.769513,-0.083033,0.1380005,0.49661299999999997,-0.0068010000000000015,0.1996805,0.756503,-0.055247000000000004,-0.22232949999999999,0.969433,-0.11593300000000001,0.2196805,0.967333,-0.096913,-0.06908450000000001,0.001891999999999991,-0.004354999999999998,0.06908450000000001,-0.0018920000000000048,0.004355000000000001,-0.1333995,-0.374907,0.005290000000000003,0.0999205,-0.387387,0.038918,-0.1508295,-0.723567,0.022673000000000002,0.10366050000000002,-0.737527,0.039218
114,0.016109500000000006,0.649443,-0.028310000000000002,-0.13132549999999998,0.506113,-0.018132000000000002,-0.1992755,0.769723,-0.081594,0.1382445,0.49661299999999997,-0.005879000000000002,0.2010845,0.760763,-0.05589500000000001,-0.2221855,0.969633,-0.11413399999999999,0.22171449999999998,0.967333,-0.09620399999999998,-0.06909850000000001,0.001891999999999991,-0.004182999999999999,0.06909850000000001,-0.0018920000000000048,0.004182999999999996,-0.1338455,-0.374997,0.007044999999999996,0.0998745,-0.387387,0.040705,-0.1512455,-0.723677,0.024644999999999997,0.10348450000000001,-0.737527,0.040993999999999996
115,0.016507,0.649273,-0.028251,-0.131046,0.506233,-0.017551999999999998,-0.198706,0.769723,-0.08097399999999999,0.13979400000000003,0.497413,-0.005400999999999996,0.20340400000000003,0.761633,-0.05660199999999999,-0.22156599999999999,0.969633,-0.11282400000000001,0.22454399999999997,0.9658329999999999,-0.09570400000000001,-0.069119,0.001891999999999991,-0.003938999999999998,0.069119,-0.0018920000000000048,0.0039390000000000015,-0.13400600000000001,-0.375297,0.009004999999999999,0.099974,-0.38754700000000003,0.041905,-0.151636,-0.723957,0.026681,0.10332400000000001,-0.737577,0.042954
116,0.017637500000000004,0.649327,-0.029192999999999997,-0.1303555,0.506407,-0.017658,-0.1975355,0.769897,-0.081063,0.14167449999999998,0.499707,-0.005072,0.2058545,0.761807,-0.057311,-0.2200455,0.969807,-0.11323300000000001,0.2283145,0.9650070000000001,-0.09625299999999999,-0.0691225,0.0019269999999999982,-0.0038890000000000036,0.0691225,-0.0019269999999999982,0.0038889999999999966,-0.1341355,-0.375603,0.010605999999999997,0.10020450000000002,-0.387563,0.042352,-0.1519555,-0.724203,0.028508,0.10319450000000001,-0.737493,0.044777
117,0.0186725,0.649847,-0.030154,-0.1296005,0.506997,-0.018035000000000002,-0.1958525,0.7705069999999999,-0.082023,0.1451775,0.5020669999999999,-0.004534000000000003,0.2090575,0.762097,-0.058224,-0.2180425,0.970447,-0.11462300000000002,0.2343675,0.9645469999999999,-0.09785300000000001,-0.0689835,0.0018380000000000063,-0.003986000000000003,0.0689835,-0.0018379999999999924,0.0039859999999999965,-0.1345825,-0.375603,0.012095999999999996,0.10027749999999999,-0.387103,0.042414999999999994,-0.1524925,-0.7241230000000001,0.030584999999999994,0.1027875,-0.736773,0.046772999999999995
118,0.020971499999999997,0.650099,-0.032491500000000006,-0.12791950000000002,0.507579,-0.019188500000000004,-0.19263049999999998,0.769049,-0.0849675,0.14800950000000002,0.504129,-0.003409500000000003,0.2126495,0.7627390000000001,-0.05877450000000001,-0.21411049999999998,0.970489,-0.1183475,0.2404095,0.9639890000000001,-0.09962750000000001,-0.0687995,0.0017200000000000132,-0.0042715000000000045,0.0687995,-0.0017199999999999993,0.0042714999999999975,-0.1357905,-0.375911,0.013464499999999994,0.09983950000000001,-0.386691,0.04191249999999999,-0.1542505,-0.724221,0.03347049999999999,0.10114949999999999,-0.736011,0.04912949999999999
119,0.022913499999999996,0.6500115,-0.03456600000000001,-0.12658550000000002,0.5076815,-0.020397000000000012,-0.1897755,0.7669215,-0.088014,0.1501245,0.5057115,-0.0018880000000000077,0.21620449999999997,0.7631115,-0.05909400000000001,-0.2104455,0.9686615000000001,-0.122764,0.2456145,0.9631615,-0.100984,-0.0687245,0.0016555000000000042,-0.004576000000000004,0.0687245,-0.0016554999999999903,0.004575999999999997,-0.1373355,-0.3767685,0.014693999999999992,0.09887449999999998,-0.3864985,0.04120399999999999,-0.1569655,-0.7247585,0.03674399999999999,0.0985345,-0.7355685,0.05119399999999999
120,0.0252475,0.6501739999999999,-0.036504499999999995,-0.1248435,0.5069739999999999,-0.022475499999999995,-0.1866275,0.762444,-0.0921395,0.1529925,0.5076339999999999,-0.00027449999999999697,0.22058250000000001,0.760734,-0.058469499999999994,-0.20575749999999998,0.9668339999999999,-0.13019950000000002,0.2509125,0.9603339999999999,-0.1018295,-0.06861249999999999,0.0016059999999999963,-0.005020499999999997,0.06861249999999999,-0.0016059999999999963,0.005020500000000004,-0.1393975,-0.377896,0.0156265,0.0970925,-0.386096,0.0398385,-0.1619775,-0.7251960000000001,0.0408405,0.09380250000000001,-0.734956,0.0539665
121,0.027824,0.6506375,-0.038566500000000004,-0.12407499999999999,0.5065075,-0.0238955,-0.183052,0.7563375,-0.09695549999999999,0.155568,0.5088075,0.0017415,0.226048,0.7578775,-0.0573955,-0.199412,0.9621875000000001,-0.14080549999999997,0.255688,0.9571875,-0.10264549999999999,-0.068548,0.001515499999999989,-0.0053145,0.068548,-0.001515500000000003,0.0053145,-0.14091900000000002,-0.3794025,0.015828500000000002,0.09517800000000001,-0.3854525,0.0383795,-0.167772,-0.7256525,0.0451565,0.08840800000000001,-0.7341225,0.056939500000000004
122,0.029628499999999995,0.651735,-0.03959399999999999,-0.12278649999999999,0.505425,-0.02581299999999999,-0.17965050000000002,0.7487950000000001,-0.101489,0.15798949999999998,0.510645,0.004512000000000002,0.23135949999999997,0.754405,-0.055299,-0.1920105,0.958305,-0.151289,0.2601395,0.9527049999999999,-0.102799,-0.0682795,0.0013290000000000107,-0.005815000000000001,0.06827949999999999,-0.0013289999999999969,0.005815000000000008,-0.1416125,-0.381125,0.014472000000000006,0.09260949999999998,-0.384315,0.037302,-0.1745305,-0.725525,0.04959600000000001,0.08159949999999999,-0.732505,0.060687000000000005
123,0.03086450000000001,0.6527729999999999,-0.040140499999999996,-0.1229035,0.504763,-0.0270855,-0.17664549999999998,0.741243,-0.10695049999999999,0.1589845,0.5127229999999999,0.008044499999999996,0.23634450000000004,0.750043,-0.05253050000000001,-0.1846455,0.953883,-0.16165049999999997,0.2643945,0.9471829999999999,-0.10298049999999999,-0.06809449999999999,0.0011889999999999956,-0.006482500000000002,0.0680945,-0.0011890000000000095,0.006482500000000002,-0.1419975,-0.38362700000000005,0.011125499999999997,0.08979450000000003,-0.383567,0.0365905,-0.1818955,-0.725067,0.0539045,0.07357450000000001,-0.7308370000000001,0.06493449999999999
124,0.031753,0.6541919999999999,-0.039958499999999994,-0.11995600000000001,0.5015620000000001,-0.0301805,-0.17440699999999998,0.7341120000000001,-0.1123085,0.160343,0.5155019999999999,0.012104500000000004,0.24067300000000003,0.7456020000000001,-0.04838849999999999,-0.175787,0.946682,-0.1728485,0.267003,0.9420819999999999,-0.1026485,-0.067993,0.0011769999999999975,-0.007148499999999988,0.06799300000000001,-0.0011770000000000114,0.007148500000000002,-0.140974,-0.385558,0.0046085000000000015,0.08592300000000001,-0.382388,0.036777500000000005,-0.18865700000000002,-0.7239279999999999,0.057328500000000004,0.064203,-0.728688,0.0698305
125,0.0314135,0.6552574999999999,-0.03864950000000002,-0.1188945,0.49827749999999993,-0.03207950000000001,-0.1725585,0.7262675,-0.1184395,0.1606435,0.5186575,0.01672349999999999,0.2455735,0.7399375,-0.044369500000000006,-0.1672005,0.9380275,-0.18386950000000002,0.2690435,0.9354975,-0.10281950000000001,-0.0679935,0.001177499999999998,-0.007888500000000007,0.0679935,-0.001177500000000005,0.007888499999999993,-0.1386205,-0.38663250000000005,-0.004013500000000017,0.0811835,-0.3802825,0.038188499999999986,-0.1939165,-0.7226425000000001,0.06027749999999999,0.053263500000000005,-0.7251225,0.07547149999999998
126,0.030912999999999982,0.6565775,-0.03672349999999999,-0.11864000000000001,0.49431749999999997,-0.032993499999999995,-0.171023,0.7148375,-0.1264735,0.159333,0.5218775,0.0219815,0.253593,0.7284175,-0.0405335,-0.155634,0.9245175,-0.19892349999999998,0.269053,0.9243475,-0.10429349999999998,-0.068623,0.001178499999999999,-0.008168499999999995,0.068623,-0.001178499999999999,0.008168500000000009,-0.13344,-0.3872125,-0.018103499999999995,0.074813,-0.3762925,0.0408275,-0.192811,-0.7206525,0.0589785,0.04027299999999999,-0.7209225,0.08253150000000001
127,0.029677999999999996,0.6596455,-0.03399350000000001,-0.11868,0.4891555000000001,-0.03450350000000002,-0.17174299999999998,0.6997955,-0.1358435,0.15837800000000002,0.5213955,0.02634249999999999,0.26489799999999997,0.7099055000000001,-0.037403500000000006,-0.14230299999999999,0.9054655,-0.21649350000000003,0.26878799999999997,0.9063355000000001,-0.1081735,-0.06931799999999999,0.0013634999999999967,-0.0082435,0.069318,-0.0013635000000000036,0.008243499999999987,-0.12223099999999999,-0.38191450000000005,-0.03769350000000002,0.06957800000000001,-0.37093450000000006,0.04473049999999999,-0.181607,-0.7153545,0.04998849999999999,0.026097999999999996,-0.7154145,0.0867425
128,0.02908949999999999,0.663094,-0.030988000000000016,-0.1184825,0.48473400000000005,-0.03606800000000002,-0.1715035,0.6825739999999999,-0.150548,0.15809949999999998,0.520714,0.030562999999999993,0.27660949999999995,0.6886239999999999,-0.035418000000000005,-0.12686250000000002,0.882864,-0.23513799999999999,0.27053950000000004,0.882324,-0.11276800000000001,-0.0701095,0.001362000000000002,-0.008388000000000007,0.07010949999999999,-0.001362000000000002,0.008387999999999993,-0.10825850000000001,-0.376166,-0.06007800000000002,0.0680095,-0.365426,0.04855599999999999,-0.1645995,-0.7096060000000001,0.035895999999999983,0.011649500000000007,-0.708136,0.09216799999999999
129,0.028304999999999997,0.6659299999999999,-0.028535000000000005,-0.11981399999999999,0.48135999999999995,-0.03690499999999999,-0.172157,0.66252,-0.165725,0.155805,0.5177099999999999,0.03438799999999999,0.28615500000000005,0.66547,-0.035684999999999995,-0.11108199999999999,0.8549500000000001,-0.252045,0.27031499999999997,0.85686,-0.11799500000000002,-0.070755,0.00136,-0.008965,0.07075500000000001,-0.00136,0.008964999999999987,-0.09304199999999999,-0.37002,-0.082615,0.059164999999999995,-0.36339,0.05462199999999999,-0.141143,-0.70346,0.015915,-0.0018849999999999978,-0.69957,0.098256
130,0.028553000000000023,0.669445,-0.026365,-0.11957199999999998,0.47741500000000003,-0.038565000000000016,-0.17285399999999998,0.6399050000000001,-0.181875,0.15491300000000002,0.513695,0.03705199999999999,0.29724300000000003,0.633985,-0.03378500000000001,-0.09501899999999998,0.823135,-0.266645,0.271363,0.822305,-0.122195,-0.07169299999999998,0.0020579999999999973,-0.009035000000000015,0.071693,-0.002058000000000001,0.009034999999999987,-0.07655799999999999,-0.365945,-0.10622500000000001,0.05072300000000002,-0.361085,0.06146299999999999,-0.11381299999999998,-0.697025,-0.009615000000000012,-0.01569699999999999,-0.690215,0.10597399999999998
131,0.03106500000000001,0.673158,-0.02554999999999999,-0.11872,0.473948,-0.04074999999999998,-0.175476,0.614688,-0.19341999999999998,0.153725,0.5091380000000001,0.03914000000000002,0.306675,0.597198,-0.03062999999999999,-0.079495,0.7862680000000001,-0.28179,0.270805,0.782788,-0.12496999999999997,-0.072635,0.002636000000000003,-0.008929999999999993,0.072635,-0.0026359999999999995,0.008930000000000021,-0.061384999999999995,-0.360292,-0.12794,0.041655,-0.358012,0.06729000000000002,-0.082465,-0.6887719999999999,-0.03972999999999999,-0.031885,-0.682862,0.11704000000000002
132,0.032635000000000025,0.6772914999999999,-0.02432000000000001,-0.11460199999999997,0.4688315,-0.044550000000000006,-0.17968399999999998,0.5837815,-0.20235999999999998,0.15343500000000004,0.5036115,0.04032999999999999,0.31403500000000006,0.5567114999999999,-0.026370000000000005,-0.06576499999999996,0.7415514999999999,-0.29627000000000003,0.269255,0.7384415,-0.12847000000000003,-0.07346499999999997,0.0030764999999999994,-0.00902,0.073465,-0.003076500000000001,0.00902,-0.04711499999999996,-0.3526485,-0.14784000000000003,0.03594500000000003,-0.35679849999999996,0.07448199999999999,-0.04699499999999998,-0.6799685000000001,-0.07350000000000001,-0.04818499999999998,-0.6753485,0.128461
133,0.03190000000000001,0.6823024999999999,-0.02401500000000001,-0.1162,0.46734250000000005,-0.047655,-0.18635000000000002,0.5469725,-0.20780500000000002,0.14979,0.4988525,0.042265,0.31790000000000007,0.5130625,-0.021834999999999993,-0.05779999999999999,0.6902324999999999,-0.307675,0.26578999999999997,0.6894524999999999,-0.133405,-0.07363,0.0033265000000000005,-0.009885000000000005,0.07363,-0.0033264999999999996,0.009885000000000005,-0.03425,-0.3455175,-0.165825,0.029100000000000015,-0.35494749999999997,0.080828,-0.010429999999999995,-0.6702475,-0.109375,-0.0632,-0.6648075,0.138763
134,0.03312499999999996,0.6874220000000001,-0.028329999999999994,-0.11790500000000002,0.465312,-0.05382999999999999,-0.19463600000000003,0.504692,-0.21289999999999998,0.14779499999999995,0.492402,0.041810000000000014,0.319205,0.468432,-0.016949999999999993,-0.05200500000000002,0.631722,-0.31744,0.261705,0.6347520000000001,-0.13907999999999998,-0.07390500000000003,0.0033400000000000005,-0.01071999999999998,0.073905,-0.00334,0.010720000000000007,-0.023235000000000006,-0.337868,-0.18246999999999997,0.021184999999999954,-0.353728,0.08585000000000001,0.024904999999999955,-0.660628,-0.14545999999999998,-0.07842500000000002,-0.654778,0.14853
135,0.03398499999999999,0.6927835,-0.03253499999999998,-0.12005500000000002,0.4643835,-0.06056499999999998,-0.20222600000000002,0.46041350000000003,-0.21209499999999998,0.14559499999999997,0.48761350000000003,0.042645000000000016,0.311005,0.4263235,-0.005394999999999983,-0.052485000000000004,0.5641434999999999,-0.31531499999999996,0.256385,0.5712235,-0.139835,-0.073385,0.0035415000000000012,-0.012414999999999982,0.07338499999999998,-0.0035414999999999995,0.01241500000000001,-0.015015,-0.3305265,-0.19393499999999997,0.010114999999999985,-0.3528865,0.09571500000000001,0.05180499999999999,-0.6520365,-0.17245499999999997,-0.09618500000000002,-0.6405065000000001,0.161842
136,0.03464499999999998,0.6975205,-0.036004999999999954,-0.12281500000000001,0.46534050000000005,-0.06401499999999999,-0.20753700000000003,0.42294050000000005,-0.200065,0.14304499999999998,0.48442050000000003,0.04218500000000003,0.294465,0.39015049999999996,0.013995000000000035,-0.06087500000000001,0.49874050000000003,-0.30078499999999997,0.24789499999999998,0.5048705,-0.13028499999999998,-0.073215,0.003779499999999998,-0.013664999999999983,0.07321499999999997,-0.0037795000000000016,0.01366500000000001,-0.005404999999999993,-0.3248095,-0.195185,-0.0009350000000000191,-0.35315949999999996,0.10493500000000003,0.066805,-0.6474995,-0.18554499999999996,-0.11550500000000002,-0.6345695,0.18061500000000003
137,0.0348,0.7017825,-0.04045500000000002,-0.12625999999999998,0.4661025,-0.06720500000000001,-0.21375,0.38760249999999996,-0.182035,0.13931,0.4827125,0.03922500000000001,0.27554000000000006,0.3563725,0.031124999999999986,-0.07321999999999998,0.42685249999999997,-0.28342500000000004,0.23785000000000006,0.4420725,-0.123695,-0.07299999999999998,0.003691500000000004,-0.014815000000000023,0.07300000000000001,-0.0036915000000000003,0.014814999999999995,9.999999999998899e-05,-0.31918749999999996,-0.19217499999999998,-0.012220000000000009,-0.3473275,0.11141499999999999,0.07500000000000001,-0.6437375,-0.192355,-0.13466,-0.6196875,0.198583
138,0.03501499999999996,0.706143,-0.04614499999999999,-0.12794500000000003,0.466193,-0.07141499999999995,-0.21915500000000004,0.35608300000000004,-0.15922499999999995,0.13566499999999998,0.481653,0.035465000000000024,0.255865,0.32139300000000004,0.04345500000000002,-0.09127500000000005,0.357093,-0.261825,0.22708499999999998,0.37422300000000003,-0.119475,-0.07299500000000003,0.0033320000000000016,-0.014884999999999982,0.07299499999999998,-0.0033319999999999947,0.014885000000000037,0.001434999999999964,-0.31504699999999997,-0.18670499999999995,-0.025745000000000018,-0.342717,0.11567500000000003,0.07461499999999999,-0.641007,-0.19065499999999996,-0.14657500000000004,-0.610427,0.21192500000000003
139,0.034060000000000035,0.7097964999999999,-0.05132500000000001,-0.13062999999999997,0.46726650000000003,-0.07467499999999999,-0.22547999999999996,0.3284465,-0.13677500000000004,0.13084000000000007,0.4806865,0.033824999999999994,0.2326600000000001,0.2956065,0.054064999999999974,-0.11301999999999995,0.2943865,-0.23807499999999998,0.21354000000000006,0.31427649999999996,-0.11462500000000003,-0.07224999999999998,0.002207500000000001,-0.015394999999999992,0.07225000000000004,-0.002207500000000001,0.015394999999999992,-0.0007499999999999729,-0.3139535,-0.177195,-0.03554999999999997,-0.3385935,0.11082499999999998,0.06898000000000004,-0.6390835,-0.18172500000000003,-0.15670999999999996,-0.5998635,0.22211599999999998
140,0.03149000000000002,0.712218,-0.05546000000000001,-0.13428999999999996,0.46949799999999997,-0.07722000000000001,-0.22982999999999995,0.305508,-0.11449000000000004,0.12635000000000007,0.47904800000000003,0.031039999999999957,0.20878000000000008,0.276358,0.06341999999999998,-0.13684999999999997,0.236008,-0.21313000000000004,0.2020200000000001,0.268458,-0.11117000000000005,-0.07179999999999997,0.0017319999999999974,-0.015920000000000045,0.07180000000000003,-0.0017320000000000044,0.01591999999999999,-0.0010599999999999499,-0.315222,-0.16656000000000004,-0.03747999999999996,-0.339252,0.09193999999999997,0.058290000000000064,-0.638692,-0.16696,-0.15174999999999994,-0.600052,0.21640999999999996
141,0.030785000000000007,0.7138454999999999,-0.06033499999999997,-0.139805,0.4713855,-0.07889499999999999,-0.232455,0.2887455,-0.09420499999999998,0.12193499999999996,0.47889550000000003,0.028805000000000025,0.18802499999999994,0.2664955,0.07315500000000003,-0.15908500000000003,0.18571549999999998,-0.18800499999999998,0.19033499999999998,0.2296355,-0.106485,-0.07127500000000003,0.0016074999999999978,-0.016195000000000015,0.07127500000000003,-0.0016074999999999978,0.016195000000000015,-0.002365000000000006,-0.31822449999999997,-0.153945,-0.03651500000000002,-0.3370845,0.07409500000000002,0.042155,-0.6387945,-0.14671500000000004,-0.14598500000000003,-0.6047745,0.21027500000000002
142,0.03357999999999994,0.71438,-0.06528999999999996,-0.14194,0.47303999999999996,-0.07945999999999998,-0.23154000000000002,0.27964,-0.07516,0.12075999999999998,0.47828,0.026090000000000002,0.17128999999999994,0.25983,0.07613000000000003,-0.1773,0.145692,-0.16376999999999997,0.18480999999999992,0.20323999999999998,-0.10485,-0.07116000000000006,0.0015469999999999998,-0.01599999999999996,0.07116,-0.0015469999999999998,0.016000000000000014,-0.0046700000000000075,-0.32212,-0.13874999999999993,-0.024680000000000035,-0.33513000000000004,0.058770000000000044,0.023389999999999966,-0.6404599999999999,-0.12207999999999997,-0.13611,-0.60785,0.20153000000000001
143,0.035659999999999914,0.7165294999999999,-0.06589499999999998,-0.14194000000000007,0.4743295,-0.07775500000000002,-0.22954000000000008,0.2768295,-0.052254999999999996,0.12094999999999989,0.4773395,0.027935000000000043,0.15749999999999997,0.2612195,0.08197500000000002,-0.19470000000000004,0.1151985,-0.13937500000000003,0.18026999999999993,0.1877995,-0.10080499999999992,-0.07075000000000004,0.0017534999999999981,-0.015844999999999998,0.07074999999999998,-0.001753500000000005,0.015844999999999998,-0.009170000000000067,-0.3236205,-0.12319499999999994,-0.007270000000000054,-0.3329805,0.041325,0.002439999999999942,-0.6419805000000001,-0.09329500000000002,-0.10941000000000006,-0.6086305000000001,0.18029500000000004
144,0.03820499999999993,0.717731,-0.06743499999999991,-0.14065500000000003,0.47819100000000003,-0.07617499999999999,-0.22825500000000004,0.278861,-0.037894999999999956,0.12068499999999993,0.476331,0.025845000000000062,0.15105499999999994,0.259921,0.08014500000000002,-0.20992500000000003,0.099324,-0.12244499999999992,0.17615499999999995,0.186541,-0.10292499999999993,-0.07066500000000003,0.0019430000000000003,-0.015054999999999985,0.07066499999999998,-0.0019430000000000003,0.01505500000000004,-0.015125000000000055,-0.325399,-0.10601499999999997,0.01957500000000001,-0.326879,0.017815000000000025,-0.01839500000000005,-0.642779,-0.06782499999999991,-0.06799500000000003,-0.607529,0.14868500000000007
145,0.04152,0.717832,-0.07001500000000005,-0.13956000000000002,0.48036199999999996,-0.076075,-0.22803,0.27896200000000004,-0.03513500000000003,0.12056,0.47387199999999996,0.024395,0.15098999999999996,0.260022,0.07184499999999999,-0.22078000000000003,0.08632700000000001,-0.11299500000000007,0.17738999999999994,0.186142,-0.11190500000000003,-0.07041000000000003,0.002044000000000004,-0.014445000000000041,0.07040999999999997,-0.002043999999999997,0.014444999999999986,-0.028280000000000083,-0.32625800000000005,-0.09314500000000003,0.046740000000000004,-0.321418,-0.007325000000000026,-0.03778999999999999,-0.642678,-0.047885000000000066,-0.020809999999999995,-0.606398,0.108545
146,0.04605500000000007,0.714742,-0.07137499999999997,-0.13747499999999996,0.48158199999999995,-0.074465,-0.22783499999999995,0.27896200000000004,-0.03502499999999997,0.12188500000000002,0.472642,0.02394500000000005,0.15480500000000008,0.260022,0.07147500000000001,-0.22955499999999995,0.084673,-0.10567499999999996,0.18318500000000004,0.185912,-0.113425,-0.07012499999999999,0.002044000000000004,-0.013584999999999958,0.07012499999999999,-0.002043999999999997,0.013585000000000014,-0.04418499999999992,-0.32701800000000003,-0.079905,0.07504500000000003,-0.316198,-0.029244999999999965,-0.06018499999999993,-0.642678,-0.02536499999999997,0.034925000000000095,-0.604678,0.06593500000000002
147,0.050925,0.7141355,-0.07110000000000005,-0.13536499999999996,0.4826355,-0.07050000000000001,-0.227105,0.2802855,-0.03373000000000004,0.127355,0.47233549999999996,0.024880000000000013,0.16789500000000002,0.2620255,0.07693,-0.234585,0.0839675,-0.09841,0.19759500000000008,0.18548549999999997,-0.11179000000000006,-0.06982500000000003,0.0022584999999999966,-0.012929999999999997,0.06982500000000003,-0.0022585000000000036,0.012929999999999997,-0.058804999999999996,-0.3274445,-0.06647000000000003,0.10706500000000008,-0.3105945,-0.04925999999999997,-0.08168500000000001,-0.6431045,-0.003610000000000002,0.08768500000000001,-0.6051045,0.027939999999999965
148,0.05694500000000002,0.7110044999999999,-0.07109500000000002,-0.131365,0.4835345,-0.066075,-0.22480499999999998,0.2809345,-0.03210499999999994,0.13490500000000005,0.4724845,0.02336499999999997,0.183875,0.2630945,0.07848500000000003,-0.238415,0.0822705,-0.090445,0.22009500000000004,0.1829845,-0.10663500000000004,-0.07030499999999995,0.0023604999999999945,-0.011634999999999951,0.07030499999999995,-0.0023605000000000015,0.011635000000000062,-0.07379499999999994,-0.3249955,-0.05341499999999999,0.13649500000000003,-0.3057355,-0.06193499999999996,-0.10503499999999999,-0.6423755,0.01888500000000004,0.13690500000000005,-0.6067655000000001,-0.00411499999999998
149,0.062104999999999966,0.707901,-0.07072,-0.12795500000000004,0.485541,-0.06051999999999991,-0.22191500000000008,0.281891,-0.02851999999999999,0.14411499999999988,0.47140099999999996,0.021690000000000098,0.20426499999999992,0.263531,0.07692000000000004,-0.24056500000000008,0.08115800000000001,-0.08872999999999998,0.22724499999999992,0.19265100000000002,-0.10868,-0.07077500000000003,0.002455000000000006,-0.009919999999999929,0.07077499999999992,-0.002454999999999999,0.00992000000000004,-0.09124500000000002,-0.32199900000000004,-0.04118999999999995,0.15522499999999995,-0.30303899999999995,-0.0601799999999999,-0.12860500000000008,-0.640889,0.041060000000000096,0.17719499999999988,-0.6073390000000001,-0.024399999999999977
150,0.06764499999999996,0.703735,-0.07255999999999996,-0.1239650000000001,0.48823500000000003,-0.055359999999999965,-0.21678500000000006,0.282805,-0.022730000000000028,0.1490149999999999,0.46908500000000003,0.01468999999999998,0.20726499999999992,0.264385,0.06891999999999998,-0.24221500000000007,0.08089299999999999,-0.08416000000000001,0.21894499999999995,0.21097500000000002,-0.11309999999999998,-0.07145500000000005,0.0024059999999999984,-0.007040000000000046,0.07145499999999994,-0.0024060000000000054,0.007040000000000046,-0.107935,-0.319115,-0.031789999999999985,0.16695499999999996,-0.300515,-0.05935999999999997,-0.15252500000000002,-0.635395,0.06308000000000002,0.2071949999999999,-0.612095,-0.04251000000000005
151,0.07349499999999998,0.6987639999999999,-0.07738000000000012,-0.11918499999999999,0.491684,-0.05186000000000013,-0.21094500000000005,0.282584,-0.01550000000000007,0.148725,0.46694399999999997,0.0013899999999998913,0.21113499999999996,0.265584,0.05905999999999989,-0.242315,0.080348,-0.07805000000000006,0.20849499999999999,0.23202399999999998,-0.12258000000000013,-0.07234499999999999,0.002570000000000003,-0.0030400000000000427,0.07234499999999999,-0.002570000000000003,0.0030399999999999316,-0.12245499999999998,-0.317076,-0.025660000000000127,0.169045,-0.298916,-0.06030000000000013,-0.171755,-0.629806,0.0804999999999999,0.23385499999999992,-0.610586,-0.057660000000000045
152,0.07833500000000004,0.693586,-0.08295999999999992,-0.114205,0.494946,-0.04860999999999993,-0.20425499999999996,0.282206,-0.006909999999999972,0.14517500000000005,0.46366599999999997,-0.01788999999999996,0.213225,0.267176,0.039959999999999996,-0.24139500000000003,0.080012,-0.06972999999999996,0.19676499999999997,0.250196,-0.13522,-0.07304500000000003,0.0028879999999999947,0.0012900000000000134,0.07304500000000003,-0.0028880000000000017,-0.0012900000000000134,-0.13338499999999998,-0.315994,-0.019610000000000016,0.16601500000000002,-0.297594,-0.05835999999999997,-0.18796499999999994,-0.625624,0.09350999999999998,0.24460499999999996,-0.615294,-0.05928
153,0.08243999999999996,0.6883064999999999,-0.08768500000000001,-0.10946000000000011,0.4973965,-0.04483500000000007,-0.19664000000000004,0.2812565,0.0021249999999999325,0.13996999999999993,0.46430649999999996,-0.03548499999999999,0.2080599999999999,0.2738265,0.02053499999999997,-0.23885000000000012,0.0795935,-0.058825000000000016,0.18131999999999993,0.26887649999999996,-0.15146500000000007,-0.07325000000000004,0.002632499999999996,0.005454999999999988,0.07324999999999993,-0.002632500000000003,-0.005454999999999988,-0.1418600000000001,-0.31586349999999996,-0.014925000000000077,0.1619299999999999,-0.2959435,-0.055765000000000065,-0.19978000000000007,-0.6221935000000001,0.10368499999999992,0.24936999999999987,-0.6195035,-0.05752500000000005
154,0.08460500000000004,0.6841794999999999,-0.09133500000000006,-0.1053949999999999,0.4997895,-0.04141499999999998,-0.18866499999999997,0.28073950000000003,0.012604999999999977,0.1342850000000001,0.4647495,-0.052305000000000046,0.19897500000000012,0.2800195,-0.0007549999999999502,-0.23582499999999995,0.0797305,-0.047924999999999995,0.1618050000000001,0.2858495,-0.17049499999999995,-0.07298499999999997,0.002189499999999997,0.009445000000000037,0.07298500000000008,-0.002189500000000004,-0.009445000000000037,-0.149335,-0.3151105,-0.010645000000000016,0.15547500000000003,-0.2945205,-0.051714999999999955,-0.209395,-0.6190405000000001,0.11194499999999996,0.248575,-0.6222505,-0.052344999999999975
155,0.08471000000000006,0.680802,-0.09597999999999995,-0.10226000000000002,0.5021220000000001,-0.03988000000000003,-0.17884,0.280732,0.02017000000000002,0.12707000000000002,0.46788199999999996,-0.06849000000000005,0.18630000000000002,0.285922,-0.027449999999999974,-0.23153,0.080043,-0.03646000000000005,0.13722,0.298492,-0.19387,-0.07211000000000001,0.0018770000000000037,0.01305999999999996,0.07211000000000001,-0.0018769999999999967,-0.01305999999999996,-0.15093,-0.314798,-0.008260000000000045,0.14766,-0.293128,-0.04835999999999996,-0.21053,-0.615978,0.11439999999999995,0.23929999999999996,-0.622988,-0.04427000000000003
156,0.07911999999999997,0.67823,-0.09925000000000006,-0.10405000000000009,0.50201,-0.0383,-0.17052000000000012,0.28104,0.026579999999999937,0.1142399999999999,0.47069,-0.08488000000000007,0.16460999999999992,0.28750000000000003,-0.05813999999999997,-0.2274400000000001,0.080351,-0.025029999999999997,0.11477999999999988,0.30749000000000004,-0.22296000000000005,-0.07010000000000005,0.001569000000000001,0.015189999999999926,0.07009999999999994,-0.001569000000000001,-0.015190000000000037,-0.14995000000000014,-0.31449,-0.007319999999999993,0.13830999999999993,-0.29169999999999996,-0.04442999999999997,-0.20686000000000004,-0.6131300000000001,0.11363999999999996,0.22590999999999983,-0.62409,-0.03492000000000006
157,0.07387500000000002,0.677536,-0.10553500000000005,-0.10485500000000003,0.505136,-0.04018500000000014,-0.16207499999999997,0.280336,0.03002499999999997,0.10047499999999998,0.47466600000000003,-0.1020350000000001,0.14636499999999997,0.291486,-0.08609500000000003,-0.22230499999999997,0.080522,-0.01843500000000009,0.09698499999999999,0.316406,-0.2556950000000001,-0.06787500000000002,0.0019619999999999985,0.01878499999999994,0.06787500000000002,-0.0019619999999999985,-0.01878500000000005,-0.14609499999999997,-0.313554,-0.009965000000000113,0.12916500000000009,-0.29103399999999996,-0.040425000000000044,-0.19830499999999995,-0.609924,0.10789499999999996,0.2156650000000001,-0.626564,-0.029585000000000083
158,0.06974999999999998,0.6772765,-0.11192999999999997,-0.10492000000000001,0.5083065,-0.04252999999999996,-0.15441000000000005,0.2782565,0.032970000000000055,0.08480999999999994,0.4790565,-0.11764999999999992,0.13039999999999985,0.29059650000000004,-0.11058999999999997,-0.21699000000000002,0.0787605,-0.013399999999999967,0.08021999999999996,0.3249165,-0.2834899999999999,-0.06557000000000002,0.0020505000000000037,0.022199999999999998,0.0655699999999999,-0.0020504999999999968,-0.022199999999999998,-0.14055000000000006,-0.3141335,-0.01317999999999997,0.121,-0.2909035,-0.03644999999999998,-0.1867200000000001,-0.6075635,0.10048000000000001,0.20089999999999986,-0.6301935,-0.02613999999999994
159,0.06443999999999994,0.674699,-0.11531499999999995,-0.10611999999999999,0.5121089999999999,-0.043564999999999965,-0.14878000000000002,0.275929,0.03512499999999996,0.07579000000000002,0.490039,-0.12709499999999996,0.12132999999999994,0.29279900000000003,-0.12898500000000002,-0.21175,0.076278,-0.011334999999999984,0.060779999999999945,0.333599,-0.30969499999999994,-0.06325000000000003,0.0017789999999999959,0.024135000000000018,0.06325000000000003,-0.0017790000000000028,-0.024135000000000018,-0.13365000000000005,-0.313861,-0.01450499999999999,0.11603000000000008,-0.291511,-0.03510499999999994,-0.17236000000000007,-0.606141,0.09170500000000004,0.19392999999999994,-0.631551,-0.02481500000000003
160,0.058540000000000036,0.6703454999999999,-0.11565999999999999,-0.11099999999999999,0.5176355,-0.043159999999999976,-0.14646000000000003,0.27716549999999995,0.036800000000000055,0.06728,0.5055955,-0.12835999999999992,0.10833999999999999,0.2969155,-0.14132,-0.21043999999999996,0.07729349999999999,-0.008399999999999963,0.03173999999999999,0.34488549999999996,-0.32718999999999987,-0.06225000000000003,0.0006194999999999951,0.025700000000000056,0.06225000000000003,-0.0006195000000000089,-0.025699999999999945,-0.12953000000000003,-0.31260450000000006,-0.014249999999999985,0.11273999999999995,-0.2915845,-0.03374999999999995,-0.16312000000000004,-0.6020245000000001,0.08560000000000001,0.18874000000000002,-0.6314145,-0.017859999999999987
161,0.05315499999999995,0.6658585,-0.11509000000000003,-0.11554500000000001,0.5220985,-0.04235000000000011,-0.14442500000000003,0.27860850000000004,0.03810999999999998,0.05976499999999996,0.5212485,-0.12813000000000008,0.09127499999999988,0.30314850000000004,-0.14814000000000005,-0.209515,0.0786665,-0.0048200000000000465,0.015534999999999966,0.35173849999999995,-0.3414600000000001,-0.061585,-0.0006184999999999941,0.027049999999999907,0.061585,0.0006185000000000079,-0.02705000000000002,-0.12529500000000005,-0.31153149999999996,-0.013690000000000091,0.11047499999999999,-0.29168150000000004,-0.03206000000000009,-0.15419500000000008,-0.5978715,0.07970999999999995,0.18437500000000007,-0.6313814999999999,-0.007260000000000044
162,0.04749000000000003,0.66219,-0.11506499999999997,-0.12085000000000001,0.5267,-0.04229499999999997,-0.14246999999999999,0.28068,0.03850500000000001,0.05037999999999998,0.53452,-0.128405,0.07856999999999992,0.30775,-0.15425500000000003,-0.20930000000000004,0.080953,-0.002475000000000005,0.00383,0.36113,-0.3494050000000001,-0.061470000000000025,-0.0014429999999999998,0.029015000000000013,0.061470000000000025,0.0014429999999999998,-0.029015000000000013,-0.12138000000000004,-0.31112,-0.01403500000000002,0.10876999999999992,-0.29125999999999996,-0.028895000000000004,-0.14667000000000008,-0.59524,0.07405499999999998,0.17997000000000007,-0.63066,0.0018850000000000255
163,0.042709999999999915,0.6581994999999999,-0.11457000000000006,-0.12541000000000002,0.5317995,-0.041850000000000054,-0.1411,0.2830595,0.039429999999999854,0.04189999999999994,0.5466095,-0.12829000000000013,0.06691999999999987,0.31463949999999996,-0.16071000000000013,-0.2097000000000001,0.0836455,-0.0010700000000001264,-0.007100000000000106,0.37170949999999997,-0.3567600000000002,-0.06152000000000002,-0.0020285000000000025,0.030629999999999935,0.06152000000000002,0.0020284999999999886,-0.030630000000000046,-0.11812,-0.3104305,-0.014160000000000061,0.10741999999999985,-0.2903005,-0.025620000000000087,-0.1395200000000001,-0.5924205,0.06884999999999986,0.17731999999999992,-0.6293105,0.009829999999999894
164,0.03844000000000003,0.6520565,-0.11247999999999991,-0.12905999999999995,0.5378865,-0.040099999999999913,-0.14084999999999992,0.2850465,0.04043000000000008,0.03469,0.5612965,-0.12696999999999992,0.06114000000000008,0.32581649999999995,-0.16576999999999997,-0.21126999999999996,0.08632949999999999,-0.00021999999999988695,-0.012680000000000025,0.3765665,-0.3634599999999999,-0.062039999999999984,-0.002873500000000001,0.03210000000000002,0.062039999999999984,0.002873499999999987,-0.032099999999999906,-0.11624999999999996,-0.30977350000000003,-0.01429999999999998,0.10624,-0.2888535,-0.02234999999999998,-0.13564999999999994,-0.5884435,0.0648200000000001,0.17444000000000004,-0.6275135,0.018550000000000066
165,0.03575000000000006,0.6464219999999999,-0.1091700000000001,-0.13122999999999985,0.544292,-0.03816000000000008,-0.14018999999999993,0.28772200000000003,0.041649999999999965,0.02988000000000013,0.5681620000000001,-0.12506000000000006,0.05732000000000004,0.336262,-0.16666000000000003,-0.21217999999999992,0.089682,0.0008699999999999264,-0.017119999999999913,0.38776200000000005,-0.3640300000000001,-0.0636199999999999,-0.0037610000000000005,0.03355999999999992,0.06362000000000001,0.0037610000000000005,-0.033560000000000034,-0.11429999999999985,-0.308828,-0.01477000000000006,0.10652000000000017,-0.28719799999999995,-0.018730000000000024,-0.13212999999999986,-0.5838180000000001,0.06125999999999998,0.17292000000000018,-0.6250180000000001,0.02806999999999993
166,0.03304499999999999,0.6412,-0.10534999999999994,-0.13348499999999996,0.5507299999999999,-0.03649999999999998,-0.14010500000000004,0.29085,0.04251000000000005,0.02271500000000004,0.5737,-0.1215099999999999,0.05455499999999991,0.34548,-0.16733999999999993,-0.21315499999999998,0.092934,0.002100000000000102,-0.020765000000000033,0.39890000000000003,-0.3634599999999999,-0.06465500000000002,-0.00470000000000001,0.03434000000000004,0.06465499999999991,0.004699999999999996,-0.034339999999999926,-0.11149500000000001,-0.30786,-0.01602999999999999,0.10645499999999997,-0.28554,-0.014949999999999908,-0.12627500000000003,-0.57929,0.056460000000000066,0.17135499999999992,-0.62254,0.03775000000000006
