sb224sc-HT22-VT27/4dt907/src/data/kinect_good_vs_bad_not_preprocessed_A13_mediapipe/G68.csv
FrameNo,nose_3d_x,nose_3d_y,nose_3d_z,left_shoulder_3d_x,left_shoulder_3d_y,left_shoulder_3d_z,left_elbow_3d_x,left_elbow_3d_y,left_elbow_3d_z,right_shoulder_3d_x,right_shoulder_3d_y,right_shoulder_3d_z,right_elbow_3d_x,right_elbow_3d_y,right_elbow_3d_z,left_wrist_3d_x,left_wrist_3d_y,left_wrist_3d_z,right_wrist_3d_x,right_wrist_3d_y,right_wrist_3d_z,left_hip_3d_x,left_hip_3d_y,left_hip_3d_z,right_hip_3d_x,right_hip_3d_y,right_hip_3d_z,left_knee_3d_x,left_knee_3d_y,left_knee_3d_z,right_knee_3d_x,right_knee_3d_y,right_knee_3d_z,left_ankle_3d_x,left_ankle_3d_y,left_ankle_3d_z,right_ankle_3d_x,right_ankle_3d_y,right_ankle_3d_z
0,0.01965,0.7310435,0.022167,-0.142454,0.4719435,0.011386,-0.307764,0.3872935,-0.101204,0.161246,0.4706535,0.012832,0.314286,0.3769535,-0.113054,-0.399854,0.35722349999999997,-0.294494,0.404486,0.3231735,-0.311614,-0.07375899999999999,0.0008394999999999995,0.0008179999999999993,0.07375899999999999,-0.0008395,-0.0008179999999999993,-0.121674,-0.3197665,0.00682,0.10699600000000001,-0.3178065,0.027833,-0.117784,-0.6689265,0.026356,0.126656,-0.6227665,0.039407
1,0.0193575,0.730124,0.022871500000000003,-0.1427115,0.47242399999999996,0.010569500000000003,-0.3162315,0.410774,-0.1037845,0.1610985,0.473274,0.012475500000000004,0.33344850000000004,0.39899399999999996,-0.09816449999999999,-0.41053150000000005,0.411574,-0.3133145,0.4090785,0.38845399999999997,-0.3010445,-0.0737215,0.0009130000000000002,0.001293500000000003,0.0737215,-0.0009130000000000002,-0.001293499999999996,-0.1219015,-0.319576,0.006741500000000004,0.1069085,-0.31847600000000004,0.0277895,-0.1181615,-0.6687759999999999,0.025851500000000003,0.1263685,-0.624896,0.0385655
2,0.019307500000000002,0.7284835,0.022393000000000003,-0.1437685,0.4732635,0.008622000000000005,-0.3275685,0.4744735,-0.10310599999999999,0.1629415,0.4791335,0.009830000000000005,0.3366015,0.4699335,-0.121986,-0.4164185,0.5142135,-0.295026,0.4183815,0.5116435,-0.317236,-0.0737845,0.0010804999999999999,0.0020840000000000025,0.0737845,-0.0010805,-0.0020839999999999956,-0.1220185,-0.3207065,0.006519000000000004,0.1067915,-0.3202765,0.027613000000000006,-0.1181585,-0.6699565000000001,0.025076000000000005,0.12255150000000001,-0.6460765,0.03517000000000001
3,0.019478000000000002,0.7274459999999999,0.022359499999999997,-0.14487299999999997,0.47375599999999995,0.007487499999999998,-0.324013,0.49440599999999996,-0.1097165,0.16502699999999998,0.479716,0.009034499999999997,0.335167,0.510496,-0.1219365,-0.435263,0.5752459999999999,-0.3303665,0.415207,0.564816,-0.3146365,-0.073739,0.0009209999999999999,0.0022234999999999963,0.073739,-0.0009209999999999999,-0.0022235000000000033,-0.122003,-0.321464,0.006669499999999995,0.106717,-0.32142400000000004,0.027600499999999997,-0.118333,-0.670794,0.024564499999999996,0.122397,-0.648454,0.0346415
4,0.019590999999999997,0.72647,0.022360500000000005,-0.14549900000000002,0.47672000000000003,0.003616500000000005,-0.325929,0.53372,-0.11855849999999998,0.167921,0.48157,0.007937500000000007,0.33525099999999997,0.5297,-0.1204685,-0.431179,0.62674,-0.3279185,0.42232099999999995,0.6273099999999999,-0.3311785,-0.073641,0.00102,0.0018155000000000046,0.073641,-0.0010199999999999999,-0.0018154999999999977,-0.121919,-0.32288999999999995,0.0068625000000000075,0.106721,-0.32293,0.027894500000000006,-0.130269,-0.62067,0.03139650000000001,0.122061,-0.65098,0.0350755
5,0.020822000000000004,0.7230705000000001,0.021724000000000004,-0.147123,0.4804605,-0.0002539999999999973,-0.320983,0.5698905,-0.10942299999999999,0.173887,0.4846005,0.006107000000000001,0.33149700000000004,0.5773905,-0.11230299999999999,-0.415323,0.7067405,-0.297363,0.40782700000000005,0.7098705,-0.299013,-0.073541,0.0009835,0.0018630000000000035,0.073541,-0.0009835,-0.0018629999999999966,-0.121253,-0.3259295,0.0068560000000000045,0.10724700000000001,-0.32596949999999997,0.028158000000000002,-0.113573,-0.6754395,0.022162,0.122687,-0.6557095,0.035085000000000005
6,0.021530999999999998,0.7193965,0.021749000000000004,-0.14727300000000002,0.4864165,-0.0010599999999999984,-0.308303,0.6200165,-0.107865,0.175827,0.4935465,0.004284000000000003,0.323107,0.6270365,-0.10626499999999998,-0.390623,0.8050065,-0.264015,0.378307,0.7972065,-0.250175,-0.072834,0.0005284999999999995,0.002273000000000004,0.072834,-0.0005284999999999995,-0.0022729999999999972,-0.12141300000000001,-0.3311635,0.009794000000000004,0.107537,-0.3314535,0.030917000000000004,-0.114263,-0.6805935,0.026263,0.122067,-0.6621335,0.037118000000000005
7,0.020459000000000005,0.7180105,0.018547500000000005,-0.146423,0.48922049999999995,-0.00033149999999999846,-0.29583299999999996,0.6236105,-0.0946715,0.168727,0.4943505,0.006531500000000003,0.307437,0.6299305,-0.0920915,-0.37460299999999996,0.7871505,-0.2377915,0.36713700000000005,0.7864405,-0.22982149999999996,-0.07277700000000001,0.0005994999999999993,0.0006815000000000015,0.07277700000000001,-0.0005995000000000011,-0.0006814999999999946,-0.121533,-0.33337950000000005,0.010167500000000006,0.10775699999999999,-0.33266949999999995,0.030606500000000005,-0.11588299999999999,-0.6819795000000001,0.028804500000000004,0.12215700000000002,-0.6644995,0.03910450000000001
8,0.020657000000000002,0.7157905,0.01686,-0.146174,0.49288050000000005,-0.001349999999999997,-0.290024,0.6482405,-0.08999800000000001,0.169346,0.4969405,0.006294000000000001,0.303046,0.6537605,-0.085268,-0.364234,0.8254505,-0.21915799999999996,0.357046,0.8255005,-0.208258,-0.072572,0.0005024999999999995,0.0005749999999999991,0.072572,-0.0005024999999999995,-0.0005749999999999991,-0.121264,-0.3364795,0.01106,0.108136,-0.3353595,0.031191,-0.115364,-0.6849895,0.029657000000000003,0.122306,-0.6684895,0.040005
9,0.020938999999999996,0.713493,0.014908000000000005,-0.145653,0.496343,-0.0017419999999999936,-0.282643,0.6692130000000001,-0.084266,0.170027,0.49915299999999996,0.006365000000000003,0.295867,0.675353,-0.079076,-0.351233,0.858833,-0.198436,0.345287,0.858033,-0.185726,-0.072385,0.0004039999999999981,0.00042500000000000177,0.072385,-0.0004040000000000016,-0.0004249999999999948,-0.12091299999999999,-0.339667,0.012024000000000003,0.108597,-0.338017,0.03184700000000001,-0.114753,-0.688257,0.030814000000000005,0.122777,-0.672457,0.04113800000000001
10,0.021117499999999997,0.7114675,0.013012499999999996,-0.1450375,0.4994875,-0.0015965000000000007,-0.2743375,0.6866575,-0.0783335,0.1703625,0.5009075,0.0067785,0.2888925,0.6918875,-0.0710635,-0.3372575,0.8838175,-0.17700349999999998,0.3333725,0.8816674999999999,-0.1625835,-0.07221050000000001,0.0003025000000000007,0.0001964999999999953,0.07221050000000001,-0.0003025000000000007,-0.00019650000000000223,-0.1206275,-0.3426225,0.012994499999999996,0.10901249999999998,-0.3404125,0.032585499999999996,-0.1142475,-0.6910525000000001,0.0321655,0.1232325,-0.6760425,0.0423835
11,0.021228,0.709757,0.010960499999999998,-0.14443999999999999,0.501957,-0.0012394999999999975,-0.26704,0.698967,-0.0715895,0.17028000000000001,0.501397,0.007563500000000001,0.28247999999999995,0.703097,-0.06304950000000001,-0.32534,0.898247,-0.1578095,0.32409,0.896107,-0.1436795,-0.07211999999999999,0.0002589999999999988,-6.950000000000012e-05,0.07211999999999999,-0.0002590000000000023,6.950000000000012e-05,-0.12028,-0.34506299999999995,0.0135925,0.10938999999999999,-0.342283,0.032994499999999996,-0.11501,-0.689703,0.0336805,0.12379000000000001,-0.679213,0.0434795
12,0.021384000000000004,0.707913,0.009133499999999996,-0.14375500000000002,0.504343,-0.0003165000000000043,-0.260955,0.707483,-0.0648345,0.169815,0.500763,0.008086499999999996,0.27658499999999997,0.709643,-0.055904499999999996,-0.314655,0.909473,-0.1405345,0.315395,0.9055529999999999,-0.12663449999999998,-0.072047,0.0002580000000000013,-0.00022250000000000048,0.072047,-0.00025799999999999434,0.00022250000000000048,-0.119865,-0.347557,0.013933499999999998,0.10988500000000001,-0.34391700000000003,0.0334195,-0.114965,-0.692897,0.0350095,0.124505,-0.681417,0.0447645
13,0.021501999999999997,0.7057829999999999,0.007771500000000001,-0.14288900000000002,0.506863,0.0010845000000000021,-0.255039,0.714583,-0.0581425,0.168231,0.49994299999999997,0.0083885,0.271011,0.7151529999999999,-0.048895499999999995,-0.304859,0.918623,-0.12446249999999999,0.30730100000000005,0.913773,-0.11152250000000001,-0.071976,0.00022199999999999998,-0.0003295000000000034,0.071976,-0.00022199999999999998,0.00032949999999999646,-0.119509,-0.349827,0.014232500000000002,0.110501,-0.345437,0.0338555,-0.116389,-0.6916070000000001,0.0371785,0.125261,-0.683767,0.0463795
14,0.0215475,0.7036830000000001,0.006767500000000003,-0.1418985,0.508673,0.002660500000000003,-0.2494085,0.720593,-0.051512499999999996,0.1661915,0.499043,0.0084925,0.2659515,0.7193430000000001,-0.0423965,-0.2959185,0.923733,-0.10979350000000002,0.2996615,0.919073,-0.0976435,-0.0719155,0.00015199999999999936,-0.00029749999999999915,0.0719155,-0.0001520000000000063,0.00029749999999999915,-0.11913850000000001,-0.351807,0.014615500000000003,0.1111615,-0.346097,0.033987500000000004,-0.11777850000000001,-0.690167,0.039441500000000004,0.1261515,-0.685497,0.048134500000000004
15,0.021451999999999995,0.701729,0.006136999999999997,-0.1409,0.510229,0.004384999999999993,-0.24438000000000001,0.725469,-0.045182,0.16417,0.49782899999999997,0.008719999999999992,0.26126,0.722859,-0.03647500000000001,-0.28746,0.928239,-0.095792,0.29295,0.921759,-0.08672200000000001,-0.071878,8.400000000000074e-05,-0.00023300000000000404,0.071878,-8.400000000000074e-05,0.0002329999999999971,-0.11877,-0.35351099999999996,0.015100999999999996,0.11173999999999999,-0.346091,0.03369799999999999,-0.11928,-0.688331,0.04188599999999999,0.12702999999999998,-0.687051,0.049860999999999996
16,0.021122,0.700196,0.005919500000000001,-0.13996999999999998,0.511086,0.0059605000000000005,-0.24106,0.728736,-0.0406045,0.16251,0.496536,0.0088945,0.25788,0.725536,-0.0325415,-0.28165999999999997,0.930586,-0.0860845,0.28773,0.924266,-0.0799545,-0.07188,3.500000000000031e-05,-0.00016549999999999898,0.07188,-3.500000000000031e-05,0.00016549999999999898,-0.11852,-0.35448399999999997,0.0155065,0.11215,-0.345504,0.0334425,-0.12093,-0.685774,0.0442305,0.12772,-0.687784,0.0513145
17,0.020621999999999995,0.6987920000000001,0.0059029999999999985,-0.139193,0.511812,0.0074749999999999955,-0.23861300000000002,0.730842,-0.036987000000000006,0.160987,0.495302,0.008868000000000001,0.254687,0.725522,-0.029343000000000008,-0.277383,0.932042,-0.07888700000000001,0.28197700000000003,0.929902,-0.07444700000000001,-0.07187099999999999,-5.999999999999062e-06,-6.899999999999962e-05,0.07187099999999999,6.0000000000060005e-06,6.899999999999962e-05,-0.118343,-0.35516800000000004,0.015952,0.11246699999999998,-0.345248,0.033502,-0.122673,-0.6829879999999999,0.046575,0.128467,-0.6883579999999999,0.052636999999999996
18,0.019992000000000003,0.6975795,0.0060684999999999975,-0.13856400000000002,0.5124295,0.0089015,-0.23682399999999998,0.7321795,-0.034058500000000005,0.159346,0.49420949999999997,0.008702500000000002,0.252056,0.7256095,-0.027216500000000005,-0.274334,0.9326395,-0.07352650000000001,0.277406,0.9349395,-0.0710265,-0.071854,-6.0499999999998055e-05,8.74999999999973e-05,0.071854,6.0499999999998055e-05,-8.74999999999973e-05,-0.118214,-0.3555605,0.0163755,0.112736,-0.34494050000000004,0.0335665,-0.12449400000000001,-0.6798905000000001,0.0487965,0.129106,-0.6888105,0.0538355
19,0.019289,0.6964715,0.006172499999999997,-0.138015,0.5129515,0.010267499999999999,-0.23524499999999998,0.7329015,-0.031469500000000004,0.15769499999999997,0.49322150000000003,0.008431500000000001,0.24945499999999998,0.7254315,-0.025433500000000005,-0.271725,0.9326315,-0.0690075,0.273285,0.9404115,-0.0687375,-0.071836,-0.00010650000000000243,0.0002474999999999977,0.071836,0.00010650000000000243,-0.0002474999999999977,-0.11808500000000001,-0.35585849999999997,0.0168175,0.112965,-0.34468849999999995,0.0335815,-0.126295,-0.6764585000000001,0.050936499999999996,0.129745,-0.6892985,0.054947499999999996
20,0.018528500000000003,0.695462,0.006449500000000004,-0.1376355,0.513482,0.011523499999999999,-0.2340455,0.733152,-0.029377499999999994,0.15611450000000002,0.492522,0.007974500000000002,0.2471845,0.725062,-0.0239305,-0.2696655,0.9322119999999999,-0.0657265,0.2699945,0.9460419999999999,-0.0672865,-0.0718135,-0.00016300000000000342,0.00042350000000000027,0.0718135,0.00016299999999999648,-0.00042350000000000027,-0.11795549999999999,-0.356078,0.017309500000000005,0.1131145,-0.34433800000000003,0.03357450000000001,-0.1281555,-0.6728080000000001,0.0528985,0.1303445,-0.689598,0.055870500000000003
21,0.017761000000000002,0.6948930000000001,0.006570000000000006,-0.13744499999999998,0.5136430000000001,0.012344000000000008,-0.233455,0.733303,-0.028177999999999995,0.15457500000000002,0.49229300000000004,0.00750300000000001,0.246455,0.7248530000000001,-0.022814999999999988,-0.26836499999999996,0.931663,-0.06418399999999999,0.268165,0.951743,-0.06623399999999999,-0.07178599999999999,-0.0002500000000000002,0.000684000000000004,0.07178599999999999,0.0002500000000000002,-0.0006839999999999971,-0.11779499999999998,-0.35579700000000003,0.017989000000000005,0.11313500000000001,-0.343897,0.03342500000000001,-0.128125,-0.6724169999999999,0.054165000000000005,0.130635,-0.690217,0.05629200000000001
22,0.017101,0.6947245,0.006408999999999998,-0.13731300000000002,0.5134645,0.012769999999999997,-0.23296299999999998,0.7332245,-0.027428999999999995,0.15358700000000003,0.4921245,0.007110999999999999,0.24594700000000003,0.7249045,-0.022130999999999998,-0.267283,0.9315445,-0.06326,0.26698700000000003,0.9577644999999999,-0.06559000000000001,-0.071779,-0.00032150000000000234,0.0009549999999999975,0.071779,0.00032150000000000234,-0.0009550000000000045,-0.11773299999999999,-0.35555549999999997,0.018702999999999997,0.113077,-0.3434755,0.033227999999999994,-0.128083,-0.6717755000000001,0.055004,0.130827,-0.6901455000000001,0.056378
23,0.016499500000000004,0.69467,0.0060715000000000005,-0.1372265,0.5134,0.0129335,-0.2324965,0.7331799999999999,-0.026958499999999996,0.1531135,0.49205,0.006839499999999998,0.24565350000000002,0.72484,-0.0221745,-0.2663465,0.93149,-0.0626835,0.2662135,0.9638899999999999,-0.0656335,-0.0717765,-0.00037399999999999933,0.0011795,0.0717765,0.00037399999999999933,-0.0011795,-0.11769649999999998,-0.35525,0.0191495,0.1130035,-0.34355,0.0332365,-0.12804649999999998,-0.67104,0.0556025,0.1309835,-0.68953,0.0564485
24,0.01607,0.69467,0.005587500000000002,-0.13717000000000001,0.51342,0.012932500000000006,-0.23201,0.7331799999999999,-0.026805500000000003,0.15267000000000003,0.49205,0.006335500000000001,0.24552000000000002,0.72484,-0.022937499999999993,-0.26555999999999996,0.93153,-0.0624955,0.26599,0.9702900000000001,-0.0672655,-0.071765,-0.00037399999999999933,0.0013255000000000003,0.071765,0.00037399999999999933,-0.0013255000000000003,-0.11764000000000001,-0.35502,0.019297500000000002,0.11299000000000001,-0.34355,0.03338150000000001,-0.12802999999999998,-0.67021,0.055982500000000004,0.13113,-0.68896,0.0564025
25,0.015718499999999996,0.69469,0.005148,-0.1371635,0.5132599999999999,0.012927999999999995,-0.2317635,0.73354,-0.026737999999999998,0.15227649999999998,0.49193999999999993,0.005837000000000002,0.2454265,0.72484,-0.023871000000000003,-0.2651135,0.93187,-0.062408000000000005,0.2661065,0.9766900000000001,-0.06893800000000001,-0.0717535,-0.00037399999999999933,0.0013810000000000003,0.0717535,0.00037399999999999933,-0.0013810000000000072,-0.11741349999999999,-0.3548,0.019387999999999996,0.11298649999999999,-0.34355,0.033435999999999994,-0.1280135,-0.66939,0.056287,0.13134649999999998,-0.68886,0.056341
26,0.01552,0.6947,0.0049055,-0.137161,0.51317,0.012927500000000001,-0.231711,0.73407,-0.026746500000000006,0.152039,0.49185999999999996,0.005517500000000002,0.245419,0.72483,-0.024799500000000002,-0.264851,0.93236,-0.062396499999999994,0.266199,0.97879,-0.0701465,-0.071744,-0.00037399999999999933,0.0013815000000000008,0.071744,0.00037399999999999933,-0.0013814999999999938,-0.117171,-0.35464,0.0195725,0.11294900000000001,-0.34365,0.0334345,-0.127991,-0.66852,0.0565915,0.131489,-0.68923,0.0562945
27,0.015368000000000003,0.6947905,0.004619499999999999,-0.13711800000000002,0.5131705,0.012855499999999999,-0.23164800000000002,0.7347505,-0.02684650000000001,0.151862,0.4918705,0.005180499999999998,0.245502,0.7248205,-0.025673500000000002,-0.264708,0.9329204999999999,-0.06250850000000001,0.26630200000000004,0.9806805000000001,-0.07122850000000001,-0.071744,-0.00042450000000000127,0.0014554999999999985,0.071744,0.00042450000000000127,-0.0014554999999999985,-0.116928,-0.3543695,0.0198565,0.112892,-0.3442295,0.0335865,-0.12784800000000002,-0.6674495,0.0568305,0.131592,-0.6895395,0.0562255
28,0.015304499999999995,0.6948305,0.004332500000000003,-0.1370435,0.5132005000000001,0.012693500000000003,-0.23157350000000002,0.7354905,-0.027193499999999995,0.1517665,0.4919005,0.004798500000000004,0.2456165,0.7248705000000001,-0.026543499999999998,-0.2646235,0.9336105,-0.0628505,0.2664265,0.9820905,-0.0724105,-0.0717565,-0.00044750000000000345,0.0016215000000000049,0.0717565,0.0004474999999999965,-0.001621499999999998,-0.1166735,-0.35407950000000005,0.020172500000000003,0.11291649999999999,-0.34490950000000004,0.0338265,-0.1276635,-0.6665995,0.057008500000000004,0.13168649999999998,-0.6900394999999999,0.0560645
29,0.0152545,0.694882,0.0039040000000000047,-0.13695549999999998,0.513242,0.012466000000000005,-0.23145549999999998,0.7356320000000001,-0.027675999999999992,0.15170450000000002,0.491942,0.0043219999999999995,0.2457445,0.7249720000000001,-0.027424000000000004,-0.2645155,0.933762,-0.063392,0.2674445,0.9808920000000001,-0.07329200000000001,-0.07177149999999999,-0.0004760000000000042,0.0017860000000000029,0.07177149999999999,0.00047599999999999726,-0.001785999999999996,-0.11642549999999999,-0.353798,0.020469,0.11298450000000002,-0.345138,0.033774,-0.1274455,-0.6659079999999999,0.057026,0.1317945,-0.690628,0.055907
30,0.0152325,0.6949655,0.0034389999999999976,-0.1368455,0.5131755,0.012172000000000002,-0.2313155,0.7359255,-0.028281999999999995,0.1517245,0.49201550000000005,0.0038650000000000004,0.2459045,0.7250555000000001,-0.028306000000000005,-0.2643755,0.9340255000000001,-0.06401100000000001,0.2684945,0.9791755000000001,-0.074261,-0.0717835,-0.0005015000000000019,0.0018939999999999999,0.0717835,0.000501499999999995,-0.0018939999999999999,-0.1161855,-0.3535045,0.020797999999999997,0.1130945,-0.34529449999999995,0.033646999999999996,-0.1272655,-0.6652345,0.056957,0.1319745,-0.6911345,0.055672
31,0.0151845,0.695051,0.002946000000000004,-0.13674250000000002,0.513111,0.01185,-0.2313925,0.736221,-0.028964000000000004,0.1517675,0.492101,0.0034140000000000004,0.2461075,0.725131,-0.029158000000000003,-0.2643625,0.934271,-0.064758,0.2694875,0.9771610000000001,-0.07501799999999999,-0.07180149999999999,-0.0005259999999999987,0.0020040000000000058,0.07180149999999999,0.0005259999999999987,-0.002003999999999999,-0.11595249999999999,-0.353219,0.021108000000000002,0.11320749999999999,-0.345389,0.033534,-0.12711250000000002,-0.664569,0.056845,0.1321375,-0.691449,0.055371000000000004
32,0.015151,0.6951285,0.002374000000000001,-0.13660100000000003,0.5130284999999999,0.011464000000000002,-0.23151100000000002,0.7363884999999999,-0.029690999999999995,0.151839,0.4921785,0.002909000000000002,0.246369,0.7251985000000001,-0.029987,-0.264471,0.9343885000000001,-0.065613,0.270379,0.9723385,-0.075683,-0.071817,-0.0005525000000000044,0.0021140000000000048,0.071817,0.0005524999999999974,-0.002113999999999998,-0.115751,-0.3530015,0.021344000000000002,0.113399,-0.3455015,0.033387,-0.12694100000000003,-0.6639014999999999,0.056627000000000004,0.13227899999999998,-0.6916215000000001,0.054952
33,0.015077000000000002,0.6952134999999999,0.0017345,-0.136465,0.5129935,0.011007500000000003,-0.231675,0.7365435,-0.030533500000000005,0.151955,0.4922335,0.0023465000000000014,0.246615,0.7252535,-0.030704499999999996,-0.264695,0.9344935,-0.0666015,0.271025,0.9676935,-0.07622150000000001,-0.071829,-0.0005805000000000046,0.002173500000000002,0.071829,0.0005804999999999977,-0.002173500000000002,-0.115585,-0.3528065,0.021471499999999998,0.113565,-0.3456865,0.0332865,-0.12676500000000002,-0.6634365,0.0562825,0.132465,-0.6917565,0.0544945
34,0.014983999999999997,0.6952634999999999,0.001025000000000005,-0.136348,0.5129635,0.010500000000000002,-0.23188799999999998,0.7366134999999999,-0.031443,0.152082,0.49224349999999994,0.0017240000000000033,0.24685200000000002,0.7252635,-0.031389,-0.264958,0.9345034999999999,-0.067652,0.27161199999999996,0.9622934999999999,-0.07682199999999999,-0.07183400000000001,-0.0005805000000000046,0.0021690000000000043,0.07183400000000001,0.0005804999999999977,-0.0021689999999999973,-0.115428,-0.3527365,0.021476000000000002,0.113732,-0.3459765,0.033221,-0.126558,-0.6630265000000001,0.055862,0.132632,-0.6919165,0.053988
35,0.014840500000000001,0.6953035,0.00024700000000000416,-0.1362835,0.5129635,0.009945000000000002,-0.23221350000000002,0.7373335,-0.032452,0.15216649999999998,0.49226349999999996,0.0010320000000000051,0.2470365,0.7253235,-0.032110999999999994,-0.2653235,0.9351935,-0.068801,0.2720865,0.9561934999999999,-0.077511,-0.0718485,-0.0005805000000000046,0.0021779999999999994,0.0718485,0.0005804999999999977,-0.0021779999999999994,-0.1152935,-0.35270650000000003,0.021344000000000002,0.11383650000000001,-0.3462965,0.03315800000000001,-0.12638349999999998,-0.6626965,0.055307,0.1328065,-0.6919465,0.053351
36,0.0146295,0.6954834999999999,-0.0006735000000000005,-0.1363415,0.5130435,0.0092765,-0.2326315,0.7381234999999999,-0.0336215,0.1521885,0.4923035,0.00022350000000000148,0.2471585,0.7253835,-0.032980499999999996,-0.2657815,0.9359235,-0.0701135,0.27248849999999997,0.9504934999999999,-0.07843349999999999,-0.0718655,-0.0005805000000000046,0.0021204999999999974,0.0718655,0.0005804999999999977,-0.0021205000000000043,-0.1151915,-0.35270650000000003,0.021033499999999997,0.1138985,-0.3467165,0.033075499999999994,-0.12626150000000003,-0.6626265,0.0544775,0.1328685,-0.6919465,0.052553499999999996
37,0.014368,0.6957139999999999,-0.001750500000000002,-0.136425,0.513104,0.008440499999999997,-0.23294499999999999,0.738934,-0.0348655,0.152165,0.49238399999999993,-0.0007194999999999979,0.247255,0.725414,-0.034009500000000005,-0.266205,0.9367139999999999,-0.0716395,0.272785,0.9446439999999999,-0.0794995,-0.071866,-0.0005889999999999992,0.002100499999999998,0.071866,0.0005889999999999992,-0.002100499999999998,-0.115115,-0.35271600000000003,0.0204745,0.113905,-0.347156,0.0328195,-0.126175,-0.6625960000000001,0.0534725,0.132785,-0.692276,0.0515555
38,0.014129499999999996,0.6959085,-0.0030364999999999975,-0.1365095,0.5131585,0.0073825,-0.2332795,0.7395985,-0.0364825,0.1521605,0.49247850000000004,-0.0018244999999999997,0.2473505,0.7254385,-0.0352435,-0.2667395,0.9374485,-0.0736215,0.2730305,0.9386785,-0.08073150000000001,-0.0718645,-0.0006014999999999979,0.002059499999999999,0.0718645,0.0006015000000000048,-0.002059499999999999,-0.1150295,-0.3527515,0.0195185,0.11393049999999999,-0.3476615,0.032365500000000005,-0.1260995,-0.6625715,0.0522615,0.13274049999999998,-0.6925614999999999,0.0503095
39,0.013887,0.6961120000000001,-0.004591000000000005,-0.13659,0.513162,0.006043,-0.23365,0.740372,-0.03854400000000001,0.15215,0.49257199999999995,-0.003167000000000003,0.24748,0.7259720000000001,-0.036904000000000006,-0.26735,0.938172,-0.07603700000000001,0.27324,0.9332320000000001,-0.08223699999999999,-0.07186100000000001,-0.0006229999999999986,0.002001999999999997,0.07186100000000001,0.0006229999999999986,-0.0020020000000000038,-0.11493999999999999,-0.352868,0.018043999999999998,0.11398,-0.348218,0.031619999999999995,-0.12589,-0.662678,0.050793,0.13275,-0.6927979999999999,0.048831
40,0.013655499999999998,0.6962925,-0.0064710000000000045,-0.1366565,0.5131825000000001,0.004385,-0.2338565,0.7411224999999999,-0.041031,0.1521535,0.4927525,-0.0047820000000000015,0.24761350000000001,0.7265824999999999,-0.03886100000000001,-0.2679165,0.9387924999999999,-0.07882800000000001,0.27345349999999996,0.9280625,-0.08421800000000002,-0.07185649999999999,-0.0006294999999999981,0.0018839999999999968,0.07185649999999999,0.0006295000000000051,-0.0018840000000000037,-0.1148065,-0.3529875,0.016285,0.11406349999999998,-0.3487375,0.030177999999999996,-0.1256165,-0.6626675,0.048892,0.1327435,-0.6930575000000001,0.047063999999999995
41,0.013358499999999995,0.696407,-0.008637000000000006,-0.13682450000000002,0.513067,0.0024129999999999915,-0.2340945,0.741687,-0.043906,0.15205549999999998,0.492957,-0.006658000000000004,0.2476855,0.727257,-0.041122000000000006,-0.2684345,0.939067,-0.082145,0.2735255,0.9279470000000001,-0.08652500000000002,-0.0718525,-0.0006340000000000026,0.001676999999999998,0.0718525,0.0006339999999999957,-0.0016770000000000049,-0.1147045,-0.353333,0.014233999999999997,0.11405549999999999,-0.349363,0.028165999999999993,-0.1253845,-0.662683,0.046669999999999996,0.1326355,-0.693303,0.04500199999999999
42,0.012979000000000001,0.696422,-0.011178,-0.137056,0.512932,7.199999999999568e-05,-0.234136,0.741422,-0.047321,0.151914,0.49297199999999997,-0.008874,0.247694,0.727272,-0.044116,-0.268456,0.938752,-0.08582700000000001,0.273594,0.926542,-0.089387,-0.071806,-0.0006350000000000036,0.001568,0.071806,0.0006349999999999967,-0.001568,-0.114626,-0.353998,0.011829,0.113974,-0.350498,0.025753999999999996,-0.12487599999999999,-0.662988,0.043807,0.132444,-0.693858,0.042316
43,0.012567000000000004,0.6964509999999999,-0.015476000000000004,-0.13711600000000002,0.512791,-0.004020000000000003,-0.234106,0.7407509999999999,-0.052967,0.151824,0.49300099999999997,-0.012588000000000002,0.247694,0.7272909999999999,-0.04918600000000001,-0.268366,0.938021,-0.092739,0.273994,0.925341,-0.094739,-0.072041,-0.0006510000000000057,0.0013279999999999959,0.072041,0.0006509999999999988,-0.0013280000000000028,-0.114726,-0.354909,0.007509000000000002,0.114124,-0.351929,0.021674,-0.12390600000000002,-0.664409,0.038668,0.13231400000000001,-0.6950590000000001,0.037240999999999996
44,0.012034,0.6965645,-0.020222999999999998,-0.13728,0.5126744999999999,-0.008538999999999998,-0.23408,0.7397045,-0.059183,0.15163,0.49311449999999996,-0.016715999999999995,0.24758,0.7273845000000001,-0.05470799999999999,-0.26836,0.9371045,-0.100418,0.27434,0.9254445,-0.101198,-0.072232,-0.0006574999999999984,0.0010050000000000059,0.072232,0.0006574999999999984,-0.001004999999999999,-0.11491,-0.3561155,0.0026780000000000068,0.11419,-0.3532455,0.017167000000000005,-0.12301999999999999,-0.6662055,0.032937,0.13212000000000002,-0.6961955,0.031675
45,0.011415500000000002,0.6961505,-0.026520000000000002,-0.1374025,0.5126505,-0.014337000000000003,-0.2336025,0.7384605000000001,-0.06734599999999999,0.1514675,0.4931205000000001,-0.02187,0.2476175,0.7277505,-0.061886000000000004,-0.2682525,0.9355105,-0.11022600000000002,0.27481750000000005,0.9255405,-0.109456,-0.0724365,-0.0005754999999999996,0.000902,0.0724365,0.0005754999999999996,-0.000902,-0.1149725,-0.3570095,-0.004392,0.1146675,-0.35488949999999997,0.010355,-0.1220125,-0.6680495,0.025643,0.1319775,-0.6972094999999999,0.024425
46,0.010913500000000001,0.6941215,-0.036455,-0.13722849999999998,0.5108415,-0.023466000000000004,-0.2328885,0.7375615,-0.080214,0.1514215,0.49228150000000004,-0.029547,0.2478615,0.7245215,-0.072727,-0.2678585,0.9340515,-0.125864,0.2755615,0.9240015,-0.12269400000000001,-0.0726185,-0.00037650000000000183,0.0005999999999999998,0.0726185,0.00037650000000000183,-0.0005999999999999998,-0.1148185,-0.3572285,-0.016611000000000004,0.1157915,-0.3541285,-0.0012309999999999995,-0.12082849999999999,-0.6704785,0.014460999999999998,0.1320315,-0.6961785,0.013203999999999999
47,0.010573,0.6920014999999999,-0.0468465,-0.136812,0.5084215,-0.033021499999999995,-0.231382,0.7335415,-0.0934925,0.151538,0.49194150000000003,-0.037517499999999995,0.248278,0.7205615,-0.0841095,-0.267552,0.9319715,-0.1424125,0.276598,0.9191115,-0.1375225,-0.072926,-0.00028850000000000403,0.00032350000000000087,0.072926,0.0002884999999999971,-0.00032349999999999914,-0.114582,-0.3575085,-0.029722500000000002,0.117228,-0.3527385,-0.0140495,-0.11949199999999999,-0.6725885,0.002795500000000001,0.132158,-0.6945685,0.0014845000000000014
48,0.010416,0.6894075,-0.058845499999999995,-0.136359,0.5051874999999999,-0.0440685,-0.229869,0.7301875,-0.1086615,0.151551,0.49069749999999995,-0.0466435,0.248751,0.7179875,-0.0969415,-0.266899,0.9311275000000001,-0.1623715,0.277701,0.9155074999999999,-0.15412150000000002,-0.073207,-0.0002505000000000007,-4.3500000000000136e-05,0.073207,0.0002504999999999938,4.3500000000000136e-05,-0.114379,-0.3560625,-0.0449315,0.119571,-0.3520225,-0.030544499999999995,-0.118299,-0.6723625,-0.0102985,0.132251,-0.6903925,-0.0117175
49,0.010811,0.686657,-0.07067499999999999,-0.135528,0.5019269999999999,-0.055032,-0.227988,0.726977,-0.12440300000000001,0.15190199999999998,0.48880700000000005,-0.055824,0.249582,0.7123569999999999,-0.110093,-0.26566799999999996,0.9307869999999999,-0.183203,0.279212,0.912337,-0.170863,-0.073295,-0.0002689999999999984,-0.00036800000000000027,0.073295,0.0002689999999999984,0.0003679999999999994,-0.113868,-0.352723,-0.060651000000000004,0.122252,-0.348203,-0.047355,-0.116838,-0.671023,-0.023447,0.132722,-0.685023,-0.025214
50,0.011312,0.6841045,-0.0831395,-0.134619,0.4992745,-0.0669985,-0.225739,0.7225945,-0.1416855,0.152201,0.48692450000000004,-0.0657765,0.250471,0.7072445,-0.1244055,-0.264089,0.9303045000000001,-0.2074855,0.280981,0.9093245000000001,-0.1909755,-0.073457,-0.00021849999999999994,-0.0005975000000000008,0.073457,0.00021849999999999994,0.0005975000000000008,-0.11349899999999999,-0.3467455,-0.0782225,0.125001,-0.34213550000000004,-0.0652895,-0.115449,-0.6669455,-0.0377335,0.133111,-0.6773254999999999,-0.0397855
51,0.012169499999999995,0.679371,-0.1014515,-0.1330695,0.494441,-0.08431949999999999,-0.2228995,0.718191,-0.1641375,0.1525305,0.484851,-0.0810845,0.2517505,0.702521,-0.1442675,-0.2619095,0.926421,-0.2383875,0.2830505,0.902991,-0.2162875,-0.07362250000000001,-0.000183,-0.0010404999999999998,0.07362250000000001,0.000183,0.0010404999999999998,-0.1129695,-0.337109,-0.1020325,0.1283405,-0.332509,-0.0901155,-0.1140195,-0.6588890000000001,-0.0572195,0.1337905,-0.665589,-0.0596585
52,0.013020499999999997,0.6767264999999999,-0.1189085,-0.1311235,0.4903365,-0.10063949999999999,-0.2201235,0.7155864999999999,-0.1856475,0.1526565,0.4818765,-0.0956645,0.25328649999999997,0.7002465,-0.16323749999999998,-0.2596435,0.9231864999999999,-0.2669475,0.2851765,0.8993365,-0.2407775,-0.0737905,1.0500000000000093e-05,-0.001631500000000001,0.0737905,-1.0500000000000093e-05,0.001631500000000001,-0.1128735,-0.3239235,-0.1282895,0.1318465,-0.3190435,-0.11582049999999999,-0.1129435,-0.6460335,-0.0752135,0.1341865,-0.6497235,-0.0779185
53,0.0141085,0.672261,-0.136515,-0.1287335,0.486351,-0.117024,-0.2176135,0.709051,-0.20766600000000002,0.15261650000000002,0.479641,-0.110505,0.2550665,0.698431,-0.182766,-0.2572835,0.9137609999999999,-0.295406,0.2876065,0.897331,-0.26562600000000003,-0.0739525,7.000000000000062e-05,-0.002028000000000002,0.0739525,-7.000000000000062e-05,0.002027999999999988,-0.1127035,-0.307379,-0.155002,0.1357065,-0.30246900000000004,-0.142059,-0.1116435,-0.629829,-0.093103,0.1346565,-0.6310990000000001,-0.096184
54,0.014837000000000001,0.668076,-0.1530045,-0.126284,0.482356,-0.1324565,-0.215704,0.705446,-0.22830050000000002,0.152466,0.47648599999999997,-0.12460950000000001,0.256946,0.692826,-0.20127050000000002,-0.255264,0.907746,-0.32207050000000004,0.290036,0.891726,-0.2893605,-0.07416,0.00010500000000000093,-0.002527500000000002,0.07416,-0.00010500000000000093,0.002527500000000002,-0.11266400000000001,-0.29022400000000004,-0.18020049999999999,0.139546,-0.284204,-0.16716550000000002,-0.11028400000000001,-0.6123839999999999,-0.1098515,0.135096,-0.611614,-0.1131885
55,0.015763999999999997,0.6652895,-0.1659175,-0.12411799999999999,0.4793095,-0.1446975,-0.21453799999999998,0.7024995,-0.2447105,0.152182,0.4746095,-0.1364105,0.258802,0.6920195,-0.2166605,-0.253828,0.9028495,-0.3435405,0.292282,0.8887595,-0.30863050000000003,-0.07435,-4.049999999999887e-05,-0.002868499999999996,0.07435,4.049999999999887e-05,0.002868499999999996,-0.112688,-0.2726605,-0.20107049999999999,0.14292200000000002,-0.2669505,-0.18814350000000002,-0.10906800000000001,-0.5933505,-0.1229335,0.135432,-0.5928705,-0.1264065
56,0.016975999999999998,0.660995,-0.1787125,-0.12192800000000001,0.47704500000000005,-0.1569175,-0.212538,0.7035250000000001,-0.2614375,0.152032,0.47182500000000005,-0.1483215,0.260782,0.692025,-0.2321275,-0.252088,0.899505,-0.3647975,0.294752,0.889995,-0.3275475,-0.074473,-3.499999999999337e-05,-0.0032724999999999976,0.074473,3.500000000000725e-05,0.0032724999999999976,-0.112618,-0.253285,-0.2217175,0.146152,-0.248935,-0.2085375,-0.107968,-0.5730649999999999,-0.1357575,0.13583199999999998,-0.5729449999999999,-0.1393265
57,0.018361500000000003,0.657255,-0.190452,-0.1197395,0.475065,-0.167918,-0.2107695,0.703345,-0.27644,0.1518205,0.46992500000000004,-0.159122,0.2627705,0.688715,-0.24612,-0.2506295,0.895045,-0.38327,0.2973905,0.890835,-0.34572,-0.07465250000000001,2.4999999999997247e-05,-0.0035500000000000115,0.07465250000000001,-2.4999999999997247e-05,0.0035499999999999976,-0.11259949999999999,-0.234595,-0.24075,0.1484105,-0.230545,-0.22614,-0.1067795,-0.553245,-0.14711000000000002,0.1362005,-0.553765,-0.150833
58,0.019670000000000003,0.6505299999999999,-0.202144,-0.11779099999999999,0.47386000000000006,-0.178298,-0.20926099999999997,0.70229,-0.29052,0.151329,0.46947000000000005,-0.169694,0.26448900000000003,0.6882,-0.25980000000000003,-0.249581,0.88842,-0.40201000000000003,0.29974900000000004,0.89095,-0.36448,-0.074963,7.999999999999674e-05,-0.003830000000000014,0.074963,-7.999999999999674e-05,0.00383,-0.112861,-0.21625999999999998,-0.25946,0.15031899999999998,-0.21229,-0.24363,-0.10552099999999999,-0.53383,-0.158082,0.13619900000000001,-0.535,-0.16185500000000003
59,0.020949,0.64471,-0.21344600000000002,-0.115514,0.47112,-0.188235,-0.20782399999999998,0.6991700000000001,-0.303645,0.15082600000000002,0.46644,-0.179927,0.266306,0.6883999999999999,-0.273255,-0.24868400000000002,0.88158,-0.417495,0.301946,0.88924,-0.380635,-0.075328,0.00023999999999999022,-0.004244999999999999,0.075328,-0.00023999999999999022,0.004244999999999999,-0.11311399999999999,-0.19801000000000002,-0.276925,0.152146,-0.19329000000000002,-0.260865,-0.10419400000000001,-0.5139400000000001,-0.168352,0.13633599999999998,-0.51545,-0.17223
60,0.021749,0.639605,-0.219279,-0.113699,0.471435,-0.192289,-0.206309,0.6950050000000001,-0.311095,0.150481,0.464345,-0.184539,0.267801,0.684715,-0.280445,-0.24786899999999998,0.8749150000000001,-0.426125,0.30391100000000004,0.8900950000000001,-0.39117499999999994,-0.07547200000000001,0.0005450000000000177,-0.004475000000000007,0.07547200000000001,-0.0005449999999999899,0.004475000000000007,-0.113569,-0.182465,-0.287885,0.15343099999999998,-0.17799499999999996,-0.271175,-0.10302900000000001,-0.496755,-0.172768,0.136301,-0.49876499999999996,-0.176702
61,0.022288999999999996,0.63182,-0.225465,-0.112407,0.46836,-0.196432,-0.205367,0.68953,-0.31839,0.149663,0.46072,-0.189176,0.268863,0.6778299999999999,-0.2873,-0.24719700000000003,0.86897,-0.43596,0.305393,0.8868,-0.4014,-0.075684,0.0006099999999999994,-0.0043300000000000005,0.075684,-0.0006099999999999994,0.0043300000000000005,-0.11407700000000001,-0.1653,-0.29586,0.15412299999999998,-0.16126000000000001,-0.28015,-0.101957,-0.47814999999999996,-0.1774,0.136293,-0.48031,-0.181282
62,0.022878,0.6256200000000001,-0.23114400000000002,-0.11123400000000001,0.46499,-0.20044299999999998,-0.204734,0.6859,-0.324695,0.149116,0.45734,-0.193377,0.269796,0.67045,-0.293165,-0.24645399999999998,0.8685400000000001,-0.445905,0.30680599999999997,0.8805099999999999,-0.410895,-0.075837,0.0006700000000000039,-0.004264999999999991,0.075837,-0.0006699999999999762,0.004264999999999991,-0.11465399999999999,-0.14837,-0.303315,0.154786,-0.14539999999999997,-0.288375,-0.100914,-0.46095,-0.18182199999999998,0.136406,-0.46296999999999994,-0.185704
63,0.023878,0.6178049999999999,-0.236963,-0.110062,0.461195,-0.204047,-0.204202,0.6811050000000001,-0.330345,0.148768,0.454415,-0.197206,0.270598,0.666695,-0.298285,-0.245392,0.864465,-0.455535,0.308348,0.8776649999999999,-0.420285,-0.075944,0.0008350000000000024,-0.004255000000000009,0.075944,-0.0008350000000000024,0.004255000000000009,-0.115262,-0.12988499999999997,-0.310195,0.155538,-0.125975,-0.29551499999999997,-0.099902,-0.443155,-0.18586,0.136628,-0.44483500000000004,-0.189694
64,0.024578000000000003,0.60938,-0.242672,-0.108812,0.45826999999999996,-0.20800900000000003,-0.203492,0.67696,-0.336255,0.14812799999999998,0.45265999999999995,-0.20127,0.27107800000000004,0.6656899999999999,-0.303075,-0.244722,0.86302,-0.466015,0.30987800000000004,0.8785499999999999,-0.430145,-0.076186,0.0008799999999999919,-0.004285000000000011,0.076186,-0.0008800000000000474,0.004284999999999983,-0.11589200000000001,-0.11057000000000006,-0.31691500000000006,0.15622799999999998,-0.10679000000000005,-0.302325,-0.099032,-0.4205,-0.190203,0.13672800000000002,-0.42200000000000004,-0.19374600000000003
65,0.024525,0.601665,-0.24762699999999999,-0.107535,0.456155,-0.211447,-0.20305499999999999,0.670695,-0.34099,0.147065,0.449175,-0.205099,0.271465,0.659695,-0.30691,-0.244135,0.861405,-0.4766,0.31115499999999996,0.872655,-0.43777,-0.076281,0.0011550000000000171,-0.0043199999999999905,0.076281,-0.0011550000000000171,0.0043199999999999905,-0.116555,-0.08998499999999998,-0.32261,0.15702500000000003,-0.08657500000000001,-0.30821,-0.098195,-0.39625499999999997,-0.19406299999999999,0.136885,-0.397785,-0.197426
66,0.024227,0.592975,-0.251875,-0.10638800000000001,0.454225,-0.214341,-0.202768,0.665415,-0.345115,0.145732,0.446895,-0.20871800000000001,0.271982,0.6570849999999999,-0.310425,-0.24365799999999999,0.8567049999999999,-0.48572499999999996,0.312152,0.867265,-0.444365,-0.076268,0.001224999999999976,-0.004275000000000001,0.076268,-0.0012250000000000316,0.004275000000000001,-0.117418,-0.06912500000000005,-0.327125,0.157452,-0.06583500000000003,-0.312655,-0.097608,-0.371255,-0.19750800000000002,0.136902,-0.3736050000000001,-0.20094700000000001
67,0.0240255,0.588105,-0.256911,-0.1052845,0.451995,-0.21715199999999998,-0.2020445,0.660895,-0.34934,0.1441955,0.44446599999999997,-0.21218099999999998,0.2724455,0.654315,-0.31393,-0.2435345,0.853465,-0.49346999999999996,0.3130755,0.861485,-0.45019,-0.0763285,0.001334999999999975,-0.0042099999999999915,0.0763285,-0.0013350000000000306,0.004210000000000019,-0.1184345,-0.04656500000000002,-0.33077999999999996,0.1576755,-0.04335500000000003,-0.31665999999999994,-0.0971745,-0.344395,-0.20101699999999997,0.1368955,-0.347865,-0.20448099999999997
68,0.0233625,0.5817950000000001,-0.261335,-0.10453749999999999,0.450924,-0.2193,-0.20156749999999998,0.656115,-0.35302500000000003,0.1425025,0.443734,-0.214482,0.2728525,0.649285,-0.316815,-0.2434575,0.8477250000000001,-0.500555,0.3138925,0.853565,-0.455055,-0.0764105,0.0013949999999999796,-0.0039949999999999986,0.0764105,-0.0013949999999999796,0.0039949999999999986,-0.11954750000000001,-0.024724999999999997,-0.333745,0.1577925,-0.021515000000000006,-0.319565,-0.0966175,-0.318175,-0.203896,0.1368125,-0.32325499999999996,-0.20716600000000002
69,0.021701999999999996,0.57519,-0.265822,-0.103939,0.449575,-0.221543,-0.201569,0.65185,-0.35702,0.140521,0.442729,-0.216847,0.273251,0.64623,-0.31935,-0.243459,0.84234,-0.50753,0.314711,0.84653,-0.45942,-0.076614,0.0013299999999999979,-0.00358,0.076614,-0.0013299999999999979,0.00358,-0.12067900000000001,-0.0025000000000000022,-0.3368,0.157831,0.0006800000000000139,-0.32255,-0.096239,-0.29179,-0.206726,0.136481,-0.29816,-0.209681
70,0.0194245,0.569125,-0.269127,-0.1034545,0.44946600000000003,-0.22267,-0.20170449999999998,0.646915,-0.35909,0.1388055,0.442513,-0.218181,0.2737155,0.643335,-0.32066,-0.2434345,0.8349949999999999,-0.5124299999999999,0.3155055,0.840895,-0.46229000000000003,-0.07679949999999999,0.0014250000000000096,-0.003360000000000002,0.07679949999999999,-0.0014250000000000096,0.003359999999999974,-0.1216545,0.014885000000000037,-0.33892,0.1579255,0.018635000000000013,-0.32461,-0.09602449999999998,-0.270345,-0.20860800000000002,0.1360055,-0.278005,-0.211185
71,0.016379,0.5644450000000001,-0.27202,-0.103307,0.449573,-0.223178,-0.202057,0.6440250000000001,-0.36073500000000003,0.136943,0.44195100000000004,-0.218606,0.27392299999999997,0.6406350000000001,-0.320925,-0.244117,0.828835,-0.516165,0.31603299999999995,0.8370850000000001,-0.46443500000000004,-0.076833,0.0015550000000000286,-0.0031049999999999967,0.076833,-0.001554999999999973,0.0031049999999999967,-0.122727,0.03189500000000001,-0.340095,0.158063,0.036105,-0.326075,-0.096067,-0.24934499999999993,-0.210055,0.135213,-0.25839499999999993,-0.21196299999999998
72,0.013033999999999997,0.56118,-0.274518,-0.103153,0.450411,-0.22361299999999998,-0.202453,0.6413949999999999,-0.36239999999999994,0.135047,0.442521,-0.219022,0.273377,0.636365,-0.31976,-0.24496300000000001,0.8252349999999999,-0.5197,0.316897,0.831555,-0.46609,-0.07685499999999999,0.001475000000000004,-0.002789999999999987,0.07685499999999999,-0.001475000000000004,0.0027900000000000147,-0.12368299999999999,0.048045000000000004,-0.34087,0.158327,0.05269499999999999,-0.32716999999999996,-0.096083,-0.22951499999999997,-0.211465,0.134427,-0.23984500000000003,-0.21268099999999998
73,0.010206000000000002,0.554736,-0.276761,-0.103228,0.449183,-0.22374,-0.20277799999999999,0.638415,-0.36338,0.133382,0.44007399999999997,-0.219101,0.273922,0.630235,-0.32106,-0.24605800000000003,0.8189649999999999,-0.5213,0.31770200000000004,0.8226249999999999,-0.46767,-0.076822,0.001424999999999954,-0.0024099999999999955,0.076822,-0.0014250000000000096,0.0024099999999999955,-0.12462799999999999,0.060124999999999984,-0.34072,0.158842,0.06516499999999997,-0.32702,-0.096008,-0.213835,-0.212395,0.133662,-0.22560500000000006,-0.21293499999999999
74,0.0079965,0.5498299999999999,-0.27826399999999996,-0.1033795,0.44770999999999994,-0.22387399999999996,-0.2035895,0.6341699999999999,-0.364295,0.1320905,0.43996399999999997,-0.21939299999999998,0.2742505,0.6291399999999999,-0.319335,-0.2474595,0.8116399999999999,-0.5225949999999999,0.3185205,0.81997,-0.468835,-0.0767215,0.0011399999999999744,-0.0019249999999999823,0.0767215,-0.0011400000000000299,0.00192500000000001,-0.1255295,0.07038999999999995,-0.340295,0.1593305,0.07583999999999996,-0.32662499999999994,-0.0959795,-0.20042000000000004,-0.21320099999999997,0.1327905,-0.2136,-0.213024
75,0.005652999999999998,0.545834,-0.280314,-0.10366299999999999,0.446462,-0.224215,-0.204443,0.62953,-0.364805,0.130767,0.43876600000000004,-0.219584,0.273887,0.6259600000000001,-0.317695,-0.24911300000000003,0.80701,-0.523815,0.31915699999999997,0.81586,-0.469635,-0.076722,0.0010900000000000354,-0.0015050000000000063,0.076722,-0.0010899999999999244,0.0015050000000000063,-0.12649300000000002,0.07897000000000004,-0.339585,0.15980699999999998,0.08481000000000005,-0.325915,-0.096063,-0.18863999999999992,-0.213784,0.131647,-0.20321,-0.212692
76,0.003412,0.5412319999999999,-0.28209,-0.10394300000000001,0.444835,-0.224702,-0.204853,0.6247499999999999,-0.36413,0.129827,0.436449,-0.220224,0.273497,0.62151,-0.31579,-0.250653,0.80221,-0.52538,0.320097,0.8127899999999999,-0.47012,-0.076521,0.0010999999999999899,-0.0010499999999999954,0.076521,-0.0010999999999999899,0.0010499999999999954,-0.127163,0.08606999999999998,-0.33882,0.160407,0.09223999999999999,-0.32572,-0.09560300000000001,-0.17868000000000006,-0.213634,0.130667,-0.19429000000000007,-0.21271
77,0.0013049999999999971,0.5371970000000001,-0.282675,-0.104281,0.4427230000000001,-0.22364099999999998,-0.20559100000000002,0.6234180000000001,-0.36282499999999995,0.128889,0.4352840000000001,-0.21959099999999998,0.273069,0.6185710000000001,-0.31250500000000003,-0.252481,0.8001150000000001,-0.5244949999999999,0.32076899999999997,0.814065,-0.469365,-0.076412,0.0009050000000000447,-0.0010449999999999904,0.076412,-0.0009049999999999336,0.0010450000000000181,-0.12790100000000001,0.0917750000000001,-0.336755,0.16063899999999998,0.09839500000000012,-0.32438500000000003,-0.09506099999999999,-0.1701149999999999,-0.21109,0.129459,-0.18656499999999987,-0.21144
78,0.0007069999999999958,0.534802,-0.282705,-0.104622,0.439999,-0.222523,-0.206162,0.622265,-0.361545,0.127988,0.43354,-0.21898700000000001,0.272428,0.613718,-0.308365,-0.25444200000000006,0.800475,-0.5235650000000001,0.32120800000000005,0.8130850000000001,-0.467775,-0.076387,0.0007150000000000212,-0.0009650000000000214,0.076387,-0.0007150000000000212,0.0009649999999999936,-0.128712,0.09637499999999999,-0.335005,0.160578,0.10372500000000001,-0.32355500000000004,-0.094502,-0.16329499999999997,-0.208623,0.128328,-0.18007499999999999,-0.21021
79,0.00010099999999999693,0.5326890000000001,-0.28273499999999996,-0.105058,0.4390720000000001,-0.221626,-0.206778,0.6214060000000001,-0.359645,0.127312,0.4337250000000001,-0.21847099999999997,0.27171199999999995,0.6099730000000001,-0.30471499999999996,-0.25620800000000005,0.8014950000000001,-0.522825,0.32151199999999996,0.8127250000000001,-0.466505,-0.07626,0.0004350000000000742,-0.0009549999999999836,0.07626,-0.0004349999999999632,0.0009550000000000114,-0.129418,0.10140500000000008,-0.333605,0.160512,0.10935500000000009,-0.322905,-0.093818,-0.15636499999999987,-0.20596099999999998,0.127212,-0.1734849999999999,-0.20910199999999998
80,-0.0008274999999999984,0.53096,-0.282475,-0.1055755,0.43992,-0.220625,-0.2075255,0.622079,-0.35784499999999997,0.1266045,0.43496999999999997,-0.21770099999999998,0.2709245,0.607737,-0.300795,-0.2577255,0.8036,-0.521855,0.3217345,0.8136399999999999,-0.465235,-0.0762125,0.00024000000000001798,-0.0010449999999999904,0.0762125,-0.00024000000000001798,0.0010450000000000181,-0.1301455,0.10715999999999998,-0.332105,0.1603245,0.11591999999999997,-0.322185,-0.0929855,-0.14871,-0.202811,0.1261445,-0.16627999999999998,-0.207932
81,-0.0006834999999999966,0.5287080000000001,-0.281315,-0.1061205,0.44048000000000004,-0.218871,-0.2083105,0.622351,-0.355065,0.1258795,0.43598000000000003,-0.21607400000000002,0.2701195,0.607252,-0.296275,-0.2589805,0.8053,-0.519985,0.3215395,0.81705,-0.46287500000000004,-0.0761195,6.0000000000060005e-05,-0.0013350000000000029,0.0761195,-5.999999999994898e-05,0.0013350000000000029,-0.13086050000000002,0.11235,-0.329715,0.1603895,0.12190000000000001,-0.32062500000000005,-0.09192049999999999,-0.14208999999999994,-0.19849,0.1250495,-0.15949000000000002,-0.205785
82,-0.000792000000000001,0.5303629999999999,-0.28013,-0.10663299999999999,0.44300999999999996,-0.21712700000000001,-0.209083,0.6212829999999999,-0.35194000000000003,0.125187,0.43835999999999997,-0.214545,0.26985699999999996,0.6063209999999999,-0.29355,-0.25994300000000004,0.80585,-0.51786,0.32135699999999995,0.81905,-0.46048,-0.076053,4.999999999999449e-05,-0.0016800000000000148,0.076053,-5.0000000000105516e-05,0.001679999999999987,-0.131533,0.11599999999999994,-0.32739,0.160587,0.12653999999999993,-0.31926,-0.090543,-0.13702000000000003,-0.194073,0.123797,-0.15361000000000002,-0.203319
83,-0.0010895000000000037,0.531261,-0.279215,-0.1070245,0.44472500000000004,-0.215865,-0.2096445,0.6228130000000001,-0.349915,0.1245955,0.440525,-0.21348699999999998,0.2696555,0.6041610000000001,-0.291065,-0.2605945,0.806795,-0.5161450000000001,0.3211455,0.820555,-0.458565,-0.0759565,1.4999999999987246e-05,-0.0019849999999999868,0.0759565,-1.4999999999987246e-05,0.0019850000000000145,-0.1320545,0.11887500000000001,-0.325505,0.1612055,0.130365,-0.31832499999999997,-0.0888045,-0.13290499999999994,-0.189963,0.1225155,-0.14824499999999996,-0.20092
84,-0.001576500000000005,0.532106,-0.278515,-0.1073105,0.44652499999999995,-0.21477000000000002,-0.2098505,0.623849,-0.347815,0.12415949999999999,0.442535,-0.21259,0.2693795,0.602542,-0.28891500000000003,-0.2611305,0.808105,-0.514605,0.3209895,0.822175,-0.456855,-0.0758755,-3.500000000000725e-05,-0.0022450000000000248,0.0758755,3.500000000000725e-05,0.002244999999999997,-0.1323405,0.121635,-0.32362500000000005,0.1620895,0.13430499999999995,-0.317665,-0.0867205,-0.12860499999999997,-0.18588600000000002,0.12147949999999999,-0.14277499999999999,-0.19903
85,-0.0014374999999999978,0.532842,-0.27766100000000005,-0.10749349999999999,0.44769,-0.213787,-0.21022349999999998,0.625239,-0.34658500000000003,0.12386649999999999,0.44504,-0.21169000000000002,0.2691365,0.602766,-0.287445,-0.2615635,0.80996,-0.513565,0.3207565,0.82351,-0.455365,-0.0758415,-0.000140000000000029,-0.0024050000000000182,0.0758415,0.000140000000000029,0.0024049999999999905,-0.1324935,0.12396000000000001,-0.321955,0.1630765,0.13778,-0.31705500000000003,-0.0849445,-0.12485000000000002,-0.18277000000000002,0.1205165,-0.13785000000000003,-0.197251
86,-0.001387000000000001,0.533891,-0.276933,-0.107744,0.44916,-0.212998,-0.210634,0.626,-0.34548,0.123746,0.44720000000000004,-0.21099099999999998,0.268596,0.6025010000000001,-0.28607,-0.261964,0.81127,-0.51267,0.320556,0.82425,-0.45392999999999994,-0.075838,-0.00012999999999996348,-0.0026400000000000035,0.075838,0.00012999999999996348,0.0026400000000000035,-0.13256400000000002,0.12570000000000003,-0.32042,0.164136,0.14046000000000003,-0.31645999999999996,-0.08364100000000001,-0.12154999999999994,-0.180776,0.119546,-0.13363999999999998,-0.19556099999999998
87,-0.0010270000000000001,0.535191,-0.275629,-0.10795,0.45062500000000005,-0.21163300000000002,-0.21102,0.627017,-0.343865,0.1237,0.44945500000000005,-0.20966800000000002,0.26873,0.60465,-0.284565,-0.26226,0.812705,-0.511265,0.32039,0.8262750000000001,-0.452685,-0.075851,-9.499999999995623e-05,-0.0030850000000000044,0.075851,9.500000000006725e-05,0.0030850000000000044,-0.13236,0.127535,-0.318475,0.16522,0.143165,-0.315265,-0.082146,-0.11841499999999994,-0.17821700000000001,0.11862,-0.12939500000000004,-0.193282
88,-0.0005080000000000015,0.536354,-0.273837,-0.10797100000000001,0.451665,-0.20986300000000002,-0.21124099999999998,0.6273690000000001,-0.342055,0.123869,0.451245,-0.20792,0.268099,0.606585,-0.282925,-0.26211100000000004,0.813615,-0.509245,0.32042899999999996,0.827615,-0.450945,-0.075853,-4.499999999996174e-05,-0.0035450000000000204,0.075853,4.499999999996174e-05,0.0035449999999999926,-0.131831,0.129015,-0.31632499999999997,0.166489,0.14530500000000002,-0.313615,-0.08049700000000001,-0.11585500000000004,-0.175393,0.117839,-0.12568499999999994,-0.190522
89,-0.0002249999999999995,0.53589,-0.273623,-0.107851,0.45098,-0.20960700000000002,-0.211401,0.62587,-0.341965,0.124169,0.45111999999999997,-0.207669,0.267859,0.606481,-0.282945,-0.261951,0.8125100000000001,-0.508705,0.32060900000000003,0.82687,-0.450565,-0.075873,2.0000000000020002e-05,-0.0035450000000000204,0.075873,-2.0000000000020002e-05,0.0035449999999999926,-0.13110100000000002,0.12879000000000002,-0.31579500000000005,0.16794900000000001,0.14556000000000002,-0.313425,-0.078286,-0.11526000000000003,-0.174043,0.117089,-0.12370000000000003,-0.189245
90,2.9999999999998778e-05,0.5358200000000001,-0.273608,-0.10772300000000001,0.45033500000000004,-0.209599,-0.211673,0.624576,-0.34197500000000003,0.12442700000000001,0.45085500000000006,-0.20747100000000002,0.268507,0.606036,-0.283175,-0.261873,0.811485,-0.508375,0.320797,0.8259850000000001,-0.450575,-0.07589499999999999,0.00010500000000002174,-0.0035450000000000204,0.07589499999999999,-0.00010499999999991072,0.0035449999999999926,-0.130353,0.12845500000000004,-0.315585,0.169097,0.14559500000000009,-0.313265,-0.07645099999999999,-0.11503499999999989,-0.17286700000000002,0.11635699999999999,-0.12216499999999997,-0.188256
91,0.0001499999999999991,0.535903,-0.273605,-0.10764000000000001,0.449655,-0.20959799999999998,-0.21197000000000002,0.623441,-0.34199,0.12467,0.45060500000000003,-0.207281,0.26908,0.605506,-0.28364,-0.2619,0.808775,-0.50838,0.32099,0.825125,-0.45061999999999997,-0.07592199999999999,0.00018499999999999073,-0.0035499999999999976,0.07592199999999999,-0.00018499999999999073,0.0035500000000000254,-0.12969,0.12819500000000006,-0.31547,0.17004999999999998,0.14562500000000006,-0.31311999999999995,-0.07492499999999999,-0.11474499999999999,-0.171812,0.11579999999999999,-0.12122499999999992,-0.18753999999999998
92,0.00023000000000000104,0.535997,-0.27385000000000004,-0.107502,0.44904999999999995,-0.209839,-0.21228200000000003,0.6223339999999999,-0.342255,0.125198,0.44958,-0.20724700000000001,0.26967800000000003,0.604977,-0.284275,-0.261822,0.8058099999999999,-0.508625,0.321288,0.82443,-0.450925,-0.075976,0.00029999999999996696,-0.003574999999999995,0.075976,-0.000300000000000078,0.003574999999999995,-0.12903199999999998,0.12802999999999992,-0.315685,0.170838,0.14573999999999993,-0.313245,-0.073581,-0.11472000000000004,-0.171249,0.115218,-0.12038000000000004,-0.187483
93,0.00025699999999999855,0.536563,-0.27470300000000003,-0.107335,0.447755,-0.210567,-0.21275500000000003,0.62197,-0.34356,0.125745,0.44738500000000003,-0.20741900000000002,0.270515,0.604768,-0.28539000000000003,-0.261685,0.803275,-0.5093000000000001,0.321635,0.8237450000000001,-0.45159,-0.076088,0.0003950000000000342,-0.003500000000000003,0.076088,-0.0003949999999999232,0.0034999999999999754,-0.12855499999999997,0.12844500000000003,-0.31634,0.17146499999999998,0.146295,-0.31382,-0.072373,-0.11451499999999992,-0.170858,0.114145,-0.11934499999999992,-0.18713000000000002
94,0.0006250000000000006,0.537507,-0.27549,-0.107195,0.44723999999999997,-0.211256,-0.21330500000000002,0.6214729999999999,-0.345005,0.126215,0.44515999999999994,-0.20759199999999997,0.271125,0.6046419999999999,-0.286435,-0.26149500000000003,0.80043,-0.510015,0.32198499999999997,0.82297,-0.45219499999999996,-0.076196,0.0005299999999999194,-0.0034349999999999936,0.076196,-0.0005300000000000304,0.0034350000000000214,-0.12811499999999998,0.12881999999999993,-0.316925,0.17194500000000001,0.14672999999999992,-0.314315,-0.071208,-0.11437000000000008,-0.17054799999999998,0.112898,-0.11846000000000012,-0.186495
95,0.0010869999999999994,0.53855,-0.275804,-0.107062,0.44684999999999997,-0.211395,-0.213932,0.62096,-0.34597500000000003,0.126638,0.44301,-0.207182,0.271768,0.604165,-0.286815,-0.26129199999999997,0.79782,-0.510195,0.322338,0.82222,-0.45237499999999997,-0.076319,0.0006099999999999994,-0.0034450000000000036,0.076319,-0.0006099999999999994,0.0034450000000000036,-0.127772,0.12918999999999997,-0.31693499999999997,0.172228,0.14722999999999997,-0.314195,-0.07015400000000001,-0.11431999999999998,-0.169742,0.11160199999999999,-0.11763000000000001,-0.184894
96,0.0014490000000000024,0.5396190000000001,-0.27615,-0.10695099999999999,0.44656000000000007,-0.211564,-0.21464099999999997,0.620384,-0.34734,0.126969,0.4409,-0.20685199999999998,0.27241899999999997,0.604135,-0.28742,-0.26111100000000004,0.79578,-0.51056,0.322659,0.82134,-0.45251,-0.07642,0.0006700000000000594,-0.0034500000000000086,0.07642,-0.0006699999999999484,0.0034500000000000086,-0.127641,0.12973,-0.3173,0.172329,0.14777,-0.31417,-0.06952,-0.11434999999999995,-0.169241,0.110029,-0.11686999999999992,-0.18339
97,0.0015550000000000026,0.540797,-0.27643,-0.10695099999999999,0.44645499999999994,-0.21198500000000003,-0.215191,0.6199129999999999,-0.348745,0.127279,0.4389949999999999,-0.20661100000000002,0.272349,0.6033399999999999,-0.28781500000000004,-0.260941,0.7939749999999999,-0.511045,0.322969,0.8204449999999999,-0.452785,-0.07651,0.0007349999999999302,-0.0034550000000000136,0.07651,-0.0007350000000000412,0.003454999999999986,-0.127421,0.13025499999999995,-0.317755,0.172419,0.1483649999999999,-0.314165,-0.06900899999999999,-0.11418500000000009,-0.168856,0.10969500000000001,-0.11625500000000011,-0.18340800000000002
98,0.0014609999999999988,0.542387,-0.276405,-0.10705100000000001,0.44687,-0.212206,-0.21565099999999998,0.62008,-0.349825,0.127479,0.43762,-0.20616800000000002,0.272299,0.603319,-0.288235,-0.260881,0.79329,-0.511765,0.32315900000000003,0.82028,-0.452935,-0.076623,0.0009099999999999664,-0.0034150000000000014,0.076623,-0.0009099999999999664,0.0034150000000000014,-0.127261,0.13116,-0.318005,0.17240899999999998,0.14936,-0.313915,-0.069012,-0.11360000000000003,-0.168322,0.108547,-0.11509000000000003,-0.18196600000000002
99,0.0008544999999999959,0.5437929999999999,-0.276305,-0.1072265,0.4473299999999999,-0.212365,-0.2160965,0.6204159999999999,-0.350865,0.1276235,0.43626999999999994,-0.205672,0.2722735,0.6034249999999999,-0.288705,-0.26087649999999996,0.79302,-0.512545,0.3233035,0.82044,-0.453185,-0.0767295,0.0011099999999999444,-0.003365000000000007,0.0767295,-0.0011100000000000554,0.003365000000000007,-0.12716650000000002,0.1319499999999999,-0.318315,0.1722735,0.1502599999999999,-0.313615,-0.06907750000000001,-0.11308000000000007,-0.168012,0.1072785,-0.11404000000000014,-0.180463
100,0.00021249999999999915,0.545107,-0.276,-0.1074385,0.44798999999999994,-0.212365,-0.2165885,0.6210709999999999,-0.35133000000000003,0.1277315,0.43493999999999994,-0.205032,0.2722215,0.6037539999999999,-0.28898,-0.26089850000000003,0.79384,-0.5132,0.3235215,0.82078,-0.45333999999999997,-0.0768205,0.0012899999999999023,-0.0033299999999999996,0.0768205,-0.0012900000000000134,0.0033299999999999996,-0.1271585,0.13260999999999995,-0.31867999999999996,0.1718215,0.15107999999999994,-0.31328,-0.0691795,-0.11252000000000006,-0.16752699999999998,0.1068795,-0.1132200000000001,-0.17976799999999998
101,-0.00038150000000000336,0.545918,-0.2755,-0.10762350000000001,0.448605,-0.21230100000000002,-0.2167635,0.621686,-0.35139,0.1276665,0.434395,-0.20448300000000003,0.2723065,0.604146,-0.28888,-0.2609335,0.794455,-0.5137,0.3237365,0.821175,-0.45364,-0.07689850000000001,0.001434999999999964,-0.003290000000000015,0.07689850000000001,-0.001434999999999964,0.0032899999999999874,-0.1271935,0.133065,-0.31899,0.1712265,0.151785,-0.31296,-0.0694795,-0.11232500000000001,-0.16700700000000002,0.1067755,-0.11269499999999999,-0.17924700000000002
102,-0.0009674999999999979,0.546034,-0.275085,-0.1077505,0.448605,-0.211893,-0.2168705,0.621686,-0.350755,0.1275995,0.434395,-0.203845,0.27267949999999996,0.604146,-0.288745,-0.2610305,0.794455,-0.513795,0.3239395,0.821175,-0.453195,-0.0769785,0.001434999999999964,-0.003275,0.0769785,-0.001434999999999964,0.003275,-0.1271805,0.13300499999999998,-0.319195,0.17054950000000002,0.151935,-0.31264499999999995,-0.0698705,-0.11263500000000004,-0.16666,0.1066745,-0.11280500000000004,-0.178723
103,-0.0010059999999999947,0.5461429999999999,-0.274385,-0.10777899999999999,0.448605,-0.21142,-0.216909,0.621686,-0.350055,0.127561,0.434395,-0.203145,0.273381,0.604275,-0.288535,-0.261139,0.795525,-0.5131049999999999,0.324221,0.821175,-0.452915,-0.076982,0.001434999999999964,-0.0032149999999999956,0.076982,-0.001434999999999964,0.0032150000000000234,-0.127019,0.13300499999999998,-0.319455,0.16984100000000002,0.15190499999999996,-0.31237499999999996,-0.07025699999999999,-0.11299500000000007,-0.16632599999999997,0.10664300000000002,-0.11295500000000003,-0.17815999999999999
104,-0.0011300000000000008,0.54679,-0.273505,-0.107883,0.448625,-0.21074099999999998,-0.217003,0.621948,-0.349715,0.12748700000000002,0.434395,-0.202263,0.27394700000000005,0.604275,-0.288545,-0.26113299999999995,0.797295,-0.512275,0.324427,0.821175,-0.45237499999999997,-0.077057,0.001434999999999964,-0.0031150000000000067,0.077057,-0.001434999999999964,0.0031150000000000067,-0.12676300000000001,0.13300499999999998,-0.31959499999999996,0.168927,0.15176499999999998,-0.311965,-0.070936,-0.11330499999999999,-0.16598,0.10767,-0.11326500000000006,-0.179194
105,-0.0011459999999999977,0.5484069999999999,-0.27187,-0.10817,0.4497749999999999,-0.209513,-0.21692,0.6228449999999999,-0.34887,0.12735000000000002,0.43513499999999994,-0.201113,0.27441,0.6074369999999999,-0.28796,-0.26112,0.8000349999999999,-0.51083,0.32456999999999997,0.8217749999999999,-0.45097,-0.077109,0.001614999999999922,-0.0030999999999999917,0.077109,-0.001615000000000033,0.0030999999999999917,-0.12636999999999998,0.13282499999999992,-0.3194,0.16786,0.1516849999999999,-0.31122,-0.072264,-0.11371500000000012,-0.166183,0.107956,-0.1139150000000001,-0.17814
106,-0.0010159999999999995,0.551807,-0.26919,-0.108515,0.45047499999999996,-0.207368,-0.216855,0.6247199999999999,-0.34646999999999994,0.127145,0.436165,-0.19948,0.274995,0.6139,-0.28752,-0.26112500000000005,0.803255,-0.50824,0.32511500000000004,0.824605,-0.44855,-0.077141,0.001815000000000011,-0.0033199999999999896,0.077141,-0.001815000000000011,0.0033200000000000174,-0.126105,0.13127499999999998,-0.3185,0.166555,0.15007500000000001,-0.30965,-0.07542,-0.115765,-0.16818399999999997,0.109118,-0.11676500000000001,-0.17743399999999998
107,-0.0008884999999999969,0.555324,-0.266199,-0.1088435,0.45129,-0.20589100000000002,-0.2172635,0.629275,-0.34530000000000005,0.1269065,0.43787000000000004,-0.19872800000000002,0.2753565,0.6210490000000001,-0.28796,-0.2612435,0.8068,-0.50637,0.3257965,0.82717,-0.44714000000000004,-0.0770595,0.0019799999999999818,-0.0033500000000000196,0.0770595,-0.0019799999999999818,0.003349999999999992,-0.12631350000000002,0.12889,-0.31843,0.16508650000000002,0.14748,-0.30889,-0.07870049999999999,-0.11895,-0.170963,0.11059050000000001,-0.12082999999999999,-0.178204
108,-0.000612499999999995,0.559867,-0.261859,-0.10928949999999998,0.455175,-0.203595,-0.21784949999999997,0.633522,-0.342615,0.1268305,0.441455,-0.196699,0.27561050000000004,0.627541,-0.287175,-0.2617095,0.809735,-0.503565,0.32606050000000003,0.829285,-0.445075,-0.07688249999999999,0.002454999999999985,-0.003704999999999986,0.07688249999999999,-0.002454999999999985,0.003705000000000014,-0.12654949999999998,0.124035,-0.31881499999999996,0.16364050000000002,0.14131499999999997,-0.307355,-0.08203549999999998,-0.12592500000000006,-0.172507,0.1125205,-0.12849500000000003,-0.178535
109,-0.00035399999999999494,0.563965,-0.261408,-0.109545,0.45812500000000006,-0.204239,-0.21775499999999998,0.6382150000000001,-0.342195,0.126855,0.444195,-0.19755899999999998,0.275165,0.634707,-0.29039499999999996,-0.26210500000000003,0.812295,-0.503345,0.32581499999999997,0.832285,-0.44564499999999996,-0.076798,0.002675000000000094,-0.003695000000000004,0.076798,-0.002674999999999983,0.003695000000000004,-0.126375,0.11832500000000007,-0.321975,0.162305,0.13423500000000005,-0.309065,-0.08543599999999998,-0.133795,-0.177175,0.114365,-0.13688499999999992,-0.181862
110,7.900000000000441e-05,0.568249,-0.261108,-0.10988300000000001,0.46066,-0.20488099999999998,-0.218133,0.644763,-0.34179499999999996,0.12709700000000002,0.44817,-0.19837699999999997,0.27543700000000004,0.642655,-0.293335,-0.262553,0.81524,-0.5017849999999999,0.325477,0.84015,-0.445725,-0.076897,0.0021900000000000253,-0.003704999999999986,0.076897,-0.0021900000000000253,0.003705000000000014,-0.126213,0.10926000000000002,-0.32547499999999996,0.161087,0.1235,-0.311485,-0.08882799999999999,-0.14573000000000003,-0.18182199999999998,0.116257,-0.1492,-0.185326
111,0.0005490000000000009,0.572847,-0.25936899999999996,-0.11022299999999999,0.46323899999999996,-0.204982,-0.21770299999999998,0.6506,-0.34048,0.127457,0.45151299999999994,-0.19865,0.274957,0.65042,-0.29445,-0.262623,0.8230999999999999,-0.49933,0.325127,0.8463999999999999,-0.44514,-0.07697999999999999,0.0018699999999999273,-0.0036399999999999766,0.07697999999999999,-0.0018700000000000383,0.0036400000000000043,-0.126163,0.09881999999999996,-0.32816999999999996,0.15990700000000002,0.11141999999999996,-0.3133,-0.09218299999999999,-0.15931000000000006,-0.18565399999999999,0.117457,-0.16316000000000008,-0.18749799999999997
112,0.0021025000000000054,0.5762700000000001,-0.255275,-0.11036449999999999,0.46205100000000005,-0.203112,-0.2180245,0.6513,-0.33673,0.12847550000000002,0.452485,-0.197162,0.2757055,0.6577900000000001,-0.29481,-0.2634845,0.82754,-0.49426,0.3249655,0.85253,-0.44229,-0.0769735,0.0015800000000000258,-0.0037500000000000033,0.0769735,-0.0015799999999999148,0.0037500000000000033,-0.1258745,0.07875000000000004,-0.32794999999999996,0.15940549999999998,0.08961000000000002,-0.31254,-0.09532449999999999,-0.1828599999999999,-0.187448,0.1190055,-0.18706,-0.187128
113,0.004028499999999999,0.5807789999999999,-0.250531,-0.1107745,0.46169699999999997,-0.200988,-0.21837450000000003,0.656465,-0.33259,0.1294455,0.45297899999999997,-0.195293,0.2765655,0.664625,-0.29403,-0.26449449999999997,0.831245,-0.48853,0.3246555,0.857355,-0.43820000000000003,-0.0769145,0.0014149999999999996,-0.00385000000000002,0.0769145,-0.0014149999999999996,0.0038499999999999923,-0.1255545,0.057585,-0.32638,0.15890549999999998,0.06676499999999996,-0.31057,-0.0983245,-0.20781499999999997,-0.188731,0.1203255,-0.21213500000000007,-0.18679700000000002
114,0.006121000000000002,0.58677,-0.245438,-0.111428,0.46276,-0.19842100000000001,-0.218888,0.65895,-0.326695,0.130922,0.454955,-0.192933,0.276382,0.67018,-0.29191500000000004,-0.265808,0.83211,-0.479255,0.32379199999999997,0.86423,-0.433435,-0.076762,0.0011999999999999789,-0.0043450000000000155,0.076762,-0.0011999999999999789,0.004344999999999988,-0.125408,0.032220000000000026,-0.323635,0.158382,0.039600000000000024,-0.307705,-0.10078799999999999,-0.23828999999999995,-0.188744,0.121392,-0.24261000000000005,-0.185702
115,0.007362499999999999,0.59296,-0.23957299999999998,-0.1123095,0.46446,-0.19547599999999998,-0.2193895,0.6658200000000001,-0.3206,0.1330305,0.45762,-0.18950799999999998,0.2763905,0.67478,-0.28830999999999996,-0.2676195,0.84033,-0.46973,0.32250049999999997,0.8705,-0.42794,-0.0765485,0.0010100000000000109,-0.0048599999999999755,0.0765485,-0.0010100000000000109,0.004860000000000003,-0.1255195,0.0012900000000000134,-0.32008,0.1576105,0.007130000000000025,-0.30406999999999995,-0.1019495,-0.27657999999999994,-0.185942,0.1219605,-0.28090000000000004,-0.18408199999999997
116,0.008729499999999998,0.602465,-0.23263999999999999,-0.1133685,0.46771399999999996,-0.191763,-0.21977850000000002,0.670585,-0.31401,0.13535149999999999,0.46066199999999996,-0.185523,0.27619150000000003,0.678975,-0.28425,-0.26993849999999997,0.8515550000000001,-0.45871999999999996,0.3210615,0.874745,-0.42063,-0.0762965,0.0008650000000000047,-0.0048799999999999955,0.0762965,-0.0008650000000000047,0.004880000000000023,-0.12563850000000001,-0.03159500000000004,-0.31601,0.1568115,-0.026995000000000047,-0.30004,-0.10320850000000001,-0.31746500000000005,-0.18303399999999997,0.1228315,-0.321695,-0.182188
117,0.0099245,0.6101099999999999,-0.22504600000000002,-0.1145285,0.46701,-0.187475,-0.2208885,0.67509,-0.30668,0.1378615,0.46131999999999995,-0.18138,0.2752415,0.68429,-0.27995000000000003,-0.27223850000000005,0.8636699999999999,-0.44718,0.3195915,0.88045,-0.41283000000000003,-0.07595850000000001,0.00036999999999998145,-0.004830000000000001,0.07595850000000001,-0.00037000000000003697,0.004830000000000001,-0.1258985,-0.06258000000000002,-0.31167,0.15600150000000002,-0.05848000000000003,-0.29573000000000005,-0.10445850000000001,-0.35505,-0.17986000000000002,0.1236015,-0.35974000000000006,-0.17976
118,0.010851500000000002,0.620555,-0.217074,-0.11600250000000001,0.4665750000000001,-0.182805,-0.2226125,0.677165,-0.298485,0.1403075,0.464525,-0.17681,0.27452750000000004,0.687825,-0.27393500000000004,-0.27470249999999996,0.874955,-0.434755,0.31716750000000005,0.890895,-0.40364500000000003,-0.0757575,-1.4999999999987246e-05,-0.0048850000000000005,0.0757575,1.5000000000042757e-05,0.0048850000000000005,-0.1263125,-0.09526499999999999,-0.306945,0.1550675,-0.09080499999999997,-0.29047500000000004,-0.1056425,-0.3945449999999999,-0.176211,0.12432750000000001,-0.39844499999999994,-0.176901
119,0.012057500000000002,0.6304099999999999,-0.20845700000000003,-0.11740650000000001,0.46748,-0.17753600000000003,-0.22392649999999997,0.67692,-0.28737,0.14291350000000003,0.46533,-0.17132500000000003,0.2739935,0.69111,-0.26680000000000004,-0.27703649999999996,0.88502,-0.42122000000000004,0.3158035,0.89567,-0.39297000000000004,-0.0755835,0.00026999999999999247,-0.004870000000000013,0.0755835,-0.00026999999999999247,0.0048699999999999855,-0.1264265,-0.1251,-0.30093000000000003,0.1544935,-0.12029000000000001,-0.28416,-0.1065765,-0.43108,-0.17215700000000003,0.1253235,-0.43379999999999996,-0.17332800000000004
120,0.013123,0.641665,-0.199424,-0.118843,0.470565,-0.17191499999999998,-0.225823,0.681755,-0.276045,0.145337,0.467725,-0.16564299999999998,0.273207,0.693875,-0.258555,-0.280543,0.892475,-0.405925,0.314407,0.898845,-0.38124499999999995,-0.07530500000000001,0.0003549999999999942,-0.004444999999999991,0.07530500000000001,-0.0003549999999999942,0.0044450000000000045,-0.12646300000000002,-0.155575,-0.292035,0.15384699999999998,-0.150195,-0.275985,-0.10777300000000001,-0.46828499999999995,-0.167873,0.126247,-0.469465,-0.169455
121,0.013835499999999997,0.653255,-0.188855,-0.1201275,0.476825,-0.165929,-0.2270375,0.690995,-0.264475,0.1474925,0.471595,-0.159631,0.27253249999999996,0.6982649999999999,-0.250445,-0.28275750000000005,0.9058250000000001,-0.389795,0.3137625,0.9018550000000001,-0.368715,-0.0749965,0.0005750000000000199,-0.004114999999999994,0.0749965,-0.0005749999999999922,0.004114999999999994,-0.1260475,-0.17584499999999997,-0.282165,0.1533425,-0.17046499999999998,-0.266515,-0.1087275,-0.494435,-0.16331299999999999,0.1271925,-0.495145,-0.165074
122,0.014485999999999999,0.65975,-0.1756,-0.12083100000000001,0.48068,-0.158921,-0.226661,0.69438,-0.25064,0.150229,0.47811000000000003,-0.15234799999999998,0.27225900000000003,0.70313,-0.24008,-0.28318099999999996,0.91727,-0.37076,0.313519,0.9116,-0.35292,-0.074702,0.0005300000000000027,-0.003600000000000006,0.074702,-0.0005300000000000027,0.003600000000000006,-0.124731,-0.19713,-0.26964,0.152789,-0.19198999999999997,-0.25403,-0.109321,-0.52151,-0.157888,0.128759,-0.52218,-0.160397
123,0.0150255,0.66413,-0.161897,-0.1212325,0.48302,-0.151702,-0.22569250000000002,0.7011,-0.23755500000000002,0.1524275,0.48286,-0.144676,0.27190749999999997,0.70721,-0.22906500000000002,-0.2833625,0.93087,-0.352405,0.3134075,0.9191,-0.337515,-0.0745475,0.0004699999999999982,-0.002805000000000002,0.0745475,-0.0004700000000000121,0.002805000000000002,-0.12324249999999999,-0.21383000000000002,-0.256445,0.15246749999999998,-0.20908,-0.241135,-0.10985249999999999,-0.543,-0.152218,0.1306175,-0.54393,-0.155043
124,0.015271999999999997,0.66691,-0.1473015,-0.121994,0.48712,-0.1426555,-0.22598400000000002,0.70157,-0.2229965,0.15338600000000002,0.48624999999999996,-0.1359495,0.271526,0.7086,-0.2158365,-0.28372400000000003,0.93546,-0.3324665,0.312886,0.92465,-0.3203665,-0.07439,0.0004050000000000026,-0.0027134999999999937,0.07439,-0.0004049999999999887,0.0027135000000000076,-0.12205400000000001,-0.22530999999999998,-0.2419465,0.152086,-0.22107000000000002,-0.2266565,-0.110634,-0.55816,-0.1437935,0.132026,-0.55906,-0.1465005
125,0.014797000000000003,0.666307,-0.132101,-0.12310299999999999,0.489907,-0.133753,-0.227703,0.700507,-0.206641,0.153917,0.48832699999999996,-0.127235,0.270287,0.7117169999999999,-0.200781,-0.286373,0.934587,-0.308721,0.311737,0.932777,-0.300171,-0.074047,0.0006299999999999917,-0.002679000000000001,0.074047,-0.0006300000000000056,0.002679000000000001,-0.121473,-0.23886300000000002,-0.22592099999999998,0.150697,-0.235683,-0.209371,-0.111203,-0.573663,-0.135332,0.13159700000000002,-0.576223,-0.13803100000000001
126,0.014179499999999996,0.6696455,-0.1178735,-0.1242035,0.49336549999999996,-0.1252695,-0.2307735,0.7001054999999999,-0.1913545,0.1539965,0.4913455,-0.1186345,0.26961650000000004,0.7141255,-0.18634450000000002,-0.2890735,0.9333755,-0.2850345,0.31115649999999995,0.9406855,-0.2802845,-0.0737005,0.000838499999999999,-0.0025255,0.0737005,-0.000838499999999999,0.0025255,-0.12089350000000001,-0.2520545,-0.21016450000000003,0.1488165,-0.24923450000000003,-0.1923145,-0.1117635,-0.5888745,-0.12741750000000002,0.13107649999999998,-0.5921945000000001,-0.13011450000000002
127,0.013278500000000002,0.6704645,-0.100196,-0.1254315,0.49685450000000003,-0.112633,-0.2328915,0.7020945,-0.171708,0.15389850000000002,0.4923245,-0.105851,0.2683685,0.7173545,-0.166984,-0.2916815,0.9339244999999999,-0.256298,0.3100485,0.9438145,-0.254278,-0.07329749999999999,0.0010104999999999975,-0.0024059999999999915,0.07329749999999999,-0.0010104999999999975,0.0024060000000000054,-0.1206615,-0.26324549999999997,-0.188008,0.1460785,-0.2616055,-0.169284,-0.1126615,-0.6018355000000001,-0.114981,0.1301785,-0.6064955000000001,-0.117175
128,0.012269500000000006,0.6753465000000001,-0.080115,-0.12763049999999998,0.5003165,-0.09659100000000001,-0.2352305,0.7085565,-0.151046,0.15385949999999998,0.49422649999999996,-0.089973,0.2670195,0.7187865,-0.145545,-0.29385049999999996,0.9367865000000001,-0.22626600000000002,0.3092395,0.9428465,-0.22710599999999997,-0.0728935,0.0009064999999999976,-0.0017230000000000023,0.0728935,-0.0009065000000000011,0.0017229999999999954,-0.1197505,-0.2788335,-0.161696,0.14125949999999998,-0.2782835,-0.141344,-0.11379049999999999,-0.6189334999999999,-0.098121,0.1290695,-0.6249334999999999,-0.100065
129,0.011368999999999997,0.6789885,-0.062149499999999996,-0.1297,0.5015085,-0.0821105,-0.23748,0.7092785,-0.1323785,0.15385,0.4951585,-0.0758015,0.26622,0.7207285,-0.1264925,-0.29608,0.9371285,-0.1994825,0.30864,0.9450485000000001,-0.2025825,-0.07253699999999999,0.0008845000000000007,-0.0012715000000000018,0.07253699999999999,-0.0008844999999999999,0.0012715000000000018,-0.1189,-0.2922215,-0.1377135,0.1366,-0.2929915,-0.1157285,-0.11485999999999999,-0.6335915,-0.0825095,0.12792,-0.6394814999999999,-0.0839135
130,0.010634500000000002,0.683564,-0.045587,-0.13151549999999998,0.503194,-0.067956,-0.2398055,0.7108639999999999,-0.11419499999999999,0.1540945,0.497004,-0.062029,0.2652945,0.722154,-0.10827400000000001,-0.2980255,0.934634,-0.174077,0.3083245,0.947444,-0.179567,-0.07238349999999999,0.0007099999999999997,-0.000734000000000002,0.07238349999999999,-0.0007100000000000006,0.0007339999999999985,-0.11806549999999999,-0.305876,-0.114181,0.1322245,-0.306836,-0.09048500000000001,-0.11567549999999999,-0.647046,-0.067021,0.1268745,-0.653156,-0.067695
131,0.010018000000000004,0.6918635,-0.0322155,-0.13327499999999998,0.5064735,-0.055745499999999996,-0.242365,0.7141735,-0.0990925,0.15429500000000002,0.49668350000000006,-0.050270499999999996,0.264555,0.7237535,-0.0929495,-0.300045,0.9348035,-0.1521635,0.307675,0.9443435,-0.15935349999999998,-0.072225,0.0007065000000000005,-0.0002594999999999993,0.072225,-0.0007064999999999988,0.0002594999999999993,-0.117675,-0.3150965,-0.0931175,0.12810500000000002,-0.3162465,-0.0676875,-0.116425,-0.6561165,-0.0528305,0.12576500000000002,-0.6624665,-0.0528395
132,0.0094385,0.700404,-0.018904,-0.1350155,0.510094,-0.043575,-0.24325549999999999,0.716684,-0.083345,0.1545345,0.496624,-0.038549,0.2641045,0.725024,-0.07775699999999999,-0.3011155,0.9352440000000001,-0.131787,0.3070645,0.941314,-0.139237,-0.0720475,0.0007540000000000012,0.00017199999999999854,0.0720475,-0.0007540000000000012,-0.00017200000000000028,-0.1173855,-0.32407600000000003,-0.07183200000000001,0.1241245,-0.325506,-0.044563,-0.1169955,-0.665006,-0.038418,0.1245645,-0.6727259999999999,-0.037718
133,0.008931999999999995,0.7081695,-0.0064589999999999995,-0.13665300000000002,0.5115295,-0.031945,-0.24418299999999998,0.7202594999999999,-0.068497,0.15479700000000002,0.4969195,-0.027372999999999998,0.26386699999999996,0.7267294999999999,-0.063403,-0.302113,0.9365795,-0.112328,0.306567,0.9386895,-0.120298,-0.071908,0.0007664999999999964,0.000509,0.071908,-0.0007665000000000033,-0.0005090000000000001,-0.117093,-0.3319105,-0.05147,0.120237,-0.3342905,-0.022149,-0.117603,-0.6736405000000001,-0.02402,0.123357,-0.6823005000000001,-0.023000999999999997
134,0.008406999999999998,0.71582,0.0032075000000000003,-0.13839400000000002,0.51243,-0.0217435,-0.24565399999999998,0.72491,-0.0572265,0.15477600000000002,0.4974700000000001,-0.0176825,0.263526,0.7264,-0.052374500000000004,-0.302944,0.94025,-0.0993295,0.306256,0.9359000000000001,-0.1072795,-0.071784,0.0004809999999999953,0.0008355000000000003,0.071784,-0.00048100000000000226,-0.0008355000000000003,-0.117014,-0.33921999999999997,-0.0349155,0.116676,-0.34231,-0.004655499999999999,-0.118314,-0.68131,-0.011020499999999999,0.121746,-0.6906399999999999,-0.009115499999999999
135,0.007941,0.720334,0.012765499999999997,-0.140017,0.513584,-0.011503500000000003,-0.247087,0.729584,-0.0462935,0.154853,0.497584,-0.008024500000000004,0.263483,0.726144,-0.0416025,-0.303677,0.943664,-0.08727750000000001,0.306253,0.932734,-0.09499750000000001,-0.071659,0.0002620000000000053,0.0011594999999999973,0.071659,-0.00026199999999999835,-0.0011595000000000008,-0.116897,-0.346706,-0.018877500000000005,0.113533,-0.35022600000000004,0.012355499999999998,-0.118847,-0.6890660000000001,0.0022134999999999967,0.120023,-0.698746,0.004617499999999998
136,0.007904999999999999,0.725007,0.016747500000000002,-0.14127099999999998,0.5151669999999999,-0.006736499999999999,-0.24839100000000003,0.7340369999999999,-0.0420115,0.155099,0.49791699999999994,-0.0038965000000000007,0.263999,0.7260369999999999,-0.0371615,-0.304331,0.946467,-0.0822515,0.306729,0.928927,-0.0902215,-0.071601,0.0002099999999999949,0.0016865000000000005,0.071601,-0.00021000000000000185,-0.0016865000000000005,-0.116411,-0.35335300000000003,-0.010693499999999998,0.111149,-0.357223,0.0210885,-0.118881,-0.695063,0.008531500000000001,0.118689,-0.705533,0.0104685
137,0.0080815,0.725105,0.017249000000000004,-0.1413625,0.515215,-0.006139999999999996,-0.2485025,0.735105,-0.040853999999999994,0.1552575,0.49790499999999993,-0.0033449999999999973,0.26468749999999996,0.727035,-0.036130999999999996,-0.3049425,0.946885,-0.080363,0.3072675,0.9291349999999999,-0.088534,-0.0716065,0.00023000000000000104,0.0016740000000000019,0.0716065,-0.00023000000000000104,-0.0016739999999999984,-0.1165825,-0.353625,-0.007653999999999998,0.1109375,-0.35752500000000004,0.024039000000000005,-0.1190425,-0.695485,0.010503000000000002,0.1184575,-0.7058450000000001,0.012461000000000003
138,0.008257499999999994,0.7250215,0.0178455,-0.1415205,0.5152515,-0.0055615000000000005,-0.2486605,0.7358015,-0.0402755,0.15533950000000002,0.49787149999999997,-0.0027535000000000025,0.26524949999999997,0.7276815,-0.0355135,-0.30515050000000005,0.9468515,-0.0793705,0.3079095,0.9290514999999999,-0.08766550000000001,-0.0716995,0.00017050000000000398,0.0016464999999999987,0.0716995,-0.00017049999999999704,-0.0016465000000000021,-0.11681050000000001,-0.3539385,-0.004699500000000002,0.11069949999999999,-0.3576185,0.0261905,-0.1192705,-0.6958985000000001,0.012397499999999999,0.1182395,-0.7060985000000001,0.014008499999999998
139,0.008460500000000003,0.7249645,0.0180365,-0.1416925,0.5153345,-0.004959499999999999,-0.24883249999999998,0.7360445,-0.0396735,0.1554075,0.4978745,-0.002138499999999998,0.26581750000000004,0.7282045,-0.0348715,-0.30532250000000005,0.9467945,-0.07876849999999999,0.30881749999999997,0.9289945,-0.0870035,-0.0717945,0.00013750000000000567,0.0016054999999999993,0.0717945,-0.00013749999999999873,-0.0016054999999999993,-0.11705249999999999,-0.3542455,-0.0021054999999999997,0.1104875,-0.35767550000000004,0.0275345,-0.1195125,-0.6961655,0.0142475,0.11802750000000001,-0.7062855,0.015376500000000001
140,0.008943499999999997,0.7249465,0.018840999999999997,-0.1417735,0.5154865000000001,-0.004185000000000001,-0.24882349999999998,0.7357565,-0.038895,0.1555665,0.49792650000000005,-0.0013530000000000035,0.2664765,0.7285965,-0.034057000000000004,-0.30545350000000004,0.9467765,-0.077997,0.31000649999999996,0.9289765,-0.086162,-0.0716985,0.00026550000000000185,0.0014789999999999977,0.0716985,-0.00026550000000000185,-0.0014790000000000011,-0.1172835,-0.35456350000000003,-0.00012000000000000205,0.1104165,-0.35756350000000003,0.02831,-0.1198435,-0.6962735,0.01593,0.1178765,-0.7061135,0.016492999999999997
141,0.009632,0.7245475,0.0189375,-0.141642,0.5157175,-0.0036545000000000015,-0.248732,0.7352775,-0.0379065,0.15645799999999999,0.4978675,-0.0008965000000000015,0.26734800000000003,0.7286575000000001,-0.0333575,-0.305742,0.9466375,-0.0768655,0.311188,0.9285875,-0.08495050000000001,-0.071468,0.0004045000000000021,0.001289499999999999,0.071468,-0.0004045000000000021,-0.0012895000000000024,-0.117592,-0.35499250000000004,0.0014494999999999994,0.110298,-0.35770250000000003,0.029450499999999998,-0.120322,-0.6964825,0.0177615,0.117628,-0.7060825,0.0176705
142,0.010487000000000003,0.723926,0.018436,-0.141488,0.516026,-0.0032970000000000013,-0.248448,0.735136,-0.037354,0.157252,0.49785599999999997,-0.0006519999999999998,0.268152,0.7286860000000001,-0.03286699999999999,-0.305808,0.946436,-0.075829,0.31219199999999997,0.928056,-0.083549,-0.071246,0.0005459999999999979,0.001056999999999999,0.071246,-0.0005460000000000048,-0.001056999999999999,-0.11807799999999999,-0.355224,0.003039,0.110072,-0.357724,0.030836,-0.12106800000000001,-0.696634,0.019627,0.11722199999999999,-0.706014,0.019046
143,0.011695499999999998,0.7231135,0.01693,-0.1413075,0.5165735,-0.003247,-0.2478075,0.7346834999999999,-0.037632000000000006,0.1579825,0.4979035,-0.0009710000000000031,0.2690025,0.7285735,-0.032747,-0.3053475,0.9458535,-0.07592499999999999,0.3132225,0.9274635,-0.08279500000000001,-0.0710585,0.0006885000000000016,0.0008909999999999994,0.0710585,-0.0006885000000000016,-0.0008910000000000029,-0.1186875,-0.3553765,0.004622999999999999,0.1098225,-0.3574865,0.031922,-0.1219375,-0.6967765,0.021667,0.11669249999999999,-0.7059265,0.020635
144,0.012787999999999997,0.722242,0.015002499999999998,-0.141072,0.517182,-0.0035825000000000023,-0.247292,0.734522,-0.0390695,0.15858799999999998,0.497982,-0.0014345000000000017,0.269598,0.728452,-0.0329755,-0.304442,0.944652,-0.0772505,0.31398800000000004,0.926702,-0.08267050000000001,-0.070941,0.0008439999999999975,0.0007444999999999986,0.070941,-0.0008440000000000045,-0.0007445000000000021,-0.119622,-0.355538,0.0064285,0.109428,-0.357148,0.0320005,-0.12312200000000001,-0.696938,0.0238255,0.11582799999999999,-0.7057279999999999,0.0224445
145,0.014093999999999999,0.7212285,0.012577499999999998,-0.140856,0.5176385,-0.004180500000000004,-0.246486,0.7342985,-0.0416495,0.159454,0.49800849999999997,-0.001980500000000003,0.270384,0.7283285,-0.0336605,-0.303166,0.9428785,-0.07960149999999999,0.314764,0.9266585,-0.0829715,-0.070814,0.0009855000000000003,0.0005394999999999983,0.070814,-0.0009855000000000003,-0.0005395000000000018,-0.120686,-0.3557615,0.008480499999999998,0.109124,-0.3564315,0.031230499999999998,-0.124586,-0.6973415000000001,0.026134499999999998,0.114754,-0.7051615,0.0243135
146,0.015224499999999998,0.720091,0.0099385,-0.1407915,0.517791,-0.005012499999999996,-0.2451915,0.734001,-0.044749500000000005,0.16032849999999998,0.498041,-0.002413499999999999,0.2708785,0.7281610000000001,-0.034216500000000004,-0.3017815,0.940451,-0.0824995,0.3153785,0.926501,-0.0835995,-0.0707525,0.001016000000000003,0.0003825000000000009,0.0707525,-0.001015999999999996,-0.0003825000000000009,-0.12219150000000001,-0.356059,0.010960500000000001,0.1085285,-0.355649,0.030218500000000002,-0.1265915,-0.6978289999999999,0.028830500000000002,0.1130685,-0.704529,0.0265985
147,0.016545000000000004,0.7191194999999999,0.006829999999999999,-0.140612,0.5176095,-0.00621,-0.24290199999999998,0.7326695,-0.048494,0.16137800000000002,0.4982095,-0.002924000000000003,0.271638,0.7279694999999999,-0.03494099999999999,-0.299582,0.9372594999999999,-0.08696300000000001,0.31596799999999997,0.9254895,-0.08435300000000001,-0.07063900000000001,0.0009485000000000049,8.89999999999988e-05,0.07063900000000001,-0.000948499999999998,-8.89999999999988e-05,-0.123862,-0.35641049999999996,0.01328,0.10786799999999999,-0.3548905,0.028659,-0.128992,-0.6982105000000001,0.031693,0.111038,-0.7038305,0.028788
148,0.017455,0.7182145,0.003812999999999997,-0.140836,0.5176145,-0.007424,-0.240926,0.7311844999999999,-0.052531,0.161914,0.49863450000000004,-0.003049000000000003,0.272884,0.7280245,-0.036205999999999995,-0.29725599999999996,0.9335644999999999,-0.092283,0.316384,0.9254644999999999,-0.085363,-0.070524,0.0009634999999999991,-0.0003459999999999991,0.070524,-0.0009634999999999991,0.0003459999999999991,-0.12609599999999999,-0.3565155,0.015609000000000001,0.106474,-0.3541555,0.027134,-0.132446,-0.6984655000000001,0.035023,0.10799399999999999,-0.7030755000000001,0.031186
149,0.018314499999999997,0.7173375,0.0012580000000000022,-0.1412395,0.5176375,-0.008572999999999997,-0.23911949999999998,0.7293575000000001,-0.057603999999999995,0.1620905,0.4990575,-0.002707000000000001,0.2738805,0.7285075000000001,-0.036877,-0.2949495,0.9301675,-0.09900700000000001,0.3168905,0.9248575000000001,-0.08604700000000001,-0.0705135,0.0009755000000000041,-0.0006839999999999971,0.0705135,-0.0009754999999999972,0.0006839999999999971,-0.1283395,-0.3567125,0.017653000000000002,0.10494049999999999,-0.3541325,0.0252,-0.1366995,-0.6986825000000001,0.038909,0.10430049999999999,-0.7030624999999999,0.033959
150,0.018914000000000004,0.716401,-0.0010560000000000014,-0.139902,0.516441,-0.011130999999999995,-0.23758200000000002,0.727181,-0.063041,0.162578,0.499891,-0.0016380000000000006,0.274178,0.728421,-0.03661199999999999,-0.29266200000000003,0.926491,-0.10671099999999999,0.317208,0.923951,-0.08648099999999999,-0.070493,0.0009720000000000006,-0.0010980000000000018,0.070493,-0.0009720000000000006,0.0010980000000000018,-0.130902,-0.35701900000000003,0.019065000000000002,0.102938,-0.354179,0.023357000000000003,-0.141942,-0.698929,0.042956,0.099758,-0.703209,0.03669
151,0.019282999999999995,0.7152769999999999,-0.0027264999999999998,-0.139172,0.515197,-0.013219499999999995,-0.23595200000000002,0.724757,-0.0690795,0.163018,0.500807,0.0002124999999999974,0.275208,0.7283769999999999,-0.0360365,-0.290312,0.9226869999999999,-0.11534950000000001,0.317728,0.923127,-0.08673950000000001,-0.070443,0.0008760000000000018,-0.0016414999999999971,0.070443,-0.0008759999999999948,0.0016414999999999971,-0.133372,-0.35754299999999994,0.0197995,0.10052799999999998,-0.35413300000000003,0.0216245,-0.148202,-0.6990930000000001,0.0474845,0.09412799999999999,-0.7031430000000001,0.0397875
152,0.019375500000000004,0.7140205000000001,-0.003643500000000001,-0.1384625,0.5136605000000001,-0.015550500000000009,-0.23447249999999997,0.7216705,-0.07638550000000001,0.1640975,0.5020905,0.004621499999999994,0.2757075,0.7289605,-0.03389450000000001,-0.28802249999999996,0.9189305,-0.1266655,0.31821750000000004,0.9229505,-0.08587550000000001,-0.07032749999999999,0.0008815000000000003,-0.0024815000000000045,0.0703275,-0.0008815000000000003,0.0024814999999999976,-0.13376749999999998,-0.3586895,0.016427499999999998,0.09659750000000002,-0.35377949999999997,0.0211465,-0.1560825,-0.6984795,0.0524245,0.0855475,-0.7025295,0.0445205
153,0.018850000000000006,0.7124075,-0.004279499999999992,-0.138258,0.5112875,-0.0175545,-0.234008,0.7182974999999999,-0.0845375,0.16433199999999998,0.5029175,0.010382500000000003,0.276332,0.7278574999999999,-0.030440499999999995,-0.286578,0.9158175,-0.1397875,0.318402,0.9213475,-0.0840075,-0.070132,0.0007484999999999992,-0.003790500000000002,0.070132,-0.0007484999999999992,0.003790500000000002,-0.132053,-0.3612525,0.0085265,0.09128199999999999,-0.35546249999999996,0.0221955,-0.162188,-0.6978725,0.056329500000000005,0.074542,-0.7017125000000001,0.0506495
154,0.017053,0.710193,-0.004701999999999998,-0.138956,0.507763,-0.01961299999999999,-0.23567300000000002,0.713683,-0.09369299999999998,0.16295700000000002,0.503833,0.01682000000000001,0.277507,0.7234929999999999,-0.025931999999999997,-0.286783,0.911073,-0.15570299999999998,0.318347,0.916553,-0.08265299999999999,-0.070197,0.0007080000000000003,-0.005051,0.070197,-0.0007080000000000003,0.005051,-0.12770700000000001,-0.362417,-0.0033929999999999932,0.08317700000000001,-0.359167,0.024317000000000005,-0.164683,-0.696797,0.056262000000000006,0.06027700000000001,-0.700827,0.05794200000000001
155,0.015305999999999986,0.708311,-0.00499949999999999,-0.139902,0.503971,-0.0215355,-0.23838900000000002,0.708471,-0.1038055,0.161241,0.505401,0.023446500000000002,0.279011,0.718501,-0.021685499999999996,-0.286509,0.903771,-0.1743855,0.318831,0.911311,-0.08167549999999998,-0.06999100000000001,0.0006639999999999979,-0.006448499999999996,0.069991,-0.0006639999999999979,0.00644850000000001,-0.12068600000000002,-0.36307900000000004,-0.018035499999999996,0.07594099999999998,-0.364039,0.026819500000000003,-0.163068,-0.6953590000000001,0.0518155,0.04422099999999998,-0.700069,0.06527050000000001
156,0.013920000000000002,0.7059055000000001,-0.005081000000000002,-0.141044,0.49988550000000004,-0.023323999999999998,-0.24259,0.7017855,-0.11430399999999999,0.15959,0.5069954999999999,0.030264,0.28198,0.7104254999999999,-0.017533999999999994,-0.28698999999999997,0.8960355,-0.192514,0.32075,0.9021555000000001,-0.081764,-0.06986,0.0005905000000000007,-0.007814000000000002,0.06986,-0.0005905000000000007,0.007814000000000002,-0.11188000000000001,-0.3646645,-0.03698399999999999,0.06663,-0.3680545,0.031289,-0.156259,-0.6940145,0.044008,0.028459999999999985,-0.6977245000000001,0.072406
157,0.012734999999999996,0.7039985,-0.004802499999999987,-0.14189500000000002,0.4957484999999999,-0.02519249999999998,-0.247445,0.6934285,-0.1255625,0.158505,0.5085585,0.03676750000000001,0.284665,0.7010585,-0.012592499999999993,-0.286675,0.8870684999999999,-0.21382249999999997,0.322225,0.8917785,-0.08140249999999999,-0.06985500000000001,0.0005374999999999963,-0.009012499999999993,0.069855,-0.0005375000000000033,0.009012500000000007,-0.10001700000000001,-0.36612150000000004,-0.05816249999999998,0.05749499999999999,-0.37200150000000004,0.0355965,-0.144801,-0.6923315,0.031532500000000005,0.012744999999999979,-0.6952915000000001,0.07873650000000001
158,0.011793999999999999,0.7022735,-0.004305000000000003,-0.142206,0.49137349999999996,-0.027315000000000006,-0.25320600000000004,0.6833334999999999,-0.136375,0.157614,0.5098035,0.043128,0.289644,0.6897835,-0.008315000000000003,-0.28577600000000003,0.8752135,-0.236465,0.324824,0.8788435,-0.083265,-0.06982400000000001,0.0005434999999999954,-0.010234999999999994,0.069824,-0.0005435000000000023,0.010234999999999994,-0.08736300000000001,-0.3675465,-0.079985,0.048404,-0.3762465,0.041475,-0.12784900000000002,-0.6896065,0.013664999999999997,-0.0039959999999999996,-0.6947965,0.087504
159,0.01241600000000001,0.7011635,-0.003405000000000019,-0.143441,0.4876235,-0.028315000000000007,-0.259314,0.6652435,-0.149275,0.155936,0.5104135,0.05006799999999999,0.29796599999999995,0.6698135,-0.0029850000000000154,-0.281794,0.8532935,-0.265905,0.32758600000000004,0.8556435,-0.08644500000000002,-0.069996,0.0007194999999999979,-0.011025000000000007,0.069996,-0.0007195000000000014,0.011024999999999993,-0.07298,-0.3626765,-0.100605,0.03795599999999999,-0.3779265,0.05202799999999999,-0.098391,-0.6846365,-0.016445000000000015,-0.023514000000000007,-0.6924865,0.10034499999999999
160,0.013855000000000006,0.7000879999999999,-0.002395000000000036,-0.144183,0.48356800000000005,-0.029095000000000037,-0.26588500000000004,0.6446179999999999,-0.163725,0.15474500000000002,0.509648,0.056951999999999975,0.306305,0.6454679999999999,0.0019449999999999745,-0.277096,0.825268,-0.294505,0.330545,0.8277479999999999,-0.09080500000000002,-0.07033500000000001,0.0008359999999999999,-0.011535000000000017,0.07033499999999998,-0.0008359999999999999,0.01153499999999999,-0.058505,-0.36180199999999996,-0.12050500000000003,0.027074999999999988,-0.37934199999999996,0.06443999999999997,-0.063805,-0.680332,-0.050535000000000024,-0.04155500000000001,-0.6896720000000001,0.11324599999999999
161,0.01705000000000001,0.7009179999999999,-0.0011150000000000049,-0.14208199999999999,0.478548,-0.029854999999999993,-0.270603,0.6173379999999999,-0.17849500000000001,0.15476,0.506948,0.062775,0.31656999999999996,0.614738,0.007184999999999997,-0.26987099999999997,0.7858879999999999,-0.321695,0.33446000000000004,0.7911279999999999,-0.09852499999999997,-0.07071,0.0008489999999999991,-0.012364999999999987,0.07071,-0.0008489999999999991,0.012365000000000015,-0.046259999999999996,-0.360382,-0.136575,0.016729999999999995,-0.37932200000000005,0.07777400000000001,-0.0252,-0.6762520000000001,-0.08357500000000001,-0.058499999999999996,-0.685552,0.127003
162,0.016699999999999993,0.703997,-0.002590000000000009,-0.143355,0.474937,-0.03331999999999999,-0.276775,0.582067,-0.18941999999999998,0.15119000000000002,0.5021570000000001,0.06549,0.3174199999999999,0.5752470000000001,0.015240000000000004,-0.264685,0.736097,-0.34496999999999994,0.33323,0.742677,-0.10668,-0.07105999999999998,0.0008520000000000003,-0.012709999999999999,0.07105999999999998,-0.0008520000000000003,0.012709999999999999,-0.03362999999999999,-0.356953,-0.14900000000000002,0.0020999999999999908,-0.376523,0.089559,0.005330000000000001,-0.671493,-0.11256,-0.08135,-0.681213,0.143017
163,0.017344999999999944,0.708612,-0.003964999999999996,-0.13957500000000003,0.473172,-0.036805000000000004,-0.280857,0.5396620000000001,-0.19306500000000001,0.14922499999999994,0.495902,0.06831499999999999,0.312835,0.531142,0.026514999999999983,-0.25899300000000003,0.6733720000000001,-0.355475,0.330125,0.682512,-0.10915500000000003,-0.07078500000000004,0.0011649999999999994,-0.013655,0.07078499999999999,-0.0011650000000000002,0.013655,-0.01987500000000003,-0.353158,-0.15722500000000003,-0.010865000000000041,-0.37215800000000004,0.10121499999999999,0.029854999999999965,-0.6680579999999999,-0.13301500000000002,-0.10349500000000003,-0.674518,0.159581
164,0.018490000000000006,0.713222,-0.005355000000000026,-0.13743999999999998,0.471422,-0.040465,-0.280591,0.497672,-0.192765,0.14671,0.489592,0.070015,0.30427,0.48561200000000004,0.04278499999999999,-0.252542,0.611792,-0.35568500000000003,0.32444,0.610712,-0.10493500000000003,-0.07076999999999997,0.001291,-0.01475499999999999,0.07077,-0.001291,0.01475499999999999,-0.01038,-0.35020799999999996,-0.15948500000000002,-0.020479999999999998,-0.368758,0.11023499999999997,0.04747000000000001,-0.664988,-0.14516500000000002,-0.12515999999999997,-0.666548,0.174979
165,0.019100000000000006,0.718589,-0.007469999999999921,-0.13555999999999999,0.47036900000000004,-0.04491999999999996,-0.27871,0.456699,-0.19042999999999993,0.14354,0.48384900000000003,0.07148000000000004,0.29293,0.44184900000000005,0.05726000000000006,-0.245118,0.534129,-0.3515499999999999,0.31657,0.5372790000000001,-0.09764999999999996,-0.07069,0.0014559999999999998,-0.015849999999999975,0.07069000000000003,-0.0014559999999999998,0.01585000000000003,-0.003939999999999999,-0.345551,-0.15826999999999997,-0.029439999999999966,-0.365541,0.11952000000000004,0.05882999999999999,-0.660751,-0.15317999999999993,-0.14559,-0.657961,0.19017100000000003
166,0.019735000000000003,0.7232105,-0.010875000000000024,-0.13488499999999998,0.4695105,-0.049634999999999985,-0.274966,0.4154005,-0.181865,0.139745,0.4783005,0.072275,0.276675,0.3981305,0.07111499999999998,-0.24020499999999997,0.4520005,-0.33644500000000005,0.30384500000000003,0.4553005,-0.088055,-0.07026499999999997,0.0015845000000000008,-0.01686500000000002,0.07026500000000002,-0.001584499999999999,0.01686500000000002,-0.004004999999999981,-0.3415895,-0.15002500000000002,-0.03634499999999996,-0.3595995,0.127895,0.06120500000000001,-0.6565095000000001,-0.152235,-0.15410499999999996,-0.6533595000000001,0.19561499999999998
167,0.020204999999999973,0.7273890000000001,-0.014459999999999973,-0.13473500000000002,0.46896899999999997,-0.05386000000000002,-0.269755,0.376119,-0.17103999999999997,0.13606499999999994,0.472919,0.07271,0.25825499999999996,0.353659,0.08528000000000002,-0.234405,0.372059,-0.31545,0.28897500000000004,0.370969,-0.07595000000000002,-0.06984499999999999,0.001578999999999997,-0.017799999999999983,0.06984499999999999,-0.0015790000000000005,0.017799999999999983,-0.002505000000000035,-0.340451,-0.13959,-0.04327500000000001,-0.352811,0.13509000000000002,0.05793499999999996,-0.6542509999999999,-0.14529999999999998,-0.155625,-0.6479109999999999,0.19735
168,0.020050000000000012,0.7296050000000001,-0.018654999999999977,-0.13549,0.469355,-0.057325000000000015,-0.26316,0.344345,-0.15579499999999996,0.13291000000000003,0.468305,0.07169500000000001,0.23578000000000005,0.314125,0.09712500000000002,-0.23144,0.300705,-0.285035,0.27273,0.291395,-0.060524999999999995,-0.06942999999999999,0.0014969999999999983,-0.018504999999999994,0.06942999999999999,-0.0014970000000000018,0.018504999999999994,-0.0036499999999999866,-0.342355,-0.12840499999999994,-0.04805999999999999,-0.347955,0.13756500000000002,0.04187999999999997,-0.653545,-0.12438499999999997,-0.15097,-0.641615,0.194825
169,0.020600000000000063,0.7307945,-0.023779999999999968,-0.13487999999999994,0.47007449999999995,-0.061519999999999964,-0.25450999999999996,0.31414450000000005,-0.13508999999999993,0.1305400000000001,0.46463449999999995,0.06981000000000004,0.21313000000000004,0.2806345,0.10945000000000005,-0.22889999999999996,0.2307245,-0.24963999999999997,0.25475000000000003,0.2231045,-0.040039999999999965,-0.06888999999999995,0.001458499999999998,-0.018969999999999987,0.06889,-0.0014585000000000015,0.018970000000000042,-0.007749999999999924,-0.3428755,-0.11522999999999994,-0.03452999999999995,-0.3424155,0.11976000000000003,0.02040000000000003,-0.6535955,-0.09558,-0.13431999999999994,-0.6335354999999999,0.18028000000000002
170,0.021135000000000015,0.7305564999999999,-0.031185000000000018,-0.136455,0.4714865,-0.06603500000000001,-0.24717499999999998,0.2893865,-0.11106500000000002,0.12750499999999998,0.4620565,0.06529499999999999,0.19026500000000002,0.2582865,0.11843499999999996,-0.22949499999999998,0.1719965,-0.21902499999999997,0.23516500000000007,0.1681165,-0.017795000000000005,-0.06820499999999996,0.0014645000000000005,-0.018894999999999995,0.06820499999999996,-0.0014645000000000005,0.018894999999999995,-0.014094999999999969,-0.34329350000000003,-0.10186500000000004,-0.015685000000000004,-0.3374035,0.096715,-0.005894999999999984,-0.6537935,-0.06694499999999998,-0.10411499999999996,-0.6267535000000001,0.15280499999999997
171,0.025920000000000054,0.730728,-0.036009999999999986,-0.13383999999999996,0.471948,-0.06763000000000008,-0.23744999999999994,0.273938,-0.08948,0.12912,0.461098,0.06279999999999997,0.17648000000000008,0.246808,0.12351999999999996,-0.22673999999999994,0.12498200000000001,-0.19244000000000006,0.2226800000000001,0.13125799999999999,0.0012399999999999634,-0.06773999999999997,0.001521999999999999,-0.01879000000000003,0.06774000000000002,-0.0015220000000000025,0.018789999999999973,-0.02292999999999995,-0.343972,-0.08809,0.009929999999999994,-0.334312,0.07328999999999997,-0.026609999999999967,-0.652912,-0.040569999999999995,-0.05952999999999997,-0.625372,0.11746999999999996
172,0.031930000000000014,0.7315855,-0.04164499999999999,-0.13505,0.47217549999999997,-0.068135,-0.22814999999999996,0.2694655,-0.07153499999999996,0.13173999999999997,0.4628855,0.059445000000000026,0.16869,0.24491549999999998,0.127145,-0.22505999999999998,0.0954525,-0.17019500000000004,0.21469000000000005,0.1131885,0.010025000000000006,-0.06780999999999998,0.001451499999999998,-0.018004999999999993,0.06781000000000004,-0.0014515000000000014,0.018004999999999993,-0.03741999999999995,-0.3435845,-0.07390500000000005,0.03861999999999999,-0.33111450000000003,0.04879499999999998,-0.04764999999999997,-0.6510245,-0.015805000000000013,-0.005349999999999966,-0.6234845,0.07581500000000002
