sb224sc-HT22-VT27/4dt907/src/data/kinect_good_vs_bad_not_preprocessed_A13_mediapipe/G71.csv
FrameNo,nose_3d_x,nose_3d_y,nose_3d_z,left_shoulder_3d_x,left_shoulder_3d_y,left_shoulder_3d_z,left_elbow_3d_x,left_elbow_3d_y,left_elbow_3d_z,right_shoulder_3d_x,right_shoulder_3d_y,right_shoulder_3d_z,right_elbow_3d_x,right_elbow_3d_y,right_elbow_3d_z,left_wrist_3d_x,left_wrist_3d_y,left_wrist_3d_z,right_wrist_3d_x,right_wrist_3d_y,right_wrist_3d_z,left_hip_3d_x,left_hip_3d_y,left_hip_3d_z,right_hip_3d_x,right_hip_3d_y,right_hip_3d_z,left_knee_3d_x,left_knee_3d_y,left_knee_3d_z,right_knee_3d_x,right_knee_3d_y,right_knee_3d_z,left_ankle_3d_x,left_ankle_3d_y,left_ankle_3d_z,right_ankle_3d_x,right_ankle_3d_y,right_ankle_3d_z
0,0.0169925,0.734362,-0.0256145,-0.14101249999999999,0.458382,0.022600500000000003,-0.16853249999999997,0.207902,0.053269500000000004,0.1600475,0.458492,0.017370500000000004,0.19646750000000002,0.213602,0.045610500000000005,-0.1906525,0.025078,0.010003500000000005,0.21330749999999998,0.026062,-0.011019499999999995,-0.0666315,0.0021260000000000003,0.0005635000000000015,0.0666315,-0.0021260000000000003,-0.0005634999999999946,-0.1116925,-0.313258,-0.0029304999999999956,0.1209775,-0.32211799999999996,0.011853500000000003,-0.1169725,-0.6180680000000001,0.03234650000000001,0.1451175,-0.636538,0.0432205
1,0.017161000000000003,0.7342355,-0.025835500000000004,-0.140713,0.4582355,0.0223065,-0.168233,0.2077855,0.053178500000000004,0.160647,0.4589555,0.018092499999999997,0.196657,0.2136055,0.045302499999999996,-0.189343,0.0250775,0.008636499999999998,0.213457,0.025548500000000002,-0.011416500000000003,-0.066647,0.0021465,0.0006234999999999991,0.066647,-0.0021465,-0.0006234999999999991,-0.111543,-0.3135045,-0.002885499999999999,0.121147,-0.3221145,0.0115275,-0.11683299999999999,-0.6181845,0.0320035,0.145127,-0.6368145,0.0428665
2,0.0173425,0.7342810000000001,-0.025643500000000007,-0.1411015,0.45804100000000003,0.022879499999999997,-0.1679915,0.207531,0.053795499999999996,0.1609385,0.459031,0.018458499999999996,0.1970885,0.214621,0.04527249999999999,-0.1882515,0.0035280000000000003,0.005820499999999996,0.2135985,0.024408,-0.011494500000000005,-0.0665965,0.0021540000000000005,0.0005184999999999981,0.0665965,-0.002154,-0.0005185000000000051,-0.1113815,-0.31353899999999996,-0.0029245000000000035,0.1212685,-0.322219,0.011319499999999996,-0.1166115,-0.618819,0.031869499999999995,0.1452585,-0.636579,0.0428335
3,0.0173705,0.7342905000000001,-0.025667499999999996,-0.1399215,0.4581305,0.0222735,-0.1678215,0.2079505,0.054277500000000006,0.1609385,0.45906050000000004,0.0183985,0.1969885,0.21473050000000002,0.0450645,-0.1884415,9.750000000000036e-05,0.004324500000000002,0.2136385,0.0242505,-0.0121275,-0.0666305,0.0021855000000000004,0.0005275000000000002,0.0666305,-0.0021855,-0.0005275000000000002,-0.1113315,-0.3136695,-0.0029034999999999964,0.1213185,-0.32219949999999997,0.011333500000000003,-0.1164715,-0.6182894999999999,0.031823500000000005,0.1452085,-0.6365895,0.0427015
4,0.017560000000000003,0.7338034999999999,-0.026361000000000002,-0.140566,0.4577335,0.022528,-0.167606,0.2073035,0.053745,0.161164,0.4593335,0.018896000000000003,0.197244,0.2144635,0.044322,-0.188476,0.0013905000000000002,0.005094000000000001,0.213824,0.0194465,-0.012414000000000001,-0.06659100000000001,0.0021745000000000002,0.0006309999999999996,0.06659100000000001,-0.0021745000000000002,-0.0006309999999999996,-0.111236,-0.3141865,-0.0034329999999999986,0.121724,-0.3227165,0.010995000000000001,-0.115736,-0.6208165000000001,0.031551,0.14538399999999999,-0.6371065,0.041658
5,0.0173795,0.733824,-0.026307000000000004,-0.1407175,0.457704,0.022536999999999995,-0.1676775,0.207314,0.054035,0.1611325,0.459174,0.018879999999999994,0.1971225,0.21445399999999998,0.044190999999999994,-0.1888475,0.003577,0.005836999999999995,0.21198250000000002,0.007831999999999999,-0.013862000000000006,-0.0665715,0.002116,0.0006609999999999949,0.0665715,-0.002116,-0.0006610000000000019,-0.11131750000000001,-0.314386,-0.003489000000000006,0.1216625,-0.32284599999999997,0.011124999999999996,-0.1156375,-0.621606,0.031287999999999996,0.1452525,-0.637056,0.04171
6,0.0172115,0.7338045000000001,-0.026528999999999997,-0.1409615,0.4573345,0.022392000000000006,-0.1678715,0.20701450000000002,0.05424000000000001,0.1608785,0.45910449999999997,0.018622000000000007,0.1969585,0.21459450000000002,0.04404500000000001,-0.1898615,0.0029495,0.006283000000000004,0.2178785,0.0341735,-0.011552999999999994,-0.0665505,0.0020664999999999998,0.0007040000000000032,0.0665505,-0.0020665,-0.0007039999999999963,-0.1114115,-0.31438550000000004,-0.0036769999999999928,0.1216285,-0.3227955,0.011106000000000005,-0.1157015,-0.6213255,0.030935000000000004,0.1452685,-0.6361454999999999,0.041523000000000004
7,0.0170025,0.733834,-0.026765999999999998,-0.14097749999999998,0.45806399999999997,0.022218,-0.16838750000000002,0.207774,0.054036,0.1606125,0.459214,0.017966000000000003,0.1971525,0.215064,0.044098000000000005,-0.1918375,0.003379,0.007604000000000003,0.2147325,0.020756999999999998,-0.013622999999999996,-0.0665715,0.0019579999999999997,0.000793000000000002,0.0665715,-0.001958,-0.0007929999999999951,-0.1116675,-0.314036,-0.003498999999999995,0.1214425,-0.322716,0.010916000000000002,-0.1161575,-0.621056,0.030538000000000003,0.14489249999999998,-0.636806,0.041138
8,0.016905,0.7337480000000001,-0.027039999999999995,-0.140993,0.45807800000000004,0.022050000000000004,-0.168523,0.207848,0.05407200000000001,0.160507,0.45919800000000005,0.017661000000000003,0.197487,0.215188,0.043902000000000004,-0.192823,0.0030889999999999997,0.007681000000000004,0.215357,0.021694,-0.013564999999999994,-0.066558,0.001932,0.0008590000000000021,0.066558,-0.0019320000000000001,-0.0008589999999999987,-0.11175299999999999,-0.314082,-0.0035379999999999995,0.12142700000000001,-0.32283199999999995,0.010853000000000005,-0.116173,-0.6213919999999999,0.030285000000000003,0.144757,-0.636822,0.040848
9,0.016789999999999996,0.7336745,-0.027233499999999994,-0.14100900000000002,0.45815449999999996,0.021933500000000005,-0.16872900000000002,0.2079645,0.05418150000000001,0.160381,0.45925449999999995,0.017467500000000004,0.19794099999999998,0.2153245,0.0437835,-0.19406900000000002,0.0028265,0.008020500000000003,0.21604099999999998,0.0204955,-0.014023499999999994,-0.06654399999999999,0.0019245000000000002,0.0009195000000000036,0.06654399999999999,-0.0019245,-0.0009194999999999967,-0.111839,-0.31410550000000004,-0.0035054999999999947,0.12138099999999999,-0.32293550000000004,0.010855500000000004,-0.116259,-0.6214355,0.030099500000000005,0.14460099999999998,-0.6368055,0.040657500000000006
10,0.0166685,0.7335999999999999,-0.027421499999999994,-0.1410265,0.45827,0.0218145,-0.16895649999999998,0.20815,0.054309500000000004,0.16022350000000002,0.45930000000000004,0.016862500000000002,0.1986235,0.21547,0.043680500000000004,-0.1954765,0.0027909999999999996,0.008492500000000004,0.2168035,0.02019,-0.014536499999999994,-0.0665325,0.0019139999999999997,0.0009855000000000037,0.0665325,-0.001914,-0.0009855000000000003,-0.11192650000000001,-0.31414,-0.0034415,0.1213235,-0.32302,0.010848500000000004,-0.1163765,-0.62154,0.029932500000000004,0.1444435,-0.63678,0.0404605
11,0.016560000000000002,0.7335105,-0.027588500000000002,-0.141106,0.4584005,0.0216485,-0.16919599999999999,0.2083505,0.0544095,0.160084,0.4593505,0.0162915,0.199354,0.2156205,0.0435985,-0.196806,0.0029625,0.008917500000000002,0.217734,0.0201145,-0.0149165,-0.066526,0.0019034999999999998,0.0010465000000000023,0.066526,-0.0019034999999999998,-0.0010464999999999988,-0.112006,-0.3141595,-0.003310500000000001,0.121274,-0.3230995,0.010852500000000001,-0.11648599999999999,-0.6216395,0.029777500000000002,0.144294,-0.6367395,0.0402815
12,0.016463000000000002,0.733437,-0.027721499999999996,-0.14109100000000002,0.45854700000000004,0.0215515,-0.169441,0.20857699999999998,0.0545325,0.15996900000000003,0.459367,0.015774500000000004,0.20015899999999998,0.215797,0.0435735,-0.198121,0.0030759999999999997,0.009420500000000002,0.21897899999999998,0.019576000000000003,-0.0153745,-0.066523,0.0018869999999999998,0.0010735000000000015,0.066523,-0.0018869999999999998,-0.001073499999999998,-0.112071,-0.314173,-0.0031474999999999975,0.12121900000000001,-0.323173,0.010905500000000002,-0.116591,-0.621803,0.029675500000000004,0.14415899999999998,-0.636673,0.0401575
13,0.016406,0.73334,-0.0278635,-0.14100700000000002,0.45868000000000003,0.0214625,-0.169657,0.20879,0.0545755,0.159883,0.45939,0.015460499999999999,0.201153,0.21621,0.0435905,-0.199297,0.002936,0.0097835,0.220243,0.019847,-0.0156795,-0.066519,0.0018739999999999998,0.0010725000000000005,0.066519,-0.0018739999999999998,-0.001072500000000004,-0.11208699999999999,-0.31422,-0.0029394999999999977,0.12118299999999999,-0.32325,0.0109905,-0.11666699999999999,-0.62196,0.0295665,0.144053,-0.63663,0.040042499999999995
14,0.0163645,0.733287,-0.027974,-0.14087850000000002,0.458797,0.021334,-0.1698785,0.209027,0.05454199999999999,0.15979149999999998,0.459447,0.015325999999999998,0.2022215,0.21667699999999998,0.043677999999999995,-0.20032850000000002,0.002833,0.010041999999999999,0.2211515,0.019862,-0.015456000000000004,-0.0665115,0.0018579999999999998,0.0010489999999999979,0.0665115,-0.0018580000000000003,-0.0010490000000000013,-0.1120985,-0.31428300000000003,-0.002723000000000003,0.1211515,-0.323323,0.011111999999999997,-0.1167285,-0.622143,0.029540999999999998,0.1439515,-0.636713,0.039969
15,0.016379500000000005,0.7332185,-0.028145000000000003,-0.1407735,0.45888850000000003,0.021096,-0.17012349999999998,0.2092185,0.05451,0.1597165,0.45955850000000004,0.015305,0.20332650000000002,0.2173485,0.043854000000000004,-0.2014135,0.0026815,0.009974,0.22263650000000001,0.0226005,-0.014667,-0.0665035,0.0018495,0.0010289999999999987,0.0665035,-0.0018494999999999996,-0.0010290000000000021,-0.1121035,-0.3143815,-0.0025290000000000035,0.12113650000000001,-0.32341149999999996,0.011231000000000001,-0.1165735,-0.6231614999999999,0.029505,0.1438365,-0.6367915,0.039876
16,0.0164665,0.733208,-0.028344499999999998,-0.1406775,0.458948,0.0208135,-0.17033750000000003,0.209408,0.0544785,0.1596725,0.459668,0.015281499999999998,0.20423249999999998,0.218058,0.0441265,-0.2023375,0.002473,0.0099115,0.22410249999999998,0.025314,-0.0139005,-0.0664945,0.001839,0.001007499999999998,0.0664945,-0.0018390000000000004,-0.001007499999999998,-0.1120675,-0.314452,-0.0024454999999999998,0.1211525,-0.323552,0.0113055,-0.11637750000000001,-0.624142,0.0294725,0.14376250000000002,-0.636902,0.0398165
17,0.016754000000000005,0.7331949999999999,-0.028351,-0.140577,0.45898500000000003,0.020503,-0.17080700000000001,0.209615,0.054433999999999996,0.159683,0.459795,0.015293,0.205183,0.219215,0.044782,-0.203157,0.0022630000000000003,0.009857999999999999,0.226013,0.026352,-0.013179000000000003,-0.06649,0.001828,0.0009650000000000006,0.06649,-0.0018279999999999998,-0.0009650000000000006,-0.112037,-0.31443499999999996,-0.002463,0.12116299999999999,-0.32359499999999997,0.011286999999999998,-0.11616699999999999,-0.625395,0.029463,0.143653,-0.637005,0.039751
18,0.017334000000000006,0.7330850000000001,-0.028268,-0.140584,0.458965,0.020187,-0.171464,0.20979499999999998,0.054144,0.159686,0.459945,0.015551,0.206006,0.220365,0.045847,-0.203824,0.002051,0.009829000000000001,0.227876,0.028758000000000002,-0.012022999999999999,-0.066468,0.001818,0.0008260000000000003,0.066468,-0.0018180000000000002,-0.0008260000000000003,-0.112074,-0.314435,-0.0024069999999999994,0.121086,-0.323615,0.011341,-0.11602399999999999,-0.626755,0.029526,0.143496,-0.637115,0.039731
19,0.0183915,0.7329255,-0.0279765,-0.1407325,0.4588955,0.0195385,-0.1727025,0.20986549999999998,0.053364499999999995,0.1595275,0.4601455,0.0163825,0.2060075,0.22160549999999998,0.047495499999999996,-0.2041425,0.0017334999999999998,0.008827500000000002,0.2295775,0.0312445,-0.0100535,-0.0663985,0.0018274999999999997,0.00041150000000000214,0.0663985,-0.0018275000000000001,-0.00041150000000000214,-0.1122925,-0.3144845,-0.002170499999999999,0.1208375,-0.3236545,0.011575499999999999,-0.1160525,-0.6287245,0.0296435,0.1431775,-0.6371945,0.0398785
20,0.0204835,0.7328319999999999,-0.0274335,-0.1407385,0.458892,0.0183005,-0.1744585,0.210282,0.051667500000000005,0.15933150000000001,0.460142,0.0178605,0.2054415,0.222992,0.050001500000000004,-0.2045185,0.0012120000000000004,0.007058500000000002,0.23210150000000002,0.032228,-0.0085275,-0.06633449999999999,0.0018520000000000001,-0.00019249999999999823,0.06633449999999999,-0.001852,0.00019249999999999823,-0.1125185,-0.314388,-0.0018754999999999952,0.1205215,-0.323638,0.011917500000000001,-0.11617849999999999,-0.630908,0.029850500000000002,0.14282150000000002,-0.6371180000000001,0.0401165
21,0.0232245,0.7327695,-0.0266485,-0.14046750000000002,0.4588795,0.016151500000000003,-0.1766075,0.2108495,0.0487465,0.1590325,0.4601295,0.020215500000000004,0.20467249999999998,0.22440949999999998,0.0538505,-0.2049775,-0.0002715000000000005,0.0035835000000000033,0.23395249999999998,0.0337745,-0.0035984999999999975,-0.0662495,0.0018484999999999999,-0.0010224999999999956,0.0662495,-0.0018484999999999999,0.0010225000000000026,-0.1127475,-0.31401049999999997,-0.0017014999999999947,0.1200925,-0.3235205,0.012199500000000002,-0.1164375,-0.6331805,0.030135500000000003,0.1423225,-0.6369905,0.0404625
22,0.027063500000000004,0.732554,-0.025024499999999998,-0.1402795,0.458944,0.014004500000000003,-0.1790495,0.212124,0.044562500000000005,0.15869049999999998,0.460134,0.024626500000000003,0.2036705,0.225364,0.0594975,-0.2053895,-0.0014849999999999998,-0.001284500000000001,0.2356405,0.03588,0.0020945000000000026,-0.0661835,0.0018480000000000003,-0.002093499999999998,0.0661835,-0.0018480000000000003,0.0020935000000000016,-0.1131095,-0.313856,-0.0016024999999999998,0.1195205,-0.323396,0.012420500000000001,-0.11678949999999999,-0.635646,0.0304105,0.1417205,-0.636886,0.040752500000000004
23,0.031395,0.7321850000000001,-0.022824499999999998,-0.139637,0.459005,0.010408500000000001,-0.181567,0.21415499999999998,0.0387815,0.157953,0.46014499999999997,0.0304215,0.202273,0.225385,0.06607650000000001,-0.204807,-0.0013509999999999993,-0.009444500000000002,0.237223,0.036776,0.009847499999999999,-0.065981,0.0018530000000000003,-0.0036235000000000017,0.065981,-0.001853,0.0036235000000000017,-0.113647,-0.313885,-0.0016684999999999964,0.118593,-0.323505,0.012841499999999999,-0.117457,-0.6382549999999999,0.0308085,0.140923,-0.636705,0.0410515
24,0.036087,0.7315915,-0.020006000000000003,-0.13869900000000002,0.45918149999999996,0.005602999999999997,-0.184089,0.2170915,0.031258999999999995,0.156741,0.4597015,0.037878999999999996,0.199651,0.2255315,0.07414399999999999,-0.203829,-0.0010235,-0.019364000000000006,0.237931,0.0388945,0.020626999999999996,-0.06559699999999999,0.0019244999999999998,-0.005705000000000002,0.06559699999999999,-0.0019245,0.005704999999999995,-0.114479,-0.31384850000000003,-0.0019430000000000003,0.117261,-0.3234985,0.013374999999999998,-0.118639,-0.6401185,0.031168999999999995,0.139671,-0.6363885,0.041379
25,0.041222499999999995,0.730957,-0.016313499999999995,-0.1376095,0.459517,-0.00017049999999999704,-0.18574949999999998,0.220407,0.022180500000000002,0.1543005,0.459297,0.04672950000000001,0.1954205,0.22588699999999998,0.0835505,-0.2026595,-0.000758,-0.030506499999999992,0.2360005,0.039675,0.0332415,-0.0649365,0.002061,-0.008636499999999998,0.0649365,-0.0020610000000000003,0.008636500000000002,-0.1157195,-0.31365299999999996,-0.002750499999999996,0.1154305,-0.32347299999999996,0.013983500000000003,-0.1203295,-0.641873,0.0313985,0.13772050000000002,-0.636173,0.0415955
26,0.046341999999999994,0.7304385000000001,-0.012076000000000003,-0.136303,0.4599585,-0.0069170000000000065,-0.18760300000000002,0.2241685,0.011386999999999994,0.15159699999999998,0.45893849999999997,0.055632999999999995,0.190407,0.22626849999999998,0.093952,-0.20104300000000003,0.0016885,-0.043034,0.233087,0.040056499999999995,0.046787999999999996,-0.064125,0.0022394999999999997,-0.012027000000000003,0.064125,-0.0022395,0.012026999999999996,-0.117093,-0.3133315,-0.003829000000000006,0.11342699999999999,-0.3233415,0.014564999999999995,-0.122273,-0.6433814999999999,0.03145799999999999,0.135397,-0.6359315,0.041732
27,0.0518485,0.7300945000000001,-0.006779999999999994,-0.1341465,0.4606345,-0.014637999999999998,-0.1896065,0.2283345,-0.0009219999999999992,0.1486835,0.4586745,0.06431400000000001,0.1845035,0.2265145,0.104939,-0.1990165,0.0054745,-0.05648199999999999,0.2298535,0.040612499999999996,0.062902,-0.0630465,0.0024305,-0.01595,0.0630465,-0.0024305000000000004,0.015950000000000002,-0.1185765,-0.3129055,-0.005240999999999996,0.11131350000000001,-0.3234255,0.015113000000000005,-0.1244365,-0.6446255,0.031322,0.1328635,-0.6355154999999999,0.041781000000000006
28,0.056541999999999995,0.7307365,-0.0013130000000000017,-0.13086699999999998,0.4619665,-0.024265999999999996,-0.191187,0.23345649999999998,-0.017140000000000002,0.144513,0.4562765,0.075918,0.176463,0.22723649999999998,0.118088,-0.194237,0.0101505,-0.073805,0.22623300000000002,0.0417745,0.081345,-0.061203999999999995,0.0026915,-0.019219,0.061203999999999995,-0.0026915000000000003,0.019219,-0.120007,-0.3123835,-0.007993,0.109283,-0.3239635,0.014928,-0.12681699999999999,-0.6448934999999999,0.030352,0.130083,-0.6344734999999999,0.040957
29,0.0603695,0.731738,0.004306999999999998,-0.1269695,0.463648,-0.034087,-0.19182950000000001,0.238798,-0.034133000000000004,0.14059049999999998,0.45428799999999997,0.086766,0.16843049999999998,0.22784800000000002,0.130511,-0.18819950000000002,0.015352000000000001,-0.09176199999999998,0.2217305,0.039523,0.101184,-0.0591905,0.0028859999999999997,-0.021967,0.0591905,-0.0028859999999999997,0.021967,-0.1211595,-0.312282,-0.011136,0.10760049999999999,-0.324382,0.014828000000000001,-0.12910950000000002,-0.644552,0.029103999999999998,0.1273705,-0.633242,0.039904999999999996
30,0.0638045,0.7332145,0.0100675,-0.12258050000000001,0.4656845,-0.0438545,-0.1913835,0.2446045,-0.0519045,0.1369565,0.4525945,0.09669050000000001,0.1606665,0.22881449999999998,0.1418035,-0.1806235,0.0213225,-0.10967649999999998,0.2175665,0.036235500000000004,0.1178245,-0.056912500000000005,0.0029804999999999996,-0.0244305,0.056912500000000005,-0.0029805000000000005,0.0244305,-0.12191350000000001,-0.3122955,-0.014483499999999996,0.10632649999999999,-0.32453550000000003,0.0147235,-0.1310935,-0.6437155,0.0275585,0.12475649999999999,-0.6317754999999999,0.0386495
31,0.06662200000000001,0.7356885,0.015732,-0.11705199999999999,0.46859850000000003,-0.05463300000000001,-0.188824,0.2505285,-0.07020100000000001,0.133536,0.4516385,0.10512099999999999,0.153526,0.23045849999999998,0.151619,-0.170184,0.0283995,-0.128551,0.213436,0.0328435,0.133779,-0.054460999999999996,0.0029945000000000006,-0.026553,0.054461,-0.0029945000000000006,0.026553,-0.122167,-0.3124015,-0.018206,0.105466,-0.3240115,0.014956999999999998,-0.132964,-0.6418115,0.025825,0.12209599999999998,-0.6297015,0.037348
32,0.06898399999999999,0.73856,0.0210875,-0.111762,0.47176,-0.0641345,-0.18490099999999998,0.25584999999999997,-0.0877975,0.130369,0.45122,0.1121445,0.147059,0.23220000000000002,0.1606225,-0.15959099999999998,0.036171999999999996,-0.1451675,0.208549,0.031669,0.14770250000000001,-0.052215,0.003011,-0.028187500000000004,0.052215000000000004,-0.003011,0.0281875,-0.122335,-0.31281,-0.021901499999999997,0.104879,-0.32348,0.0153135,-0.134641,-0.6395900000000001,0.0238675,0.119539,-0.6274900000000001,0.0360095
33,0.0708895,0.7415595,0.026019999999999998,-0.10641450000000001,0.4750795,-0.072646,-0.1796965,0.2603395,-0.104486,0.1275535,0.4514395,0.117328,0.1416735,0.23406949999999999,0.168064,-0.1488665,0.0450695,-0.160446,0.2041335,0.027814500000000002,0.159334,-0.0502885,0.0031215000000000027,-0.029284,0.0502885,-0.0031214999999999993,0.029283999999999998,-0.1221985,-0.3136305,-0.025548000000000005,0.1046735,-0.3229905,0.015919999999999997,-0.1361365,-0.6370605,0.021877,0.11722350000000001,-0.6252005,0.034584
34,0.072329,0.7446295,0.030688500000000004,-0.10088,0.4783895,-0.0800005,-0.173101,0.2646595,-0.11952049999999999,0.125179,0.4517895,0.12137049999999999,0.137719,0.23609950000000002,0.17457950000000003,-0.13733099999999998,0.0539525,-0.1746905,0.200309,0.0233605,0.16943950000000002,-0.048696,0.003247499999999997,-0.0298805,0.048696,-0.0032475000000000004,0.0298805,-0.12166400000000001,-0.3144105,-0.028274499999999998,0.10497899999999999,-0.3225905,0.017247500000000002,-0.137151,-0.6344005,0.020379500000000002,0.115309,-0.6228805,0.0337065
35,0.07371,0.747619,0.035202,-0.095283,0.481559,-0.086244,-0.16588,0.268519,-0.132754,0.12333,0.45214899999999997,0.125514,0.13465000000000002,0.23882899999999999,0.180016,-0.125245,0.059619000000000005,-0.187544,0.1966,0.019963,0.178056,-0.047173999999999994,0.0033550000000000003,-0.030185,0.047174,-0.0033550000000000003,0.030184999999999997,-0.120891,-0.31517100000000003,-0.030493000000000003,0.10558000000000001,-0.32200100000000004,0.018954,-0.13779,-0.631731,0.019309,0.11356000000000002,-0.6209210000000001,0.033177
36,0.074604,0.7508505,0.039062,-0.089987,0.4845605,-0.091321,-0.157976,0.2719505,-0.14420100000000002,0.12202400000000002,0.4523705,0.129829,0.132684,0.24156049999999998,0.18483899999999998,-0.112182,0.0640905,-0.19887100000000002,0.193574,0.0167775,0.18408899999999997,-0.045753,0.0034765000000000004,-0.030196999999999998,0.045752999999999995,-0.0034765000000000004,0.030196999999999998,-0.11974299999999999,-0.31618949999999996,-0.032136,0.10652400000000001,-0.3211195,0.020945,-0.137976,-0.6290695,0.018660999999999997,0.11225400000000002,-0.6191194999999999,0.033002
37,0.0763595,0.7537895,0.0415155,-0.08503649999999999,0.4869495,-0.0954965,-0.1507505,0.2744895,-0.15266649999999998,0.12237950000000002,0.45468949999999997,0.1294835,0.13296950000000002,0.2438495,0.1857235,-0.10022149999999999,0.0678715,-0.2063665,0.1934095,0.014304500000000003,0.18600350000000002,-0.0448125,0.0035225000000000013,-0.0296845,0.044812500000000005,-0.003522499999999998,0.0296845,-0.1180035,-0.3172305,-0.033716499999999996,0.1080695,-0.3196505,0.0222415,-0.1372205,-0.6268805,0.017667500000000003,0.1119895,-0.6176404999999999,0.032405500000000004
38,0.0782685,0.7565275,0.0431065,-0.0804295,0.4891175,-0.0992815,-0.1437215,0.2765975,-0.1598615,0.1229385,0.45679749999999997,0.1288285,0.1334985,0.2459975,0.1861085,-0.0885245,0.0706875,-0.2121115,0.1939485,0.014347500000000003,0.18588849999999998,-0.0438665,0.003651500000000002,-0.028906499999999998,0.0438665,-0.003651500000000002,0.0289065,-0.11629149999999999,-0.3178325,-0.035241499999999995,0.10956850000000001,-0.3181525,0.0230005,-0.1362315,-0.6249625,0.016453500000000003,0.11206850000000002,-0.6161924999999999,0.0315815
39,0.08019749999999999,0.7589385,0.043938,-0.0762065,0.4909485,-0.10278499999999999,-0.1371325,0.2783685,-0.165465,0.1236375,0.4585685,0.127805,0.1341575,0.24780850000000001,0.185875,-0.0777375,0.0725305,-0.216415,0.19463750000000002,0.015140500000000005,0.185135,-0.042972500000000004,0.0038785000000000035,-0.027798,0.0429725,-0.0038785,0.027798,-0.11472750000000001,-0.3183615,-0.036878999999999995,0.1110175,-0.31698149999999997,0.02332,-0.1351725,-0.6233515,0.015047999999999999,0.1124275,-0.6149815,0.030458
40,0.0815655,0.760239,0.044646,-0.0730805,0.492039,-0.104813,-0.1321945,0.279399,-0.168643,0.1251055,0.459689,0.127407,0.1353455,0.248779,0.185887,-0.0701475,0.073561,-0.217523,0.1952055,0.015578999999999999,0.184787,-0.042313500000000004,0.004188000000000001,-0.027111,0.042313500000000004,-0.004187999999999997,0.027111,-0.1137005,-0.318761,-0.037551,0.1120855,-0.316451,0.02387,-0.1342645,-0.622481,0.014403,0.1127755,-0.6143409999999999,0.02997
41,0.082809,0.761301,0.0452155,-0.070387,0.492871,-0.10636649999999999,-0.12809399999999999,0.279911,-0.1706165,0.126499,0.46053099999999997,0.1272435,0.136499,0.249481,0.1858435,-0.06393199999999999,0.07433300000000001,-0.21747650000000002,0.196339,0.015873,0.18461349999999999,-0.041801,0.004473000000000001,-0.026737499999999997,0.041801,-0.004472999999999998,0.0267375,-0.112816,-0.31916900000000004,-0.0379825,0.11293900000000001,-0.316139,0.0244005,-0.133511,-0.621869,0.0140495,0.113039,-0.613869,0.0297125
42,0.0838235,0.762088,0.045561000000000004,-0.0683805,0.493478,-0.107719,-0.1252865,0.280098,-0.171319,0.12763349999999998,0.46111800000000003,0.127191,0.1374135,0.249968,0.185781,-0.059230500000000005,0.07484,-0.217369,0.1972335,0.015986000000000004,0.184551,-0.0415465,0.004629000000000001,-0.026551,0.0415465,-0.004629000000000001,0.026551,-0.11228350000000001,-0.319652,-0.03829099999999999,0.11342349999999998,-0.31612199999999996,0.024749,-0.1330065,-0.6215120000000001,0.013772000000000001,0.11304349999999999,-0.6136320000000001,0.029601000000000002
43,0.084596,0.762725,0.0458255,-0.067,0.49394499999999997,-0.1085845,-0.123697,0.280335,-0.1711645,0.128556,0.46157499999999996,0.1272655,0.138126,0.250345,0.18589550000000002,-0.056694,0.074851,-0.2171745,0.197926,0.01603,0.1846655,-0.041519,0.004720999999999996,-0.0264135,0.041519,-0.004721000000000003,0.0264135,-0.111992,-0.320135,-0.038481499999999995,0.11357600000000001,-0.316095,0.0250465,-0.132744,-0.621265,0.0137165,0.11285600000000001,-0.6134649999999999,0.0296735
44,0.085457,0.763287,0.046010999999999996,-0.065815,0.49437699999999996,-0.10924800000000001,-0.122945,0.28013699999999997,-0.170978,0.129587,0.461997,0.127192,0.138967,0.250677,0.186082,-0.055906,0.074927,-0.216718,0.19876700000000003,0.016068999999999996,0.184712,-0.041493,0.0047699999999999965,-0.026264000000000003,0.041493,-0.004770000000000003,0.026264,-0.111635,-0.320713,-0.038671,0.113687,-0.316033,0.02521,-0.132493,-0.6211829999999999,0.013635,0.11267700000000001,-0.613343,0.029727
45,0.08632499999999999,0.7638505,0.0462305,-0.06506400000000001,0.4947605,-0.1096915,-0.12306700000000001,0.2797305,-0.1708015,0.130625,0.4623905,0.1270185,0.139815,0.2509705,0.1862185,-0.056069,0.0745245,-0.2156115,0.199605,0.0161345,0.1846285,-0.041386000000000006,0.004767500000000001,-0.0260775,0.041386,-0.004767500000000001,0.0260775,-0.111376,-0.32087950000000004,-0.0388525,0.113735,-0.3160795,0.0253935,-0.132305,-0.6211795,0.013566499999999999,0.11247499999999999,-0.6131695,0.0297995
46,0.08719,0.764277,0.046461,-0.064536,0.49499699999999996,-0.11002700000000001,-0.123262,0.27913699999999997,-0.170617,0.13162000000000001,0.462657,0.126753,0.14065,0.251127,0.186213,-0.05634499999999999,0.073643,-0.213547,0.20042000000000001,0.016092,0.184433,-0.041254,0.004711,-0.025879,0.041254,-0.004711,0.025879,-0.111139,-0.321043,-0.039101,0.11367,-0.31617300000000004,0.025584,-0.13221,-0.621463,0.01351,0.11222000000000001,-0.613123,0.029856
47,0.0877785,0.7646035,0.046664,-0.0644975,0.4951735,-0.11021799999999998,-0.1237915,0.2783235,-0.169738,0.13233850000000003,0.46283349999999995,0.126478,0.1412485,0.2511935,0.186172,-0.0569625,0.0714655,-0.210638,0.20100849999999998,0.016007499999999997,0.184222,-0.0412945,0.0046145000000000005,-0.025691,0.0412945,-0.0046145000000000005,0.025691,-0.1111795,-0.32112650000000004,-0.039322,0.11329850000000001,-0.31607650000000004,0.025818999999999998,-0.1324415,-0.6216865,0.013512999999999999,0.1116785,-0.6130565,0.029947
48,0.0881885,0.7649445,0.0467225,-0.06485250000000001,0.4953445,-0.11004249999999999,-0.12498150000000001,0.2771745,-0.1681425,0.1328185,0.4630545,0.1262045,0.1416185,0.2513245,0.18611750000000002,-0.058597500000000004,0.06932949999999999,-0.2076825,0.2013685,0.016006499999999996,0.1839975,-0.0415055,0.004513499999999997,-0.0254605,0.0415055,-0.004513500000000004,0.0254605,-0.1113835,-0.3210855,-0.03952749999999999,0.1126885,-0.3159755,0.026101500000000003,-0.1329415,-0.6219355,0.013640500000000002,0.1109385,-0.6129555,0.0301375
49,0.08829100000000001,0.765278,0.0467735,-0.065695,0.495508,-0.10952949999999999,-0.127131,0.276538,-0.16604950000000002,0.13298100000000002,0.463208,0.1260705,0.141711,0.251428,0.18611049999999998,-0.061921000000000004,0.06738,-0.2049695,0.201431,0.016006,0.1839005,-0.041829000000000005,0.00442,-0.0253915,0.041829,-0.00442,0.0253915,-0.11180700000000002,-0.321042,-0.03956549999999999,0.11183100000000001,-0.315882,0.0263705,-0.133709,-0.622152,0.013938500000000001,0.10994100000000001,-0.612862,0.0304985
50,0.08806749999999999,0.7653995,0.0467205,-0.0669885,0.4955595,-0.1089425,-0.13022250000000002,0.2765195,-0.1635825,0.1327975,0.46323949999999997,0.1260375,0.1414875,0.2514095,0.18616749999999999,-0.06683449999999999,0.0658635,-0.2031625,0.2011575,0.0159875,0.18452749999999998,-0.0422935,0.0043505,-0.0253715,0.0422935,-0.0043505,0.025371499999999998,-0.1125295,-0.3210605,-0.03948750000000001,0.11078750000000001,-0.3155905,0.0264095,-0.1347825,-0.6225005,0.014298499999999999,0.10864750000000001,-0.6128804999999999,0.0308985
51,0.0875125,0.7655255,0.046503,-0.0686435,0.49552549999999995,-0.10817399999999999,-0.1342775,0.27645549999999997,-0.160734,0.13229249999999998,0.46322549999999996,0.126142,0.14095249999999998,0.2513655,0.186346,-0.0749685,0.0647025,-0.201704,0.2005825,0.0159235,0.185346,-0.0430035,0.004286499999999999,-0.025236,0.0430035,-0.004286499999999999,0.025236,-0.1136355,-0.32112450000000003,-0.039150000000000004,0.1095625,-0.3152045,0.026327,-0.1362375,-0.6228745,0.014875000000000001,0.10700249999999999,-0.6129245,0.031435
52,0.0861595,0.765613,0.045913499999999996,-0.0704065,0.49544299999999997,-0.10725350000000002,-0.1391405,0.27635299999999996,-0.1576735,0.1317095,0.46312299999999995,0.1262065,0.1403195,0.251303,0.18708650000000002,-0.0840495,0.06389,-0.20067349999999998,0.1999295,0.015862,0.18608650000000002,-0.04376549999999999,0.004184,-0.025323500000000002,0.0437655,-0.004184,0.0253235,-0.11490349999999999,-0.32122700000000004,-0.0388155,0.10823950000000002,-0.31460699999999997,0.0259215,-0.1378105,-0.623247,0.015364500000000001,0.1053095,-0.612927,0.031864500000000004
53,0.0843695,0.76565,0.04503,-0.0723225,0.49526000000000003,-0.10592399999999999,-0.1446905,0.27624,-0.154094,0.1308995,0.46292,0.126311,0.1394695,0.25113,0.187736,-0.09406049999999999,0.063687,-0.199834,0.1993495,0.018302,0.197746,-0.044558499999999994,0.003980999999999998,-0.025616,0.0445585,-0.003980999999999998,0.025616000000000003,-0.1163785,-0.32138,-0.038454999999999996,0.10676950000000002,-0.31405,0.025320000000000002,-0.13956049999999998,-0.62358,0.015875000000000004,0.1035395,-0.61303,0.032227000000000006
54,0.08247499999999999,0.7651140000000001,0.044090000000000004,-0.07455899999999999,0.494454,-0.10381499999999999,-0.15043499999999999,0.27578400000000003,-0.150235,0.129735,0.462134,0.12659399999999998,0.138465,0.250334,0.18851500000000002,-0.104379,0.06288099999999999,-0.198745,0.199375,0.020928999999999996,0.208405,-0.045398999999999995,0.003918999999999999,-0.026272,0.045399,-0.003918999999999999,0.026272,-0.11804,-0.322036,-0.037823999999999997,0.105125,-0.31397600000000003,0.024703,-0.141435,-0.624486,0.016555,0.101715,-0.613726,0.032694
55,0.08076699999999999,0.7644535,0.0414405,-0.07702500000000001,0.4933335,-0.10109150000000001,-0.156503,0.2751735,-0.14540150000000002,0.128737,0.46109350000000004,0.12708550000000002,0.137837,0.2496735,0.19334849999999998,-0.114241,0.061770500000000006,-0.19752150000000002,0.200937,0.026074500000000007,0.21808850000000002,-0.046343,0.003883500000000005,-0.0270645,0.046342999999999995,-0.003883499999999998,0.0270645,-0.11969,-0.32284650000000004,-0.036931500000000006,0.103517,-0.31417649999999997,0.0240395,-0.143213,-0.6256364999999999,0.017378499999999998,0.10006699999999999,-0.6146965,0.033258499999999996
56,0.07929350000000002,0.7635115,0.038206500000000004,-0.0797885,0.4919315,-0.09755550000000002,-0.1625565,0.2744815,-0.1401155,0.1278135,0.4597415,0.1275185,0.1375535,0.24881150000000002,0.1981345,-0.12425449999999999,0.0608925,-0.1963355,0.2049435,0.031977500000000006,0.2263745,-0.0472955,0.003870500000000006,-0.0278155,0.0472955,-0.003870499999999999,0.027815500000000003,-0.12119350000000001,-0.3236985,-0.036108499999999995,0.10207349999999998,-0.3146285,0.023198500000000004,-0.1447665,-0.6270685,0.018147500000000004,0.09869349999999999,-0.6159384999999999,0.033698500000000006
57,0.07765,0.7621325,0.034202,-0.082635,0.49009250000000004,-0.093579,-0.16865,0.2737525,-0.134379,0.12721,0.4598225,0.125608,0.13804,0.2489325,0.201991,-0.135489,0.062022499999999994,-0.195529,0.21149,0.0394585,0.233091,-0.048433,0.0038604999999999993,-0.028161,0.048433000000000004,-0.003860500000000003,0.028161000000000002,-0.122524,-0.32491749999999997,-0.035539999999999995,0.1009,-0.3153475,0.021924,-0.14604,-0.6289775000000001,0.018716,0.09769000000000001,-0.6176275,0.033894
58,0.075993,0.760572,0.029486999999999996,-0.085733,0.488102,-0.08888900000000001,-0.174797,0.273002,-0.12770900000000002,0.126773,0.459712,0.123474,0.14047300000000001,0.24904199999999999,0.20431100000000002,-0.14641700000000002,0.062927,-0.194749,0.22089299999999998,0.047374,0.23817100000000002,-0.049617,0.003911999999999999,-0.028234000000000002,0.049616999999999994,-0.003911999999999999,0.028233999999999995,-0.123724,-0.326318,-0.03504600000000001,0.099883,-0.316118,0.020450999999999997,-0.14713700000000002,-0.630948,0.019164999999999995,0.09693299999999999,-0.619398,0.033971999999999995
59,0.0742365,0.7588379999999999,0.024257,-0.08900949999999999,0.485918,-0.084002,-0.1808335,0.272708,-0.12007199999999998,0.1266465,0.459508,0.121168,0.1444565,0.249118,0.206438,-0.1577135,0.06497,-0.193862,0.23250649999999998,0.056569999999999995,0.240988,-0.0507135,0.004018999999999998,-0.027986999999999998,0.050713499999999995,-0.004018999999999998,0.027986999999999998,-0.1248295,-0.327582,-0.034599,0.0988765,-0.317362,0.018811,-0.14812350000000002,-0.633152,0.019416,0.09633649999999999,-0.6214320000000001,0.033901
60,0.0723495,0.7565664999999999,0.019026499999999995,-0.0926855,0.4833165,-0.07799149999999999,-0.18646050000000003,0.2725765,-0.11179149999999999,0.1269495,0.4589665,0.1188185,0.1499495,0.2495765,0.20731850000000002,-0.1683905,0.0665235,-0.1914415,0.24558949999999996,0.06674250000000001,0.2417385,-0.05162050000000001,0.004143500000000001,-0.0277265,0.0516205,-0.004143500000000001,0.027726499999999998,-0.1257505,-0.3292135,-0.033917499999999996,0.09808949999999998,-0.3190835,0.017379499999999996,-0.14893050000000002,-0.6357835000000001,0.019681499999999998,0.09598949999999999,-0.6238535000000001,0.033895499999999995
61,0.0701465,0.7540675,0.013599999999999998,-0.0965385,0.4805375,-0.071906,-0.1919435,0.27140749999999997,-0.10286599999999999,0.12763649999999999,0.4585175,0.11621999999999999,0.1566765,0.2511575,0.207794,-0.1791335,0.0682115,-0.187616,0.2609665,0.0773635,0.242584,-0.0525565,0.004283499999999999,-0.027463,0.052556500000000006,-0.004283499999999999,0.027462999999999998,-0.12663049999999998,-0.3299725,-0.033082999999999994,0.0973865,-0.3210325,0.016138,-0.1497035,-0.6386025000000001,0.019951999999999998,0.0956365,-0.6264825,0.03396
62,0.06785949999999999,0.751327,0.008274499999999997,-0.1005085,0.477727,-0.06550650000000001,-0.19716050000000002,0.26847699999999997,-0.0929465,0.12890949999999998,0.458347,0.1132485,0.1642495,0.252847,0.2083235,-0.1893305,0.069301,-0.1834265,0.2776495,0.086255,0.24350349999999998,-0.0536395,0.004418,-0.027173500000000003,0.0536395,-0.004417999999999998,0.027173499999999996,-0.1273325,-0.330453,-0.0320805,0.09693949999999998,-0.323093,0.015089499999999999,-0.1502705,-0.641543,0.020241499999999996,0.0954595,-0.629173,0.0341415
63,0.06522,0.7488855,0.002701000000000002,-0.104549,0.47538549999999996,-0.059324999999999996,-0.20214,0.2659955,-0.08133099999999999,0.13062,0.4588355,0.109459,0.17266,0.2556155,0.20860900000000002,-0.20002,0.0706345,-0.174761,0.29500000000000004,0.09701549999999999,0.241729,-0.05474,0.0043345,-0.026836,0.05474,-0.0043345000000000015,0.026836000000000002,-0.127966,-0.3301345,-0.031236999999999994,0.09645999999999999,-0.3246645,0.014084000000000003,-0.15073999999999999,-0.6440545,0.020238000000000003,0.09544,-0.6313945,0.034120000000000004
64,0.0629865,0.746547,-0.0014834999999999987,-0.10842550000000001,0.473217,-0.0533525,-0.20629350000000002,0.263657,-0.0700565,0.1325665,0.459737,0.1050865,0.1811065,0.258257,0.2084935,-0.2104335,0.071511,-0.16515649999999998,0.3097265,0.10524900000000001,0.2386935,-0.0559065,0.004222999999999999,-0.0260795,0.055906500000000005,-0.004223000000000001,0.026079500000000005,-0.1284555,-0.329573,-0.030663499999999996,0.0960965,-0.325783,0.013222500000000002,-0.1510335,-0.6464230000000001,0.019986500000000004,0.09555649999999999,-0.6334730000000001,0.0337065
65,0.060767499999999995,0.744398,-0.0054035000000000055,-0.1120315,0.471218,-0.047795500000000005,-0.2097125,0.261088,-0.0580425,0.1347775,0.460998,0.1002725,0.18988750000000001,0.25995799999999997,0.2074545,-0.2197625,0.07111,-0.1542755,0.32208749999999997,0.112558,0.22169450000000002,-0.0570975,0.004100000000000001,-0.025118500000000002,0.0570975,-0.0040999999999999995,0.025118499999999995,-0.1287725,-0.32890199999999997,-0.030165499999999998,0.09588750000000001,-0.326522,0.012563499999999995,-0.1511725,-0.648612,0.019510499999999997,0.09582750000000001,-0.635362,0.033068499999999994
66,0.058803,0.742648,-0.009075999999999994,-0.11527699999999999,0.469618,-0.042686,-0.211867,0.259078,-0.046776,0.137283,0.460848,0.09700600000000001,0.19850299999999999,0.26084799999999997,0.205536,-0.22703700000000002,0.06936,-0.141354,0.33148299999999997,0.11752800000000001,0.20344600000000002,-0.058332999999999996,0.003981999999999999,-0.023642999999999997,0.058333,-0.003982000000000001,0.023643000000000004,-0.128791,-0.327992,-0.029834999999999993,0.095993,-0.32686200000000004,0.011656000000000003,-0.15101699999999998,-0.650412,0.018837000000000003,0.09631299999999998,-0.6369020000000001,0.032200000000000006
67,0.0568095,0.740815,-0.0122885,-0.1186105,0.46828499999999995,-0.0376475,-0.21333049999999998,0.256295,-0.035296499999999995,0.13997949999999998,0.46086499999999997,0.0932025,0.2055095,0.262065,0.19795449999999998,-0.23403049999999997,0.067777,-0.12648549999999997,0.3361295,0.121285,0.18419449999999998,-0.0595495,0.003841,-0.0218015,0.059549500000000005,-0.0038410000000000007,0.0218015,-0.1286705,-0.32695500000000005,-0.0296905,0.09628949999999999,-0.326865,0.010517499999999999,-0.1507185,-0.652045,0.0179555,0.0969195,-0.637895,0.0314045
68,0.0548455,0.7391795000000001,-0.0150695,-0.12150049999999998,0.46717949999999997,-0.0326945,-0.21392450000000002,0.2531495,-0.0246875,0.1425355,0.4609995,0.0891355,0.21078550000000001,0.2635395,0.1892935,-0.2397545,0.0663915,-0.11084649999999999,0.3373555,0.1234595,0.1647135,-0.0607555,0.0037155,-0.0197525,0.0607555,-0.0037155,0.0197525,-0.1283455,-0.3261305,-0.029621500000000002,0.0968155,-0.32656050000000003,0.0094745,-0.1502315,-0.6534804999999999,0.0170725,0.09771549999999998,-0.6382205,0.0307995
69,0.052900499999999996,0.737999,-0.017276999999999997,-0.1239285,0.466509,-0.028333,-0.2140395,0.250219,-0.013722000000000002,0.14476050000000001,0.46147900000000003,0.08507,0.2143405,0.264689,0.180523,-0.2432695,0.064616,-0.094677,0.3386205,0.122529,0.145893,-0.0617705,0.003594000000000001,-0.017959,0.0617705,-0.003594,0.017959000000000003,-0.1279815,-0.324971,-0.029404999999999997,0.0974305,-0.325891,0.008917000000000001,-0.1496945,-0.654481,0.016346,0.09858050000000002,-0.637981,0.030524000000000003
70,0.051110499999999996,0.7369985,-0.019154,-0.12611150000000002,0.4659685,-0.023755000000000002,-0.2139395,0.2468185,-0.0027930000000000003,0.1466205,0.4618885,0.080882,0.21625049999999998,0.26471849999999997,0.172443,-0.2458495,0.0624075,-0.079107,0.3400205,0.1217985,0.126862,-0.0626705,0.0034784999999999994,-0.016255000000000002,0.06267049999999999,-0.0034785,0.016255,-0.1275245,-0.3246615,-0.029386,0.0982005,-0.3250615,0.008466000000000001,-0.1490605,-0.6552515,0.015495,0.09957049999999998,-0.6374814999999999,0.030155
71,0.049318,0.7362070000000001,-0.0209025,-0.127862,0.465667,-0.0195075,-0.213677,0.243197,0.007227500000000001,0.148133,0.462267,0.0769245,0.217323,0.264937,0.1637775,-0.247947,0.059702,-0.0617905,0.341403,0.12204699999999999,0.1090065,-0.063433,0.0033840000000000007,-0.0147615,0.063433,-0.003384,0.014761500000000002,-0.127034,-0.324403,-0.029424499999999996,0.09904299999999999,-0.323943,0.008245500000000003,-0.148292,-0.655763,0.014605500000000002,0.10067299999999998,-0.6367729999999999,0.029747500000000003
72,0.0476355,0.735592,-0.0223965,-0.1295535,0.465482,-0.015570500000000001,-0.21418949999999998,0.239572,0.015417500000000002,0.1491405,0.462552,0.0730935,0.2187405,0.265382,0.15588849999999999,-0.2488995,0.058609,-0.0478115,0.33949050000000003,0.122152,0.09311649999999999,-0.0642505,0.0033319999999999995,-0.0134125,0.0642505,-0.003332,0.013412500000000003,-0.1265525,-0.324388,-0.0295995,0.0998505,-0.322568,0.008130500000000002,-0.14745550000000002,-0.6560980000000001,0.013667500000000003,0.10181050000000001,-0.635848,0.0292845
73,0.0460425,0.7350375,-0.023485,-0.13113049999999998,0.4652675,-0.011768999999999995,-0.2143565,0.2375175,0.023638000000000003,0.15006350000000002,0.46272749999999996,0.069453,0.2211635,0.2659375,0.148164,-0.2494965,0.0589655,-0.034936999999999996,0.33547350000000004,0.12482750000000001,0.077919,-0.0650535,0.0032464999999999994,-0.012336,0.0650535,-0.0032465000000000003,0.012336000000000003,-0.1261465,-0.32439250000000003,-0.029581999999999997,0.1006035,-0.32135250000000004,0.008296000000000005,-0.1466515,-0.6563525,0.012833000000000002,0.1029335,-0.6348925,0.029068000000000004
74,0.044576,0.734636,-0.024551999999999997,-0.132594,0.46512600000000004,-0.008017999999999997,-0.214091,0.237316,0.030276,0.150999,0.462806,0.0659,0.223669,0.266256,0.14069700000000002,-0.24952100000000002,0.059244,-0.028116000000000002,0.333649,0.127066,0.06401899999999999,-0.065879,0.00315,-0.011351,0.065879,-0.00315,0.011351,-0.125824,-0.324264,-0.029471999999999998,0.101379,-0.320174,0.008471000000000001,-0.145838,-0.656414,0.012149,0.104079,-0.633824,0.028834
75,0.043328,0.734266,-0.025711500000000005,-0.13367,0.46499599999999996,-0.0044905000000000014,-0.21332800000000002,0.237116,0.0344425,0.152222,0.462806,0.0622505,0.22601200000000002,0.266316,0.1327295,-0.252128,0.059044,-0.0279975,0.33502200000000004,0.127116,0.0519385,-0.06657199999999999,0.0030320000000000004,-0.0102755,0.06657199999999999,-0.003032,0.010275499999999998,-0.125481,-0.323954,-0.029368500000000006,0.10245199999999999,-0.31903400000000004,0.008394499999999997,-0.144741,-0.656454,0.011458499999999998,0.105492,-0.632744,0.028401499999999996
76,0.04194300000000001,0.7338305,-0.026707500000000002,-0.13409,0.46488050000000003,-0.0017064999999999997,-0.21492999999999998,0.2369105,0.036061499999999996,0.15336,0.4628205,0.0588135,0.22813000000000003,0.2666505,0.12411050000000001,-0.25832,0.0596625,-0.0293365,0.33676000000000006,0.12736050000000002,0.0381075,-0.06714999999999999,0.0029195000000000002,-0.009230500000000003,0.06715,-0.0029195,0.009230499999999999,-0.12525599999999998,-0.3234895,-0.0291045,0.10346,-0.3181495,0.0081275,-0.14360299999999998,-0.6565394999999999,0.010891499999999998,0.10692000000000002,-0.6320195,0.027826499999999997
77,0.04049850000000001,0.733334,-0.0273385,-0.13483050000000002,0.464744,0.0012905,-0.2193815,0.238194,0.0364075,0.1542885,0.462924,0.0553595,0.23185850000000002,0.268384,0.1149895,-0.2689915,0.06542099999999999,-0.030884499999999995,0.3385885,0.13022399999999998,0.0232725,-0.0675885,0.002782,-0.0081655,0.0675885,-0.002782,0.008165500000000001,-0.1251675,-0.323026,-0.028701499999999998,0.10437850000000001,-0.31773599999999996,0.007549500000000001,-0.1424445,-0.656646,0.010353500000000002,0.10831850000000001,-0.631836,0.0271185
78,0.0388405,0.732868,-0.02753,-0.1357215,0.464568,0.004222,-0.22709050000000003,0.24285800000000002,0.034986,0.15477950000000001,0.463108,0.051966,0.23815950000000002,0.27217800000000003,0.10583300000000001,-0.2844405,0.076988,-0.032640999999999996,0.3404495,0.13772800000000002,0.007094000000000001,-0.06793950000000001,0.00262,-0.007137000000000001,0.0679395,-0.00262,0.007137000000000001,-0.1251895,-0.322262,-0.028234999999999996,0.1051295,-0.317482,0.006926,-0.1414805,-0.656212,0.009824000000000001,0.10977949999999999,-0.631642,0.026396000000000003
79,0.03696300000000001,0.7323594999999999,-0.027188999999999998,-0.13671499999999998,0.46450949999999996,0.006794000000000001,-0.237223,0.2528895,0.033503000000000005,0.155167,0.4634195,0.048923,0.247707,0.2791395,0.09618,-0.303453,0.0970535,-0.03805,0.349287,0.15124949999999998,-0.008093,-0.068217,0.0024265000000000003,-0.006193000000000001,0.068217,-0.0024265000000000003,0.006193000000000001,-0.125296,-0.3215005,-0.027643,0.105717,-0.31751050000000003,0.006436000000000001,-0.140633,-0.6555705000000001,0.009401000000000001,0.111267,-0.6315105,0.025777
80,0.0349735,0.731783,-0.026486999999999997,-0.1381795,0.46475299999999997,0.009478,-0.2484575,0.266613,0.031953,0.1564025,0.46413299999999996,0.046085,0.2583025,0.290913,0.086158,-0.3251175,0.12595299999999998,-0.046270000000000006,0.3619825,0.173363,-0.023995999999999996,-0.0684325,0.002211,-0.005323999999999999,0.06843250000000001,-0.0022110000000000003,0.005324000000000001,-0.1254275,-0.32066700000000004,-0.027054999999999996,0.1061425,-0.31772700000000004,0.006037000000000001,-0.1397975,-0.655027,0.009016000000000001,0.11271250000000002,-0.631627,0.025174000000000002
81,0.032882499999999995,0.7312085,-0.025504,-0.1395565,0.4650585,0.011616999999999999,-0.2611365,0.2855685,0.029778,0.1575635,0.46504850000000003,0.043609999999999996,0.27037350000000004,0.3074485,0.07583799999999999,-0.34809650000000003,0.1633085,-0.057251,0.3736235,0.2050185,-0.041183000000000004,-0.06857350000000001,0.0019505,-0.004540000000000002,0.0685735,-0.0019505,0.004539999999999999,-0.1256275,-0.3198515,-0.026386,0.1063935,-0.3182815,0.005713999999999999,-0.13906649999999998,-0.6544515,0.008699999999999998,0.11404349999999999,-0.6319415,0.024592
82,0.030700500000000006,0.7304700000000001,-0.024278,-0.1412985,0.46579,0.012700999999999999,-0.27643850000000003,0.31000999999999995,0.023642,0.1586515,0.46612,0.04146,0.2828315,0.32915,0.06623899999999999,-0.3696085,0.21063,-0.07241,0.3833915,0.24810000000000001,-0.05441700000000001,-0.0686215,0.001679,-0.0038520000000000013,0.0686215,-0.001679,0.0038519999999999995,-0.1258415,-0.31924,-0.025765000000000003,0.1065315,-0.319,0.005460999999999999,-0.1383885,-0.65408,0.008412,0.1153215,-0.6324299999999999,0.024047
83,0.028566499999999995,0.7290475000000001,-0.0228715,-0.1430875,0.46673749999999997,0.0130475,-0.28774750000000004,0.34506749999999997,0.0157375,0.1596125,0.46855749999999996,0.0397405,0.2918425,0.36343749999999997,0.05667850000000001,-0.3889175,0.2780875,-0.08957949999999999,0.39253249999999995,0.3122275,-0.0667715,-0.06857250000000001,0.0014135,-0.003235499999999999,0.0685725,-0.0014135,0.0032355000000000005,-0.1259825,-0.31924250000000004,-0.025345499999999997,0.1066725,-0.32040250000000003,0.005238500000000002,-0.13774750000000002,-0.6545424999999999,0.008096500000000001,0.1165525,-0.6335925,0.023593500000000003
84,0.02655450000000001,0.7270570000000001,-0.0212935,-0.1446045,0.468157,0.0128985,-0.2968545,0.385087,0.006942500000000001,0.1604355,0.471547,0.0386215,0.2976555,0.40336700000000003,0.0476385,-0.4016945,0.349377,-0.1057525,0.4007455,0.384697,-0.07687150000000001,-0.0684555,0.001179,-0.002873500000000001,0.0684555,-0.001179,0.002873500000000001,-0.12607849999999998,-0.31993299999999997,-0.025050499999999996,0.10661550000000002,-0.322283,0.005279500000000001,-0.13728449999999998,-0.655653,0.0078565,0.1175855,-0.635353,0.023363500000000002
85,0.024790999999999994,0.7245035,-0.019726,-0.145734,0.4705835,0.012272,-0.30005400000000004,0.4279935,-0.0028260000000000004,0.160206,0.4753735,0.037436,0.29864599999999997,0.4480135,0.039896,-0.40763400000000005,0.4289535,-0.12078,0.40476599999999996,0.4595235,-0.081729,-0.06825600000000001,0.0009204999999999994,-0.0027559999999999998,0.068256,-0.0009205000000000003,0.0027559999999999998,-0.126006,-0.3213765,-0.024946999999999997,0.106576,-0.3247565,0.005377999999999999,-0.13689400000000002,-0.6574065,0.0076809999999999995,0.11851599999999998,-0.6378165,0.023326
86,0.023187,0.7217115000000001,-0.0181315,-0.146378,0.4729415,0.0119255,-0.299108,0.4728915,-0.012615499999999998,0.159842,0.4800415,0.0366135,0.299462,0.49499150000000003,0.0331985,-0.406698,0.5106215000000001,-0.1302855,0.405342,0.5404515,-0.0830555,-0.068022,0.0006584999999999994,-0.0028394999999999983,0.068022,-0.0006585000000000002,0.0028395,-0.12581599999999998,-0.32343849999999996,-0.024852499999999996,0.10644200000000001,-0.32770849999999996,0.005692500000000001,-0.13663799999999998,-0.6596185,0.0077355,0.119262,-0.6407284999999999,0.023567499999999998
87,0.02185,0.718813,-0.01663,-0.146835,0.475913,0.011708,-0.298225,0.517113,-0.022078,0.159535,0.484203,0.035892,0.300175,0.541483,0.027309,-0.405935,0.588983,-0.137293,0.405825,0.6214930000000001,-0.08352,-0.067775,0.00046199999999999887,-0.0030209999999999994,0.067775,-0.0004620000000000006,0.0030209999999999994,-0.125498,-0.325797,-0.024838,0.106295,-0.331087,0.006094,-0.136285,-0.662777,0.0079,0.119785,-0.644157,0.023836
88,0.0208145,0.7155255,-0.015546500000000001,-0.1471625,0.47882549999999996,0.011486499999999998,-0.2974025,0.5582855,-0.0319925,0.15852750000000002,0.48870549999999996,0.0348845,0.30055750000000003,0.5861955000000001,0.0207455,-0.4052825,0.6624655,-0.1429595,0.40627749999999996,0.6962055,-0.08473449999999999,-0.0675375,0.0003704999999999993,-0.0031745000000000002,0.0675375,-0.0003704999999999993,0.0031744999999999985,-0.12510149999999998,-0.32867450000000004,-0.0249725,0.10618749999999999,-0.3351345,0.006400499999999999,-0.1359125,-0.6667845,0.008026499999999999,0.1201875,-0.6482245,0.0240585
89,0.019789,0.7121240000000001,-0.014809499999999998,-0.147069,0.480994,0.010551500000000002,-0.296599,0.593674,-0.041522500000000004,0.157171,0.49251399999999995,0.0338165,0.297871,0.622904,0.0146955,-0.40462899999999996,0.7240040000000001,-0.1487965,0.401521,0.762494,-0.08673249999999999,-0.06732099999999999,0.00033400000000000096,-0.0032735000000000004,0.067321,-0.0003339999999999975,0.0032735000000000004,-0.124828,-0.331936,-0.0250695,0.10604100000000001,-0.33957600000000004,0.006623500000000001,-0.135659,-0.671256,0.008117500000000001,0.12045099999999999,-0.652736,0.0243365
90,0.018779999999999998,0.709078,-0.014265999999999997,-0.146841,0.482738,0.009291,-0.292601,0.620438,-0.049922999999999995,0.155839,0.496178,0.033015,0.294339,0.6534179999999999,0.009346000000000002,-0.395351,0.778368,-0.153427,0.391389,0.819148,-0.089337,-0.06714300000000001,0.000279999999999999,-0.003334,0.067143,-0.00028000000000000247,0.003334000000000002,-0.12465,-0.33507200000000004,-0.02513,0.105769,-0.34339200000000003,0.006858000000000001,-0.13548100000000002,-0.675632,0.008158000000000002,0.120609,-0.657212,0.024629
91,0.017863000000000004,0.7066715,-0.013694500000000002,-0.146699,0.48405149999999997,0.0078935,-0.287379,0.6392114999999999,-0.05562349999999999,0.15442099999999997,0.49899150000000003,0.032370499999999996,0.289681,0.6757115,0.0036945,-0.378669,0.8194615,-0.1569485,0.373051,0.8615415,-0.0928585,-0.067035,0.00020449999999999982,-0.0034234999999999995,0.067035,-0.00020449999999999982,0.0034234999999999995,-0.12454799999999999,-0.33743850000000003,-0.0250315,0.10549100000000002,-0.3465885,0.007190499999999999,-0.13538899999999998,-0.6793485,0.008354499999999999,0.120681,-0.6610485,0.0250055
92,0.016950999999999994,0.70536,-0.0128455,-0.146731,0.48492999999999997,0.005954499999999999,-0.282371,0.64422,-0.06110550000000001,0.153049,0.49959999999999993,0.0319035,0.284909,0.6789499999999999,-0.003015500000000001,-0.356781,0.83235,-0.1608995,0.349349,0.8704999999999999,-0.0918095,-0.06703600000000001,0.00010399999999999993,-0.003650500000000001,0.067036,-0.00010399999999999993,0.0036504999999999992,-0.12435,-0.33879000000000004,-0.024983500000000002,0.10518899999999999,-0.34865,0.0075864999999999995,-0.135341,-0.68186,0.008591499999999998,0.12066899999999998,-0.66367,0.0254355
93,0.0159645,0.7053229999999999,-0.011575500000000002,-0.1465745,0.483763,0.004159499999999998,-0.2754745,0.6430530000000001,-0.0676935,0.1515355,0.49860299999999996,0.031717499999999996,0.2790755,0.677783,-0.0104185,-0.3301945,0.8314630000000001,-0.1644235,0.32512549999999996,0.8693329999999999,-0.0956135,-0.06704850000000001,-5.099999999999549e-05,-0.0039425000000000016,0.0670485,5.100000000000243e-05,0.0039425,-0.1241015,-0.338887,-0.025020499999999998,0.10491550000000001,-0.349257,0.0079525,-0.1353045,-0.6832370000000001,0.0089185,0.12062550000000001,-0.664957,0.0258315
94,0.014912500000000002,0.7056125,-0.009941500000000002,-0.1459475,0.4834425,0.003177499999999998,-0.2636775,0.6427325,-0.0759145,0.1498125,0.49828249999999996,0.0315315,0.2730625,0.6774625,-0.0192625,-0.30030749999999995,0.8311425,-0.1660095,0.3021925,0.8690125,-0.09623949999999999,-0.0670055,-0.00015749999999999792,-0.004271500000000001,0.0670055,0.00015750000000000486,0.004271499999999999,-0.1238315,-0.3381975,-0.025034500000000005,0.10471249999999999,-0.3491675,0.008317499999999999,-0.13524750000000002,-0.6838075,0.0092935,0.1204625,-0.6656875,0.0261975
95,0.013610499999999998,0.7060625,-0.00775,-0.14497749999999998,0.4834425,0.002478000000000001,-0.25563749999999996,0.6427325,-0.087005,0.1471725,0.49828249999999996,0.030956,0.2697625,0.6774625,-0.027821000000000002,-0.2715075,0.8311425,-0.164285,0.2796925,0.8690125,-0.096745,-0.0670115,-0.00015749999999999792,-0.0046099999999999995,0.0670115,0.00015750000000000486,0.004610000000000001,-0.1235565,-0.3372775,-0.024922999999999997,0.10449249999999999,-0.3487375,0.008782000000000002,-0.1351675,-0.6840375,0.009772000000000001,0.1202925,-0.6660475,0.026664
96,0.012098999999999992,0.7065025,-0.005386500000000002,-0.14429,0.4828825,0.0021754999999999986,-0.24912,0.6365325000000001,-0.0970235,0.14404,0.49828249999999996,0.0305275,0.26626,0.6714225,-0.0344705,-0.24441000000000002,0.8311425,-0.1678735,0.25955,0.8655525000000001,-0.0969235,-0.06703600000000001,-0.00015749999999999792,-0.0048284999999999995,0.067036,0.00015750000000000486,0.0048284999999999995,-0.1233,-0.3372775,-0.0244385,0.10439,-0.3487375,0.0094705,-0.1351,-0.6842475,0.010449499999999999,0.12005999999999999,-0.6665375,0.027347499999999997
97,0.010498500000000001,0.7066125,-0.0029599999999999974,-0.1443625,0.4800225,0.0021680000000000015,-0.2454525,0.6198225,-0.102682,0.1426075,0.4984225,0.030756,0.2607475,0.6520425,-0.037029999999999993,-0.2166925,0.8146125,-0.169952,0.2428375,0.8485225,-0.101352,-0.0671055,-0.00015749999999999792,-0.004864,0.0671055,0.00015750000000000486,0.004864,-0.1233625,-0.3372775,-0.023685,0.10429750000000002,-0.3487375,0.009976000000000002,-0.1350325,-0.6844875,0.011104000000000001,0.1196875,-0.6673175,0.027744
98,0.009019000000000006,0.7081590000000001,-0.00016450000000000145,-0.14449599999999999,0.47691900000000004,0.0023204999999999996,-0.24026599999999998,0.5910690000000001,-0.1014155,0.140524,0.496979,0.0311885,0.256254,0.620399,-0.0361815,-0.189636,0.784509,-0.1745855,0.22990400000000003,0.814299,-0.1061755,-0.06729399999999999,-0.0003119999999999998,-0.0049415000000000014,0.06729399999999999,0.0003119999999999998,0.0049415,-0.123536,-0.335811,-0.022648500000000002,0.104154,-0.347271,0.0103195,-0.134986,-0.683261,0.0120055,0.11918400000000001,-0.666951,0.0280305
99,0.0075224999999999945,0.711382,0.0013164999999999982,-0.1445835,0.47273199999999993,0.0026905,-0.2347635,0.551922,-0.0999175,0.1395265,0.49510199999999993,0.0314835,0.2524065,0.579812,-0.0350945,-0.17282350000000002,0.7407119999999999,-0.1732575,0.22692649999999998,0.7652019999999999,-0.1041675,-0.0674265,-0.00041899999999999923,-0.005095499999999999,0.0674265,0.00041899999999999923,0.005095499999999999,-0.12352350000000001,-0.332878,-0.021394500000000004,0.1040965,-0.344648,0.009929499999999999,-0.1348335,-0.680648,0.013115499999999999,0.11863649999999999,-0.665308,0.0284295
100,0.0060129999999999975,0.7160415,0.0024994999999999983,-0.145124,0.4692915,0.0030694999999999993,-0.22884400000000002,0.5066215000000001,-0.09841549999999999,0.138846,0.4932315,0.0316315,0.252926,0.5335415,-0.0338235,-0.166194,0.6862215,-0.1717255,0.226786,0.7066515000000001,-0.1029255,-0.067546,-0.0005975000000000008,-0.005264500000000002,0.067546,0.0005975000000000008,0.0052645,-0.123496,-0.3296385,-0.020167499999999998,0.10406599999999999,-0.3413585,0.008673499999999999,-0.134964,-0.6762885,0.0141985,0.117976,-0.6624785,0.0282665
101,0.004905499999999993,0.7209985,0.0037225,-0.1458925,0.4662485,0.0034615000000000028,-0.2233825,0.4611285,-0.09425049999999999,0.13845749999999998,0.49077850000000006,0.030641500000000002,0.2551975,0.4883085,-0.031164499999999998,-0.1662925,0.6205185,-0.1704505,0.2266375,0.6434685,-0.10166049999999999,-0.0676375,-0.0007664999999999998,-0.005372499999999999,0.0676375,0.0007664999999999998,0.005372500000000002,-0.1235355,-0.3263315,-0.0190455,0.1041175,-0.33807149999999997,0.006779500000000001,-0.13510250000000001,-0.6714115,0.015244500000000001,0.1171875,-0.6594515000000001,0.0279625
102,0.004245499999999999,0.7257804999999999,0.005062500000000001,-0.1466465,0.4636205,0.004003500000000004,-0.2203465,0.4171905,-0.0823595,0.1383735,0.48736050000000003,0.029729500000000002,0.25840349999999995,0.4444305,-0.020721499999999997,-0.1664765,0.5324205,-0.1690895,0.2264535,0.5589204999999999,-0.10029949999999999,-0.06772349999999999,-0.0008435000000000005,-0.005347499999999998,0.06772349999999999,0.0008435000000000005,0.0053475000000000016,-0.12363950000000001,-0.3230495,-0.017785499999999996,0.10432350000000001,-0.33540949999999997,0.004257500000000004,-0.1352665,-0.6665895000000001,0.0161505,0.1163335,-0.6566995,0.027216500000000005
103,0.004025000000000001,0.729896,0.0059185,-0.14682699999999999,0.46163600000000005,0.004361500000000001,-0.220437,0.376996,-0.06819750000000001,0.138253,0.48461600000000005,0.0288175,0.261643,0.40350600000000003,-0.009354499999999998,-0.16711700000000002,0.44541600000000003,-0.1580525,0.22687300000000002,0.47199599999999997,-0.0954625,-0.067833,-0.000818000000000001,-0.005305500000000001,0.067833,0.0008179999999999993,0.005305500000000001,-0.123779,-0.32064400000000004,-0.016497500000000002,0.10456299999999999,-0.333314,0.0015954999999999997,-0.135427,-0.660564,0.0169135,0.115623,-0.654274,0.0264735
104,0.003874499999999996,0.7332245000000001,0.005635999999999999,-0.1468075,0.4602845,0.004743999999999998,-0.22079749999999998,0.3435545,-0.05262800000000001,0.1381325,0.4829845,0.02787,0.2648825,0.3729645,0.0047119999999999974,-0.1682075,0.37122449999999996,-0.136679,0.2333825,0.4067745,-0.081819,-0.06796250000000001,-0.0007065000000000005,-0.005203000000000003,0.0679625,0.0007064999999999997,0.005202999999999999,-0.12378750000000001,-0.31920550000000003,-0.015201,0.10484249999999999,-0.3319555,-0.0010280000000000011,-0.1356175,-0.6566255,0.017681999999999996,0.1149525,-0.6527155,0.025713999999999997
105,0.003754500000000001,0.735329,0.004113500000000003,-0.1467655,0.461999,0.005320500000000002,-0.22022550000000002,0.322049,-0.0343225,0.1380545,0.481549,0.0266825,0.2664045,0.351109,0.0217635,-0.1765755,0.31171899999999997,-0.1070175,0.2464845,0.350989,-0.0583625,-0.0681545,-0.0005279999999999998,-0.005069499999999998,0.0681545,0.0005279999999999998,0.005069500000000001,-0.12377450000000001,-0.319181,-0.014266499999999994,0.10513449999999999,-0.331851,-0.003743499999999997,-0.1358255,-0.654541,0.018344500000000003,0.1143845,-0.652301,0.024889500000000002
106,0.003636500000000001,0.7367775,0.0016770000000000014,-0.14602949999999998,0.4634475,0.006183000000000001,-0.22029949999999998,0.3102875,-0.00972,0.1381505,0.4814075,0.02536,0.26450049999999997,0.33990750000000003,0.042841000000000004,-0.1941795,0.2621775,-0.068827,0.2658605,0.3084875,-0.025349999999999998,-0.0683205,-0.0002754999999999997,-0.004948000000000001,0.0683205,0.00027550000000000014,0.004948000000000001,-0.1237765,-0.3198625,-0.013343,0.10542050000000001,-0.3321325,-0.006067999999999997,-0.1361595,-0.6532625000000001,0.01919,0.11385050000000001,-0.6522525,0.024535
107,0.004040500000000009,0.7368575,-0.0019054999999999975,-0.1452085,0.4634575,0.007521500000000004,-0.2202885,0.3091975,0.022496500000000003,0.1379515,0.4806675,0.023801500000000003,0.2595115,0.3396775,0.06793450000000001,-0.2149085,0.2237675,-0.024321499999999996,0.2822015,0.2774375,0.013831500000000004,-0.0683715,-0.0002655000000000001,-0.0047174999999999995,0.0683715,0.0002654999999999997,0.004717500000000003,-0.12385349999999999,-0.3221825,-0.012819499999999998,0.1055515,-0.3337425,-0.008080499999999997,-0.1367185,-0.6534424999999999,0.020016500000000003,0.11324150000000001,-0.6534125,0.024478500000000004
108,0.004934500000000001,0.7369475,-0.006356499999999998,-0.1443355,0.4641775,0.009049499999999999,-0.21995550000000003,0.3091975,0.0571825,0.13805450000000002,0.4806675,0.0227505,0.2542545,0.3396775,0.09472749999999999,-0.2384555,0.1997775,0.025704499999999998,0.2978845,0.2605875,0.061352500000000004,-0.0683945,-0.0002655000000000001,-0.004318499999999999,0.0683945,0.0002654999999999997,0.004318499999999999,-0.1241415,-0.32400249999999997,-0.012726499999999998,0.1054345,-0.33443249999999997,-0.009171500000000003,-0.1375355,-0.6538824999999999,0.0208005,0.11257450000000001,-0.6543325,0.0245505
109,0.006220000000000003,0.7375075,-0.011034500000000003,-0.142862,0.46514750000000005,0.010880499999999998,-0.220142,0.3091975,0.0919325,0.13801800000000003,0.4806675,0.022172499999999998,0.249048,0.3396775,0.12177349999999999,-0.266772,0.1863075,0.0801915,0.311048,0.2564775,0.1168385,-0.06839799999999999,-0.0002655000000000001,-0.0038445000000000007,0.068398,0.0002654999999999997,0.0038445000000000007,-0.12450499999999999,-0.3248625,-0.0128985,0.105258,-0.33443249999999997,-0.0093115,-0.13852199999999998,-0.6542625,0.0217875,0.11192800000000001,-0.6550024999999999,0.0254875
110,0.007823999999999998,0.7376484999999999,-0.015960500000000002,-0.142217,0.4686985,0.0128155,-0.221747,0.3089285,0.11930550000000001,0.138963,0.4820385,0.0223725,0.243823,0.3394085,0.1458555,-0.297317,0.1860385,0.1384455,0.323873,0.2562085,0.17697549999999998,-0.068323,3.500000000000031e-06,-0.0033714999999999995,0.068323,-3.500000000000031e-06,0.0033714999999999995,-0.124834,-0.3258715,-0.013296500000000003,0.105133,-0.3347015,-0.0087425,-0.13953700000000002,-0.6551115000000001,0.022942499999999998,0.11135300000000001,-0.6555815,0.0267095
111,0.009940999999999998,0.7361575,-0.0198635,-0.142764,0.4731275,0.015050500000000001,-0.223574,0.3165475,0.1399075,0.139126,0.4823275,0.022600500000000003,0.241236,0.3468275,0.1630175,-0.321584,0.1842275,0.1913275,0.327486,0.2543975,0.23096750000000002,-0.068176,0.00018949999999999956,-0.0030304999999999985,0.068176,-0.00018950000000000043,0.0030304999999999985,-0.125094,-0.3282125,-0.014113500000000001,0.10514599999999999,-0.3365125,-0.007394499999999998,-0.140554,-0.6576424999999999,0.024321500000000003,0.11082600000000001,-0.6574724999999999,0.0286115
112,0.012394999999999996,0.7336925000000001,-0.023607500000000003,-0.140181,0.47664249999999997,0.017357499999999998,-0.227551,0.3291825,0.1577095,0.13913899999999998,0.4796125,0.0226045,0.24010900000000002,0.35913249999999997,0.17988949999999998,-0.339021,0.1815125,0.2365795,0.32991899999999996,0.2512925,0.2829395,-0.068029,0.0003604999999999997,-0.002739499999999999,0.068029,-0.0003604999999999997,0.002739499999999999,-0.125367,-0.33092750000000004,-0.015345499999999998,0.10519899999999999,-0.3387775,-0.0054994999999999974,-0.141411,-0.6610874999999999,0.0256425,0.110429,-0.6602574999999999,0.0304865
113,0.014592,0.7312719999999999,-0.026988500000000006,-0.138348,0.47938200000000003,0.0190805,-0.231448,0.339552,0.1686935,0.138912,0.479592,0.0234435,0.239632,0.367722,0.1932135,-0.351108,0.169452,0.25825349999999997,0.333632,0.236722,0.3193935,-0.067992,0.0005050000000000002,-0.002512500000000001,0.067992,-0.0005050000000000002,0.002512500000000001,-0.125696,-0.33350799999999997,-0.016670499999999998,0.10508200000000001,-0.340368,-0.003861499999999997,-0.142418,-0.663748,0.0267485,0.110212,-0.662918,0.0321215
114,0.016373,0.7289055,-0.030293000000000007,-0.137294,0.4813555,0.020132999999999998,-0.23478400000000002,0.3445855,0.174934,0.138736,0.4806055,0.023177999999999997,0.23994599999999996,0.37355550000000004,0.202194,-0.35903399999999996,0.1772455,0.264714,0.338766,0.2388255,0.341714,-0.06797600000000001,0.0006254999999999993,-0.0024080000000000004,0.06797600000000001,-0.0006255000000000011,0.0024080000000000004,-0.125865,-0.3356845,-0.017656000000000005,0.104936,-0.3413045,-0.002595,-0.14333400000000002,-0.6662345,0.027573999999999998,0.11030599999999999,-0.6653245,0.033401
115,0.017766500000000005,0.7268335,-0.0335145,-0.1370025,0.4825935,0.020383500000000002,-0.2373125,0.3479935,0.1753615,0.1389075,0.4812935,0.0229845,0.2409875,0.3756835,0.20540150000000001,-0.36397250000000003,0.1798435,0.2650315,0.3433075,0.24349349999999997,0.3482915,-0.0679775,0.0006954999999999999,-0.0024834999999999996,0.0679775,-0.0006954999999999999,0.0024834999999999996,-0.1258225,-0.3372665,-0.0187395,0.10490750000000001,-0.3414465,-0.0020454999999999987,-0.1438125,-0.6713364999999999,0.027943500000000003,0.11059750000000002,-0.6672965,0.034070500000000004
116,0.018355500000000004,0.7253645,-0.0362575,-0.1369845,0.4828245,0.0199555,-0.2429625,0.3465245,0.1751215,0.13912750000000002,0.4816045,0.0229325,0.2414375,0.3742145,0.2054215,-0.3683925,0.1783745,0.2648415,0.3470375,0.24202449999999998,0.3484515,-0.0679775,0.0007094999999999983,-0.0024834999999999996,0.0679775,-0.0007095000000000001,0.0024834999999999996,-0.1260595,-0.3385255,-0.019701499999999997,0.1048675,-0.3408155,-0.001071499999999996,-0.14434249999999998,-0.6746955,0.0278125,0.1108275,-0.6684855,0.0347725
117,0.0184065,0.72452,-0.037434499999999996,-0.13693850000000002,0.48210000000000003,0.018915500000000002,-0.2488225,0.34572,0.1748615,0.1392175,0.48116000000000003,0.0229355,0.23880749999999998,0.37341,0.2053015,-0.3683925,0.17757,0.2648415,0.3438375,0.24122,0.3483115,-0.0679775,0.000678999999999999,-0.0024834999999999996,0.0679775,-0.000678999999999999,0.0024834999999999996,-0.1265955,-0.33931,-0.0199535,0.10479749999999999,-0.33945,0.000510500000000004,-0.1450325,-0.67675,0.0277825,0.1109475,-0.66899,0.0355545
118,0.018637,0.7244085,-0.037425,-0.136662,0.48198850000000004,0.017861999999999996,-0.249642,0.3456085,0.171631,0.13902799999999998,0.4810485,0.022926999999999996,0.23554799999999998,0.3732985,0.205161,-0.367732,0.1774585,0.255031,0.338028,0.24110849999999998,0.34806099999999995,-0.067948,0.0005674999999999986,-0.002482000000000005,0.06794800000000001,-0.000567500000000002,0.002481999999999998,-0.127162,-0.33927149999999995,-0.019978000000000003,0.10488800000000001,-0.33761149999999995,0.0025179999999999994,-0.145682,-0.6778915,0.027753999999999994,0.111258,-0.6687315,0.036475999999999995
119,0.019409999999999997,0.7241985,-0.03758349999999999,-0.136456,0.48198850000000004,0.015910500000000005,-0.247309,0.3440385,0.1596225,0.139571,0.4810485,0.022525500000000004,0.23332099999999997,0.36932849999999995,0.19951249999999998,-0.366009,0.1772885,0.23297250000000003,0.333401,0.2316385,0.34066250000000003,-0.067951,0.0005674999999999986,-0.002635499999999999,0.06795100000000001,-0.000567500000000002,0.002635500000000006,-0.12756800000000001,-0.3382815,-0.020188499999999998,0.10528099999999999,-0.3365015,0.004542500000000005,-0.145769,-0.6786715,0.027558500000000007,0.112041,-0.6684115,0.037375500000000006
120,0.020249999999999997,0.7236385,-0.038520500000000006,-0.136731,0.48198850000000004,0.0128315,-0.242741,0.33744850000000004,0.1398425,0.140689,0.4810485,0.021561499999999997,0.23225900000000002,0.3592185,0.18541749999999999,-0.362121,0.1687485,0.19745749999999998,0.33043900000000004,0.2166385,0.3168475,-0.067999,0.0005674999999999986,-0.0027874999999999983,0.067999,-0.000567500000000002,0.0027874999999999983,-0.12757200000000002,-0.3371915,-0.0211615,0.10599900000000001,-0.33607149999999997,0.0056194999999999995,-0.145241,-0.6794515,0.0267455,0.11332899999999999,-0.6679515,0.037594499999999996
121,0.020544000000000007,0.722769,-0.039805499999999994,-0.13781,0.480059,0.0087415,-0.23835,0.32581899999999997,0.1121145,0.14216,0.480549,0.0199055,0.23208,0.34604900000000005,0.1637935,-0.35086,0.160329,0.14934350000000002,0.32394,0.200619,0.2776435,-0.06809,0.0005269999999999997,-0.002992500000000002,0.06809,-0.0005270000000000032,0.002992500000000002,-0.12733499999999998,-0.33594100000000005,-0.0223675,0.10677000000000002,-0.33603099999999997,0.0059805,-0.14409,-0.679941,0.0253665,0.11503000000000001,-0.6676810000000001,0.0368495
122,0.0205915,0.722622,-0.041040999999999994,-0.1399035,0.47668200000000005,0.0031170000000000017,-0.2342035,0.311732,0.079342,0.14350649999999998,0.479362,0.017763000000000004,0.23151650000000001,0.33124200000000004,0.138316,-0.3326735,0.15229199999999998,0.09312100000000001,0.3151065,0.18332199999999998,0.22511599999999998,-0.0682065,0.0004019999999999996,-0.003376999999999998,0.0682065,-0.0004019999999999996,0.003377000000000005,-0.12683149999999999,-0.33400799999999997,-0.023796999999999992,0.1074965,-0.33522799999999997,0.005324000000000006,-0.1423835,-0.6793480000000001,0.023351000000000004,0.1171365,-0.666698,0.034929
123,0.020409000000000004,0.723117,-0.0422855,-0.141873,0.472867,-0.0035014999999999977,-0.226583,0.297097,0.0404725,0.144957,0.478307,0.014848500000000004,0.22951700000000003,0.315927,0.1090305,-0.307643,0.146257,0.029273500000000004,0.302837,0.167527,0.1632715,-0.068269,0.0004070000000000011,-0.0038785,0.068269,-0.0004069999999999994,0.0038785000000000035,-0.12603999999999999,-0.331563,-0.0254415,0.108177,-0.333833,0.003608500000000004,-0.14025300000000002,-0.678063,0.020609500000000003,0.119617,-0.665273,0.031894500000000006
124,0.020571999999999997,0.7235685,-0.043303999999999995,-0.143016,0.46885849999999996,-0.011143999999999998,-0.21640600000000002,0.28131849999999997,0.0007220000000000039,0.14721399999999998,0.4766485,0.011442,0.22773400000000002,0.29811849999999995,0.077256,-0.276566,0.1411485,-0.041058,0.28962400000000005,0.1506385,0.095725,-0.06813,0.0004454999999999997,-0.004521000000000001,0.06813,-0.0004454999999999997,0.004521000000000001,-0.124823,-0.32965150000000004,-0.02709,0.109544,-0.3325515,0.0008150000000000032,-0.137186,-0.6767415,0.017436,0.12282399999999999,-0.6639515,0.027981000000000002
125,0.020391499999999996,0.7240865,-0.0441675,-0.1433345,0.46570649999999997,-0.018568499999999998,-0.2049245,0.2732865,-0.0334255,0.1493355,0.47508649999999997,0.0074415,0.2251555,0.2862065,0.0464005,-0.2412445,0.1425465,-0.0983605,0.2751555,0.1520365,0.0326365,-0.0679145,0.0005155000000000003,-0.0053444999999999986,0.0679145,-0.0005155000000000003,0.0053444999999999986,-0.1236145,-0.3276335,-0.0286315,0.1107155,-0.33208350000000003,-0.002984500000000001,-0.1341545,-0.6753435,0.0140605,0.1260155,-0.6625535,0.0238225
126,0.020123999999999993,0.7247159999999999,-0.0447795,-0.14277800000000002,0.46351600000000004,-0.0254585,-0.193088,0.268216,-0.06534949999999999,0.151012,0.473326,0.003057500000000001,0.221792,0.277076,0.0166895,-0.198548,0.14402600000000002,-0.1510795,0.257282,0.15046600000000002,-0.029251500000000003,-0.06775,0.0005570000000000002,-0.0060465,0.06775,-0.0005570000000000002,0.0060465,-0.122578,-0.32551399999999997,-0.0300945,0.111822,-0.332244,-0.006850499999999999,-0.131188,-0.673864,0.0105805,0.129062,-0.661074,0.0195315
127,0.019682,0.7252639999999999,-0.04512,-0.14199399999999998,0.461584,-0.031865,-0.17737399999999998,0.266284,-0.09351300000000001,0.152156,0.471954,-0.0012060000000000022,0.215066,0.269704,-0.014192,-0.151964,0.145354,-0.195523,0.228226,0.151794,-0.08519299999999999,-0.067614,0.000503,-0.006506999999999999,0.067614,-0.000503,0.006506999999999999,-0.121754,-0.32345599999999997,-0.031392,0.11276599999999999,-0.333096,-0.010338,-0.12853399999999998,-0.672416,0.007266,0.131886,-0.6597660000000001,0.015472
128,0.019284,0.725845,-0.045667,-0.140833,0.460325,-0.03737,-0.158773,0.266515,-0.11658500000000001,0.153007,0.470805,-0.005411000000000001,0.204427,0.265685,-0.042422999999999995,-0.102559,0.156615,-0.22854500000000003,0.19300699999999998,0.153015,-0.140995,-0.067476,0.0004070000000000011,-0.006916,0.067476,-0.0004069999999999994,0.006916,-0.121043,-0.32160500000000003,-0.032581,0.113597,-0.334445,-0.013755000000000002,-0.126103,-0.670925,0.00405,0.134547,-0.6591750000000001,0.011037
129,0.019255500000000002,0.7266720000000001,-0.046725,-0.13954049999999998,0.459242,-0.041512,-0.1419705,0.267072,-0.131989,0.1537795,0.468672,-0.00953,0.1930095,0.260992,-0.06776399999999999,-0.0584365,0.173982,-0.252939,0.1611595,0.15873199999999998,-0.188889,-0.0673485,0.0004190000000000001,-0.007402000000000001,0.0673485,-0.0004190000000000001,0.007402000000000001,-0.1204305,-0.319848,-0.03341,0.11430950000000001,-0.33589800000000003,-0.017179,-0.1239605,-0.6690879999999999,0.0011390000000000003,0.1370695,-0.658578,0.006812
130,0.019621,0.7275585,-0.0485115,-0.13786099999999998,0.4586285,-0.0453375,-0.129651,0.2669285,-0.14029650000000002,0.154639,0.4645285,-0.014162499999999998,0.182029,0.2561185,-0.0866825,-0.024305999999999998,0.1979785,-0.26517650000000004,0.135069,0.1648985,-0.22655650000000002,-0.067221,0.0005734999999999994,-0.0077935,0.067221,-0.0005735000000000002,0.0077935,-0.11993100000000001,-0.3183215,-0.0339275,0.11498900000000001,-0.3377215,-0.020535499999999998,-0.12199099999999999,-0.6674515,-0.0015004999999999992,0.139489,-0.6581315,0.0027775000000000005
131,0.020059499999999997,0.7284710000000001,-0.0502445,-0.1354305,0.459301,-0.0488215,-0.1223305,0.266661,-0.14356850000000002,0.1559195,0.462171,-0.0176965,0.1770195,0.254301,-0.0930575,0.002667499999999999,0.222511,-0.2717385,0.1099795,0.18157099999999998,-0.2401085,-0.0671365,0.0007260000000000001,-0.0079865,0.0671365,-0.0007260000000000001,0.0079865,-0.1194905,-0.316849,-0.0339995,0.1159595,-0.338719,-0.023272499999999998,-0.1201105,-0.665719,-0.0038205000000000005,0.14186949999999998,-0.6576289999999999,-0.0008885000000000002
132,0.020474999999999997,0.7294594999999999,-0.051849,-0.13409200000000002,0.4594295,-0.05187,-0.119952,0.26629949999999997,-0.146572,0.15722799999999998,0.4602195,-0.020746,0.174148,0.2537095,-0.096289,0.021658999999999998,0.23906950000000002,-0.274022,0.089811,0.2004795,-0.24860200000000002,-0.067113,0.0008145000000000001,-0.008001,0.067113,-0.0008144999999999997,0.008001,-0.11935200000000001,-0.31536050000000004,-0.033572,0.11693799999999999,-0.3391005,-0.025091000000000002,-0.118532,-0.6638905,-0.005712,0.14390799999999998,-0.6568205,-0.003953
133,0.020094499999999998,0.7302784999999999,-0.052599499999999993,-0.13401749999999998,0.45959849999999997,-0.0532055,-0.11864749999999999,0.2666285,-0.1484295,0.15783250000000001,0.4586685,-0.0226345,0.1740725,0.2528185,-0.0982065,0.022963499999999998,0.2401085,-0.2758795,0.09013650000000001,0.2015185,-0.2504995,-0.0673655,0.0009654999999999998,-0.007337499999999999,0.0673655,-0.0009655,0.0073375,-0.11914749999999999,-0.31432150000000003,-0.032425499999999996,0.11725250000000001,-0.3393415,-0.0255185,-0.11794750000000001,-0.6622715,-0.0064805,0.1451825,-0.6559015,-0.0058115
134,0.019508499999999998,0.7310595,-0.052602,-0.1344695,0.4597495,-0.052703,-0.1177995,0.2655395,-0.14810399999999999,0.1582405,0.4572995,-0.023672,0.17498049999999998,0.24993949999999998,-0.099251,0.023871499999999997,0.2410895,-0.276924,0.0910445,0.2024995,-0.251544,-0.0677185,0.0010705,-0.0063,0.0677185,-0.0010705,0.0063,-0.11877950000000001,-0.3133405,-0.031207,0.1177005,-0.3386805,-0.02555,-0.11759950000000001,-0.6608005,-0.006481,0.14609049999999998,-0.6549905,-0.006856
135,0.018854,0.7316555,-0.052457000000000004,-0.135215,0.4597555,-0.051683,-0.118165,0.2663155,-0.14272100000000001,0.158795,0.4560155,-0.023799,0.17563499999999999,0.2464155,-0.099878,0.024408,0.2418655,-0.274941,0.091699,0.2032755,-0.252281,-0.068019,0.0013664999999999999,-0.005548000000000001,0.068019,-0.0013664999999999999,0.005548,-0.118185,-0.3125645,-0.030682,0.118115,-0.3379545,-0.025184,-0.117405,-0.6595445,-0.006308,0.146745,-0.6542345,-0.007593000000000001
136,0.018060500000000004,0.7321645,-0.052269499999999997,-0.1365235,0.45987449999999996,-0.0471865,-0.12261349999999999,0.26638449999999997,-0.1256875,0.1591565,0.4546345,-0.0231265,0.1757465,0.2430845,-0.0937775,0.018980500000000004,0.2402345,-0.25547749999999997,0.09164549999999999,0.1973245,-0.2422275,-0.06826650000000001,0.0014975000000000001,-0.0051145,0.06826650000000001,-0.0014975000000000001,0.0051145,-0.1178035,-0.3126955,-0.030575500000000002,0.11842650000000002,-0.3372855,-0.0245935,-0.11726349999999999,-0.6585255,-0.006183500000000001,0.1471365,-0.6535955,-0.0077955
137,0.0172085,0.7329445,-0.052228,-0.1382825,0.46021449999999997,-0.041771,-0.1288725,0.26172449999999997,-0.1061,0.1592775,0.4536745,-0.021887999999999998,0.1761375,0.2401545,-0.085047,0.0061315000000000015,0.22890449999999998,-0.232515,0.0932115,0.1868745,-0.226185,-0.0684575,0.0015944999999999998,-0.004887,0.0684575,-0.0015945,0.004887000000000001,-0.11761250000000001,-0.3124955,-0.030764,0.1185775,-0.3362655,-0.023753,-0.11726249999999999,-0.6572254999999999,-0.005972,0.1472975,-0.6525854999999999,-0.007424
138,0.016225000000000003,0.733701,-0.051932,-0.140257,0.46066100000000004,-0.035499,-0.135807,0.256651,-0.08467000000000001,0.15920299999999998,0.454301,-0.020135,0.177533,0.23846099999999998,-0.074335,-0.017109,0.212581,-0.20121699999999998,0.09992500000000001,0.171311,-0.201187,-0.068472,0.001516,-0.004549,0.068472,-0.001516,0.004548999999999999,-0.117587,-0.312179,-0.030424,0.11854300000000001,-0.335149,-0.022933000000000002,-0.117287,-0.656099,-0.005471,0.147283,-0.651469,-0.006302
139,0.015343999999999997,0.7340709999999999,-0.051396500000000005,-0.142042,0.460961,-0.0291535,-0.146432,0.252101,-0.061241500000000004,0.159468,0.454971,-0.018217499999999998,0.184118,0.237511,-0.0541175,-0.047593,0.193471,-0.16659449999999998,0.120028,0.15626099999999998,-0.1631445,-0.068497,0.001379,-0.0039765,0.068497,-0.001379,0.003976500000000001,-0.11725200000000001,-0.31242899999999996,-0.0298355,0.118518,-0.33430899999999997,-0.0223605,-0.117312,-0.655389,-0.0048985,0.14729799999999998,-0.6506890000000001,-0.0050435
140,0.014582500000000002,0.7339855000000001,-0.050516,-0.1438225,0.46096550000000003,-0.022796,-0.1560525,0.24821549999999998,-0.036461,0.1598375,0.4552255,-0.016167,0.18935749999999998,0.23797549999999998,-0.036089,-0.0820585,0.1673555,-0.131934,0.1420575,0.1356855,-0.128874,-0.0685675,0.0011505,-0.003066,0.0685675,-0.0011505,0.003066,-0.1167125,-0.3130845,-0.028899,0.11856749999999999,-0.3336945,-0.021445,-0.1173825,-0.6550945,-0.003988,0.1472975,-0.6501745,-0.003432
141,0.013623500000000002,0.7336685000000001,-0.049207999999999995,-0.1447045,0.4610385,-0.017036,-0.1656045,0.2452385,-0.012317,0.15994550000000002,0.4552985,-0.013352000000000001,0.19854549999999999,0.2376085,-0.011890000000000001,-0.11866449999999999,0.1398385,-0.091798,0.16560550000000002,0.1184785,-0.08223,-0.0687415,0.0010775,-0.001959,0.0687415,-0.0010775000000000003,0.0019590000000000002,-0.1162245,-0.3137915,-0.027929,0.1186455,-0.33313149999999997,-0.019954,-0.1176945,-0.6550015,-0.0025139999999999997,0.1471655,-0.6498115,-0.001243
142,0.012494000000000002,0.7332785,-0.0480075,-0.145559,0.4610385,-0.0114965,-0.174259,0.2434585,0.0115705,0.15965100000000002,0.4572685,-0.0102635,0.206371,0.2388785,0.0133555,-0.15153899999999998,0.1134185,-0.0526695,0.187001,0.0995355,-0.0329735,-0.06886400000000001,0.0010775,-0.0010465,0.06886400000000001,-0.0010775000000000003,0.0010465000000000001,-0.115819,-0.3145515,-0.0268255,0.11874100000000001,-0.3322115,-0.0182035,-0.118199,-0.6550015,-0.0005405,0.146811,-0.6494415,0.0013514999999999998
143,0.011059499999999998,0.7328685,-0.0469005,-0.14662650000000002,0.4610385,-0.0061205,-0.1797465,0.2430285,0.0338685,0.15896349999999998,0.4584085,-0.0075805,0.2100535,0.2404485,0.0309975,-0.18325650000000002,0.0889185,-0.0119595,0.2105635,0.0809345,0.0042465,-0.06894449999999999,0.0010775,-0.00023349999999999998,0.06894449999999999,-0.0010775000000000003,0.00023349999999999998,-0.11558650000000001,-0.3150715,-0.0256105,0.11858350000000001,-0.3312515,-0.0163805,-0.1190165,-0.6550015,0.0019865,0.14622349999999998,-0.6488315,0.0044095
144,0.009530499999999999,0.7323895,-0.045971,-0.14778750000000002,0.4617995,-0.000961,-0.1839475,0.2428795,0.057833999999999997,0.1580125,0.45923949999999997,-0.004252000000000001,0.21283249999999998,0.24183949999999999,0.049828,-0.2109975,0.07162149999999999,0.029707,0.2322525,0.06632149999999999,0.041593,-0.0690405,0.0009294999999999998,0.0005119999999999994,0.0690405,-0.0009295000000000002,-0.0005120000000000003,-0.1153775,-0.3155005,-0.024224,0.11833250000000001,-0.3305505,-0.01458,-0.1199375,-0.6551505,0.005104,0.14553249999999998,-0.6486504999999999,0.007946
145,0.008195499999999996,0.7318485,-0.045617,-0.1487375,0.4627385,0.0022770000000000004,-0.1854775,0.2426685,0.071467,0.1569625,0.46008849999999996,-0.0010179999999999998,0.2129225,0.2452185,0.063957,-0.2201175,0.06483950000000001,0.060395,0.2375425,0.0661105,0.069122,-0.0690385,0.0007724999999999997,0.0005730000000000006,0.0690385,-0.0007725000000000002,-0.0005729999999999989,-0.1156575,-0.31583150000000004,-0.023097,0.1179325,-0.32986150000000003,-0.013385999999999999,-0.1208675,-0.6551315,0.008026,0.1447725,-0.6485915,0.01136
146,0.006977499999999999,0.7312585,-0.0457095,-0.1494055,0.4638285,0.005544499999999998,-0.1867955,0.2424085,0.0832815,0.1560145,0.4609585,0.0021164999999999986,0.2117445,0.2449585,0.0768865,-0.22652550000000002,0.0601925,0.0900455,0.2409145,0.06585049999999999,0.0946755,-0.0689815,0.0005934999999999998,0.0004394999999999989,0.0689815,-0.0005935000000000003,-0.00043950000000000065,-0.1160555,-0.3160915,-0.021808499999999998,0.1175745,-0.3294015,-0.011799500000000001,-0.12169550000000001,-0.6551214999999999,0.010925499999999998,0.1440545,-0.6485515,0.014777499999999999
147,0.0056664999999999945,0.7305375,-0.0456535,-0.15029550000000003,0.46502750000000004,0.0097395,-0.1882155,0.24274749999999998,0.0957065,0.1550045,0.46196750000000003,0.0051415,0.21028449999999999,0.2445075,0.09030450000000001,-0.2294555,0.0584445,0.11739250000000001,0.24111449999999998,0.0653995,0.1173025,-0.0689035,0.0003764999999999999,0.0004775000000000005,0.0689035,-0.0003765000000000001,-0.0004775000000000005,-0.1165155,-0.3165425,-0.020033500000000003,0.11703449999999999,-0.32905249999999997,-0.009387499999999998,-0.1226255,-0.6553125000000001,0.0146255,0.14320449999999998,-0.6487125,0.0191025
148,0.004301500000000003,0.7297975,-0.0457875,-0.1505065,0.4663275,0.013013499999999997,-0.18910649999999998,0.2428875,0.1077485,0.15384350000000002,0.4630375,0.007376499999999996,0.20890350000000002,0.2450775,0.10294049999999999,-0.2313865,0.0579145,0.1427785,0.2394735,0.0667705,0.1383285,-0.06883249999999999,0.0002115000000000001,0.0006054999999999984,0.06883249999999999,-0.00021149999999999988,-0.0006055000000000019,-0.11709649999999999,-0.31673250000000003,-0.0179215,0.11642350000000001,-0.3287625,-0.0064135000000000025,-0.1235365,-0.6556124999999999,0.018729499999999996,0.1423635,-0.6489524999999999,0.023618499999999997
149,0.0028739999999999963,0.729048,-0.04559150000000001,-0.150592,0.467688,0.015559499999999999,-0.189892,0.247218,0.1191275,0.152548,0.464028,0.009365499999999997,0.207568,0.24856799999999998,0.1143705,-0.233182,0.059184999999999995,0.1647095,0.237848,0.07093100000000001,0.1561795,-0.068733,7.700000000000003e-05,0.0007604999999999973,0.068733,-7.700000000000003e-05,-0.0007605000000000008,-0.117832,-0.316882,-0.015829500000000003,0.115738,-0.328672,-0.0030715000000000013,-0.124472,-0.656292,0.023012499999999998,0.14146799999999998,-0.649402,0.0284145
150,0.0013550000000000038,0.728109,-0.0451285,-0.150525,0.469009,0.017696499999999997,-0.189965,0.25229900000000005,0.12871549999999998,0.151135,0.464849,0.011412499999999999,0.205515,0.25228900000000004,0.1233185,-0.23477499999999998,0.061759,0.18111349999999998,0.236365,0.076274,0.17032350000000002,-0.068617,-2.9999999999999997e-05,0.0010394999999999988,0.068617,2.9999999999999997e-05,-0.0010395000000000022,-0.11863499999999999,-0.316831,-0.0139805,0.114845,-0.32881099999999996,0.0007284999999999965,-0.125445,-0.657181,0.027549499999999998,0.140415,-0.650081,0.033563499999999996
151,-0.0001985000000000025,0.7270270000000001,-0.0437875,-0.1503715,0.470207,0.0202115,-0.1889115,0.257077,0.1380545,0.1494885,0.465607,0.0134365,0.2024985,0.255637,0.1316055,-0.2320115,0.065125,0.19588450000000002,0.23503849999999998,0.079292,0.1825245,-0.0684965,-9.500000000000003e-05,0.001521500000000002,0.0684965,9.500000000000003e-05,-0.001521500000000002,-0.1193715,-0.316753,-0.012402500000000004,0.1139085,-0.329113,0.004899499999999998,-0.12636150000000002,-0.6582629999999999,0.0324305,0.1393685,-0.650813,0.039218499999999996
152,-0.0017029999999999997,0.7257885000000001,-0.04179,-0.149965,0.4712385,0.022888999999999996,-0.18667499999999998,0.2618085,0.147135,0.147545,0.4664085,0.015497999999999998,0.198135,0.2595285,0.139462,-0.22725499999999998,0.06840550000000001,0.209575,0.231445,0.0828475,0.194775,-0.068351,-5.2499999999999596e-05,0.0016299999999999995,0.068351,5.250000000000003e-05,-0.0016299999999999995,-0.12010499999999999,-0.3165515,-0.01092,0.112985,-0.32963149999999997,0.009218999999999998,-0.127195,-0.6595015,0.037307999999999994,0.138375,-0.6516915,0.045127
153,-0.0031239999999999983,0.7247525,-0.039394500000000006,-0.149314,0.4722725,0.0255455,-0.18263400000000002,0.2670325,0.1552585,0.14540599999999998,0.4673225,0.0170335,0.19290600000000002,0.26398249999999995,0.1468745,-0.219904,0.07341049999999999,0.2220885,0.22437600000000002,0.0902485,0.2089485,-0.068185,1.9499999999999986e-05,0.0016624999999999973,0.068185,-1.9499999999999986e-05,-0.0016624999999999973,-0.120734,-0.31638750000000004,-0.009600499999999998,0.112206,-0.32975750000000004,0.0129815,-0.127914,-0.6608175,0.0420965,0.13750600000000002,-0.6526274999999999,0.0509045
154,-0.004462500000000003,0.7238675,-0.036865999999999996,-0.14850750000000001,0.4730375,0.028436,-0.1781575,0.2723175,0.163389,0.1430825,0.4680475,0.018341999999999997,0.18727249999999998,0.2686275,0.15414899999999998,-0.21239750000000002,0.0789425,0.233869,0.21691249999999998,0.09780749999999999,0.22230899999999998,-0.0680485,-2.4500000000000216e-05,0.002036000000000003,0.0680485,2.4500000000000216e-05,-0.002036000000000003,-0.12131750000000001,-0.3161725,-0.008287000000000003,0.1114825,-0.3301625,0.016863999999999997,-0.1285775,-0.6622625,0.047028,0.1366625,-0.6536025,0.056626
155,-0.005597999999999998,0.723317,-0.0344015,-0.147333,0.47396699999999997,0.0311805,-0.17379299999999998,0.27751699999999996,0.17120950000000001,0.14038699999999998,0.46872699999999995,0.0189275,0.181317,0.274267,0.1612095,-0.20576299999999997,0.083645,0.2446495,0.20932699999999999,0.105327,0.2352495,-0.067922,-6.199999999999956e-05,0.002429500000000001,0.067922,6.200000000000042e-05,-0.002429500000000001,-0.121753,-0.315863,-0.006990499999999997,0.110897,-0.330363,0.020582499999999997,-0.129123,-0.663353,0.0518225,0.135807,-0.6544530000000001,0.0619485
156,-0.006389,0.7231535,-0.03238250000000001,-0.14587399999999998,0.4741435,0.033569499999999995,-0.170474,0.2815435,0.1782145,0.137936,0.4691935,0.01907149999999999,0.17597600000000002,0.2800235,0.16737449999999998,-0.20205399999999998,0.0868855,0.2529445,0.202516,0.11300349999999999,0.24744449999999998,-0.067798,-4.6500000000000534e-05,0.002529499999999997,0.067798,4.6499999999999667e-05,-0.002529500000000004,-0.121934,-0.3151565,-0.005721500000000004,0.110506,-0.3302565,0.023729499999999994,-0.129404,-0.6640765,0.055772499999999996,0.13517600000000002,-0.6549265,0.06632249999999999
157,-0.0069429999999999995,0.7230385,-0.030324500000000004,-0.14448100000000003,0.47396849999999996,0.0358245,-0.16784100000000002,0.2847685,0.1846055,0.13597900000000002,0.4696785,0.019825500000000003,0.17144900000000002,0.2852685,0.1731355,-0.199911,0.0887555,0.2587555,0.198069,0.1159485,0.25904550000000004,-0.067678,-1.1500000000001093e-05,0.0024865000000000026,0.067678,1.1499999999999358e-05,-0.0024865000000000026,-0.122081,-0.3145615,-0.0044825,0.110159,-0.3299915,0.0266585,-0.129641,-0.6648715,0.059258500000000006,0.13458900000000001,-0.6552015,0.0702965
158,-0.007314,0.7231135,-0.028677999999999995,-0.143159,0.47358350000000005,0.03783300000000001,-0.165829,0.28732349999999995,0.190122,0.13442099999999998,0.4702535,0.02080300000000001,0.167951,0.2901735,0.178342,-0.198079,0.0898785,0.263632,0.194541,0.11858350000000001,0.27064200000000005,-0.067575,2.1500000000000685e-05,0.0023250000000000076,0.067575,-2.149999999999895e-05,-0.0023249999999999937,-0.122349,-0.3140765,-0.003152999999999989,0.10981099999999999,-0.32950650000000004,0.029139000000000012,-0.129779,-0.6647665,0.06223300000000001,0.134051,-0.6552565,0.07369400000000001
159,-0.007408499999999998,0.7233645000000001,-0.02766550000000001,-0.14203949999999999,0.4731345,0.03926449999999999,-0.16498949999999998,0.2885145,0.1935345,0.1331405,0.4708745,0.021196499999999986,0.16555050000000002,0.2947045,0.18268449999999997,-0.19739949999999998,0.0891935,0.2668545,0.19264050000000002,0.12117449999999999,0.2809045,-0.0675425,5.05000000000002e-05,0.002089499999999994,0.0675425,-5.05000000000002e-05,-0.002089500000000008,-0.1227095,-0.3137055,-0.0019515000000000088,0.10959050000000001,-0.3287655,0.03075449999999999,-0.1297395,-0.6644055,0.06426749999999999,0.13358050000000002,-0.6550655,0.07601849999999999
160,-0.007410499999999997,0.723993,-0.027620000000000006,-0.1411375,0.472993,0.039801,-0.1650575,0.288373,0.1951,0.1322225,0.47145299999999996,0.021065,0.16510249999999999,0.297193,0.18456,-0.1974675,0.08905199999999999,0.26842,0.1923725,0.122203,0.28725,-0.06752649999999999,8.5e-05,0.0017220000000000013,0.06752649999999999,-8.5e-05,-0.0017220000000000013,-0.1229875,-0.31340700000000005,-0.0008429999999999965,0.10945250000000001,-0.327797,0.031589,-0.1296475,-0.663767,0.06536600000000001,0.13310249999999998,-0.654697,0.077303
161,-0.007370500000000001,0.724703,-0.02836849999999999,-0.14067249999999998,0.472993,0.0396805,-0.16507249999999998,0.288373,0.19560149999999998,0.13171750000000002,0.471693,0.020408500000000003,0.1650875,0.297573,0.1850615,-0.19748249999999998,0.08905199999999999,0.26892150000000004,0.1922575,0.122203,0.2900415,-0.0675245,8.5e-05,0.0018345000000000028,0.0675245,-8.5e-05,-0.0018345000000000028,-0.12309250000000001,-0.31340700000000005,-0.0003454999999999986,0.1093275,-0.326647,0.0318195,-0.1295325,-0.663057,0.06579850000000001,0.1326475,-0.654347,0.07777350000000001
162,-0.007199500000000004,0.7252430000000001,-0.0294035,-0.14051950000000002,0.472923,0.039280499999999996,-0.1649495,0.288373,0.19567649999999998,0.13177049999999998,0.471693,0.019738499999999992,0.16521049999999998,0.297573,0.18513649999999998,-0.1973595,0.08905199999999999,0.2688665,0.19238049999999998,0.122203,0.2901165,-0.0674935,8.5e-05,0.0019054999999999905,0.0674935,-8.5e-05,-0.0019055000000000044,-0.12306950000000001,-0.31340700000000005,-0.00027550000000001185,0.1094005,-0.32600700000000005,0.0318925,-0.1292995,-0.662447,0.06587749999999999,0.1323305,-0.654057,0.0778285
163,-0.006829499999999995,0.725543,-0.030184500000000003,-0.14029049999999998,0.472553,0.0387295,-0.1650105,0.28735299999999997,0.1935655,0.13199950000000002,0.471693,0.0194355,0.1654195,0.297573,0.18514550000000002,-0.1985905,0.08590400000000001,0.2658455,0.1934595,0.122203,0.29016549999999997,-0.0674695,8.5e-05,0.0019065000000000054,0.0674695,-8.5e-05,-0.0019064999999999915,-0.1229705,-0.31340700000000005,-0.00027049999999999297,0.10956950000000001,-0.325687,0.031899500000000004,-0.1289905,-0.661767,0.0658915,0.1321595,-0.653847,0.0778215
164,-0.006252500000000004,0.725887,-0.030688999999999994,-0.13990750000000002,0.471997,0.038331000000000004,-0.1658675,0.283827,0.188581,0.1323625,0.471887,0.019264000000000003,0.16676249999999998,0.297767,0.183801,-0.2003275,0.079758,0.26117100000000004,0.1955425,0.12215700000000002,0.29025100000000004,-0.0674565,-3.999999999998796e-06,0.001907000000000006,0.0674565,4.000000000000531e-06,-0.001906999999999992,-0.1227575,-0.313533,0.0001890000000000086,0.1099025,-0.325493,0.031914000000000005,-0.1286275,-0.6605430000000001,0.06590700000000001,0.1321425,-0.6535430000000001,0.07782
165,-0.005441500000000002,0.7267085000000001,-0.031047000000000005,-0.1394265,0.4712185,0.037532,-0.16732650000000002,0.2781585,0.18140299999999998,0.13287349999999998,0.4723185,0.018302,0.1691935,0.2960585,0.179633,-0.2026065,0.0717055,0.250993,0.1993835,0.1162885,0.284173,-0.0674875,-0.00020650000000000009,0.0023050000000000015,0.0674875,0.00020650000000000009,-0.0023050000000000015,-0.12255650000000001,-0.3138615,0.0008790000000000048,0.11029349999999999,-0.3248315,0.032094000000000004,-0.1281465,-0.6588514999999999,0.065545,0.1322335,-0.6527615,0.077512
166,-0.0040655,0.728094,-0.032761999999999986,-0.1390725,0.470284,0.03470400000000001,-0.1690225,0.270594,0.169861,0.13429750000000001,0.472864,0.015660000000000014,0.1730775,0.292274,0.17144500000000001,-0.20451249999999999,0.063271,0.236378,0.2041975,0.108714,0.272968,-0.0674575,-0.0001719999999999994,0.0023220000000000046,0.0674575,0.0001719999999999994,-0.0023219999999999907,-0.12192249999999999,-0.314066,0.0007510000000000155,0.1111575,-0.323586,0.03142300000000001,-0.1271725,-0.657176,0.06388700000000001,0.1328075,-0.6514759999999999,0.07608500000000001
167,-0.0025575000000000007,0.7295609999999999,-0.0349795,-0.13915049999999998,0.468841,0.031102500000000005,-0.1709705,0.264391,0.1546665,0.13651950000000002,0.47347100000000003,0.01332450000000001,0.1779795,0.287461,0.1595695,-0.2063605,0.059523999999999994,0.21459050000000002,0.2096295,0.101981,0.2548205,-0.06747449999999999,-0.00010999999999999985,0.0023825000000000096,0.06747449999999999,0.00010999999999999985,-0.0023824999999999957,-0.12117050000000001,-0.313899,0.00038550000000001083,0.11217949999999999,-0.32237899999999997,0.03063550000000001,-0.1260705,-0.6558590000000001,0.06177550000000001,0.1335695,-0.650109,0.07422150000000001
168,-0.0009899999999999996,0.731009,-0.037654499999999994,-0.139562,0.46802900000000003,0.026847500000000003,-0.173262,0.264279,0.1313375,0.138658,0.473739,0.010475500000000006,0.183878,0.28535900000000003,0.13966250000000002,-0.209412,0.060911999999999994,0.1805755,0.215918,0.099519,0.2225655,-0.067589,-3.300000000000004e-05,0.0024145,0.067589,3.300000000000004e-05,-0.0024145,-0.120492,-0.313511,-0.00011150000000000049,0.113248,-0.321231,0.029513500000000005,-0.12501199999999998,-0.654471,0.059431500000000005,0.134528,-0.6486109999999999,0.0720065
169,0.0003560000000000004,0.7324195,-0.04021749999999999,-0.139779,0.4677295,0.022195500000000007,-0.176109,0.2655995,0.10484550000000001,0.140361,0.47357950000000004,0.0073205000000000076,0.18990100000000001,0.28590950000000004,0.1162065,-0.212579,0.062232499999999996,0.1384745,0.221471,0.1008395,0.18134250000000002,-0.067722,-9.15e-05,0.0024964999999999987,0.067722,9.15e-05,-0.0024964999999999987,-0.120089,-0.3126005,-0.0008615000000000012,0.114231,-0.3203405,0.028126500000000006,-0.124089,-0.6531505000000001,0.05715050000000001,0.135541,-0.6470305000000001,0.06940650000000001
170,0.0013139999999999992,0.733601,-0.042416499999999996,-0.14002099999999998,0.467431,0.0171995,-0.179721,0.266601,0.0739425,0.14141900000000002,0.473511,0.004302500000000001,0.195629,0.286911,0.08777850000000001,-0.216311,0.063234,0.09016350000000001,0.227529,0.101841,0.13183250000000002,-0.067895,-0.00019899999999999996,0.002519500000000001,0.067895,0.00019899999999999996,-0.002519499999999994,-0.12008100000000001,-0.311599,-0.001407499999999992,0.115009,-0.319749,0.026750500000000003,-0.12340100000000001,-0.6530290000000001,0.0550195,0.136329,-0.645599,0.0667875
171,0.0019870000000000027,0.734812,-0.044062000000000004,-0.14016900000000002,0.46729200000000004,0.011719,-0.18301900000000002,0.267472,0.041882,0.142171,0.473622,0.0007580000000000017,0.201601,0.28778200000000004,0.055288,-0.220339,0.066967,0.036717,0.234141,0.102712,0.075279,-0.068096,-0.0003330000000000002,0.0025079999999999963,0.068096,0.00033299999999999996,-0.0025079999999999963,-0.12015899999999999,-0.310728,-0.0017719999999999958,0.115681,-0.319228,0.025567,-0.122969,-0.653038,0.053097,0.137031,-0.644168,0.064319
172,0.002460499999999999,0.7358715,-0.0449885,-0.14030749999999997,0.4670515,0.006083499999999999,-0.18754749999999998,0.26925150000000003,0.009070499999999995,0.14278249999999998,0.4735315,-0.003303500000000001,0.20689249999999998,0.28835150000000004,0.021302499999999995,-0.22434749999999998,0.0774295,-0.019333500000000003,0.2400425,0.1093415,0.0142585,-0.0683275,-0.0004995,0.0024904999999999997,0.0683275,0.0004994999999999999,-0.0024904999999999997,-0.12031750000000001,-0.3101585,-0.0019974999999999993,0.1162725,-0.31899849999999996,0.0247835,-0.1227375,-0.6524685,0.0513075,0.1376525,-0.6428685,0.0620085
173,0.0026745,0.7367765,-0.04511999999999999,-0.1404705,0.46692649999999997,0.00037800000000000333,-0.19333050000000002,0.2750165,-0.023464,0.1431795,0.4735565,-0.007638999999999993,0.2115195,0.2923365,-0.013883000000000006,-0.22938050000000001,0.0956125,-0.07866,0.24663949999999998,0.1229865,-0.04937,-0.06852950000000001,-0.0006435,0.002364999999999999,0.06852950000000001,0.0006435,-0.002364999999999999,-0.1205705,-0.3094635,-0.002138000000000001,0.1167595,-0.31898350000000003,0.024079999999999997,-0.1227505,-0.6519435,0.04959,0.1381695,-0.6416535,0.059654
174,0.002706000000000002,0.7373025000000001,-0.044194500000000005,-0.140554,0.4668925,-0.004131499999999996,-0.20000400000000002,0.2840225,-0.055434500000000005,0.14327600000000001,0.4735625,-0.0112325,0.217356,0.2998225,-0.0478545,-0.23576399999999997,0.1230925,-0.1365245,0.253616,0.1450225,-0.11223450000000001,-0.068607,-0.0006495,0.0019915,0.068607,0.0006495,-0.0019915,-0.120744,-0.3089175,-0.002209499999999996,0.117146,-0.3192475,0.023529500000000002,-0.122884,-0.6515774999999999,0.048162500000000004,0.13861600000000002,-0.6407275,0.0576365
175,0.0024155000000000044,0.7377725,-0.041893,-0.1406345,0.4668925,-0.006752000000000001,-0.2079945,0.3006225,-0.084254,0.1429955,0.4735625,-0.013317999999999997,0.2231555,0.3158325,-0.07977400000000001,-0.2431145,0.1582925,-0.191584,0.25954550000000004,0.1738925,-0.17169399999999999,-0.06860050000000001,-0.0006495,0.0018560000000000035,0.06860050000000001,0.0006495,-0.0018559999999999965,-0.12092449999999999,-0.3079675,-0.0016009999999999983,0.1174055,-0.3193775,0.02352,-0.12317449999999999,-0.6507075,0.047564,0.1389755,-0.6397474999999999,0.056365
176,0.0020320000000000043,0.7382325000000001,-0.03917000000000001,-0.140819,0.4668925,-0.008884000000000003,-0.216059,0.32278249999999997,-0.109469,0.142461,0.4735625,-0.015029,0.228881,0.3354625,-0.107559,-0.251489,0.20434249999999998,-0.241309,0.264961,0.21200249999999998,-0.22679899999999997,-0.068611,-0.0006495,0.001675999999999997,0.068611,0.0006495,-0.0016760000000000039,-0.12101899999999999,-0.3067275,-0.000903000000000008,0.117651,-0.3193775,0.023479999999999994,-0.12340899999999999,-0.6497575,0.047087,0.139351,-0.6387575,0.055245999999999996
177,0.0014145,0.7385649999999999,-0.036365499999999995,-0.1411145,0.466845,-0.010426499999999998,-0.2241245,0.349775,-0.1259495,0.1416755,0.47386500000000004,-0.016592499999999996,0.2340355,0.360825,-0.1256895,-0.2589045,0.257765,-0.2748795,0.2691855,0.261195,-0.2643795,-0.0687005,-0.000697,0.0016125000000000028,0.0687005,0.000697,-0.0016124999999999959,-0.1211345,-0.305125,-0.00038549999999999696,0.1178155,-0.31942499999999996,0.023363500000000006,-0.1237145,-0.6486350000000001,0.04657650000000001,0.1396955,-0.637895,0.054187500000000006
