sb224sc-HT22-VT27/4dt907/src/data/kinect_good_vs_bad_not_preprocessed_A13_mediapipe/G74.csv
FrameNo,nose_3d_x,nose_3d_y,nose_3d_z,left_shoulder_3d_x,left_shoulder_3d_y,left_shoulder_3d_z,left_elbow_3d_x,left_elbow_3d_y,left_elbow_3d_z,right_shoulder_3d_x,right_shoulder_3d_y,right_shoulder_3d_z,right_elbow_3d_x,right_elbow_3d_y,right_elbow_3d_z,left_wrist_3d_x,left_wrist_3d_y,left_wrist_3d_z,right_wrist_3d_x,right_wrist_3d_y,right_wrist_3d_z,left_hip_3d_x,left_hip_3d_y,left_hip_3d_z,right_hip_3d_x,right_hip_3d_y,right_hip_3d_z,left_knee_3d_x,left_knee_3d_y,left_knee_3d_z,right_knee_3d_x,right_knee_3d_y,right_knee_3d_z,left_ankle_3d_x,left_ankle_3d_y,left_ankle_3d_z,right_ankle_3d_x,right_ankle_3d_y,right_ankle_3d_z
0,0.0178675,0.7413235,0.0018924999999999984,-0.1382765,0.4584035,0.0285775,-0.1711565,0.2084035,0.058827500000000005,0.16397350000000002,0.4556135,0.0281865,0.1907835,0.2035735,0.050562499999999996,-0.2058765,-0.009888500000000001,0.011228500000000002,0.2093535,0.0184185,0.0198475,-0.0673205,0.0024585,-0.0003604999999999997,0.0673205,-0.0024584999999999997,0.0003604999999999997,-0.1287865,-0.3156765,0.0005225000000000021,0.1139335,-0.3227765,0.005285500000000002,-0.14286649999999998,-0.6204165,0.0342115,0.13541350000000002,-0.6431865,0.0272025
1,0.017446,0.7414615,0.0018359999999999974,-0.138955,0.4578715,0.028568,-0.17150500000000002,0.2078215,0.058737,0.163845,0.4554815,0.028673,0.190855,0.2033715,0.050414,-0.204465,-0.0026905,0.014418,0.211355,0.0184165,0.019907,-0.067252,0.0024434999999999995,-0.0004170000000000007,0.067252,-0.0024435000000000004,0.0004170000000000007,-0.128945,-0.3158185,0.0008140000000000022,0.113785,-0.32233850000000003,0.005437999999999998,-0.143435,-0.6194385,0.034298,0.135315,-0.6424985,0.026973
2,0.016992999999999998,0.7411525,0.0017230000000000023,-0.139688,0.4580125,0.029069000000000005,-0.171558,0.2076725,0.05817800000000001,0.162682,0.4561725,0.027579000000000003,0.192312,0.2044225,0.049722,-0.204818,0.0056365,0.017633000000000003,0.213112,0.0193345,0.020787000000000003,-0.066988,0.0023535,1.3000000000006062e-05,0.066988,-0.0023534999999999997,-1.2999999999999123e-05,-0.129068,-0.3155775,0.0007010000000000002,0.113312,-0.3222075,0.005265000000000002,-0.143818,-0.6178175,0.033834,0.135192,-0.6419875,0.026937000000000003
3,0.016907000000000002,0.741074,0.001689000000000003,-0.139535,0.457794,0.02894,-0.171465,0.207434,0.05785800000000001,0.162415,0.456994,0.026808000000000002,0.192415,0.205324,0.049155000000000004,-0.20480500000000001,0.006808,0.018342000000000004,0.213605,0.01503,0.017856000000000004,-0.06695200000000001,0.0023310000000000006,0.00010100000000000386,0.06695200000000001,-0.0023309999999999997,-0.00010099999999999693,-0.129055,-0.315586,0.000784,0.11316500000000002,-0.322186,0.005316000000000001,-0.143885,-0.617886,0.033731000000000004,0.135075,-0.642056,0.026803
4,0.016669499999999997,0.740904,0.001686,-0.1397845,0.457594,0.028885,-0.1714845,0.207174,0.057663,0.1625055,0.456944,0.027283,0.1924255,0.20516399999999999,0.049015,-0.2049445,0.006838,0.018217999999999998,0.2129655,0.016668000000000002,0.018313,-0.0669035,0.002316,0.0002590000000000023,0.0669035,-0.0023160000000000004,-0.0002590000000000023,-0.1291445,-0.315796,0.00068,0.1129155,-0.322146,0.005191999999999999,-0.1438945,-0.618476,0.034101,0.1352655,-0.641546,0.026747
5,0.016557499999999996,0.740875,0.0019484999999999988,-0.13931349999999998,0.457455,0.0289635,-0.17138350000000002,0.207065,0.0576595,0.1622865,0.45743500000000004,0.026783500000000002,0.1924265,0.205695,0.0485785,-0.20553349999999998,0.002306,0.0176115,0.2110865,0.018172,0.0179205,-0.0668995,0.0022960000000000003,0.0002515000000000017,0.0668995,-0.0022960000000000003,-0.0002515000000000017,-0.1291735,-0.31582499999999997,0.0006234999999999991,0.11280649999999999,-0.322235,0.005249500000000001,-0.14386349999999998,-0.618685,0.0340045,0.13512649999999998,-0.6415850000000001,0.0267005
6,0.016410499999999998,0.7406024999999999,0.0021049999999999992,-0.1391635,0.45762250000000004,0.029071,-0.1714135,0.20720249999999998,0.057452,0.1612065,0.4579125,0.025391999999999998,0.1924665,0.2064025,0.047852,-0.2055335,0.00037549999999999997,0.016337,0.2100765,0.0187195,0.016998,-0.06690850000000001,0.0022744999999999996,0.0002370000000000011,0.06690850000000001,-0.0022745000000000005,-0.0002370000000000011,-0.1291635,-0.31592749999999997,0.0006870000000000001,0.11275650000000001,-0.3222275,0.005235,-0.1438935,-0.6181375,0.033959,0.1351165,-0.6416275,0.026782
7,0.017116,0.740659,0.0029060000000000023,-0.139009,0.457909,0.028909000000000004,-0.182479,0.217049,0.041843000000000005,0.161571,0.457959,0.025231000000000003,0.199851,0.218179,0.032042,-0.219769,0.023542,-0.013509999999999994,0.222771,0.033597,-0.011199999999999995,-0.06720599999999999,0.002255,0.00047799999999999926,0.06720599999999999,-0.002255,-0.00047799999999999926,-0.128879,-0.315671,0.001575,0.11314099999999999,-0.32198099999999996,0.005596000000000004,-0.143269,-0.622371,0.03481,0.135441,-0.641711,0.026760000000000003
8,0.017134,0.7404965,0.003557499999999998,-0.13878600000000002,0.45800650000000004,0.028769499999999996,-0.190066,0.2264465,0.031025499999999998,0.160934,0.45845650000000004,0.0244085,0.204944,0.2281865,0.0204425,-0.230296,0.040065500000000004,-0.03433150000000001,0.23177399999999998,0.0482365,-0.0338275,-0.067295,0.0022225000000000005,0.0006714999999999985,0.067295,-0.0022224999999999996,-0.0006714999999999985,-0.12887600000000002,-0.3156135,0.0021944999999999985,0.113044,-0.3218735,0.0059565,-0.14319600000000002,-0.6239935,0.0350015,0.135494,-0.6413435000000001,0.0267675
9,0.017165499999999997,0.740227,0.004400499999999998,-0.1384535,0.458197,0.028527499999999997,-0.1987135,0.238377,0.0192735,0.1602965,0.458997,0.0234435,0.2117465,0.241207,0.006209499999999996,-0.2431935,0.064665,-0.058430499999999996,0.24325650000000001,0.069404,-0.060673500000000005,-0.0674045,0.0021509999999999997,0.0008494999999999961,0.0674045,-0.002151,-0.000849500000000003,-0.1288935,-0.315533,0.0027824999999999968,0.1129365,-0.32181299999999996,0.006475499999999995,-0.1431435,-0.6247130000000001,0.0350425,0.1355665,-0.6411030000000001,0.026671499999999997
10,0.0172625,0.7397435,0.005617500000000001,-0.1379915,0.4587935,0.028123500000000003,-0.20970149999999999,0.25572350000000005,0.0046175000000000035,0.1595785,0.45948350000000004,0.022296500000000004,0.2196285,0.2565135,-0.009982499999999998,-0.2574415,0.0951465,-0.08716549999999999,0.25599849999999996,0.0966485,-0.09579549999999999,-0.0675605,0.0020345,0.001020500000000004,0.0675605,-0.0020345,-0.0010205000000000006,-0.1289415,-0.31556649999999997,0.003398500000000002,0.1128985,-0.3218965,0.0069105000000000034,-0.14297149999999997,-0.6257865,0.034924500000000004,0.1356485,-0.6408364999999999,0.026417500000000003
11,0.017350000000000004,0.7391540000000001,0.0068275,-0.13752,0.459314,0.027491500000000002,-0.22175,0.275544,-0.010937499999999996,0.15903,0.460234,0.021000500000000002,0.22989,0.277404,-0.0282525,-0.27385000000000004,0.13339399999999998,-0.11772450000000001,0.27074,0.13208399999999998,-0.1323045,-0.067711,0.001931,0.001359500000000003,0.067711,-0.001931,-0.0013594999999999996,-0.129,-0.315716,0.0038895000000000006,0.11285,-0.322096,0.007282500000000001,-0.14282,-0.6270659999999999,0.0346375,0.13571,-0.640686,0.025955500000000003
12,0.017393500000000003,0.7382705,0.0083015,-0.1370515,0.4602405,0.0265255,-0.2338015,0.30558050000000003,-0.027631500000000003,0.15830850000000002,0.4613005,0.0195375,0.2397285,0.3074405,-0.047538500000000004,-0.2899815,0.1860305,-0.1485985,0.2839685,0.1849005,-0.1684485,-0.06783449999999999,0.0017854999999999998,0.0016674999999999988,0.06783449999999999,-0.0017854999999999998,-0.0016675000000000023,-0.12910149999999998,-0.3157795,0.004313499999999998,0.1127485,-0.3224495,0.007512499999999998,-0.1427115,-0.6291194999999999,0.034382499999999996,0.1356985,-0.6408395,0.0253115
13,0.017401999999999997,0.7373305,0.009775999999999996,-0.136626,0.4610505,0.025449,-0.24634599999999998,0.3393505,-0.044696,0.157664,0.4629005,0.017979,0.249814,0.3422705,-0.067112,-0.304696,0.2476905,-0.178195,0.296124,0.2459505,-0.202455,-0.06800300000000001,0.0016015,0.0019519999999999989,0.06800300000000001,-0.0016014999999999998,-0.0019520000000000023,-0.129216,-0.3157995,0.004586999999999997,0.112644,-0.3228695,0.007656999999999997,-0.14260599999999998,-0.6313895,0.033961,0.135714,-0.6411595,0.024558999999999997
14,0.017336999999999998,0.736167,0.011192499999999998,-0.136234,0.46168699999999996,0.0244435,-0.256224,0.37877700000000003,-0.05964250000000001,0.156956,0.464927,0.0164805,0.25788599999999995,0.38235699999999995,-0.08232049999999999,-0.31708400000000003,0.31721699999999997,-0.2013205,0.30667599999999995,0.315017,-0.2309505,-0.068158,0.001408,0.0022844999999999983,0.068158,-0.001408,-0.002284500000000002,-0.129364,-0.315933,0.004880499999999999,0.112536,-0.323503,0.007827499999999998,-0.142494,-0.633923,0.0335135,0.13572599999999999,-0.6417729999999999,0.0238005
15,0.017213999999999997,0.7342609999999999,0.012060999999999999,-0.135915,0.463851,0.023515,-0.262485,0.41991100000000003,-0.068745,0.156155,0.467401,0.014709,0.26247499999999996,0.424561,-0.092279,-0.323425,0.391921,-0.215359,0.31171499999999996,0.393051,-0.246299,-0.068228,0.0011469999999999998,0.0025780000000000004,0.068228,-0.001147,-0.0025780000000000004,-0.129525,-0.316909,0.004879999999999999,0.112355,-0.324809,0.00792,-0.142395,-0.6366090000000001,0.032822,0.13565499999999997,-0.643329,0.023064
16,0.017172499999999997,0.7317395,0.012726000000000001,-0.1355265,0.4668195,0.02228,-0.2653165,0.4637995,-0.073082,0.1554335,0.4701095,0.013005000000000001,0.2655635,0.4674495,-0.098213,-0.32490650000000004,0.4698495,-0.219653,0.31281349999999997,0.4742895,-0.253013,-0.0682985,0.0008714999999999999,0.0028280000000000007,0.0682985,-0.0008715000000000003,-0.002827999999999997,-0.1295965,-0.3185305,0.0046640000000000015,0.1122335,-0.3267805,0.007960000000000002,-0.14228649999999998,-0.6400505,0.032266,0.13558349999999997,-0.6455005,0.022437000000000002
17,0.017070999999999996,0.7287905,0.012876999999999998,-0.135353,0.4697705,0.021314,-0.265393,0.5059705,-0.073737,0.154907,0.4724905,0.011656999999999997,0.266347,0.5103905000000001,-0.099064,-0.324983,0.5478805,-0.220184,0.312737,0.5548805,-0.253544,-0.06837499999999999,0.0005685000000000004,0.0031229999999999973,0.06837499999999999,-0.0005684999999999996,-0.0031230000000000008,-0.129673,-0.3206695,0.004454999999999997,0.112157,-0.3291595,0.007984999999999999,-0.142153,-0.6439794999999999,0.031907,0.135507,-0.6482795,0.021906
18,0.0168885,0.725576,0.012631999999999999,-0.1352435,0.47295600000000004,0.020568999999999997,-0.2655135,0.547156,-0.07398199999999999,0.1543165,0.47489600000000004,0.010608,0.2662265,0.551246,-0.099309,-0.32510350000000005,0.621236,-0.22042899999999999,0.31261649999999996,0.632196,-0.253789,-0.06847049999999999,0.000282000000000001,0.003292,0.06847049999999999,-0.00028199999999999927,-0.003292,-0.1297935,-0.322714,0.004375,0.11203650000000001,-0.331794,0.007906,-0.1420835,-0.647314,0.031758,0.1353965,-0.651444,0.021661
19,0.016623,0.7222415,0.0126155,-0.13519799999999998,0.4756615,0.0201065,-0.265688,0.5843315,-0.0739985,0.15361200000000003,0.47775150000000005,0.0097215,0.266052,0.5908315000000001,-0.0993255,-0.325278,0.6902415000000001,-0.2204455,0.312442,0.7048915,-0.2538055,-0.0685,1.950000000000042e-05,0.003308499999999999,0.0685,-1.950000000000042e-05,-0.003308499999999999,-0.12990800000000002,-0.3248385,0.004358500000000001,0.111862,-0.3344985,0.007931500000000001,-0.142038,-0.6509085,0.0317925,0.135272,-0.6548185,0.0216445
20,0.0164325,0.7186524999999999,0.0126155,-0.13493549999999999,0.4793525,0.019702499999999998,-0.2658455,0.6194824999999999,-0.0739985,0.1527845,0.4802425,0.008813499999999998,0.2658445,0.6256425,-0.0993255,-0.3236355,0.7528725,-0.2148655,0.3102145,0.7696624999999999,-0.2491055,-0.0684945,-0.0002654999999999984,0.003308499999999999,0.0684945,0.0002654999999999984,-0.003308499999999999,-0.12997550000000002,-0.3273875,0.004358500000000001,0.1116545,-0.3375775,0.007931500000000001,-0.14201550000000002,-0.6550475,0.0317925,0.13528449999999997,-0.6589575000000001,0.0216035
21,0.016097500000000004,0.7149690000000001,0.012576999999999998,-0.1345815,0.48227899999999996,0.019191999999999997,-0.26415150000000004,0.6453190000000001,-0.072275,0.1517985,0.48269900000000004,0.007878,0.2628085,0.6525190000000001,-0.095985,-0.3186215,0.802089,-0.203745,0.3046485,0.8165990000000001,-0.237935,-0.06843350000000001,-0.0004910000000000019,0.0033389999999999982,0.06843350000000001,0.0004909999999999984,-0.0033390000000000017,-0.1300915,-0.330631,0.0043289999999999995,0.11134850000000002,-0.340581,0.007902,-0.14209149999999998,-0.659601,0.031763,0.13515850000000001,-0.663441,0.021543
22,0.015713,0.7110129999999999,0.011302,-0.133945,0.485443,0.01846,-0.258885,0.6685129999999999,-0.06696200000000001,0.150805,0.484173,0.0068509999999999995,0.258515,0.674293,-0.090118,-0.310785,0.8433329999999999,-0.185748,0.296455,0.856493,-0.215968,-0.068313,-0.0006069999999999999,0.003445,0.068313,0.0006069999999999999,-0.003445,-0.130115,-0.334367,0.004039000000000001,0.111025,-0.344057,0.007789000000000001,-0.142205,-0.664677,0.03165,0.135105,-0.668407,0.021365
23,0.015264999999999997,0.7072285,0.009117,-0.133392,0.48864849999999993,0.017525000000000002,-0.251872,0.6860284999999999,-0.060252,0.149878,0.48493849999999994,0.005716000000000002,0.251228,0.6908084999999999,-0.080112,-0.299462,0.8770785,-0.163532,0.285288,0.8892285,-0.19069199999999997,-0.068204,-0.0007235000000000019,0.003498000000000001,0.068204,0.0007235000000000019,-0.0034979999999999976,-0.130132,-0.3381215,0.0034040000000000008,0.11065799999999999,-0.3473915,0.007389000000000003,-0.142412,-0.6697715,0.031331000000000005,0.134968,-0.6732915,0.021003
24,0.014878499999999996,0.7038175,0.006290500000000001,-0.1328955,0.4897175,0.016827500000000002,-0.2426255,0.6981175,-0.0510435,0.1489645,0.4845875,0.0050054999999999995,0.24346449999999997,0.6996874999999999,-0.0697845,-0.28752550000000004,0.8988575,-0.1394285,0.2749445,0.9073775,-0.1645185,-0.0681055,-0.0006864999999999996,0.0034715000000000024,0.0681055,0.0006864999999999996,-0.003471499999999999,-0.1301755,-0.3416225,0.0027215000000000017,0.1102745,-0.3505625,0.0070265000000000015,-0.1427255,-0.6753625000000001,0.0308035,0.13477450000000002,-0.6779525000000001,0.0207005
25,0.014451499999999999,0.6998865,0.0028339999999999997,-0.1315675,0.49240649999999997,0.016170999999999998,-0.2340175,0.7077965,-0.042675000000000005,0.1476225,0.48377650000000005,0.004470999999999999,0.2349725,0.7060365000000001,-0.059725,-0.2764575,0.9132165,-0.11477,0.2642525,0.9209465,-0.13813,-0.0679925,-0.0007004999999999997,0.0034999999999999996,0.0679925,0.0007004999999999997,-0.0034999999999999996,-0.1302775,-0.3455235,0.0019529999999999999,0.1097625,-0.35421349999999996,0.006644999999999998,-0.1432375,-0.6815435,0.03023,0.1343925,-0.6834034999999999,0.020458
26,0.014143500000000003,0.6955015,-0.000784,-0.13029349999999998,0.4939815000000001,0.015563000000000002,-0.2265235,0.7143315,-0.035685999999999996,0.1463665,0.4825615,0.0038590000000000013,0.22802650000000002,0.7089915,-0.052153,-0.2665835,0.9220415000000001,-0.09606899999999999,0.2553765,0.9294515,-0.11637899999999998,-0.06791549999999999,-0.0005654999999999966,0.003471000000000002,0.06791549999999999,0.0005655000000000035,-0.0034709999999999984,-0.1302235,-0.3503385,0.001023000000000003,0.1093665,-0.3585885,0.0062990000000000025,-0.14367349999999998,-0.6879385,0.029625000000000002,0.1340365,-0.6891185,0.020241000000000002
27,0.0141675,0.6918449999999999,-0.004637499999999999,-0.1289125,0.49609499999999995,0.0146155,-0.2192425,0.7201949999999999,-0.032849500000000004,0.1458675,0.4811249999999999,0.002871499999999999,0.22327750000000002,0.708125,-0.0481205,-0.2574425,0.928725,-0.0838735,0.2496675,0.9311849999999999,-0.10167350000000001,-0.0678475,-0.0002570000000000003,0.003463499999999998,0.0678475,0.00025699999999999334,-0.0034635000000000013,-0.1298625,-0.35399499999999995,-0.00016550000000000245,0.10945749999999999,-0.361615,0.005664499999999999,-0.14359249999999998,-0.692515,0.0286285,0.13418750000000002,-0.693055,0.0196935
28,0.0139215,0.6912545,-0.011168,-0.1273675,0.4955045,0.011880000000000002,-0.2133175,0.7196845000000001,-0.034880999999999995,0.1451425,0.4805345,0.00011200000000000099,0.21908249999999999,0.7076345,-0.047817,-0.2494975,0.9311845000000001,-0.08038100000000001,0.2452525,0.9332745,-0.093351,-0.0679615,5.350000000000493e-05,0.003542,0.0679615,-5.3499999999997994e-05,-0.003542,-0.1302575,-0.3545855,-0.002866999999999998,0.1093625,-0.36171549999999997,0.0032520000000000014,-0.1437775,-0.6940155,0.025538,0.1342025,-0.6940855,0.017165
29,0.013952000000000003,0.6912545,-0.019740499999999998,-0.12606,0.4955045,0.007265500000000001,-0.20808,0.7196845000000001,-0.038749500000000006,0.14446,0.4805345,-0.004441500000000001,0.21647,0.7076345,-0.05168049999999999,-0.24273,0.9311845000000001,-0.08291649999999999,0.24186,0.9332745,-0.0924965,-0.068077,5.350000000000493e-05,0.0036745000000000007,0.068077,-5.3499999999997994e-05,-0.0036745000000000007,-0.13063,-0.3545855,-0.0075525,0.10934,-0.3614155,-0.0011625000000000003,-0.14415,-0.6950255,0.0205275,0.13421,-0.6947555,0.0126365
30,0.013724,0.6886545000000001,-0.033358,-0.124814,0.4955045,-0.0004049999999999991,-0.203564,0.7196845000000001,-0.045554,0.143916,0.4805345,-0.012126,0.216196,0.7076345,-0.05848199999999999,-0.236994,0.9311845000000001,-0.08971799999999999,0.240046,0.9332745,-0.099298,-0.068297,5.350000000000493e-05,0.0036769999999999997,0.068297,-5.3499999999997994e-05,-0.0036769999999999997,-0.130854,-0.3546355,-0.015245,0.109516,-0.3614155,-0.008651999999999998,-0.144374,-0.6960755,0.01237,0.134336,-0.6963355,0.004206
31,0.013567,0.6829345,-0.049349,-0.12419,0.4939245,-0.012653000000000001,-0.20031000000000002,0.7196845000000001,-0.054918999999999996,0.14340999999999998,0.47829450000000007,-0.023342,0.21569,0.7076345,-0.06750099999999999,-0.23287,0.9311845000000001,-0.09873699999999999,0.23926999999999998,0.9324745,-0.108317,-0.06823199999999999,5.350000000000493e-05,0.003574,0.06823199999999999,-5.3499999999997994e-05,-0.003574,-0.13151000000000002,-0.3558555,-0.025015000000000003,0.10949,-0.3614155,-0.018799,-0.14488,-0.6971255,0.001864,0.13384,-0.6980755,-0.006634999999999999
32,0.013471499999999997,0.676556,-0.06661650000000001,-0.12308550000000001,0.49242600000000003,-0.026527500000000002,-0.1974355,0.720556,-0.0676435,0.14308449999999998,0.475596,-0.0364745,0.21505449999999998,0.705906,-0.0794875,-0.2297555,0.933356,-0.10939850000000001,0.23922449999999998,0.934946,-0.1189685,-0.06819349999999999,0.00029900000000000065,0.0033945,0.06819349999999999,-0.00029900000000000065,-0.003394500000000001,-0.13272550000000002,-0.355454,-0.0365805,0.1100545,-0.35870399999999997,-0.0310005,-0.14565550000000002,-0.6957139999999999,-0.0109315,0.1337845,-0.697314,-0.0194955
33,0.013451500000000002,0.6714275,-0.085129,-0.12194250000000001,0.49000749999999993,-0.042117,-0.19601249999999998,0.7197975,-0.084081,0.14279750000000002,0.4741274999999999,-0.051586999999999994,0.21503750000000002,0.7044374999999999,-0.094581,-0.2278425,0.9354175,-0.12438300000000001,0.2392175,0.9335074999999999,-0.131613,-0.06819349999999999,0.0004954999999999959,0.003082999999999999,0.06819349999999999,-0.0004955000000000029,-0.003082999999999999,-0.1343425,-0.3510525,-0.050265000000000004,0.11087749999999999,-0.3516125,-0.045532,-0.1461825,-0.6900425,-0.025479,0.13377750000000002,-0.6916125000000001,-0.034245
34,0.013266000000000007,0.663994,-0.1080285,-0.121396,0.488884,-0.062213500000000005,-0.194736,0.715854,-0.1073965,0.14253400000000002,0.47174399999999994,-0.0716615,0.214894,0.7001539999999999,-0.11604249999999999,-0.226736,0.934454,-0.1505255,0.23922400000000002,0.929114,-0.1530855,-0.068251,0.0007610000000000013,0.0028935000000000002,0.068251,-0.0007609999999999978,-0.0028935000000000002,-0.136266,-0.344206,-0.06935949999999999,0.112314,-0.342906,-0.0664025,-0.146556,-0.681746,-0.0449235,0.13379400000000002,-0.682866,-0.054720500000000005
35,0.0119265,0.660814,-0.131731,-0.12063650000000001,0.48531399999999997,-0.08368300000000001,-0.19398649999999998,0.712064,-0.13332,0.14032350000000002,0.468954,-0.093215,0.21534350000000002,0.696514,-0.14002,-0.2265665,0.932274,-0.18195699999999998,0.2401135,0.927384,-0.179257,-0.06832150000000001,0.0008659999999999987,0.0022939999999999974,0.06832150000000001,-0.0008660000000000004,-0.0022940000000000044,-0.1395265,-0.332286,-0.09345200000000001,0.1144935,-0.328986,-0.091936,-0.1470465,-0.667976,-0.06582600000000001,0.1331535,-0.668296,-0.076876
36,0.010120499999999998,0.6558295,-0.1551335,-0.1197965,0.48277950000000003,-0.1053985,-0.1937965,0.7086995,-0.16036250000000002,0.1381235,0.4669295,-0.11528650000000001,0.2164635,0.6928695,-0.1659255,-0.2267765,0.9294595,-0.2168255,0.2419335,0.9259595,-0.20754550000000002,-0.0683995,0.0010084999999999998,0.0021164999999999934,0.0683995,-0.0010085000000000007,-0.0021165000000000073,-0.1429665,-0.3168205,-0.11849250000000001,0.1168835,-0.3115405,-0.1190215,-0.1474265,-0.6509405,-0.08702050000000001,0.1323035,-0.6509105,-0.09966150000000001
37,0.008261500000000001,0.6519505,-0.17661500000000002,-0.1188835,0.4762105,-0.125696,-0.1938135,0.7016905,-0.186699,0.13598649999999998,0.4631405,-0.13589299999999999,0.2189765,0.6874804999999999,-0.191187,-0.2267935,0.9233905,-0.251741,0.2468165,0.9176305,-0.238921,-0.0685865,0.0010915000000000022,0.0017210000000000003,0.0685865,-0.0010914999999999953,-0.0017210000000000003,-0.1468535,-0.2977895,-0.143758,0.11944649999999998,-0.2906095,-0.14608100000000002,-0.1475235,-0.6291895,-0.106543,0.1314865,-0.6285995,-0.120944
38,0.006347499999999997,0.6482479999999999,-0.196048,-0.1189705,0.470238,-0.145071,-0.1938205,0.694788,-0.21173999999999998,0.1339495,0.45949799999999996,-0.155603,0.2214595,0.6816679999999999,-0.21495,-0.2268005,0.9197879999999999,-0.28559,0.2517895,0.909998,-0.26918,-0.0687675,0.0010789999999999966,0.0011099999999999999,0.0687675,-0.0010789999999999966,-0.0011099999999999999,-0.1510305,-0.272032,-0.169855,0.12196950000000001,-0.264322,-0.17410599999999998,-0.1475505,-0.599292,-0.12498000000000001,0.1303395,-0.598572,-0.14116499999999998
39,0.004344500000000001,0.64636,-0.210353,-0.1191985,0.46052,-0.16186899999999999,-0.1938585,0.68421,-0.232035,0.13193149999999998,0.45557000000000003,-0.172447,0.2233815,0.67649,-0.23380499999999999,-0.2272785,0.9111199999999999,-0.313695,0.2555015,0.90425,-0.294335,-0.0687975,0.0005500000000000088,0.0007550000000000057,0.0687975,-0.0005499999999999949,-0.0007549999999999918,-0.1555185,-0.24473,-0.194125,0.1247215,-0.23659999999999998,-0.19996999999999998,-0.1475685,-0.56793,-0.140407,0.1290715,-0.5659000000000001,-0.157725
40,0.0023590000000000017,0.64222,-0.22196700000000003,-0.118597,0.4575,-0.17434000000000002,-0.194257,0.68054,-0.24935500000000002,0.12971300000000002,0.45191000000000003,-0.18585800000000002,0.225213,0.6713600000000001,-0.249915,-0.22907699999999998,0.90567,-0.338475,0.25917300000000004,0.89788,-0.316545,-0.068859,0.00035000000000001696,0.0004649999999999932,0.068859,-0.0003499999999999892,-0.00046500000000002095,-0.159727,-0.21589999999999998,-0.217319,0.12783300000000003,-0.20838999999999996,-0.224308,-0.147667,-0.5355,-0.15352900000000003,0.12767299999999998,-0.53226,-0.17203100000000002
41,0.0002584999999999983,0.63794,-0.23201500000000003,-0.1190635,0.45425,-0.18558300000000003,-0.19509349999999998,0.67457,-0.265245,0.1274165,0.44768,-0.197642,0.22663650000000002,0.6658200000000001,-0.263335,-0.2309735,0.8927499999999999,-0.360565,0.2628265,0.89097,-0.336355,-0.0690265,0.0007600000000000107,0.00018499999999999073,0.0690265,-0.0007599999999999829,-0.00018500000000001848,-0.1630835,-0.1874,-0.23910000000000003,0.1310865,-0.18166,-0.24749500000000002,-0.1478235,-0.5039899999999999,-0.16454300000000002,0.1262765,-0.49954000000000004,-0.18451700000000001
42,-0.001925999999999999,0.63164,-0.24027500000000002,-0.119612,0.45389,-0.194865,-0.195902,0.67031,-0.278185,0.124998,0.44203000000000003,-0.20707799999999998,0.227748,0.6587700000000001,-0.274785,-0.233072,0.88225,-0.379565,0.266358,0.88598,-0.352175,-0.06933600000000001,0.0010199999999999931,0.00023500000000001298,0.06933600000000001,-0.0010199999999999931,-0.00023499999999998522,-0.166312,-0.15911999999999998,-0.258575,0.134248,-0.1557,-0.268195,-0.148092,-0.47261000000000003,-0.173142,0.124608,-0.46769,-0.194371
43,-0.004063000000000004,0.63064,-0.243952,-0.11953200000000001,0.44828999999999997,-0.199634,-0.197882,0.6651,-0.28623,0.122418,0.4385,-0.212509,0.22935799999999998,0.65509,-0.28181,-0.235292,0.8754599999999999,-0.39124000000000003,0.26944799999999997,0.8846099999999999,-0.36336999999999997,-0.069367,0.00039000000000000146,0.00014999999999998348,0.069367,-0.00039000000000000146,-0.00015000000000001124,-0.169182,-0.12786999999999998,-0.27278,0.136548,-0.12575999999999998,-0.28214,-0.14847200000000002,-0.4382,-0.177624,0.12292799999999998,-0.43288,-0.19931100000000002
44,-0.004909499999999999,0.62409,-0.245613,-0.1196585,0.44648,-0.202808,-0.1998285,0.65984,-0.292435,0.12145149999999999,0.43467999999999996,-0.216165,0.2306715,0.64835,-0.28708500000000003,-0.2376685,0.86896,-0.40036499999999997,0.27191150000000003,0.87668,-0.372815,-0.0693965,0.0008399999999999519,0.0003049999999999997,0.0693965,-0.0008400000000000074,-0.0003049999999999997,-0.1711085,-0.10112000000000004,-0.282265,0.1379015,-0.09992000000000001,-0.291365,-0.1477685,-0.40773000000000004,-0.180329,0.1216215,-0.40226000000000006,-0.202284
45,-0.0056255,0.61837,-0.24674400000000002,-0.12008849999999999,0.44471,-0.204994,-0.20203849999999998,0.65567,-0.29796500000000004,0.12034150000000002,0.43172,-0.218575,0.2319715,0.64391,-0.291425,-0.2406585,0.8585400000000001,-0.407115,0.27441150000000003,0.8696299999999999,-0.38126499999999997,-0.0694455,0.0012300000000000089,-1.4999999999987246e-05,0.0694455,-0.0012300000000000089,1.4999999999987246e-05,-0.1727685,-0.07605,-0.290285,0.1389015,-0.07541000000000003,-0.298735,-0.14733849999999998,-0.37814,-0.18193399999999998,0.12017150000000001,-0.3727,-0.203897
46,-0.006111499999999997,0.613505,-0.24762599999999999,-0.12045449999999999,0.440071,-0.207085,-0.2042845,0.649825,-0.303045,0.11898550000000001,0.42967299999999997,-0.221099,0.2331355,0.6396850000000001,-0.295705,-0.2434445,0.849215,-0.413815,0.27574550000000003,0.866735,-0.387945,-0.0699685,0.0007749999999999702,-8.499999999997399e-05,0.0699685,-0.0007750000000000257,8.500000000000174e-05,-0.1732545,-0.04927500000000001,-0.295625,0.14023549999999999,-0.04933500000000002,-0.303795,-0.1467845,-0.34794500000000006,-0.183441,0.11901550000000001,-0.34177500000000005,-0.205332
47,-0.006815999999999997,0.60845,-0.248605,-0.12215899999999999,0.437373,-0.209384,-0.206669,0.64625,-0.30718,0.11757100000000001,0.42917900000000003,-0.223334,0.234051,0.63773,-0.30005,-0.246449,0.83982,-0.41934,0.276361,0.86455,-0.395,-0.07019500000000001,0.0010900000000000354,-0.0003499999999999892,0.07019500000000001,-0.0010899999999999799,0.00035000000000001696,-0.173969,-0.02638999999999997,-0.29888000000000003,0.14144099999999998,-0.025829999999999964,-0.30579,-0.146619,-0.32302999999999993,-0.184937,0.11782100000000001,-0.31577999999999995,-0.206756
48,-0.007242000000000001,0.604055,-0.24923099999999998,-0.123643,0.438413,-0.210907,-0.208673,0.645615,-0.31082,0.116847,0.429925,-0.224444,0.234627,0.638235,-0.30339,-0.248993,0.834375,-0.42373,0.276707,0.8588549999999999,-0.40135,-0.070468,0.0017149999999999666,-0.00023999999999999022,0.070468,-0.001715000000000022,0.00023999999999999022,-0.174573,-0.00523499999999999,-0.30063,0.142557,-0.0037550000000000083,-0.3069,-0.146423,-0.29803500000000005,-0.186048,0.116807,-0.29142500000000005,-0.207866
49,-0.007398500000000005,0.601325,-0.249973,-0.12517150000000002,0.437986,-0.212458,-0.2108715,0.641625,-0.31417,0.11608850000000001,0.432016,-0.22576300000000002,0.2352585,0.6377550000000001,-0.30648,-0.2514815,0.828925,-0.42724,0.2767785,0.853245,-0.40783,-0.0707065,0.0018449999999999855,-0.0005600000000000049,0.0707065,-0.0018449999999999855,0.0005599999999999772,-0.1751515,0.013485000000000025,-0.30198,0.1433085,0.016185000000000005,-0.30825,-0.1461915,-0.276615,-0.187336,0.1157185,-0.268955,-0.209216
50,-0.0071804999999999985,0.59975,-0.251274,-0.1267065,0.432637,-0.214273,-0.2130965,0.6374,-0.316805,0.1152235,0.434282,-0.227578,0.2360235,0.6351899999999999,-0.30927499999999997,-0.2544965,0.8307199999999999,-0.43083499999999997,0.2770235,0.84953,-0.414065,-0.0708905,0.0008400000000000074,-0.0004750000000000032,0.0708905,-0.0008400000000000074,0.0004750000000000032,-0.1752665,0.03281999999999996,-0.303955,0.1439035,0.036609999999999976,-0.31006500000000004,-0.1457665,-0.25425,-0.189004,0.11456350000000001,-0.24568999999999996,-0.210911
51,-0.006778499999999997,0.60178,-0.251548,-0.1278375,0.42779700000000004,-0.214963,-0.21535749999999998,0.6319,-0.31749499999999997,0.1146725,0.435634,-0.22816,0.2357825,0.6362,-0.31020499999999995,-0.2590575,0.82813,-0.432585,0.2768125,0.84909,-0.41790499999999997,-0.0710885,0.0005200000000000204,-0.00037499999999998646,0.0710885,-0.0005199999999999649,0.0003750000000000142,-0.1749075,0.04843000000000003,-0.304865,0.1447425,0.05363000000000001,-0.310905,-0.14502749999999998,-0.23492000000000002,-0.18900499999999998,0.11330250000000001,-0.22544999999999993,-0.211312
52,-0.006542499999999998,0.6027,-0.250967,-0.12891550000000002,0.430362,-0.21479,-0.2174655,0.63457,-0.318215,0.1140745,0.435142,-0.227741,0.2352445,0.63583,-0.310025,-0.2641355,0.82464,-0.433195,0.2767745,0.8475900000000001,-0.419385,-0.0712715,0.0013400000000000079,-0.0002550000000000052,0.0712715,-0.0013400000000000079,0.0002550000000000052,-0.1741155,0.05691999999999997,-0.305775,0.1457445,0.06383,-0.311615,-0.1444555,-0.22330000000000005,-0.188004,0.1120645,-0.21292999999999995,-0.21075100000000002
53,-0.006443999999999999,0.605435,-0.250683,-0.128916,0.42944799999999994,-0.21426800000000001,-0.21967599999999998,0.635365,-0.31855,0.11349400000000001,0.43480899999999995,-0.22731200000000001,0.234654,0.637405,-0.31004,-0.269276,0.819485,-0.43321000000000004,0.276184,0.849135,-0.41940000000000005,-0.07147,0.0005749999999999922,-0.00024000000000001798,0.07147,-0.0005749999999999922,0.00023999999999999022,-0.173226,0.06343499999999996,-0.30681,0.146714,0.07063499999999995,-0.31175,-0.144176,-0.2162050000000001,-0.18811300000000003,0.11096400000000001,-0.2041550000000001,-0.21033900000000003
54,-0.006542,0.60602,-0.250629,-0.128957,0.427725,-0.214213,-0.221107,0.62866,-0.31733500000000003,0.11302299999999998,0.435244,-0.227003,0.23480299999999998,0.6379900000000001,-0.310125,-0.27263699999999996,0.8120400000000001,-0.433145,0.275633,0.84972,-0.420935,-0.071445,-9.99999999995449e-06,-0.00021499999999999297,0.071445,1.0000000000065512e-05,0.00021499999999999297,-0.171977,0.06179000000000001,-0.307265,0.148003,0.06840000000000002,-0.31189500000000003,-0.144107,-0.21797999999999995,-0.188265,0.110233,-0.20409,-0.20984799999999998
55,-0.0065229999999999976,0.60602,-0.250212,-0.129458,0.427725,-0.214449,-0.223508,0.62866,-0.317535,0.112662,0.435244,-0.226025,0.234502,0.6379900000000001,-0.309765,-0.27682799999999996,0.8120400000000001,-0.433045,0.275142,0.84972,-0.42064500000000005,-0.071423,-9.99999999995449e-06,5.4999999999999494e-05,0.071423,1.0000000000065512e-05,-5.4999999999999494e-05,-0.17075800000000002,0.06119000000000002,-0.307295,0.149892,0.06731999999999999,-0.311425,-0.144218,-0.21946999999999994,-0.18821400000000002,0.109812,-0.20484000000000002,-0.209156
56,-0.006608999999999997,0.60602,-0.250575,-0.129601,0.427725,-0.21449799999999997,-0.225281,0.62866,-0.317755,0.112069,0.435244,-0.22536899999999999,0.233669,0.6379900000000001,-0.310285,-0.281391,0.8120400000000001,-0.43288499999999996,0.274569,0.84972,-0.42173499999999997,-0.07131799999999999,-9.99999999995449e-06,3.500000000000725e-05,0.07131799999999999,1.0000000000065512e-05,-3.499999999997949e-05,-0.169751,0.06119000000000002,-0.307655,0.151609,0.06731999999999999,-0.310905,-0.144351,-0.21946999999999994,-0.188794,0.109209,-0.20552000000000004,-0.20873299999999997
57,-0.006548,0.60776,-0.25062599999999996,-0.130075,0.427605,-0.21454799999999996,-0.226135,0.62854,-0.31669499999999995,0.111705,0.435124,-0.224597,0.232505,0.63792,-0.309625,-0.28559500000000004,0.81192,-0.431805,0.27352499999999996,0.84972,-0.42138499999999995,-0.071064,-0.00012999999999996348,-1.4999999999987246e-05,0.071064,0.00012999999999996348,1.5000000000015001e-05,-0.169065,0.06107000000000001,-0.30771499999999996,0.153195,0.06719999999999998,-0.31037499999999996,-0.144425,-0.21958999999999995,-0.18915099999999999,0.108685,-0.20582999999999996,-0.20840599999999998
58,-0.0062990000000000025,0.61034,-0.24931899999999999,-0.130404,0.430055,-0.21365399999999998,-0.226164,0.63063,-0.31461,0.112486,0.436018,-0.222039,0.231766,0.6392,-0.30711,-0.288104,0.81466,-0.43044,0.27342599999999995,0.8505400000000001,-0.41972,-0.07100000000000001,0.00023000000000000798,0.00032999999999999696,0.07100000000000001,-0.00022999999999995246,-0.00032999999999999696,-0.16861399999999999,0.05355000000000004,-0.30761,0.154836,0.05968000000000001,-0.30903,-0.144324,-0.22692,-0.18845699999999999,0.108686,-0.21334999999999993,-0.207006
59,-0.005974500000000002,0.6131800000000001,-0.24916000000000002,-0.1304035,0.430593,-0.213453,-0.22725350000000002,0.62866,-0.313365,0.1131465,0.436472,-0.22024900000000003,0.23076649999999999,0.64068,-0.304875,-0.2909635,0.81682,-0.429195,0.27337649999999997,0.8507100000000001,-0.41720500000000005,-0.07099950000000001,-0.0006700000000000039,0.0007349999999999857,0.07099950000000001,0.0006700000000000039,-0.0007350000000000134,-0.16849350000000002,0.04074,-0.30706500000000003,0.15601649999999997,0.046640000000000015,-0.308245,-0.14432350000000002,-0.23993000000000003,-0.18846700000000002,0.1089365,-0.22693000000000002,-0.20623100000000003
60,-0.005721999999999996,0.61882,-0.248204,-0.130615,0.432918,-0.213117,-0.22831500000000002,0.6267,-0.31108,0.11353500000000001,0.43673500000000004,-0.219285,0.229635,0.64232,-0.30313,-0.292465,0.81788,-0.42643,0.27249500000000004,0.8556900000000001,-0.41420999999999997,-0.070981,-0.0010399999999999854,0.0011400000000000021,0.070981,0.001040000000000041,-0.0011400000000000021,-0.168325,0.024810000000000054,-0.30569999999999997,0.156045,0.030230000000000035,-0.30649000000000004,-0.14430500000000002,-0.25683,-0.188615,0.10948500000000001,-0.24503999999999992,-0.20566600000000002
61,-0.0052729999999999964,0.623855,-0.246092,-0.13044,0.432827,-0.211428,-0.22818,0.623305,-0.30761,0.11401,0.434883,-0.217323,0.22870000000000001,0.642505,-0.30018,-0.29336,0.815365,-0.42189,0.27175,0.860805,-0.4093,-0.070857,-0.0012849999999999806,0.0010900000000000076,0.070857,0.0012849999999999806,-0.0010900000000000076,-0.16802999999999998,0.004514999999999991,-0.30394,0.15617,0.009745000000000004,-0.30432000000000003,-0.14418,-0.279575,-0.188062,0.11035,-0.268895,-0.203997
62,-0.004624,0.630355,-0.242428,-0.129849,0.43872000000000005,-0.207779,-0.228659,0.628815,-0.30207,0.11500100000000002,0.436076,-0.21368900000000002,0.22784100000000002,0.648405,-0.29522000000000004,-0.29396900000000004,0.8179050000000001,-0.41553,0.271391,0.866765,-0.40254,-0.070542,-0.0007149999999999657,0.0009899999999999909,0.070542,0.0007150000000000212,-0.0009899999999999909,-0.167209,-0.020674999999999943,-0.30056,0.156671,-0.01556499999999994,-0.30099,-0.14393899999999998,-0.30871499999999996,-0.186003,0.11166100000000001,-0.298755,-0.200829
63,-0.0037505000000000004,0.63598,-0.238308,-0.12902750000000002,0.442898,-0.203492,-0.2286475,0.63565,-0.29479,0.1160425,0.43798099999999995,-0.209385,0.2267225,0.65115,-0.28886999999999996,-0.2942975,0.8244400000000001,-0.40681,0.2713125,0.87214,-0.39374,-0.0701045,-0.0007600000000000384,0.0008400000000000074,0.0701045,0.0007599999999999829,-0.0008399999999999797,-0.16628749999999998,-0.04903000000000002,-0.29644,0.1570825,-0.04461000000000004,-0.29686999999999997,-0.14458749999999998,-0.34634,-0.184128,0.11311249999999999,-0.33620000000000005,-0.197063
64,-0.002891999999999997,0.640235,-0.233952,-0.12845199999999998,0.443525,-0.199373,-0.227852,0.6350549999999999,-0.28675,0.117028,0.439795,-0.20485,0.226268,0.6539349999999999,-0.28217000000000003,-0.29419199999999995,0.8290150000000001,-0.39705999999999997,0.271108,0.8749049999999999,-0.38419000000000003,-0.069544,-0.0009350000000000191,0.0005199999999999927,0.069544,0.0009349999999999636,-0.0005199999999999927,-0.165452,-0.077955,-0.29212,0.157138,-0.07491500000000001,-0.29255,-0.145192,-0.38265499999999997,-0.18204599999999999,0.114588,-0.37351500000000004,-0.193289
65,-0.002009000000000004,0.6452150000000001,-0.228615,-0.127863,0.446915,-0.194611,-0.226883,0.639205,-0.27757,0.11799699999999999,0.445685,-0.199496,0.225497,0.660405,-0.27466,-0.29380300000000004,0.839605,-0.38523,0.270497,0.875885,-0.37222,-0.06894800000000001,-0.0007249999999999757,0.00015999999999999348,0.06894800000000001,0.0007250000000000312,-0.00015999999999999348,-0.164773,-0.10680499999999998,-0.28644000000000003,0.156747,-0.10453499999999999,-0.28756000000000004,-0.14589300000000002,-0.418535,-0.178477,0.115947,-0.41125500000000004,-0.188913
66,-0.0012530000000000024,0.652875,-0.222169,-0.12709,0.450165,-0.189115,-0.22684,0.6480349999999999,-0.26854,0.11893000000000001,0.44842499999999996,-0.193888,0.22487,0.664765,-0.26598,-0.29341,0.855485,-0.37151,0.27049,0.8821950000000001,-0.35941,-0.068216,-0.0006450000000000067,3.0000000000002247e-05,0.068216,0.0006450000000000067,-3.0000000000002247e-05,-0.16394,-0.130475,-0.27905,0.15567999999999999,-0.128145,-0.28057,-0.14647000000000002,-0.449915,-0.1738,0.11723,-0.44409499999999996,-0.183833
67,7.999999999999848e-05,0.659735,-0.21430299999999997,-0.125854,0.456495,-0.18268099999999998,-0.226024,0.6489750000000001,-0.25753,0.12117599999999998,0.454785,-0.18744099999999997,0.224566,0.672375,-0.25649999999999995,-0.293044,0.8614850000000001,-0.35612,0.271086,0.8908750000000001,-0.34599,-0.067474,-0.0006349999999999967,-0.00022999999999998022,0.067474,0.0006350000000000244,0.00023000000000000798,-0.162284,-0.154385,-0.26893999999999996,0.153936,-0.152005,-0.27044999999999997,-0.146684,-0.481335,-0.16792599999999996,0.118666,-0.476455,-0.177802
68,0.0014659999999999986,0.66913,-0.205257,-0.124366,0.46229,-0.175276,-0.224186,0.65811,-0.245385,0.123504,0.45921,-0.17993499999999998,0.22467399999999998,0.67827,-0.24584499999999998,-0.293076,0.87243,-0.337985,0.271954,0.89903,-0.33148500000000003,-0.06670100000000001,-1.9999999999992246e-05,-0.00025499999999999134,0.06670100000000001,1.9999999999992246e-05,0.0002550000000000052,-0.16070600000000002,-0.17445000000000002,-0.256685,0.15168399999999999,-0.17283,-0.258595,-0.14691600000000002,-0.5089899999999999,-0.16050999999999999,0.11993399999999999,-0.5048199999999999,-0.170601
69,0.002502500000000003,0.6761699999999999,-0.193391,-0.1235785,0.46769,-0.164831,-0.2236185,0.6686399999999999,-0.23126000000000002,0.1251915,0.46534,-0.169491,0.22445150000000003,0.68483,-0.23189,-0.2933785,0.8848100000000001,-0.31616,0.2717515,0.9083399999999999,-0.31333,-0.0662035,0.00015999999999999348,2.999999999998837e-05,0.0662035,-0.00015999999999999348,-3.0000000000002247e-05,-0.15936850000000002,-0.19513999999999998,-0.23943,0.14784150000000001,-0.19491999999999998,-0.24166,-0.1470185,-0.53729,-0.150065,0.12043150000000001,-0.5347999999999999,-0.16015600000000002
70,0.003037999999999999,0.684805,-0.181623,-0.12311899999999999,0.474995,-0.154377,-0.222859,0.682615,-0.216675,0.126161,0.472405,-0.159212,0.224091,0.692195,-0.21831499999999998,-0.294449,0.899665,-0.294565,0.27148100000000003,0.915605,-0.296225,-0.065836,0.00039500000000000646,0.0004750000000000032,0.065836,-0.0003949999999999926,-0.0004750000000000032,-0.158599,-0.216395,-0.22168500000000002,0.143501,-0.218335,-0.224265,-0.147349,-0.562665,-0.13961,0.12007100000000001,-0.562205,-0.149701
71,0.0035740000000000043,0.6923635,-0.1695335,-0.12267,0.4803235,-0.1436995,-0.22233999999999998,0.6893335,-0.2014775,0.12739,0.4777435,-0.1487485,0.22425,0.6988235,-0.2050175,-0.29557,0.9084135,-0.2721975,0.2712,0.9202135,-0.27835750000000004,-0.065538,0.0005285000000000012,0.000739500000000004,0.065538,-0.0005285000000000012,-0.000739500000000004,-0.15736,-0.23592649999999998,-0.2024675,0.13928000000000001,-0.23973650000000002,-0.2056875,-0.14764,-0.5856665,-0.1287825,0.11978000000000001,-0.5872065,-0.13887349999999998
72,0.004168999999999999,0.697783,-0.15472599999999997,-0.12190500000000001,0.48451299999999997,-0.13009199999999999,-0.22264499999999998,0.694183,-0.184508,0.128445,0.482453,-0.13527299999999998,0.223655,0.704293,-0.18974799999999997,-0.296135,0.915873,-0.247438,0.270605,0.922343,-0.258698,-0.06493499999999999,0.0007500000000000007,0.0007710000000000078,0.06493499999999999,-0.0007500000000000007,-0.0007709999999999939,-0.15548499999999998,-0.254037,-0.178363,0.134795,-0.259147,-0.182608,-0.148255,-0.604347,-0.11174399999999998,0.11918500000000001,-0.606737,-0.12425899999999998
73,0.004173499999999997,0.7004555,-0.1378,-0.12199650000000001,0.4869855,-0.113634,-0.2240065,0.6999854999999999,-0.165762,0.12965349999999998,0.48717550000000004,-0.119304,0.22235349999999998,0.7097954999999999,-0.172222,-0.2974865,0.9203855,-0.22095199999999998,0.2701735,0.9296154999999999,-0.23627199999999998,-0.0646455,0.0005364999999999988,0.001335999999999997,0.0646455,-0.0005365000000000023,-0.001335999999999997,-0.1521565,-0.2735045,-0.148199,0.1292035,-0.27941449999999995,-0.153444,-0.1498265,-0.6240245,-0.090972,0.1177735,-0.6274845,-0.10528599999999999
74,0.003846000000000002,0.702061,-0.1216165,-0.123365,0.489791,-0.09762850000000001,-0.224195,0.703511,-0.1484355,0.130705,0.488871,-0.1039775,0.220835,0.7123210000000001,-0.1556455,-0.299025,0.919861,-0.19674550000000002,0.269235,0.938941,-0.21639550000000002,-0.064367,0.0005379999999999994,0.001738500000000004,0.064367,-0.0005380000000000003,-0.001738499999999997,-0.149335,-0.291999,-0.11926049999999999,0.123895,-0.29806900000000003,-0.1250945,-0.151915,-0.6409189999999999,-0.0705095,0.11624499999999999,-0.645469,-0.0863265
75,0.003723999999999998,0.7027745000000001,-0.1060075,-0.123902,0.49301449999999997,-0.0823725,-0.224302,0.7081245,-0.1322355,0.131908,0.49196449999999997,-0.0892175,0.22056800000000001,0.7160445000000001,-0.14004550000000002,-0.299472,0.9197045,-0.1750855,0.268698,0.9430745,-0.1987255,-0.064237,0.0005955000000000005,0.002031500000000002,0.064237,-0.0005955000000000005,-0.002031500000000002,-0.146702,-0.3089555,-0.0924905,0.119778,-0.31504550000000003,-0.0980225,-0.153282,-0.6542155,-0.050113500000000005,0.11479800000000001,-0.6605755,-0.0673045
76,0.0032060000000000005,0.703296,-0.0909445,-0.124703,0.49336599999999997,-0.0681025,-0.225213,0.715076,-0.1171715,0.13204700000000003,0.492236,-0.0752055,0.21997699999999998,0.717446,-0.12498150000000001,-0.300193,0.921776,-0.1561815,0.267837,0.939356,-0.1814915,-0.064401,0.0005700000000000011,0.0023204999999999996,0.064401,-0.0005700000000000011,-0.0023204999999999996,-0.14482299999999998,-0.323644,-0.0687825,0.116487,-0.328914,-0.0733605,-0.15519300000000003,-0.664944,-0.0307755,0.11259699999999999,-0.672584,-0.0482455
77,0.0023555,0.703151,-0.0755075,-0.12572049999999999,0.49529100000000004,-0.0534965,-0.2257805,0.7164510000000001,-0.1016425,0.13257950000000002,0.494271,-0.0609075,0.21950950000000002,0.719381,-0.10945250000000001,-0.3004105,0.920431,-0.14065249999999999,0.2671695,0.9404210000000001,-0.16596249999999999,-0.06457449999999999,0.000341000000000001,0.0027175000000000003,0.06457449999999999,-0.0003409999999999941,-0.0027175000000000003,-0.1439605,-0.335929,-0.050819500000000004,0.1131195,-0.340309,-0.0516215,-0.1576205,-0.674339,-0.0125895,0.10963949999999999,-0.682199,-0.0293245
78,0.0013335000000000014,0.702413,-0.061918,-0.1270155,0.494423,-0.041010000000000005,-0.22686849999999997,0.7148129999999999,-0.087862,0.1332215,0.49455299999999996,-0.047846,0.2193215,0.719843,-0.095852,-0.3008185,0.915413,-0.12687199999999998,0.2673915,0.935403,-0.15218199999999998,-0.0647025,3.099999999999631e-05,0.002546999999999999,0.0647025,-3.100000000000325e-05,-0.0025470000000000007,-0.1429385,-0.340947,-0.037042,0.1091015,-0.345327,-0.035537,-0.1606185,-0.679357,0.0007779999999999992,0.1061515,-0.685837,-0.012174
79,0.00020599999999999785,0.701335,-0.0484785,-0.128297,0.49300499999999997,-0.028492500000000004,-0.228779,0.710825,-0.0745835,0.134131,0.496145,-0.034412500000000006,0.219601,0.720545,-0.08195350000000001,-0.302049,0.9114249999999999,-0.1125835,0.26842099999999997,0.9314150000000001,-0.1378935,-0.06501100000000001,-0.00020399999999999585,0.0021594999999999982,0.065011,0.0002040000000000028,-0.0021595000000000017,-0.141689,-0.344935,-0.022746500000000003,0.104141,-0.349315,-0.019729500000000004,-0.164539,-0.683125,0.014657499999999997,0.10185099999999998,-0.6882950000000001,0.005157499999999999
80,-0.0006084999999999979,0.6994210000000001,-0.0349235,-0.1295155,0.491401,-0.0166375,-0.2306855,0.708851,-0.0627085,0.13440449999999998,0.49607100000000004,-0.021435500000000003,0.2205145,0.7185710000000001,-0.0681185,-0.3041255,0.909451,-0.09885850000000002,0.2700045,0.9294410000000001,-0.12327850000000001,-0.0654545,-0.000449999999999999,0.0021175000000000013,0.0654545,0.000449999999999999,-0.0021175000000000013,-0.1398055,-0.34843900000000005,-0.007667500000000001,0.09889450000000001,-0.35263900000000004,-0.004645500000000004,-0.16978549999999998,-0.685099,0.029171499999999996,0.09664450000000001,-0.6887289999999999,0.0229755
81,-0.001906999999999992,0.6993695000000001,-0.025076,-0.130522,0.49134949999999994,-0.009229000000000001,-0.23413899999999999,0.7087995,-0.05651099999999999,0.134521,0.4964895,-0.011236999999999997,0.22303099999999998,0.7185195000000001,-0.059080999999999995,-0.306259,0.9084195,-0.094631,0.273401,0.9270995000000001,-0.113751,-0.065941,-0.000501499999999995,0.0021040000000000017,0.065941,0.0005015000000000019,-0.0021039999999999948,-0.136621,-0.3569105,-0.0019899999999999987,0.093661,-0.35665050000000004,0.007769000000000005,-0.175669,-0.6861904999999999,0.040575,0.08808099999999999,-0.6877105,0.03665
82,-0.0031089999999999937,0.6993695000000001,-0.0183155,-0.13208799999999998,0.49134949999999994,-0.004730499999999999,-0.239429,0.7083295000000001,-0.05531549999999999,0.13520100000000002,0.4964895,-0.004147499999999998,0.226941,0.7185195000000001,-0.0530055,-0.30899899999999997,0.9049095,-0.0970455,0.277141,0.9244795,-0.10845549999999998,-0.065591,-0.000501499999999995,0.0014525000000000093,0.065591,0.0005015000000000019,-0.0014524999999999955,-0.13406099999999999,-0.3628405,-0.003656499999999993,0.088651,-0.35887050000000004,0.017480500000000003,-0.18017899999999998,-0.6877304999999999,0.04667450000000001,0.079061,-0.6866104999999999,0.0463645
83,-0.004285999999999998,0.6993695000000001,-0.011526499999999995,-0.134179,0.49134949999999994,-0.00011550000000000449,-0.245996,0.7047095000000001,-0.05484850000000001,0.135294,0.4964895,0.003320500000000004,0.23231400000000002,0.7176295,-0.04704849999999999,-0.31253600000000004,0.8983795,-0.1024885,0.283084,0.9183795,-0.10525849999999999,-0.065494,-0.000501499999999995,0.001073500000000005,0.065494,0.0005015000000000019,-0.001073500000000005,-0.129989,-0.3654905,-0.009815500000000005,0.08335400000000001,-0.3632105,0.027930499999999997,-0.180696,-0.6905505,0.050875500000000004,0.06897400000000001,-0.6861704999999999,0.056889499999999996
84,-0.0062540000000000096,0.6983455,-0.004734500000000003,-0.13686700000000002,0.4903155,0.0046095000000000025,-0.254072,0.6963155,-0.055613499999999996,0.135108,0.49681549999999997,0.0108095,0.23835799999999996,0.7132255,-0.0417135,-0.31836200000000003,0.8849555,-0.11330349999999999,0.289298,0.9097755,-0.1039335,-0.06534800000000002,-0.0008275000000000018,0.0006374999999999992,0.065348,0.0008274999999999949,-0.0006374999999999992,-0.123809,-0.36702450000000003,-0.0229935,0.07800799999999998,-0.3628845,0.035992500000000004,-0.178959,-0.6926645,0.0475235,0.05747799999999999,-0.6850145,0.06799350000000001
85,-0.008776500000000007,0.700831,0.0015999999999999903,-0.14012650000000001,0.49088099999999996,0.009042999999999995,-0.2642005,0.686601,-0.05673800000000001,0.1339495,0.499071,0.01802899999999999,0.2451395,0.706431,-0.036428000000000016,-0.32523050000000003,0.8704810000000001,-0.126148,0.2969595,0.8941509999999999,-0.105568,-0.06521950000000001,-0.001118000000000001,0.00010699999999999599,0.0652195,0.001118000000000001,-0.00010700000000000986,-0.1158345,-0.364029,-0.04239800000000002,0.0735695,-0.356719,0.03852699999999999,-0.17277350000000002,-0.6892290000000001,0.04013499999999999,0.044759499999999994,-0.6781189999999999,0.07786499999999999
86,-0.0108235,0.7026835,0.0068999999999999895,-0.1429665,0.4896735,0.01297799999999999,-0.2750335,0.6703635,-0.05888,0.13251650000000004,0.5001335,0.02452,0.25523650000000003,0.6961935,-0.034360000000000016,-0.3309635,0.8531735,-0.14481,0.3065165,0.8738835,-0.11048999999999999,-0.0652465,-0.0014225000000000002,-0.0004299999999999998,0.0652465,0.0014225000000000002,0.0004299999999999998,-0.1039505,-0.35852649999999997,-0.0662,0.06958650000000001,-0.35012649999999995,0.039708999999999994,-0.1611085,-0.6844365,0.025756,0.0325265,-0.6712365,0.086307
87,-0.012369500000000005,0.704084,0.012175000000000005,-0.1449145,0.487094,0.016325000000000006,-0.2864695,0.649154,-0.06200499999999999,0.1314505,0.500224,0.031166,0.2675605,0.681094,-0.033125,-0.3362495,0.826794,-0.16539500000000001,0.31633049999999996,0.848444,-0.117075,-0.0656105,-0.001851999999999996,-0.0007449999999999957,0.06561049999999999,0.0018519999999999995,0.0007449999999999957,-0.0917635,-0.35292599999999996,-0.09053499999999999,0.06119050000000001,-0.35009599999999996,0.045127,-0.1426905,-0.679396,0.005364999999999995,0.016440499999999997,-0.665636,0.09687799999999999
88,-0.012766499999999986,0.705492,0.01672,-0.1467545,0.484572,0.019589999999999996,-0.2982665,0.6230720000000001,-0.06742000000000001,0.1308235,0.500542,0.037517999999999996,0.2793335,0.660912,-0.03203,-0.3391165,0.793972,-0.18873,0.32614350000000003,0.821462,-0.12807000000000002,-0.0658435,-0.002621000000000002,-0.0011500000000000121,0.0658435,0.0026209999999999983,0.0011499999999999844,-0.0765235,-0.34654799999999997,-0.11588999999999999,0.054913500000000004,-0.35052799999999995,0.04844899999999999,-0.1183765,-0.672748,-0.020919999999999994,0.0007034999999999958,-0.658168,0.105168
89,-0.015140000000000015,0.7061179999999999,0.019559999999999966,-0.150561,0.481048,0.02216999999999998,-0.31062,0.5914579999999999,-0.07081000000000001,0.12830999999999998,0.499578,0.04349999999999998,0.28821,0.6357379999999999,-0.03186000000000003,-0.34124,0.751448,-0.21258000000000005,0.33368,0.785808,-0.13815,-0.06655,-0.002956999999999998,-0.0013400000000000079,0.06655,0.0029570000000000013,0.00133999999999998,-0.06074,-0.340432,-0.13665,0.046359999999999985,-0.352692,0.05335599999999997,-0.09297000000000001,-0.666922,-0.05176000000000003,-0.015640000000000015,-0.6512920000000001,0.11352699999999999
90,-0.013990000000000002,0.7067485,0.019079999999999986,-0.152188,0.4770485,0.021669999999999995,-0.31616,0.5518285,-0.07309000000000002,0.12767,0.4955685,0.04706999999999999,0.29434,0.6014485,-0.029060000000000002,-0.33897,0.6937985,-0.23109000000000002,0.33962,0.7421085000000001,-0.15084000000000003,-0.06683999999999998,-0.0033395000000000005,-0.0017800000000000038,0.06684000000000001,0.0033394999999999987,0.001779999999999976,-0.04768,-0.33397150000000003,-0.15392,0.03907000000000002,-0.3553115,0.059404999999999986,-0.05831999999999998,-0.6611414999999999,-0.08829000000000001,-0.029719999999999996,-0.6433015,0.12202099999999999
91,-0.012825000000000003,0.7082314999999999,0.018330000000000013,-0.1525,0.47296150000000003,0.020250000000000018,-0.317655,0.5102614999999999,-0.07486999999999999,0.125545,0.49224150000000005,0.050860000000000016,0.298335,0.5644515,-0.02527999999999997,-0.335155,0.6294514999999999,-0.24268999999999996,0.34458500000000003,0.6907314999999999,-0.16181999999999996,-0.06737499999999999,-0.003649499999999999,-0.002129999999999993,0.06737499999999999,0.0036495,0.0021300000000000208,-0.036324999999999996,-0.3287885,-0.16725999999999996,0.033324999999999994,-0.3570685,0.06633000000000001,-0.02449499999999999,-0.6566685000000001,-0.12395999999999996,-0.041965,-0.6344985000000001,0.13104500000000002
92,-0.010814999999999991,0.7098534999999999,0.01595000000000002,-0.151766,0.4682035,0.017619999999999997,-0.317445,0.4669035,-0.07527,0.12495499999999998,0.4875235,0.05434,0.29941500000000004,0.5244935,-0.019199999999999995,-0.326025,0.5608835,-0.2484,0.34595499999999996,0.6356235,-0.17134,-0.067635,-0.0038504999999999998,-0.002939999999999998,0.067635,0.0038505,0.002939999999999998,-0.028164999999999996,-0.3246565,-0.17897000000000002,0.02823500000000001,-0.3588265,0.07449000000000001,0.005544999999999994,-0.6537765000000001,-0.15871999999999997,-0.054395,-0.6276065000000001,0.14153500000000002
93,-0.007609999999999978,0.7115615,0.013579999999999981,-0.15067799999999998,0.46341150000000003,0.015269999999999978,-0.312133,0.4232715,-0.07474000000000003,0.12524000000000002,0.48146150000000004,0.05756999999999998,0.30095000000000005,0.4810015,-0.013090000000000018,-0.31671,0.49366150000000003,-0.24533,0.34587,0.5772714999999999,-0.17667,-0.06819999999999998,-0.0036525,-0.003630000000000022,0.06819999999999998,0.0036525,0.0036299999999999943,-0.02321999999999999,-0.31771849999999996,-0.18659000000000003,0.02349000000000001,-0.3606085,0.08368999999999999,0.032210000000000016,-0.6527385,-0.18769000000000002,-0.06602999999999998,-0.6206385000000001,0.153271
94,-0.005544999999999994,0.7130675000000001,0.010044999999999998,-0.151746,0.45922749999999996,0.011545,-0.307746,0.38219749999999997,-0.07172499999999998,0.123725,0.47542749999999995,0.061225,0.296875,0.4403175,-0.004854999999999998,-0.305247,0.41860749999999997,-0.23806500000000003,0.33947499999999997,0.5186475,-0.178805,-0.068605,-0.0034855,-0.004464999999999997,0.068605,0.0034855,0.004464999999999997,-0.01588500000000001,-0.3109325,-0.193085,0.016725000000000018,-0.3620225,0.09234499999999998,0.05125500000000002,-0.6528824999999999,-0.21180500000000002,-0.08122499999999999,-0.6136325,0.16633599999999998
95,-0.0024150000000000005,0.7147990000000001,0.00709499999999999,-0.15148499999999998,0.456039,0.008324999999999999,-0.299111,0.346059,-0.06532500000000002,0.12362499999999998,0.470569,0.064215,0.288955,0.40147900000000003,0.008394999999999986,-0.291631,0.344579,-0.223395,0.33122500000000005,0.45943900000000004,-0.17539500000000002,-0.06900500000000001,-0.003176,-0.005085000000000006,0.06900499999999998,0.003176000000000001,0.005085000000000006,-0.01128499999999999,-0.30728099999999997,-0.193965,0.009114999999999984,-0.362291,0.10311499999999998,0.06594499999999998,-0.651871,-0.227315,-0.09570500000000001,-0.611041,0.180945
96,0.0007600000000000384,0.7169615,0.0035299999999999776,-0.15147999999999998,0.4542615,0.00541999999999998,-0.285996,0.31442149999999996,-0.05562,0.12308000000000002,0.4663715,0.06689,0.27648000000000006,0.36682149999999997,0.024540000000000006,-0.277858,0.27883149999999995,-0.20505,0.32025000000000003,0.40096149999999997,-0.16710999999999998,-0.06898999999999997,-0.0026514999999999993,-0.006479999999999986,0.06899,0.002651500000000001,0.006479999999999986,-0.007349999999999968,-0.3045085,-0.19276,0.00017000000000000348,-0.35954850000000005,0.11352000000000001,0.07328000000000001,-0.6502785,-0.23503999999999997,-0.10947999999999997,-0.6085185000000001,0.19628299999999999
97,0.003159999999999996,0.719237,-0.0001200000000000645,-0.15047999999999997,0.453087,0.0013399999999999523,-0.271084,0.286687,-0.04144000000000003,0.12220000000000003,0.46275700000000003,0.06769999999999995,0.26228000000000007,0.336977,0.04121999999999998,-0.265914,0.220047,-0.18354000000000004,0.30709,0.346407,-0.15289000000000003,-0.06963999999999998,-0.001370999999999999,-0.006290000000000018,0.06964000000000004,0.0013710000000000007,0.006289999999999962,-0.00716,-0.302233,-0.1884,-0.007729999999999959,-0.357583,0.12191999999999997,0.07433000000000001,-0.6498630000000001,-0.23521000000000003,-0.12358,-0.6032930000000001,0.21322699999999994
98,0.007545000000000024,0.721013,-0.004234999999999989,-0.14721499999999998,0.452733,-0.003165000000000029,-0.25427099999999997,0.26482300000000003,-0.029675000000000007,0.123195,0.46015300000000003,0.067965,0.25001500000000004,0.311313,0.057404999999999984,-0.252111,0.167183,-0.16206500000000001,0.293765,0.300813,-0.14110499999999998,-0.06903500000000001,-0.00037399999999999933,-0.00736500000000001,0.06903500000000001,0.00037400000000000107,0.00736500000000001,-0.009444999999999981,-0.300747,-0.18471499999999996,-0.013944999999999985,-0.35129699999999997,0.128965,0.07411499999999999,-0.6480370000000001,-0.229375,-0.134375,-0.597317,0.229317
99,0.008769999999999945,0.7217345000000001,-0.006040000000000045,-0.14622000000000004,0.4534545,-0.005220000000000058,-0.24236300000000005,0.2531245,-0.018110000000000015,0.12271999999999994,0.4601845,0.06890999999999997,0.23824999999999996,0.2957345,0.07106999999999997,-0.24109900000000004,0.1310845,-0.14159000000000005,0.27940999999999994,0.2686445,-0.12447000000000003,-0.06907000000000002,0.0003475000000000006,-0.007530000000000037,0.06906999999999996,-0.00034749999999999885,0.007529999999999981,-0.010590000000000044,-0.3008855,-0.17980000000000007,-0.02562000000000003,-0.3515855,0.13372999999999996,0.06321999999999994,-0.6494055,-0.21309,-0.14533000000000004,-0.5965555,0.23828999999999997
100,0.010080000000000033,0.7226779999999999,-0.008135000000000003,-0.14698999999999998,0.45415799999999995,-0.0061450000000000116,-0.23459,0.246748,-0.005884999999999974,0.12123,0.46088799999999996,0.07084499999999999,0.22504000000000002,0.283648,0.085565,-0.23357,0.10420600000000001,-0.119305,0.26488999999999996,0.245298,-0.10914499999999999,-0.068,0.0010509999999999999,-0.008314999999999961,0.068,-0.0010509999999999999,0.008315000000000017,-0.013119999999999965,-0.300762,-0.17324499999999998,-0.03791,-0.351012,0.128085,0.04912,-0.6509820000000001,-0.19367500000000004,-0.14517999999999998,-0.594402,0.24225500000000003
101,0.010170000000000012,0.7229,-0.00845499999999999,-0.14783999999999997,0.45446,-0.006944999999999979,-0.2279,0.24282,0.004105000000000025,0.11886000000000008,0.46115,0.071795,0.21262000000000003,0.27624,0.09897500000000004,-0.23177999999999999,0.084918,-0.094835,0.25124,0.22974,-0.094275,-0.06699,0.001353,-0.008974999999999955,0.06699000000000005,-0.001353,0.00897500000000001,-0.012919999999999987,-0.30832,-0.16413500000000003,-0.03699999999999998,-0.35071,0.10606500000000002,0.03260000000000002,-0.65382,-0.17228500000000002,-0.14295999999999998,-0.59716,0.236575
102,0.010175000000000045,0.7238749999999999,-0.009129999999999971,-0.14903499999999997,0.455305,-0.007919999999999983,-0.22574499999999997,0.242365,0.01484000000000002,0.11533500000000008,0.45987500000000003,0.07452000000000003,0.19994500000000004,0.27403500000000003,0.11271000000000003,-0.23012499999999997,0.066828,-0.07100000000000001,0.24007500000000004,0.220475,-0.08090999999999993,-0.06501499999999999,0.002524,-0.010720000000000007,0.06501500000000004,-0.0025239999999999985,0.010720000000000007,-0.013754999999999962,-0.316025,-0.15325,-0.025814999999999977,-0.34961499999999995,0.08396000000000003,0.015305000000000013,-0.656985,-0.15115999999999996,-0.13346499999999994,-0.597215,0.23023000000000002
103,0.013500000000000012,0.723977,-0.009690000000000032,-0.14695000000000003,0.457357,-0.008240000000000025,-0.22041,0.242077,0.02257999999999999,0.11566000000000004,0.458647,0.07649,0.19239999999999996,0.272697,0.12437999999999999,-0.22935,0.06199,-0.05376000000000003,0.23356000000000005,0.21631699999999998,-0.06791999999999998,-0.06431999999999999,0.0036819999999999995,-0.01097999999999999,0.06431999999999999,-0.0036820000000000012,0.01097999999999999,-0.01965,-0.32193299999999997,-0.14127,-0.006699999999999984,-0.34513299999999997,0.06252999999999997,0.0011399999999999744,-0.6572629999999999,-0.13070000000000004,-0.11166999999999999,-0.599293,0.20706
104,0.01656000000000002,0.7243489999999999,-0.011824999999999974,-0.14647,0.459649,-0.009375000000000022,-0.21981999999999996,0.242449,0.02945500000000001,0.11506000000000005,0.458849,0.078185,0.1885,0.272339,0.131345,-0.23281999999999997,0.059725,-0.02942499999999998,0.23114,0.216689,-0.059014999999999984,-0.06259999999999999,0.004246999999999999,-0.013324999999999976,0.06259999999999999,-0.004247000000000001,0.013324999999999976,-0.03048999999999996,-0.327321,-0.130565,0.014300000000000035,-0.342091,0.03779500000000002,-0.01749999999999996,-0.657311,-0.10960500000000001,-0.07962999999999998,-0.6018110000000001,0.175805
105,0.02039499999999994,0.7248215,-0.014374999999999971,-0.146185,0.4615815,-0.010864999999999958,-0.22231500000000004,0.2429215,0.030635000000000023,0.11688500000000002,0.4597815,0.07970500000000003,0.18856499999999998,0.2728115,0.136675,-0.23723500000000003,0.0592075,-0.017605000000000037,0.232935,0.2171615,-0.05478500000000003,-0.06182500000000002,0.0047195,-0.013825000000000032,0.06182500000000002,-0.0047195000000000015,0.013825000000000032,-0.041915000000000036,-0.3324685,-0.12064499999999995,0.037124999999999964,-0.3399085,0.011944999999999983,-0.036075000000000024,-0.6573184999999999,-0.09000499999999995,-0.041535000000000044,-0.6051685,0.13966499999999998
106,0.02493500000000004,0.725405,-0.017494999999999927,-0.14605499999999993,0.463295,-0.011865000000000014,-0.22601499999999997,0.244925,0.03010500000000005,0.11936500000000005,0.46054500000000004,0.08182500000000004,0.19381500000000007,0.273575,0.13839500000000005,-0.24116499999999996,0.059971000000000003,-0.01395499999999994,0.23824500000000004,0.21792499999999998,-0.05359499999999995,-0.06026499999999996,0.005483,-0.015884999999999927,0.06026500000000001,-0.005482999999999998,0.015885000000000038,-0.05390499999999998,-0.33724499999999996,-0.11156500000000003,0.05940500000000004,-0.33797499999999997,-0.01226499999999997,-0.055074999999999985,-0.6571750000000001,-0.07122499999999998,0.0035550000000000304,-0.6099150000000001,0.09819500000000003
107,0.029665000000000052,0.7249724999999999,-0.01963999999999999,-0.146175,0.4648725,-0.011119999999999908,-0.23069499999999998,0.2489325,0.03184000000000009,0.12301499999999999,0.4617925,0.08417000000000002,0.20259499999999997,0.2745925,0.13943000000000005,-0.24722499999999997,0.0609885,-0.012440000000000007,0.24778500000000003,0.2203225,-0.05174999999999996,-0.059884999999999966,0.006500500000000001,-0.016079999999999983,0.059884999999999966,-0.006500499999999999,0.016080000000000094,-0.066685,-0.3417075,-0.1018,0.08292500000000003,-0.33662749999999997,-0.03474999999999995,-0.07455499999999998,-0.6566275,-0.05159999999999998,0.05035500000000004,-0.6143575,0.05568000000000006
108,0.03532999999999997,0.7240504999999999,-0.022159999999999958,-0.14475,0.4675305,-0.009789999999999965,-0.23421999999999998,0.25256049999999997,0.03337000000000001,0.12836999999999998,0.4636105,0.08618999999999999,0.21387999999999996,0.2773305,0.13935999999999998,-0.25411,0.0628065,-0.013580000000000036,0.26154999999999995,0.2283105,-0.05667,-0.05915999999999999,0.007307499999999998,-0.016449999999999965,0.05915999999999999,-0.0073075000000000015,0.016449999999999965,-0.08024999999999999,-0.3447095,-0.09101999999999999,0.10853000000000002,-0.3336695,-0.05667,-0.09365000000000001,-0.6550695000000001,-0.03264999999999996,0.09824,-0.6177195000000001,0.01637999999999995
109,0.043014999999999914,0.7214659999999999,-0.025285000000000002,-0.1404350000000001,0.470006,-0.00892499999999996,-0.23570500000000005,0.257976,0.03544499999999995,0.1365749999999999,0.465616,0.08582499999999998,0.23119499999999993,0.281516,0.13626499999999997,-0.2571550000000001,0.066776,-0.016185000000000005,0.277535,0.230316,-0.048555000000000015,-0.059965000000000046,0.007994,-0.015334999999999988,0.059964999999999935,-0.007994000000000001,0.015334999999999988,-0.09253500000000009,-0.347384,-0.081345,0.13429499999999994,-0.330014,-0.06869500000000006,-0.1114150000000001,-0.6532039999999999,-0.01452500000000001,0.1353749999999999,-0.6200840000000001,-0.017654999999999976
110,0.051530000000000076,0.7185315,-0.02986500000000003,-0.13652999999999993,0.47189149999999996,-0.00737500000000002,-0.2354799999999999,0.2651115,0.0383349999999999,0.14582000000000006,0.4663515,0.08449499999999999,0.24784000000000006,0.2895815,0.12818499999999994,-0.25941999999999993,0.07383050000000001,-0.019325000000000037,0.2988900000000001,0.23072150000000002,-0.04111500000000001,-0.060799999999999965,0.0081765,-0.013905000000000056,0.060800000000000076,-0.0081765,0.013904999999999945,-0.10635999999999995,-0.3459685,-0.07270500000000002,0.14771000000000012,-0.3257585,-0.06642500000000007,-0.12867999999999996,-0.6513485,0.002694999999999892,0.17115000000000002,-0.6172084999999999,-0.044015000000000026
111,0.06114000000000008,0.714209,-0.03695000000000004,-0.13017999999999996,0.474399,-0.007600000000000051,-0.23334999999999995,0.272449,0.040649999999999964,0.15592000000000006,0.467479,0.07835000000000003,0.26448000000000005,0.298219,0.11767,-0.26077999999999996,0.083443,-0.02294000000000007,0.31928,0.235959,-0.03876000000000002,-0.06247999999999998,0.008499000000000003,-0.011199999999999988,0.06247999999999998,-0.008499,0.011199999999999988,-0.11937999999999999,-0.343891,-0.06564000000000003,0.15704000000000007,-0.321501,-0.06590000000000007,-0.14628999999999998,-0.6491210000000001,0.01869999999999994,0.20261000000000007,-0.613831,-0.07213000000000003
112,0.07038,0.709571,-0.04560999999999993,-0.12342999999999998,0.47702100000000003,-0.008639999999999981,-0.23042999999999997,0.278941,0.04286000000000012,0.16532000000000002,0.468451,0.06955000000000011,0.2831100000000001,0.306781,0.1027800000000001,-0.26176,0.092964,-0.02517999999999998,0.35152000000000005,0.24130100000000002,-0.04022999999999988,-0.06301000000000001,0.008538,-0.009499999999999953,0.06301000000000001,-0.008538,0.009500000000000064,-0.13195999999999997,-0.341609,-0.05883999999999989,0.16048000000000007,-0.317669,-0.06728999999999996,-0.16542999999999997,-0.646839,0.033540000000000125,0.22316999999999998,-0.614779,-0.08550999999999997
113,0.08005000000000007,0.7045935,-0.055724999999999913,-0.11497000000000002,0.47961349999999997,-0.0110849999999999,-0.22451,0.2845835,0.04455500000000001,0.17442999999999997,0.46878349999999996,0.05793500000000007,0.29847,0.3150435,0.087345,-0.26106999999999997,0.09980549999999999,-0.02485499999999996,0.38044999999999995,0.24911350000000002,-0.04330499999999993,-0.06458999999999993,0.008612499999999999,-0.005794999999999995,0.06459000000000004,-0.008612500000000002,0.005794999999999995,-0.14039999999999997,-0.3388665,-0.05307499999999998,0.16075000000000006,-0.31562650000000003,-0.06716499999999992,-0.18166,-0.6445465,0.04550500000000002,0.23160999999999998,-0.6124864999999999,-0.09243499999999993
114,0.09015000000000006,0.6993645,-0.06735000000000002,-0.10578999999999994,0.4819645,-0.01468999999999998,-0.21722999999999992,0.2902845,0.046479999999999966,0.18039000000000005,0.4689245,0.04244000000000003,0.31296,0.3233545,0.06689999999999996,-0.25889999999999996,0.1043765,-0.023540000000000005,0.40861000000000003,0.2589445,-0.04459000000000002,-0.0655,0.0085165,-0.0029799999999999827,0.0655,-0.008516500000000003,0.0029799999999999827,-0.1489299999999999,-0.3358755,-0.047579999999999956,0.15863000000000005,-0.3130055,-0.06647000000000003,-0.19696999999999992,-0.6419855000000001,0.056479999999999975,0.2330000000000001,-0.6099255,-0.09567000000000003
115,0.10118499999999997,0.694211,-0.08020000000000005,-0.09413500000000008,0.484131,-0.01859999999999995,-0.20818500000000006,0.295751,0.04793999999999998,0.18574499999999994,0.467901,0.025580000000000047,0.32345499999999994,0.331681,0.04663000000000006,-0.2560450000000001,0.108331,-0.01880000000000004,0.4358249999999999,0.267161,-0.04639000000000004,-0.06694500000000003,0.008559,0.00043000000000004146,0.06694499999999992,-0.008558999999999997,-0.00043000000000004146,-0.1549950000000001,-0.33291899999999996,-0.041590000000000016,0.15643499999999988,-0.31123900000000004,-0.06681000000000004,-0.21083500000000005,-0.638929,0.06662000000000001,0.22816499999999995,-0.6077589999999999,-0.09614
116,0.11217499999999991,0.6893429999999999,-0.09340999999999999,-0.08362500000000006,0.486113,-0.02456999999999998,-0.19789500000000004,0.300713,0.04862,0.189975,0.466453,0.008259999999999934,0.33523499999999995,0.338693,0.02366999999999997,-0.25129500000000005,0.112361,-0.014570000000000083,0.462035,0.273253,-0.05227000000000004,-0.06799500000000003,0.008933,0.0031399999999999206,0.06799499999999992,-0.008933000000000003,-0.0031400000000000317,-0.15991500000000003,-0.329517,-0.03617999999999999,0.153845,-0.31099699999999997,-0.06854000000000005,-0.22247500000000003,-0.635407,0.07477,0.21948499999999993,-0.605477,-0.0947
117,0.12559999999999993,0.6848255,-0.11010500000000001,-0.07535999999999998,0.4882355,-0.030264999999999986,-0.18794,0.3045055,0.04921500000000001,0.19136999999999993,0.4635855,-0.013754999999999962,0.34494999999999987,0.34439549999999997,0.0012550000000000061,-0.24560000000000004,0.1183655,-0.007604999999999973,0.4855499999999999,0.2765355,-0.059494999999999965,-0.06905000000000006,0.0094705,0.005994999999999973,0.06904999999999994,-0.0094705,-0.005994999999999973,-0.16460000000000008,-0.32578450000000003,-0.031055000000000055,0.14989999999999992,-0.3108845,-0.07035500000000006,-0.23256000000000004,-0.6308845000000001,0.08174499999999996,0.20936999999999995,-0.6033545,-0.09338500000000005
118,0.13946000000000003,0.6819149999999999,-0.12760500000000008,-0.061739999999999906,0.48990500000000003,-0.04102500000000009,-0.17470999999999992,0.308415,0.048024999999999984,0.1907500000000001,0.459445,-0.03770499999999999,0.34246,0.346435,-0.027855000000000074,-0.23981999999999998,0.12307599999999999,-0.002095000000000069,0.48995999999999995,0.275115,-0.07415500000000008,-0.0696,0.010209,0.008544999999999914,0.0696,-0.010209000000000003,-0.008545000000000025,-0.16847999999999996,-0.321775,-0.026164999999999994,0.1462,-0.31071499999999996,-0.07250500000000004,-0.24020999999999998,-0.6251150000000001,0.08726499999999993,0.19920000000000004,-0.6014550000000001,-0.09242500000000009
119,0.15225500000000003,0.6785095,-0.14385499999999996,-0.04858499999999999,0.49215949999999997,-0.05151499999999998,-0.16236499999999998,0.31241949999999996,0.04669500000000004,0.18828500000000004,0.4556195,-0.06012499999999987,0.3403250000000001,0.34866949999999997,-0.05402499999999988,-0.233535,0.1277015,0.002455000000000096,0.488625,0.26968949999999997,-0.08921499999999993,-0.07009500000000002,0.011134499999999999,0.011175000000000046,0.07009500000000002,-0.011134499999999999,-0.011174999999999935,-0.171755,-0.31724050000000004,-0.02161499999999994,0.14302499999999996,-0.3099905,-0.07405499999999987,-0.24600499999999997,-0.6189405,0.09182500000000005,0.18976499999999996,-0.5992205,-0.09136499999999992
120,0.16277999999999992,0.676298,-0.15749000000000002,-0.03697000000000006,0.494458,-0.06115000000000004,-0.15087000000000006,0.31606799999999996,0.04527999999999999,0.18558999999999992,0.45139799999999997,-0.07991999999999999,0.3327899999999999,0.35059799999999997,-0.07933999999999997,-0.22559000000000007,0.131661,0.006510000000000016,0.47958999999999996,0.261888,-0.10399999999999998,-0.07044000000000006,0.011915999999999996,0.01373000000000002,0.07043999999999995,-0.011916000000000003,-0.01373000000000002,-0.17398999999999998,-0.312782,-0.017859999999999987,0.14122999999999997,-0.308632,-0.07508000000000004,-0.24969000000000002,-0.612882,0.09573999999999994,0.19047000000000003,-0.604822,-0.09108000000000005
121,0.17145500000000002,0.6752265,-0.17238500000000012,-0.02595499999999995,0.4969965,-0.07029500000000011,-0.13963499999999995,0.3193365,0.04422499999999996,0.182875,0.4476865,-0.10148500000000005,0.32308499999999996,0.3453465,-0.10104500000000005,-0.21931500000000004,0.1346565,0.010944999999999871,0.469885,0.26355649999999997,-0.1265250000000001,-0.07034499999999999,0.0127525,0.01617499999999994,0.07034499999999999,-0.0127525,-0.01617500000000005,-0.175925,-0.3083935,-0.01456500000000005,0.139575,-0.3073035,-0.07537500000000008,-0.252095,-0.6070035,0.09931499999999993,0.19196500000000005,-0.6108335,-0.08981500000000009
122,0.17793499999999995,0.6753830000000001,-0.18447000000000002,-0.016915000000000013,0.499463,-0.07780999999999993,-0.13034500000000004,0.32209299999999996,0.043420000000000014,0.17946499999999999,0.444373,-0.11922999999999995,0.31437499999999996,0.33593300000000004,-0.12068000000000001,-0.21411499999999994,0.137321,0.015920000000000045,0.461275,0.265233,-0.15118999999999994,-0.06994500000000003,0.013344000000000002,0.018220000000000014,0.06994500000000003,-0.013344000000000002,-0.018220000000000014,-0.17773499999999998,-0.303677,-0.01085999999999998,0.13786500000000002,-0.305627,-0.07462000000000002,-0.25343499999999997,-0.601057,0.10292000000000001,0.19454499999999997,-0.617047,-0.08818999999999999
123,0.18236000000000008,0.675926,-0.19459000000000004,-0.009120000000000017,0.501676,-0.08440000000000003,-0.12317,0.323916,0.04257999999999995,0.17657,0.441786,-0.13361000000000012,0.30643,0.326146,-0.13729000000000002,-0.21009999999999995,0.14090000000000003,0.021419999999999884,0.45333,0.268286,-0.17276000000000002,-0.06936999999999993,0.013846000000000004,0.020059999999999967,0.06937000000000004,-0.013845999999999997,-0.020060000000000078,-0.17942999999999998,-0.298714,-0.007030000000000092,0.13595000000000002,-0.304694,-0.07333000000000012,-0.25427,-0.595234,0.10629999999999995,0.18825999999999998,-0.614324,-0.08617000000000008
124,0.18708000000000002,0.6763724999999999,-0.20608499999999996,-0.005479999999999929,0.5033425,-0.09011499999999995,-0.11736000000000002,0.3252025,0.042265,0.17510000000000003,0.43933249999999996,-0.14878499999999995,0.2876900000000001,0.31523249999999997,-0.150405,-0.20618999999999998,0.1441015,0.027895000000000003,0.4266900000000001,0.2847225,-0.20201499999999994,-0.06872,0.014217500000000001,0.02216499999999999,0.06872,-0.014217500000000001,-0.02216499999999999,-0.18130999999999997,-0.2943075,-0.002935000000000021,0.13377000000000006,-0.3051275,-0.07145499999999994,-0.25488999999999995,-0.5899375,0.10955500000000007,0.18225999999999998,-0.6120775,-0.08383499999999999
125,0.19089,0.6772560000000001,-0.21716499999999994,-0.0018099999999999783,0.505606,-0.09474499999999986,-0.11282000000000003,0.326966,0.0417050000000001,0.17318,0.437396,-0.1629949999999999,0.26714000000000004,0.30347599999999997,-0.16132499999999994,-0.20343,0.147075,0.0344850000000001,0.3975400000000001,0.300646,-0.22867499999999985,-0.06803999999999999,0.014624999999999999,0.024005000000000054,0.06803999999999999,-0.014624999999999999,-0.024004999999999943,-0.18323999999999996,-0.29061400000000004,0.0010650000000000936,0.13151000000000002,-0.30610400000000004,-0.06947499999999984,-0.25564,-0.5849439999999999,0.11241500000000015,0.1855,-0.6188739999999999,-0.08106499999999994
126,0.18464000000000003,0.677524,-0.22411000000000003,0.0013900000000000023,0.508104,-0.09911000000000003,-0.10851,0.328714,0.04145999999999994,0.17134000000000005,0.43686400000000003,-0.17120999999999997,0.24588999999999994,0.290764,-0.17315000000000003,-0.20179999999999998,0.149525,0.03981999999999997,0.3654900000000001,0.314014,-0.25197,-0.06757999999999997,0.015077,0.025739999999999985,0.06758000000000008,-0.015077,-0.025739999999999985,-0.18438,-0.287666,0.00490999999999997,0.12982000000000005,-0.306936,-0.06752999999999998,-0.25632999999999995,-0.580456,0.11514999999999997,0.1894300000000001,-0.626226,-0.07833000000000001
127,0.17896,0.6777895,-0.22905999999999993,-0.002870000000000039,0.5108495,-0.09793999999999992,-0.10847000000000007,0.33078949999999996,0.04263000000000006,0.16962,0.4374395,-0.17577999999999994,0.22351999999999994,0.2787995,-0.18023,-0.20147000000000004,0.1518625,0.04410000000000003,0.33202,0.32737950000000005,-0.26598999999999995,-0.06722000000000006,0.015240499999999997,0.027170000000000027,0.06721999999999995,-0.015240500000000004,-0.027169999999999916,-0.18561000000000005,-0.28526050000000003,0.007879999999999998,0.12822999999999996,-0.30741050000000003,-0.06590999999999991,-0.25778,-0.5768305,0.11758000000000002,0.19394999999999996,-0.6339104999999999,-0.07589999999999997
128,0.1734150000000001,0.6779864999999999,-0.23345000000000005,-0.007304999999999895,0.5136465,-0.09678000000000009,-0.10899499999999995,0.3329065,0.04359999999999997,0.16778500000000007,0.4380265,-0.17992000000000008,0.1980050000000001,0.2672465,-0.18672,-0.20160499999999992,0.1541145,0.04741999999999991,0.297075,0.3386465,-0.27960000000000007,-0.06689499999999993,0.015136500000000004,0.02837999999999996,0.06689500000000004,-0.015136500000000004,-0.028380000000000072,-0.1872649999999999,-0.2831435,0.010169999999999901,0.12631500000000007,-0.3076935,-0.06455,-0.2595949999999999,-0.5735135,0.11968999999999996,0.19860500000000003,-0.6432935000000001,-0.07374000000000003
129,0.1654699999999999,0.6740320000000001,-0.23153499999999994,-0.012730000000000019,0.516772,-0.09486499999999998,-0.11068,0.335472,0.04545500000000002,0.16250999999999993,0.440692,-0.18388499999999997,0.17567,0.256532,-0.19111499999999992,-0.20395000000000008,0.15678,0.04933500000000002,0.25965000000000005,0.315992,-0.28451499999999985,-0.06655,0.014883,0.029405000000000014,0.06655,-0.014883,-0.029404999999999903,-0.18917000000000006,-0.280478,0.012085000000000012,0.12413999999999992,-0.307738,-0.06347499999999995,-0.26161,-0.5699479999999999,0.12144500000000003,0.20274999999999987,-0.6527879999999999,-0.07187499999999991
130,0.15825500000000003,0.671207,-0.22968,-0.017474999999999907,0.518947,-0.09301000000000004,-0.1133249999999999,0.33586699999999997,0.04732999999999998,0.15776500000000004,0.443667,-0.18459000000000003,0.1591650000000001,0.25926699999999997,-0.19408000000000003,-0.206175,0.159515,0.05118999999999996,0.23950500000000008,0.293437,-0.2826599999999999,-0.06667499999999993,0.014252999999999995,0.030329999999999968,0.06667500000000004,-0.014253000000000002,-0.030329999999999968,-0.19072499999999992,-0.277743,0.013929999999999998,0.12248500000000007,-0.30774300000000004,-0.06244000000000005,-0.26326499999999997,-0.566403,0.12287999999999999,0.19820499999999996,-0.650053,-0.07055
131,0.15156500000000006,0.666774,-0.22809000000000001,-0.021644999999999914,0.5201739999999999,-0.09142000000000006,-0.11545499999999997,0.335464,0.048919999999999964,0.154775,0.44629399999999997,-0.18644000000000005,0.1431650000000001,0.261354,-0.19642000000000004,-0.20798499999999998,0.16160199999999997,0.05277999999999994,0.22363500000000003,0.290564,-0.28696999999999995,-0.06694499999999992,0.013062999999999991,0.031399999999999983,0.06694500000000003,-0.013063000000000005,-0.031399999999999983,-0.1921949999999999,-0.275196,0.015519999999999978,0.12065500000000007,-0.30736600000000003,-0.06152000000000002,-0.264625,-0.5635760000000001,0.12378999999999996,0.19403499999999996,-0.647086,-0.06942999999999999
132,0.14417499999999994,0.654639,-0.22162000000000004,-0.028754999999999975,0.521069,-0.08865000000000012,-0.11738500000000007,0.333159,0.050369999999999915,0.15354499999999993,0.448639,-0.18832000000000004,0.13112499999999994,0.26302899999999996,-0.19867,-0.20923500000000006,0.159908,0.0529099999999999,0.21464500000000009,0.288089,-0.28962,-0.067295,0.011797999999999996,0.03247999999999995,0.067295,-0.011798000000000003,-0.032480000000000064,-0.19362500000000005,-0.272941,0.016649999999999943,0.11878500000000003,-0.30696100000000004,-0.06056000000000006,-0.265845,-0.561241,0.12425999999999993,0.18210499999999996,-0.635541,-0.06708000000000003
133,0.09522000000000008,0.6420625,-0.24494499999999997,-0.033399999999999985,0.5314725,-0.09123499999999996,-0.11841999999999997,0.3388025,0.04715500000000006,0.15189000000000008,0.4516825,-0.185145,0.11619000000000002,0.2614725,-0.18718499999999993,-0.20750999999999997,0.17127350000000002,0.05161500000000008,0.20272,0.3861225,-0.2943549999999999,-0.06745999999999996,0.013148500000000007,0.033685000000000076,0.06746000000000008,-0.013148499999999994,-0.033684999999999965,-0.19557999999999998,-0.2680875,0.017015000000000002,0.11785000000000001,-0.3075575,-0.06020499999999995,-0.26810999999999996,-0.5519775,0.12454500000000002,0.19812000000000007,-0.6676875,-0.06184499999999993
134,0.09116500000000005,0.645155,-0.24329999999999996,-0.04094500000000001,0.536055,-0.08594999999999997,-0.121425,0.338635,0.04874999999999996,0.14559500000000003,0.453785,-0.17881999999999998,0.10581499999999999,0.26692499999999997,-0.22192,-0.21075500000000003,0.170573,0.05025999999999997,0.1999249999999999,0.41027499999999995,-0.28481,-0.06767500000000004,0.012430999999999998,0.03390000000000004,0.06767500000000004,-0.012430999999999998,-0.03390000000000004,-0.19771499999999997,-0.26797499999999996,0.01688999999999996,0.116865,-0.307025,-0.05964999999999998,-0.270185,-0.548995,0.12478,0.19572499999999993,-0.667435,-0.06035999999999997
135,0.08262500000000006,0.635451,-0.235985,-0.04440499999999992,0.538851,-0.08344499999999999,-0.12224499999999994,0.33891099999999996,0.04923499999999992,0.14271500000000004,0.455241,-0.17559500000000006,0.11720500000000011,0.265861,-0.21541500000000002,-0.21152499999999996,0.1704,0.048374999999999946,0.2048350000000001,0.407261,-0.2935050000000001,-0.06800499999999998,0.012103000000000003,0.03391499999999992,0.0680050000000001,-0.012102999999999989,-0.03391500000000003,-0.1990949999999999,-0.26783899999999994,0.016614999999999935,0.11697500000000005,-0.306689,-0.059675000000000034,-0.27063499999999996,-0.546379,0.124475,0.19553500000000001,-0.667129,-0.06039500000000009
136,0.0025400000000000977,0.5679105,-0.0666500000000001,-0.07899,0.5389805,-0.06589000000000012,-0.12998999999999994,0.3261505,0.05921999999999994,0.11574000000000007,0.4701805,-0.17481000000000013,0.1501800000000001,0.2499905,-0.2100200000000001,-0.21853999999999996,0.1579815,0.04675999999999991,0.18253000000000008,0.0534825,-0.23946000000000012,-0.06755,0.011249499999999996,0.03393999999999997,0.06755,-0.011249499999999996,-0.03394000000000008,-0.2002299999999999,-0.2680395,0.016249999999999876,0.11602000000000001,-0.30593950000000003,-0.05954000000000004,-0.27093999999999996,-0.5452195000000001,0.12379999999999991,0.19403000000000015,-0.6664995,-0.06009000000000009
137,0.108815,0.5378255,-0.11909500000000006,-0.14578500000000005,0.5226155,-0.039855000000000085,-0.13836499999999996,0.30926549999999997,0.07133499999999993,0.10697499999999993,0.5367855,-0.17983500000000008,0.12094499999999997,0.34495549999999997,-0.1920050000000001,-0.23108499999999998,0.1440125,0.047984999999999944,0.142505,0.11190649999999999,-0.20057500000000006,-0.06898499999999996,0.007771500000000001,0.035374999999999934,0.06898499999999996,-0.007771500000000001,-0.035375000000000045,-0.20589500000000005,-0.2696345,0.019364999999999966,0.105885,-0.3047845,-0.05412500000000009,-0.27683500000000005,-0.5476245000000001,0.12661499999999992,0.09911499999999995,-0.5439945,-0.06024499999999999
138,0.09955499999999995,0.5334975,-0.120085,-0.15895499999999996,0.5080175,-0.026254999999999917,-0.146845,0.3015775,0.07679500000000006,0.10921499999999995,0.5958175,-0.18372499999999992,0.10943499999999995,0.3555275,-0.185805,-0.240375,0.13671149999999999,0.05408500000000005,0.20450499999999994,0.2720775,-0.328025,-0.06514500000000001,0.003951499999999997,0.035415000000000085,0.06514500000000001,-0.003951499999999997,-0.035414999999999974,-0.21138500000000005,-0.26893249999999996,0.02485500000000007,0.09419500000000003,-0.30217249999999996,-0.04744499999999996,-0.285555,-0.5545125000000001,0.132455,0.08969499999999997,-0.5506525,-0.05325499999999994
139,0.08775500000000003,0.5017255,-0.10052499999999998,-0.1477449999999999,0.5033355,-0.035764999999999936,-0.150555,0.2974155,0.07957500000000006,0.12795500000000004,0.5980755,-0.20287499999999992,0.104325,0.35249549999999996,-0.18278499999999998,-0.239255,0.1301145,0.055135000000000045,0.19937500000000008,0.2690455,-0.325005,-0.0642649999999999,0.0030384999999999995,0.0363150000000001,0.06426500000000002,-0.0030384999999999995,-0.036314999999999986,-0.21260499999999993,-0.2688245,0.026755000000000084,0.08925500000000008,-0.30169450000000003,-0.04453499999999999,-0.28825499999999993,-0.5571045,0.1342350000000001,0.08557500000000007,-0.5553345000000001,-0.05035499999999993
