sb224sc-HT22-VT27/4dt907/src/data/kinect_good_vs_bad_not_preprocessed_A13_mediapipe/G76.csv
FrameNo,nose_3d_x,nose_3d_y,nose_3d_z,left_shoulder_3d_x,left_shoulder_3d_y,left_shoulder_3d_z,left_elbow_3d_x,left_elbow_3d_y,left_elbow_3d_z,right_shoulder_3d_x,right_shoulder_3d_y,right_shoulder_3d_z,right_elbow_3d_x,right_elbow_3d_y,right_elbow_3d_z,left_wrist_3d_x,left_wrist_3d_y,left_wrist_3d_z,right_wrist_3d_x,right_wrist_3d_y,right_wrist_3d_z,left_hip_3d_x,left_hip_3d_y,left_hip_3d_z,right_hip_3d_x,right_hip_3d_y,right_hip_3d_z,left_knee_3d_x,left_knee_3d_y,left_knee_3d_z,right_knee_3d_x,right_knee_3d_y,right_knee_3d_z,left_ankle_3d_x,left_ankle_3d_y,left_ankle_3d_z,right_ankle_3d_x,right_ankle_3d_y,right_ankle_3d_z
0,0.028529500000000003,0.7355825,0.0002469999999999972,-0.1418855,0.4592325,0.016446,-0.1703255,0.2099625,0.057203000000000004,0.1655045,0.45476249999999996,0.016404,0.19358450000000002,0.2023825,0.042054,-0.1991655,0.0278665,0.01133,0.2023645,0.0022044999999999994,-0.011029999999999998,-0.06661349999999999,0.0013754999999999996,0.00028000000000000247,0.06661349999999999,-0.0013755,-0.00028000000000000247,-0.1144155,-0.3269675,-0.017342999999999997,0.11412450000000002,-0.3278875,-0.0075850000000000015,-0.11631549999999999,-0.6483875,0.017924,0.13089450000000002,-0.6487575,0.025602
1,0.027873999999999996,0.7361345,0.0009854999999999933,-0.14117500000000002,0.45903449999999996,0.017020499999999997,-0.17070500000000002,0.2100145,0.05830049999999999,0.16538499999999998,0.4546845,0.017284499999999998,0.192745,0.2023645,0.04381549999999999,-0.198635,0.027597499999999997,0.013328499999999997,0.20227499999999998,0.004754499999999999,-0.008704500000000004,-0.06661600000000001,0.0013394999999999995,-0.00019250000000000517,0.06661600000000001,-0.0013395000000000004,0.00019249999999999823,-0.11429500000000001,-0.3259555,-0.016182500000000002,0.114535,-0.32760550000000005,-0.0058495000000000005,-0.11580499999999999,-0.6481555,0.019350499999999996,0.13158499999999998,-0.6483855000000001,0.027178499999999994
2,0.0272895,0.736647,0.0016004999999999978,-0.1412285,0.459257,0.018130499999999997,-0.1711585,0.21031699999999998,0.0595275,0.1656915,0.455007,0.018722499999999996,0.1927815,0.20265699999999998,0.045252499999999994,-0.1990285,0.027601999999999998,0.016077499999999998,0.2028815,0.004997000000000001,-0.007224500000000002,-0.0666815,0.0013510000000000002,-0.0008605000000000002,0.0666815,-0.0013509999999999998,0.0008604999999999932,-0.11422850000000001,-0.325493,-0.014803500000000004,0.1150015,-0.327393,-0.004116500000000002,-0.1158785,-0.647433,0.021262499999999997,0.1321515,-0.647313,0.028916499999999998
3,0.025986,0.7367834999999999,0.0010670000000000054,-0.141409,0.4591335,0.017999000000000005,-0.171719,0.2104035,0.060085,0.165771,0.4550535,0.019153000000000003,0.19260100000000002,0.20270349999999998,0.045901000000000004,-0.202409,0.0123325,0.020154000000000005,0.203191,0.0052385,-0.006595999999999998,-0.066584,0.0013685000000000004,-0.0007319999999999965,0.066584,-0.0013685,0.0007320000000000035,-0.114279,-0.3252965,-0.014241999999999998,0.115201,-0.3271265,-0.0032239999999999977,-0.115769,-0.6478165,0.022110000000000005,0.132521,-0.6466665,0.030106000000000004
4,0.025179000000000003,0.7370990000000001,0.0013790000000000052,-0.13971899999999998,0.45879899999999996,0.016116000000000002,-0.173419,0.21104900000000001,0.060357,0.16559100000000002,0.45563899999999996,0.019498,0.19263100000000002,0.203349,0.046447,-0.203869,0.011299,0.023338,0.204631,-0.008504999999999999,-0.011165999999999995,-0.066629,0.0013279999999999998,-0.0009790000000000007,0.066629,-0.0013280000000000002,0.0009790000000000007,-0.114369,-0.324761,-0.013697,0.115421,-0.326531,-0.002023999999999998,-0.11651899999999998,-0.646431,0.023259000000000002,0.13282100000000002,-0.646131,0.030830000000000003
5,0.024632999999999995,0.738071,0.0019010000000000069,-0.13915100000000002,0.458951,0.016993000000000005,-0.17362100000000003,0.211491,0.06191400000000001,0.16484899999999997,0.455881,0.019262000000000005,0.19476899999999997,0.204211,0.047787,-0.20359100000000002,0.010673,0.026011000000000006,0.20724900000000002,-0.012916999999999998,-0.010886999999999994,-0.066578,0.0015700000000000002,-0.0008769999999999958,0.066578,-0.0015700000000000002,0.0008770000000000028,-0.113651,-0.323529,-0.012102999999999996,0.116709,-0.325139,0.00042600000000000277,-0.116941,-0.648289,0.025034000000000004,0.13431900000000002,-0.645029,0.03252100000000001
6,0.023856000000000002,0.7382165,0.0019449999999999953,-0.138992,0.4587265,0.017252999999999994,-0.174062,0.2114265,0.062418999999999995,0.16450800000000002,0.4562765,0.019844999999999995,0.195598,0.2046865,0.04801,-0.203782,0.0102495,0.026410999999999994,0.212118,-0.004832499999999999,-0.01003500000000001,-0.06646,0.0015694999999999997,-0.0003290000000000029,0.06646,-0.0015694999999999997,0.00032899999999999596,-0.113562,-0.3231135,-0.011352000000000008,0.117038,-0.3246935,0.0013809999999999933,-0.11783199999999999,-0.6499634999999999,0.02699499999999999,0.134798,-0.6447934999999999,0.03321899999999999
7,0.023338,0.7375054999999999,0.0009765000000000051,-0.139432,0.4587855,0.017952500000000003,-0.173342,0.21116549999999998,0.0615285,0.165358,0.45620550000000004,0.018654500000000004,0.198758,0.20647549999999998,0.04559150000000001,-0.199962,0.0161675,0.020636500000000002,0.215358,0.0165465,-0.008867499999999993,-0.06655900000000001,0.0015925000000000002,0.0002735000000000029,0.06655900000000001,-0.0015925000000000002,-0.00027349999999999597,-0.113842,-0.3231845,-0.009373499999999993,0.117678,-0.3235645,0.001735500000000001,-0.117372,-0.6451445,0.027447500000000003,0.135498,-0.6460545000000001,0.0327915
8,0.02269,0.7376860000000001,0.0009340000000000043,-0.13925,0.458726,0.018123000000000004,-0.17316,0.21116600000000002,0.061714000000000005,0.16589,0.45640600000000003,0.018531000000000002,0.19992,0.20763600000000001,0.045166000000000005,-0.19943,0.015855,0.020833,0.21743,0.019715,-0.009354000000000001,-0.066544,0.0016309999999999996,0.000456000000000005,0.066544,-0.0016310000000000005,-0.0004559999999999981,-0.11372,-0.322704,-0.007911000000000001,0.11818,-0.322864,0.0028789999999999996,-0.11764,-0.644044,0.028581000000000002,0.13616,-0.645904,0.033536
9,0.022093500000000002,0.737825,0.000899000000000004,-0.13915450000000001,0.45869499999999996,0.018270000000000005,-0.1727145,0.211145,0.061874,0.16634549999999998,0.456615,0.018422000000000004,0.20119550000000003,0.208765,0.044681000000000005,-0.1989845,0.014144,0.020671000000000002,0.21929549999999998,0.020871,-0.009718999999999998,-0.0665285,0.001674000000000001,0.0006020000000000053,0.0665285,-0.0016740000000000001,-0.0006019999999999984,-0.1135745,-0.32233500000000004,-0.006437999999999999,0.1186155,-0.32221500000000003,0.003937000000000003,-0.1179345,-0.642475,0.029607,0.1367355,-0.645755,0.034224000000000004
10,0.021483999999999996,0.7378294999999999,0.0008464999999999931,-0.139301,0.4586695,0.018268499999999997,-0.172531,0.2110395,0.0620135,0.166539,0.4567295,0.018372499999999996,0.20227900000000001,0.20927949999999998,0.04406349999999999,-0.198591,0.0126295,0.020159499999999993,0.220799,0.0215585,-0.010217500000000004,-0.066506,0.0016835,0.0006624999999999964,0.066506,-0.0016835,-0.0006625000000000034,-0.113471,-0.32210049999999996,-0.005082500000000004,0.118799,-0.3217005,0.004789499999999995,-0.118261,-0.6411205000000001,0.030489499999999996,0.137069,-0.6457405,0.03477449999999999
11,0.020964,0.7378095,0.0007100000000000023,-0.139609,0.4586695,0.018136,-0.172529,0.2108995,0.062098,0.166621,0.4568395,0.018219,0.203131,0.20958949999999998,0.043347,-0.197749,0.0119655,0.019441,0.221771,0.0218845,-0.011105999999999998,-0.066508,0.0017204999999999998,0.000788999999999998,0.066508,-0.0017204999999999998,-0.000788999999999998,-0.113499,-0.3219205,-0.0039000000000000007,0.118801,-0.3212305,0.005478999999999998,-0.118599,-0.6396904999999999,0.031082,0.137211,-0.6458105,0.035183
12,0.020763499999999997,0.737817,0.0004144999999999982,-0.1398655,0.45868699999999996,0.0182055,-0.17251550000000002,0.210777,0.062161499999999995,0.16704449999999998,0.45692699999999997,0.0180355,0.2037445,0.209677,0.0426815,-0.1961855,0.010994,0.0185955,0.2220045,0.021962,-0.012041500000000004,-0.0665115,0.0017419999999999996,0.0009704999999999991,0.0665115,-0.0017420000000000005,-0.0009704999999999991,-0.1135155,-0.32173300000000005,-0.0028965000000000032,0.11882449999999999,-0.320973,0.0060624999999999984,-0.1187855,-0.6384230000000001,0.0314935,0.1373345,-0.6459130000000001,0.035499499999999996
13,0.020772000000000002,0.7378439999999999,2.3999999999996247e-05,-0.14001999999999998,0.458704,0.01825,-0.17217,0.210664,0.062192,0.16786,0.45703400000000005,0.017772,0.20445000000000002,0.209754,0.041999999999999996,-0.19437,0.010264,0.017598,0.22223,0.022619,-0.012487000000000005,-0.066517,0.0017629999999999998,0.0012490000000000001,0.066517,-0.0017630000000000007,-0.0012490000000000001,-0.11353,-0.321576,-0.002250000000000002,0.11889999999999999,-0.320766,0.006516000000000001,-0.11883,-0.6370760000000001,0.031657,0.13744,-0.646036,0.035692999999999996
14,0.0206105,0.7378755,-0.0004789999999999933,-0.14026349999999999,0.45871550000000005,0.018192000000000003,-0.17176349999999999,0.2105455,0.06213300000000001,0.1687665,0.4571155,0.017417000000000005,0.2050165,0.2098355,0.04140100000000001,-0.1925435,0.0118465,0.017260000000000005,0.2222265,0.0239355,-0.012708999999999998,-0.0665285,0.0017825000000000002,0.001473000000000002,0.0665285,-0.0017824999999999994,-0.0014729999999999951,-0.1136235,-0.32149449999999996,-0.0020909999999999956,0.1190865,-0.3205645,0.007083000000000006,-0.1190035,-0.6358845000000001,0.031409000000000006,0.1373965,-0.6461045000000001,0.035783
15,0.020166,0.737878,-0.0009639999999999996,-0.14070899999999997,0.45874800000000004,0.018106,-0.17134899999999997,0.210458,0.062047000000000005,0.169441,0.45717800000000003,0.017026,0.20526100000000003,0.209928,0.040915,-0.190969,0.013266,0.016886,0.221831,0.023423,-0.013538000000000001,-0.06654,0.001803,0.0017119999999999982,0.06654,-0.001803,-0.0017119999999999982,-0.113849,-0.32140199999999997,-0.0023909999999999973,0.119071,-0.320322,0.007316000000000003,-0.119449,-0.635492,0.030997000000000004,0.13704100000000002,-0.646102,0.035762
16,0.019514000000000004,0.737858,-0.0015119999999999995,-0.14145399999999997,0.458788,0.017802,-0.17094399999999998,0.210448,0.061906,0.169846,0.457218,0.016617,0.20523600000000003,0.21001799999999998,0.04049,-0.19003399999999998,0.014166999999999999,0.016479,0.221366,0.022531000000000002,-0.014084,-0.066582,0.0018050000000000002,0.0018499999999999975,0.066582,-0.0018050000000000002,-0.0018499999999999975,-0.114164,-0.321322,-0.002821999999999998,0.118906,-0.32008200000000003,0.007542,-0.120194,-0.635362,0.030558000000000002,0.13640600000000003,-0.646022,0.035658
17,0.018898000000000005,0.737744,-0.0021344999999999975,-0.142477,0.458834,0.017458500000000002,-0.17063699999999998,0.210454,0.0618095,0.170343,0.457244,0.0163275,0.205123,0.209744,0.040093500000000004,-0.189257,0.015094,0.016210500000000003,0.22126300000000002,0.022266,-0.0144805,-0.066633,0.0018129999999999995,0.0019435000000000008,0.066633,-0.0018130000000000004,-0.0019435000000000008,-0.114497,-0.321246,-0.003222499999999996,0.11858300000000001,-0.31984599999999996,0.007791500000000003,-0.121057,-0.635286,0.0301475,0.135583,-0.645946,0.035404500000000005
18,0.0183465,0.737521,-0.0029959999999999987,-0.1433125,0.45871100000000004,0.017191,-0.1703925,0.21027099999999999,0.061658000000000004,0.1709075,0.45733100000000004,0.016155,0.2047575,0.209291,0.039678,-0.1888625,0.015550000000000001,0.015564000000000001,0.2209775,0.021834,-0.014893999999999998,-0.0666775,0.001824,0.002015999999999997,0.0666775,-0.001824,-0.002015999999999997,-0.1149025,-0.321169,-0.0036390000000000033,0.1181275,-0.319559,0.008004,-0.1219325,-0.635189,0.029418,0.1345775,-0.645819,0.035143
19,0.0179125,0.7372645000000001,-0.004123499999999995,-0.1441135,0.4585245,0.0168925,-0.1703935,0.21000449999999998,0.061422500000000005,0.1708065,0.4574545,0.015912500000000003,0.2042065,0.2090145,0.0394675,-0.18869350000000001,0.017355500000000003,0.015985500000000003,0.2203565,0.0221335,-0.014774499999999996,-0.0667495,0.0018455000000000008,0.0020745,0.0667495,-0.0018455,-0.0020745,-0.1155235,-0.3211555,-0.004367499999999996,0.1174765,-0.3192955,0.008209500000000002,-0.1230435,-0.6352055,0.0286415,0.1332565,-0.6457255,0.0348375
20,0.017592500000000007,0.7369235,-0.005353000000000004,-0.1450175,0.4583335,0.01666,-0.17053749999999998,0.2097735,0.061186000000000004,0.17038250000000002,0.45754350000000005,0.015715,0.2037725,0.2087835,0.039495999999999996,-0.1888175,0.0173655,0.016365,0.2207725,0.0218125,-0.014426000000000001,-0.0668575,0.0018684999999999995,0.0020789999999999975,0.0668575,-0.0018684999999999995,-0.0020789999999999975,-0.11610749999999999,-0.32111649999999997,-0.005381999999999998,0.1168825,-0.31904649999999996,0.008525999999999999,-0.12412749999999999,-0.6354365000000001,0.027836,0.1318725,-0.6454965,0.034608
21,0.017373499999999997,0.736528,-0.006755499999999998,-0.1457435,0.458148,0.0164755,-0.1707835,0.209548,0.0609845,0.1695965,0.457638,0.015516499999999999,0.2035865,0.208728,0.0396785,-0.1894235,0.01739,0.0165045,0.2210865,0.021837,-0.013901500000000004,-0.06697349999999999,0.0018929999999999997,0.0021095000000000003,0.06697349999999999,-0.0018929999999999997,-0.0021095000000000003,-0.1167435,-0.321092,-0.006676500000000002,0.1163265,-0.318802,0.0089365,-0.1250935,-0.636432,0.0269165,0.1304165,-0.6453420000000001,0.0343915
22,0.017308,0.7360715,-0.008321999999999996,-0.146197,0.4578815,0.016193000000000003,-0.171047,0.2092915,0.060763,0.16875300000000001,0.4576615,0.015336000000000002,0.203573,0.20875149999999998,0.039948000000000004,-0.189877,0.0174135,0.016391000000000003,0.22157300000000002,0.021860499999999998,-0.013158999999999997,-0.06712399999999999,0.0019164999999999998,0.002142999999999999,0.06712399999999999,-0.0019164999999999998,-0.002142999999999999,-0.117347,-0.3210985,-0.00834,0.11582300000000001,-0.31854849999999996,0.009371,-0.126077,-0.6377785,0.026014000000000002,0.128973,-0.6451785,0.034168000000000004
23,0.0174995,0.7356185,-0.0099775,-0.14609550000000002,0.4576185,0.016026500000000003,-0.1710355,0.2090585,0.0606235,0.1680945,0.4576685,0.0152365,0.2037945,0.20875849999999999,0.0403955,-0.1901855,0.0175775,0.016356500000000003,0.2222045,0.021867499999999998,-0.0122315,-0.0672595,0.0019395000000000003,0.002193500000000001,0.0672595,-0.0019395000000000003,-0.002193500000000001,-0.11769550000000001,-0.32109150000000003,-0.010256500000000002,0.11533449999999999,-0.3183815,0.009603500000000001,-0.12688549999999998,-0.6391115,0.0251935,0.1277245,-0.6450315,0.0340005
24,0.017783,0.7351970000000001,-0.011626000000000004,-0.145674,0.457347,0.015923,-0.17091399999999998,0.208797,0.060518,0.167656,0.457677,0.015179999999999999,0.204216,0.208747,0.040922,-0.190214,0.019926,0.016197,0.222896,0.023375,-0.010604000000000002,-0.067379,0.0019510000000000005,0.0022199999999999998,0.067379,-0.0019509999999999996,-0.0022199999999999998,-0.11794400000000001,-0.321093,-0.012352000000000002,0.114886,-0.31827300000000003,0.009807999999999997,-0.127644,-0.640443,0.024374999999999997,0.12662600000000002,-0.6448929999999999,0.03381
25,0.018233500000000003,0.7347805,-0.013175,-0.1448735,0.4570805,0.015904,-0.1707135,0.2085505,0.060476,0.1675865,0.4577005,0.015231000000000001,0.2048265,0.2092505,0.041521,-0.1901535,0.0199095,0.016094,0.2235665,0.0250715,-0.009291,-0.0674675,0.0019674999999999996,0.002266999999999998,0.0674675,-0.0019675000000000005,-0.002266999999999998,-0.1181035,-0.3211195,-0.014525999999999997,0.1145565,-0.31817949999999995,0.010014000000000002,-0.1282635,-0.6417695,0.023611,0.12569650000000002,-0.6447795000000001,0.033688
26,0.018778000000000003,0.7344704999999999,-0.014653,-0.143923,0.45685050000000005,0.015899999999999997,-0.170363,0.2083505,0.060391,0.16739700000000002,0.45773050000000004,0.015253999999999997,0.205567,0.21020049999999998,0.042085,-0.190153,0.0221775,0.016283,0.22390700000000002,0.0269115,-0.007900000000000004,-0.06754299999999999,0.0019674999999999996,0.0023110000000000006,0.06754299999999999,-0.0019675000000000005,-0.0023110000000000006,-0.11826300000000001,-0.32113949999999997,-0.016708,0.114347,-0.3181095,0.010234999999999998,-0.12884299999999999,-0.6429695000000001,0.022973999999999998,0.12485700000000002,-0.6446495,0.033572
27,0.019392000000000003,0.734239,-0.0159795,-0.143159,0.456779,0.0158735,-0.169919,0.208319,0.060270500000000005,0.167281,0.457739,0.015265500000000001,0.206521,0.211489,0.0426545,-0.190199,0.023115,0.0164415,0.22451100000000002,0.028552,-0.0065285,-0.06761,0.0019909999999999997,0.002405499999999998,0.06761,-0.0019909999999999997,-0.002405499999999998,-0.11842899999999999,-0.321191,-0.018673500000000003,0.114231,-0.31810099999999997,0.010506499999999998,-0.129459,-0.643841,0.022621500000000003,0.12412100000000001,-0.644471,0.0334095
28,0.020056999999999995,0.7340435,-0.017139999999999996,-0.142401,0.4566735,0.015774000000000003,-0.16944099999999998,0.2082135,0.060186,0.167279,0.4577635,0.015301000000000002,0.207649,0.2130135,0.043253,-0.190221,0.0237135,0.016858000000000005,0.22534900000000002,0.0298485,-0.005041999999999998,-0.067648,0.0020295,0.0025190000000000004,0.067648,-0.0020295,-0.0025189999999999935,-0.118491,-0.3212565,-0.020354999999999998,0.114239,-0.3180865,0.010794000000000005,-0.129941,-0.6447365,0.022347000000000006,0.12357899999999998,-0.6443065,0.03324800000000001
29,0.0207785,0.733896,-0.0181905,-0.1414885,0.456576,0.015683500000000003,-0.1690385,0.208136,0.0601295,0.1673615,0.457806,0.015347500000000004,0.2086915,0.214526,0.0437955,-0.1902585,0.022988,0.0166845,0.22530150000000002,0.031111,-0.003995499999999999,-0.0676695,0.002079,0.002621499999999999,0.0676695,-0.002079000000000001,-0.002621499999999999,-0.1185985,-0.321224,-0.0215515,0.11428150000000001,-0.318064,0.011073500000000003,-0.1303785,-0.645554,0.0221895,0.12316150000000001,-0.644184,0.0330465
30,0.021540999999999998,0.7336955,-0.019095000000000008,-0.14113599999999998,0.4564955,0.015479999999999994,-0.16866599999999998,0.2080755,0.060043,0.16764400000000002,0.4577855,0.015379999999999994,0.209344,0.2156555,0.044229,-0.190606,0.0223605,0.016527999999999994,0.225474,0.0320535,-0.0029000000000000067,-0.067665,0.0021135,0.002717999999999998,0.067665,-0.0021135,-0.002718000000000005,-0.118706,-0.3211945,-0.022153000000000006,0.114424,-0.3181045,0.011287999999999996,-0.130806,-0.6462845,0.022043999999999994,0.122914,-0.6441245000000001,0.032876999999999997
31,0.022303999999999994,0.7335225,-0.019896999999999998,-0.14117900000000003,0.4564825,0.015205000000000003,-0.168419,0.2080825,0.059946,0.16788099999999997,0.4577025,0.015387000000000005,0.20960099999999998,0.2164625,0.044594,-0.19084900000000002,0.0224385,0.016342000000000002,0.225211,0.0326745,-0.001908,-0.067653,0.0021354999999999994,0.0027860000000000038,0.067653,-0.0021355000000000002,-0.002785999999999997,-0.118949,-0.3211575,-0.022338999999999998,0.11462100000000001,-0.31814749999999997,0.011426000000000002,-0.131049,-0.6464975,0.021858000000000002,0.122851,-0.6440675,0.032694
32,0.022879999999999998,0.7333475,-0.020651499999999996,-0.14123600000000003,0.4564575,0.0148715,-0.16847600000000001,0.2080975,0.0597825,0.16794399999999998,0.45763750000000003,0.015411500000000002,0.209534,0.2169075,0.0449005,-0.19090600000000002,0.0221365,0.0161035,0.225134,0.0329045,-0.0009964999999999974,-0.067633,0.0021485000000000002,0.0028265000000000026,0.067633,-0.0021484999999999994,-0.0028264999999999957,-0.119006,-0.32109249999999995,-0.0225775,0.11484399999999999,-0.31817249999999997,0.011446500000000002,-0.131106,-0.6465725,0.0216195,0.12297399999999999,-0.6439825,0.0324585
33,0.023204,0.7331555,-0.021490500000000003,-0.14122800000000002,0.4565855,0.014365499999999996,-0.168468,0.2082155,0.059490499999999995,0.167952,0.4575555,0.015235499999999996,0.20952199999999999,0.2170455,0.045260499999999995,-0.190898,0.0220435,0.016005499999999995,0.225122,0.032822500000000004,-0.0002535000000000037,-0.067632,0.0021525,0.0027834999999999943,0.067632,-0.0021525,-0.0027835000000000013,-0.118998,-0.3209845,-0.022998500000000005,0.11505199999999999,-0.3181845,0.011280499999999995,-0.131118,-0.6466545,0.021476499999999996,0.123172,-0.6440045,0.032041499999999994
34,0.023226999999999998,0.7329525,-0.022672499999999998,-0.141215,0.4568125,0.013587500000000002,-0.168465,0.2084725,0.0590605,0.167955,0.4574625,0.0150175,0.20952500000000002,0.2171025,0.0454065,-0.191485,0.021152499999999998,0.0161295,0.22509500000000002,0.0327495,0.0004395000000000024,-0.067631,0.0021475,0.0027385000000000013,0.067631,-0.0021475,-0.002738499999999998,-0.119005,-0.3208275,-0.023377500000000002,0.11518500000000001,-0.3181875,0.0108865,-0.131315,-0.6467175,0.0211525,0.12337500000000001,-0.6440075,0.031413500000000004
35,0.0232555,0.7326535000000001,-0.024212499999999998,-0.14136949999999998,0.4570135,0.012686500000000003,-0.16845949999999998,0.20878349999999998,0.0586435,0.1679605,0.4573535,0.014727500000000001,0.2094105,0.2171235,0.045546500000000004,-0.19243949999999999,0.0201015,0.016163500000000004,0.2246805,0.0326805,0.0012025000000000022,-0.06762950000000001,0.0021505000000000005,0.002647500000000004,0.06762950000000001,-0.0021504999999999996,-0.002647499999999997,-0.11933949999999999,-0.3206465,-0.023108499999999997,0.1151905,-0.3181265,0.010415500000000001,-0.1316995,-0.6467665,0.020772500000000003,0.12358050000000001,-0.6439564999999999,0.030693500000000002
36,0.023439000000000005,0.7322715,-0.026062999999999996,-0.14158300000000001,0.4571815,0.011640000000000001,-0.168733,0.2091415,0.058325,0.167987,0.4571815,0.014314,0.208917,0.2170515,0.04565,-0.193573,0.0188435,0.016333,0.223067,0.0307015,0.0017780000000000018,-0.067594,0.0021575000000000006,0.002378999999999999,0.067594,-0.0021574999999999997,-0.002378999999999999,-0.11967299999999999,-0.32033849999999997,-0.022539999999999998,0.115357,-0.3180185,0.009776,-0.132043,-0.6467085,0.020578,0.12388700000000001,-0.6439685,0.029843
37,0.023712500000000004,0.7318979999999999,-0.028187499999999997,-0.1420155,0.457388,0.0105245,-0.1691655,0.209598,0.0579915,0.1678145,0.457048,0.0136645,0.2081445,0.21698800000000001,0.0455495,-0.19490549999999998,0.017483,0.0165395,0.2214945,0.028595,0.0020114999999999994,-0.06757350000000001,0.00215,0.002135500000000002,0.06757350000000001,-0.002150000000000001,-0.0021354999999999985,-0.1201055,-0.319872,-0.0214795,0.11562450000000002,-0.317822,0.009059500000000002,-0.1323755,-0.6464920000000001,0.0203615,0.12428450000000002,-0.643992,0.0289005
38,0.023901,0.731514,-0.030586000000000002,-0.142461,0.457594,0.009194999999999998,-0.169721,0.210054,0.057562999999999996,0.167679,0.456874,0.012680999999999998,0.207139,0.21676399999999998,0.045244999999999994,-0.196281,0.016211,0.016443999999999997,0.219849,0.026187,0.0020339999999999976,-0.067517,0.0021339999999999996,0.0018039999999999966,0.067517,-0.0021339999999999996,-0.001804,-0.12052099999999999,-0.319386,-0.020186000000000003,0.11604899999999999,-0.317606,0.008187999999999997,-0.132591,-0.6462859999999999,0.019969999999999995,0.124829,-0.6440359999999999,0.027800999999999996
39,0.0238575,0.731131,-0.033287,-0.1429375,0.457791,0.007692000000000001,-0.1704775,0.210561,0.057062,0.1674125,0.456751,0.011546,0.2058325,0.216331,0.044904,-0.19760750000000002,0.016148,0.016292,0.21816249999999998,0.023559999999999998,0.0018349999999999998,-0.0674825,0.0021089999999999998,0.0014790000000000011,0.0674825,-0.0021089999999999998,-0.0014790000000000011,-0.1209075,-0.318799,-0.018915,0.11644250000000002,-0.317369,0.007287999999999999,-0.1327375,-0.645989,0.019401,0.12552249999999998,-0.644089,0.026648
40,0.023536500000000002,0.7306775,-0.036565,-0.1435245,0.4579875,0.005968999999999999,-0.1713145,0.2111275,0.056493,0.1670055,0.45666749999999995,0.010255,0.20434549999999999,0.2156475,0.044448,-0.1988445,0.0173665,0.015816,0.21644549999999999,0.0206725,0.0014079999999999995,-0.0674595,0.0020805,0.0011409999999999997,0.0674595,-0.002080499999999999,-0.0011409999999999997,-0.1212645,-0.3180625,-0.017609999999999997,0.1169155,-0.3171525,0.0063539999999999985,-0.1330145,-0.6448325,0.018723,0.12632549999999998,-0.6441125,0.025421
41,0.023044500000000002,0.7301225,-0.040366,-0.1441825,0.4582525,0.0039879999999999985,-0.1720625,0.2117925,0.055735,0.1665775,0.4565925,0.008534999999999997,0.2029175,0.2148525,0.043739,-0.2002225,0.0173495,0.015345,0.2147275,0.017565499999999998,0.000677999999999998,-0.0674915,0.0020235,0.000954,0.0674915,-0.0020234999999999993,-0.000954,-0.1214925,-0.3173975,-0.016449000000000002,0.1174675,-0.3169475,0.0052899999999999996,-0.1331425,-0.6435075,0.018091,0.1273075,-0.6441175,0.024012
42,0.022238,0.7294695,-0.044546,-0.14444099999999999,0.4583895,0.0020300000000000006,-0.172851,0.2123395,0.054942,0.166019,0.4564695,0.0068600000000000015,0.201479,0.2142495,0.042802,-0.20150099999999999,0.0160065,0.015076,0.212869,0.014533500000000001,-0.00014799999999999883,-0.067521,0.0019805000000000005,0.000730999999999999,0.067521,-0.0019804999999999996,-0.000730999999999999,-0.12171100000000001,-0.3168705,-0.015357999999999997,0.117919,-0.3167805,0.004347,-0.133191,-0.6419805,0.017355000000000002,0.128269,-0.6441205,0.02264
43,0.0212365,0.7287779999999999,-0.048678,-0.1445735,0.45847800000000005,0.00014799999999999883,-0.1735935,0.212818,0.054204,0.1654265,0.45636800000000005,0.005386999999999999,0.2001465,0.213748,0.041979,-0.2030135,0.016885999999999998,0.015002999999999999,0.21133649999999998,0.011566,-0.0009879999999999993,-0.0675195,0.0019390000000000006,0.0004580000000000001,0.0675195,-0.0019389999999999998,-0.0004580000000000001,-0.1218235,-0.316362,-0.014266000000000001,0.1183465,-0.316652,0.003581000000000001,-0.1332335,-0.640572,0.016752,0.1292065,-0.644142,0.021445
44,0.020160000000000004,0.728059,-0.05285550000000001,-0.144835,0.458509,-0.0017395000000000015,-0.17416500000000001,0.21323899999999998,0.0533635,0.164905,0.456299,0.003898499999999999,0.199135,0.213519,0.041023500000000004,-0.204245,0.018451000000000002,0.0149465,0.210135,0.00884,-0.0022255000000000018,-0.067529,0.0018999999999999998,0.00023350000000000107,0.067529,-0.0019000000000000006,-0.00023350000000000107,-0.12182499999999999,-0.315961,-0.013409499999999998,0.118785,-0.31655099999999997,0.0028084999999999985,-0.133075,-0.639281,0.0161335,0.130155,-0.643961,0.0204665
45,0.019142499999999996,0.7273185,-0.0571965,-0.1451305,0.4585285,-0.003616499999999998,-0.1745505,0.2136185,0.052323499999999995,0.1642895,0.4563185,0.0020495000000000027,0.1983895,0.2133285,0.039900500000000005,-0.2052205,0.0197595,0.014689500000000001,0.2102295,0.0081845,-0.003432499999999998,-0.0675705,0.0018155000000000003,0.0001805000000000001,0.0675705,-0.0018154999999999994,-0.0001805000000000001,-0.1217205,-0.31563149999999995,-0.012597500000000001,0.11927950000000001,-0.3163915,0.0020585000000000013,-0.1327405,-0.6379414999999999,0.0153015,0.1311895,-0.6437315,0.0195415
46,0.018121,0.7264944999999999,-0.0615795,-0.145458,0.4585545,-0.005468500000000001,-0.17483800000000002,0.2138645,0.0511865,0.163682,0.4563545,-5.9500000000000525e-05,0.197852,0.2132345,0.0387285,-0.206128,0.021069499999999998,0.0143795,0.210282,0.0075955,-0.004524500000000001,-0.06761,0.0017464999999999998,0.00011749999999999955,0.06761,-0.0017464999999999998,-0.00011749999999999955,-0.12146799999999999,-0.3153755,-0.012042500000000001,0.11973200000000002,-0.3162655,0.0013624999999999991,-0.13228800000000002,-0.6367055,0.0145775,0.132152,-0.6434955000000001,0.0187015
47,0.016889499999999998,0.7255134999999999,-0.0661005,-0.1458655,0.4585935,-0.0072265,-0.1752555,0.2141035,0.050138499999999996,0.1628945,0.45641349999999997,-0.002239500000000002,0.1973945,0.2132935,0.0376045,-0.20692549999999998,0.0226595,0.013873499999999999,0.2104845,0.0076545,-0.005449500000000003,-0.06769649999999999,0.0016804999999999997,0.00016549999999999898,0.06769649999999999,-0.0016804999999999997,-0.00016550000000000245,-0.1212055,-0.3151465,-0.0115625,0.1200745,-0.3160965,0.000786499999999999,-0.1318655,-0.6359765000000001,0.0140405,0.1330145,-0.6432265,0.0180115
48,0.015370499999999999,0.723781,-0.071389,-0.1463955,0.458671,-0.008992,-0.1755955,0.214261,0.049171000000000006,0.1619145,0.456501,-0.00476,0.1971645,0.21338100000000002,0.036582,-0.2076355,0.024487,0.013368000000000001,0.2106945,0.007732,-0.0062889999999999995,-0.0677845,0.0016020000000000001,0.00022400000000000024,0.0677845,-0.0016020000000000001,-0.0002239999999999985,-0.1209055,-0.314989,-0.011227999999999998,0.1203545,-0.315929,0.00020400000000000106,-0.1313955,-0.635269,0.013556,0.1338445,-0.642909,0.017476000000000002
49,0.013686000000000004,0.72122,-0.0769375,-0.146981,0.45869,-0.010571500000000001,-0.175851,0.21444,0.0483195,0.161019,0.45662,-0.007234500000000001,0.197019,0.21351,0.0356975,-0.208461,0.026521000000000003,0.0130245,0.210929,0.007831000000000001,-0.0070005,-0.06787,0.001503,0.00032849999999999893,0.06787,-0.001503,-0.00032850000000000067,-0.120601,-0.31488,-0.010998500000000001,0.120549,-0.31575,-0.0003135000000000013,-0.130781,-0.63512,0.0132305,0.134569,-0.64257,0.017052499999999998
50,0.011781000000000002,0.7179035,-0.082728,-0.14763,0.4587035,-0.011871999999999997,-0.17622000000000002,0.2146235,0.04775,0.16005,0.4567535,-0.009391999999999998,0.19677999999999998,0.2136235,0.034995,-0.20918,0.0287065,0.012541000000000002,0.21123999999999998,0.0099665,-0.007039999999999998,-0.06789999999999999,0.0013895000000000001,0.0003130000000000008,0.06789999999999999,-0.0013895000000000001,-0.00031299999999999904,-0.12040999999999999,-0.3147665,-0.010807999999999998,0.12056,-0.3155865,-0.0006619999999999977,-0.13034,-0.6349665,0.012939000000000003,0.13508,-0.6422265,0.016853
51,0.009754000000000002,0.713178,-0.088975,-0.148346,0.45872799999999997,-0.013035999999999999,-0.176556,0.214848,0.047302000000000004,0.159064,0.45689799999999997,-0.011494999999999998,0.196714,0.21385800000000002,0.034238000000000005,-0.20971599999999999,0.030895,0.012045,0.211644,0.01219,-0.007008999999999998,-0.067954,0.0012459999999999997,0.00042600000000000103,0.067954,-0.0012459999999999997,-0.0004259999999999993,-0.12024599999999999,-0.314622,-0.010668999999999998,0.120544,-0.31548200000000004,-0.0009679999999999984,-0.129956,-0.634822,0.012757000000000001,0.135534,-0.641852,0.016748
52,0.007433500000000004,0.70736,-0.0961055,-0.1490955,0.4588,-0.0140765,-0.1769555,0.21508,0.0468865,0.15798450000000003,0.45702,-0.013745499999999999,0.19678450000000003,0.21414999999999998,0.0334665,-0.2098955,0.031591,0.0116175,0.2120245,0.014532999999999999,-0.006909500000000001,-0.0680755,0.0010829999999999998,0.0006554999999999998,0.0680755,-0.0010830000000000006,-0.0006554999999999998,-0.1201655,-0.31451,-0.010705500000000001,0.12044450000000001,-0.31535,-0.0012875000000000004,-0.12960549999999998,-0.6350699999999999,0.012583500000000001,0.13584449999999998,-0.64147,0.0166205
53,0.004968000000000001,0.7003254999999999,-0.103684,-0.149928,0.4588055,-0.015041,-0.177458,0.2153855,0.04649,0.156892,0.4571755,-0.015877000000000002,0.196852,0.2145955,0.032687,-0.209928,0.0318895,0.011223,0.212252,0.0171605,-0.006719000000000001,-0.068208,0.0009404999999999995,0.0008940000000000007,0.068208,-0.0009404999999999995,-0.0008940000000000007,-0.120158,-0.3144045,-0.010798,0.120352,-0.3152345,-0.0015589999999999996,-0.129408,-0.6350745000000001,0.012466,0.13603200000000001,-0.6412745000000001,0.016302
54,0.0023640000000000006,0.6921055,-0.111647,-0.15087399999999998,0.4588255,-0.016051,-0.17807399999999998,0.2157155,0.046115,0.15582600000000002,0.45734549999999996,-0.01791,0.19689600000000002,0.2151955,0.031879000000000005,-0.210084,0.0319015,0.010383,0.21227600000000002,0.0200195,-0.006478000000000001,-0.068239,0.0008145000000000001,0.0011079999999999996,0.068239,-0.0008145000000000001,-0.0011079999999999996,-0.12027399999999999,-0.3142145,-0.010914,0.120166,-0.3150045,-0.0018250000000000002,-0.129414,-0.6349644999999999,0.012374999999999999,0.13600600000000002,-0.6410245,0.016025
55,-6.549999999999785e-05,0.683218,-0.12011200000000001,-0.1515455,0.45889800000000003,-0.017277,-0.17864549999999998,0.216128,0.045687,0.1550045,0.45757800000000004,-0.020308,0.1969145,0.216218,0.030939,-0.2100755,0.032274,0.009948,0.2124245,0.02336,-0.006341999999999999,-0.0682425,0.0006830000000000004,0.001287,0.0682425,-0.0006829999999999996,-0.001287,-0.12031549999999999,-0.31389199999999995,-0.011146000000000001,0.1201145,-0.31462199999999996,-0.0021410000000000005,-0.1294355,-0.6354219999999999,0.012199,0.1359845,-0.640652,0.015656
56,-0.0010630000000000012,0.6728425,-0.13003299999999998,-0.152005,0.4590725,-0.018669,-0.178645,0.2166225,0.045219999999999996,0.155055,0.4577425,-0.023149000000000003,0.196925,0.2174825,0.02989,-0.210065,0.032467499999999996,0.009387,0.212635,0.0270215,-0.006295000000000002,-0.068246,0.0005514999999999999,0.0014669999999999996,0.068246,-0.0005514999999999999,-0.0014670000000000013,-0.120305,-0.3135075,-0.011594,0.120115,-0.3141575,-0.0024750000000000015,-0.129495,-0.6362675,0.011836,0.135995,-0.6402774999999999,0.015175999999999999
57,-0.0016944999999999998,0.662226,-0.14015049999999998,-0.1522755,0.459316,-0.0205165,-0.1787755,0.217276,0.0447655,0.1549745,0.457916,-0.026104500000000003,0.1968945,0.218936,0.0286895,-0.21020550000000002,0.033031000000000005,0.009108499999999999,0.2130345,0.030779,-0.006224500000000001,-0.0683915,0.0004310000000000008,0.0015665000000000002,0.0683915,-0.0004309999999999991,-0.0015665000000000002,-0.1204355,-0.313024,-0.0122465,0.1199845,-0.313614,-0.0029165000000000007,-0.1296255,-0.636474,0.0111785,0.1358645,-0.6398140000000001,0.0145195
58,-0.001824000000000001,0.652069,-0.15006550000000002,-0.15253499999999998,0.459569,-0.0233765,-0.179085,0.218229,0.0441205,0.154725,0.457899,-0.0296615,0.197065,0.220559,0.027311500000000002,-0.210165,0.033265,0.008257500000000001,0.21359499999999998,0.034719,-0.005988499999999999,-0.068604,0.00033299999999999996,0.0016185000000000001,0.068604,-0.00033299999999999996,-0.0016185000000000001,-0.120735,-0.31254099999999996,-0.0132015,0.119675,-0.312951,-0.0034944999999999993,-0.129925,-0.636691,0.0102535,0.135565,-0.639261,0.0135645
59,-0.002152000000000005,0.6388024999999999,-0.16280450000000002,-0.15305,0.4600125,-0.0265775,-0.17963,0.2195125,0.0434185,0.15433,0.45754249999999996,-0.03489249999999999,0.19797,0.2221425,0.0257135,-0.20957,0.0335945,0.0084735,0.21455,0.0355725,-0.0052885,-0.068815,0.0002644999999999991,0.0017195000000000005,0.068815,-0.00026450000000000085,-0.0017194999999999988,-0.12117,-0.3119675,-0.0145085,0.11928,-0.3121475,-0.0042474999999999995,-0.13047,-0.6363475000000001,0.008944500000000001,0.13502,-0.6385275,0.0122555
60,-0.0027595,0.6271425,-0.17476049999999999,-0.1538165,0.46057250000000005,-0.0299435,-0.1796265,0.2210125,0.042758500000000005,0.1540435,0.4572625,-0.040301500000000004,0.19927350000000002,0.2239625,0.0238805,-0.2092465,0.0342615,0.0093455,0.2157735,0.0365625,-0.0043465,-0.06902749999999999,0.00024350000000000066,0.0018424999999999995,0.06902749999999999,-0.00024350000000000066,-0.0018425000000000004,-0.12169650000000001,-0.3114875,-0.0159915,0.11903349999999999,-0.3113375,-0.004930500000000001,-0.13126649999999998,-0.6357875,0.0074585,0.13424350000000002,-0.6376875,0.0107645
61,-0.0035120000000000004,0.6163495,-0.18602950000000001,-0.153252,0.4604095,-0.035228499999999996,-0.17949199999999998,0.2228995,0.0420255,0.154538,0.4567595,-0.0470535,0.20079799999999998,0.2259595,0.0218455,-0.208772,0.0300615,0.0105095,0.217038,0.0377395,-0.0033455000000000004,-0.06927,0.00028950000000000156,0.0019464999999999999,0.06927,-0.0002894999999999998,-0.0019465000000000003,-0.122352,-0.3108105,-0.0177395,0.118708,-0.31040049999999997,-0.005595500000000001,-0.132332,-0.6346105,0.0058405,0.13312800000000002,-0.6367005,0.0091395
62,-0.004086000000000001,0.606751,-0.19708350000000002,-0.15261,0.46037100000000003,-0.0408495,-0.17879,0.225231,0.0415915,0.15507,0.456281,-0.0544015,0.20268,0.228021,0.0195935,-0.20787,0.026846000000000002,0.0129675,0.21849000000000002,0.038599,-0.0025074999999999997,-0.069518,0.0003770000000000006,0.0022145,0.069518,-0.00037699999999999886,-0.0022145,-0.12326999999999999,-0.310009,-0.019831500000000002,0.11810999999999999,-0.309339,-0.006328499999999999,-0.13373,-0.633149,0.0040625,0.13155,-0.635479,0.0073855
63,-0.004145999999999999,0.5982780000000001,-0.207598,-0.151427,0.460378,-0.046397,-0.177247,0.227818,0.041422,0.15557300000000002,0.455938,-0.061500000000000006,0.205053,0.230158,0.017079,-0.206667,0.022856,0.015747,0.220243,0.039821,-0.001781,-0.069804,0.0005219999999999999,0.002522,0.069804,-0.0005219999999999999,-0.002522,-0.12411699999999999,-0.309152,-0.022128000000000002,0.117583,-0.308222,-0.007048,-0.135187,-0.631822,0.002126,0.129833,-0.6342019999999999,0.0056500000000000005
64,-0.0032375000000000025,0.589776,-0.21799000000000002,-0.1495765,0.460316,-0.051914,-0.1751065,0.23056600000000002,0.041671,0.15703350000000002,0.455116,-0.06926600000000001,0.20815350000000002,0.23203600000000002,0.014139,-0.2045565,0.019077,0.019172,0.2222435,0.041155,-0.0013180000000000002,-0.0700445,0.0007230000000000014,0.002931,0.0700445,-0.000722999999999998,-0.002931,-0.12471650000000001,-0.308394,-0.024730000000000002,0.1170935,-0.307114,-0.007809999999999999,-0.1366065,-0.630864,-0.0001710000000000001,0.12805350000000001,-0.632924,0.0039310000000000005
65,-0.0017144999999999955,0.5826915,-0.2272665,-0.14739449999999998,0.4602215,-0.057356500000000005,-0.17206449999999998,0.2334615,0.042367499999999995,0.1587855,0.4542415,-0.0769245,0.2119455,0.2336415,0.010524500000000001,-0.2019745,0.015366500000000002,0.0228715,0.2247555,0.042440500000000006,-0.0010435000000000002,-0.0702715,0.0009705000000000026,0.0034945,0.0702715,-0.0009704999999999991,-0.0034945,-0.1251845,-0.3077085,-0.027613500000000003,0.1165755,-0.3060485,-0.0087235,-0.13801449999999998,-0.6299485,-0.0026795000000000005,0.1263455,-0.6316285,0.0021485000000000002
66,0.0005024999999999995,0.576302,-0.235826,-0.1448265,0.459922,-0.062227,-0.1684765,0.236532,0.043742,0.16111350000000002,0.453152,-0.08474999999999999,0.2161535,0.235082,0.006666999999999999,-0.1992565,0.012416,0.028041000000000003,0.2276135,0.04358,-0.001216,-0.0704075,0.001229000000000001,0.004186,0.0704075,-0.001229000000000001,-0.0041860000000000005,-0.1254565,-0.307218,-0.030767999999999997,0.1161435,-0.305108,-0.009533,-0.1393665,-0.628968,-0.005228,0.1248635,-0.630448,0.0004490000000000002
67,0.0031605000000000036,0.5699735,-0.244183,-0.1419635,0.4597235,-0.066053,-0.1643835,0.2395535,0.045613,0.1633965,0.4522135,-0.09196399999999999,0.2205465,0.2364235,0.00251,-0.1966335,0.010249499999999998,0.033937999999999996,0.2305665,0.044344499999999995,-0.00197,-0.07051249999999999,0.0015344999999999977,0.004989,0.07051249999999999,-0.0015345000000000011,-0.004989,-0.1257235,-0.3067365,-0.03399,0.11567649999999999,-0.3041265,-0.010232999999999999,-0.1407435,-0.6278765,-0.007876000000000001,0.1234265,-0.6293165000000001,-0.0010500000000000002
68,0.004786999999999996,0.5676535,-0.24897550000000002,-0.138876,0.4594135,-0.0695815,-0.16037600000000002,0.2424335,0.047642500000000004,0.16533399999999998,0.4512935,-0.0980535,0.224324,0.2376435,-0.001578500000000001,-0.19490600000000002,0.008332500000000001,0.0394545,0.233004,0.0446765,-0.0030945000000000005,-0.07059800000000001,0.0018554999999999995,0.0058195,0.07059800000000001,-0.0018554999999999995,-0.005819500000000001,-0.12601600000000002,-0.3063165,-0.0370435,0.11517400000000001,-0.3032865,-0.010793500000000001,-0.141956,-0.6263265,-0.010228500000000001,0.12216400000000001,-0.6282965,-0.0022445000000000004
69,0.006725000000000002,0.5652750000000001,-0.2535025,-0.135564,0.459105,-0.0728725,-0.15695399999999998,0.245365,0.0499705,0.167626,0.45020499999999997,-0.10400150000000001,0.227846,0.238705,-0.0056215,-0.193784,0.0062349999999999975,0.0458835,0.23536600000000002,0.044832,-0.0039805,-0.070631,0.002194999999999999,0.0066435,0.070631,-0.0021950000000000025,-0.0066435,-0.12625399999999998,-0.30579500000000004,-0.0399195,0.11464600000000001,-0.302525,-0.011331500000000001,-0.142954,-0.6251049999999999,-0.012257500000000001,0.121206,-0.627435,-0.0032005000000000002
70,0.008854,0.5630805,-0.2574975,-0.133187,0.4595305,-0.0742545,-0.153957,0.2485405,0.052455499999999995,0.16936299999999999,0.4493805,-0.1083675,0.231253,0.2394205,-0.009482500000000001,-0.193397,0.0071605,0.052359499999999996,0.237703,0.0447685,-0.0046975,-0.070611,0.002513500000000002,0.0074055,0.070611,-0.0025134999999999984,-0.007405500000000001,-0.126077,-0.3054795,-0.0424205,0.11433299999999999,-0.3019095,-0.0118025,-0.143367,-0.6238795,-0.0141925,0.12087300000000001,-0.6267395,-0.003981500000000001
71,0.011259500000000002,0.5610090000000001,-0.2607655,-0.1305865,0.459819,-0.0752165,-0.1517765,0.251199,0.0545875,0.1712435,0.448509,-0.11200550000000001,0.23396350000000002,0.239839,-0.0132865,-0.1935065,0.007247,0.058000499999999997,0.23947349999999998,0.045267,-0.0059665000000000004,-0.0706215,0.002815999999999999,0.0079735,0.0706215,-0.002815999999999999,-0.0079735,-0.1255965,-0.305331,-0.044514500000000005,0.1143835,-0.301441,-0.0121755,-0.1432465,-0.622821,-0.0160315,0.1212735,-0.626141,-0.004583500000000001
72,0.012431000000000005,0.5595295,-0.2636765,-0.129657,0.4603395,-0.0761665,-0.151567,0.2537095,0.055762500000000007,0.17229300000000003,0.4475095,-0.1154565,0.23511300000000002,0.2400695,-0.016799500000000002,-0.19353700000000001,0.0072504999999999965,0.0598645,0.240143,0.0456405,-0.007711500000000001,-0.070629,0.003106499999999998,0.0083625,0.070629,-0.0031065000000000016,-0.008362500000000002,-0.125557,-0.30524049999999997,-0.046295499999999996,0.11439300000000001,-0.3010505,-0.012499500000000002,-0.14321699999999998,-0.6224005,-0.0176735,0.121653,-0.6255705,-0.005149500000000001
73,0.012471499999999996,0.5592775,-0.26578799999999997,-0.1296515,0.4607775,-0.076757,-0.15157150000000003,0.2557475,0.055967,0.1723385,0.4469175,-0.117348,0.2351585,0.24016749999999998,-0.019246,-0.1935615,0.008712499999999998,0.060924000000000006,0.24017850000000002,0.0460155,-0.009835,-0.0706335,0.003335499999999998,0.00858,0.0706335,-0.0033355000000000017,-0.008579999999999999,-0.1255415,-0.3052025,-0.04753,0.1143985,-0.3006525,-0.01272,-0.1431915,-0.6222125,-0.018862999999999998,0.12193849999999999,-0.6251325,-0.0054529999999999995
74,0.012519500000000003,0.5594205,-0.267156,-0.1296165,0.4611105,-0.07725900000000001,-0.1515465,0.2571105,0.055839,0.1723735,0.4465805,-0.118296,0.2352035,0.2402805,-0.020442000000000002,-0.1936965,0.009496499999999998,0.060793,0.2402435,0.0464465,-0.011604999999999999,-0.0706215,0.0035074999999999967,0.008577999999999999,0.0706215,-0.0035075,-0.008577999999999999,-0.1254965,-0.3052495,-0.048307,0.1144135,-0.3003195,-0.012816999999999999,-0.1431565,-0.6220694999999999,-0.019769000000000002,0.12202350000000001,-0.6248294999999999,-0.005606
75,0.013589000000000004,0.5597084999999999,-0.26821849999999997,-0.128547,0.4613985,-0.0782775,-0.150497,0.25789850000000003,0.0558065,0.173423,0.4466085,-0.11832849999999999,0.236263,0.2402885,-0.020728499999999997,-0.19365700000000002,0.011383500000000001,0.0610085,0.241313,0.0467345,-0.012867499999999999,-0.070631,0.003606500000000002,0.0085255,0.070631,-0.0036064999999999986,-0.008525499999999998,-0.124497,-0.3052815,-0.0487765,0.11515299999999999,-0.3000515,-0.012855499999999999,-0.142127,-0.6221315000000001,-0.0204435,0.123073,-0.6247015,-0.005622499999999999
76,0.015011999999999998,0.5598479999999999,-0.268915,-0.12742399999999998,0.461808,-0.07951,-0.15000400000000003,0.258088,0.05583300000000001,0.17454599999999998,0.446708,-0.118295,0.23730599999999996,0.240148,-0.020691,-0.193874,0.013179999999999999,0.06102200000000001,0.242346,0.047160999999999995,-0.013228,-0.070629,0.003601,0.008542000000000001,0.070629,-0.003601,-0.008542,-0.123294,-0.305542,-0.048987,0.116216,-0.299952,-0.012818,-0.14041399999999998,-0.6224820000000001,-0.020909999999999998,0.124986,-0.6246520000000001,-0.005587999999999999
77,0.015940000000000006,0.5598945,-0.2692785,-0.126972,0.4622545,-0.0808215,-0.15101199999999998,0.2581345,0.0549255,0.174908,0.4467545,-0.1182185,0.236968,0.2399945,-0.0206335,-0.195082,0.0147895,0.06106349999999999,0.24235800000000002,0.0472075,-0.013163500000000002,-0.070606,0.003554500000000002,0.0086075,0.070606,-0.0035544999999999986,-0.0086075,-0.12199199999999999,-0.30593549999999997,-0.049058500000000005,0.117698,-0.3000655,-0.0127255,-0.137942,-0.6228755,-0.021331500000000003,0.127728,-0.6247955,-0.005512500000000001
78,0.015969999999999998,0.5604184999999999,-0.26929000000000003,-0.127104,0.4621885,-0.08237799999999999,-0.153254,0.2581785,0.052877,0.17444600000000002,0.4467985,-0.118,0.235216,0.2397485,-0.020499999999999997,-0.19750399999999999,0.0191485,0.059479000000000004,0.241216,0.0471115,-0.013017999999999998,-0.070669,0.0035104999999999997,0.008433999999999999,0.070669,-0.0035104999999999997,-0.008433999999999999,-0.120784,-0.3058915,-0.048996,0.119016,-0.3002015,-0.012631,-0.135024,-0.6231915,-0.021643,0.13076600000000002,-0.6250015000000001,-0.005346
79,0.0153085,0.5616175,-0.2690765,-0.1278725,0.46239749999999996,-0.0838155,-0.1566325,0.2582475,0.0499435,0.1735775,0.4468675,-0.1171865,0.2323975,0.23975749999999998,-0.0193615,-0.2005725,0.024042499999999998,0.05654150000000001,0.2391975,0.0467415,-0.0126595,-0.0707475,0.0034415,0.008035500000000001,0.0707475,-0.0034415,-0.0080355,-0.1193925,-0.3058225,-0.0486895,0.1205175,-0.30031250000000004,-0.0124605,-0.1314025,-0.6237125,-0.021679499999999997,0.1343975,-0.6251325,-0.004932499999999999
80,0.013698,0.5630865,-0.268608,-0.13049500000000003,0.4624065,-0.085271,-0.16212500000000002,0.2574865,0.046032000000000003,0.17107499999999998,0.44779650000000004,-0.114548,0.227505,0.2397065,-0.01643,-0.204685,0.0291025,0.051566,0.23561500000000002,0.0462635,-0.011446,-0.070855,0.0032575,0.0072169999999999995,0.070855,-0.0032575,-0.0072169999999999995,-0.118405,-0.30582349999999997,-0.048154,0.121745,-0.3005635,-0.012344,-0.127315,-0.6243535,-0.02129,0.13820500000000002,-0.6256335,-0.004479
81,0.011471,0.564546,-0.2678455,-0.134036,0.46216599999999997,-0.0868865,-0.169176,0.256076,0.0412915,0.16742400000000002,0.448886,-0.1107055,0.220924,0.23946599999999998,-0.0117575,-0.20960600000000001,0.033937999999999996,0.0436135,0.23075400000000001,0.045742,-0.0091215,-0.070969,0.0029449999999999997,0.0061595,0.070969,-0.0029449999999999997,-0.006159499999999999,-0.117736,-0.305794,-0.0473435,0.122684,-0.301424,-0.0127955,-0.123236,-0.6255139999999999,-0.0204895,0.141994,-0.6267039999999999,-0.004545499999999999
82,0.008582499999999996,0.5661440000000001,-0.267143,-0.13821050000000001,0.461784,-0.08869200000000001,-0.17657050000000002,0.253854,0.036109999999999996,0.16322949999999997,0.450164,-0.106703,0.2136695,0.239084,-0.006466,-0.21427050000000003,0.038111000000000006,0.034961,0.22551949999999998,0.045169,-0.005851,-0.0710735,0.0025590000000000022,0.005007,0.0710735,-0.0025589999999999988,-0.005007,-0.1174005,-0.305736,-0.046470000000000004,0.12340949999999999,-0.302626,-0.01362,-0.11943050000000001,-0.6269159999999999,-0.019566,0.14562950000000002,-0.6279659999999999,-0.0047480000000000005
83,0.005460499999999998,0.567886,-0.26642150000000003,-0.1423415,0.46144599999999997,-0.0905495,-0.1839115,0.251666,0.030814499999999998,0.15873849999999998,0.45139599999999996,-0.10246050000000001,0.2063285,0.23905600000000002,-0.0007634999999999999,-0.21901150000000003,0.042044,0.0255355,0.22026849999999998,0.044714000000000004,-0.0015324999999999996,-0.0711555,0.002101000000000002,0.0037765000000000003,0.0711555,-0.0021009999999999987,-0.0037765,-0.1170615,-0.305664,-0.0456145,0.1239585,-0.303894,-0.0148195,-0.11572149999999999,-0.628514,-0.0186845,0.1490085,-0.6292840000000001,-0.0051305
84,0.0023,0.569279,-0.265839,-0.145674,0.461059,-0.091795,-0.19131399999999998,0.249539,0.025876,0.154066,0.452599,-0.09813999999999999,0.198776,0.238899,0.005309000000000001,-0.224204,0.046395,0.019230999999999998,0.21460600000000002,0.044186,0.0031300000000000004,-0.071177,0.0015639999999999994,0.0024950000000000003,0.071177,-0.0015639999999999994,-0.002495,-0.11717400000000001,-0.305671,-0.044931,0.123706,-0.305211,-0.016471,-0.11281400000000001,-0.630441,-0.017966,0.151516,-0.630621,-0.0057610000000000005
85,3.600000000000131e-05,0.570258,-0.2653375,-0.148092,0.460698,-0.0927385,-0.197762,0.247868,0.0215375,0.150838,0.453658,-0.09436549999999999,0.191948,0.238768,0.0111445,-0.22924200000000003,0.049981,0.0135535,0.209768,0.043725,0.0083535,-0.07120800000000001,0.0009980000000000024,0.0012584999999999996,0.07120800000000001,-0.0009979999999999989,-0.0012584999999999999,-0.117732,-0.305702,-0.044385499999999994,0.12300799999999999,-0.306592,-0.0181705,-0.11050199999999999,-0.632302,-0.0173985,0.153158,-0.632072,-0.006637499999999999
86,-0.0013094999999999982,0.5710504999999999,-0.264863,-0.1499975,0.4604305,-0.093331,-0.20287750000000002,0.24637050000000002,0.018732,0.1484725,0.4544705,-0.091138,0.18641249999999998,0.2387505,0.016758,-0.2339175,0.054483500000000004,0.008967,0.2056625,0.0431825,0.014407,-0.0712285,0.0005135000000000001,0.00010500000000000006,0.0712285,-0.0005135000000000001,-0.00010500000000000006,-0.1186475,-0.3056695,-0.043849,0.12187350000000001,-0.3079695,-0.019752000000000002,-0.10910749999999998,-0.6341095,-0.016871,0.15383249999999998,-0.6337195,-0.007666
87,-0.0022275000000000003,0.57175,-0.264276,-0.1510365,0.46008,-0.093798,-0.2068065,0.24526,0.01668,0.1466835,0.45509,-0.088442,0.1821235,0.23887,0.021863,-0.23667649999999998,0.055695,0.005759,0.2023435,0.042743,0.020276000000000002,-0.07119049999999999,0.00010800000000000046,-0.00084,0.07119049999999999,-0.00010800000000000046,0.00084,-0.11977649999999998,-0.30545,-0.043609999999999996,0.12059349999999999,-0.30934,-0.021334,-0.10854649999999999,-0.63574,-0.016599,0.1535935,-0.63519,-0.008992
88,-0.0026234999999999974,0.5723929999999999,-0.26368349999999996,-0.1519615,0.459723,-0.09431350000000001,-0.20962150000000002,0.24474300000000002,0.015517500000000002,0.1456085,0.455683,-0.0858795,0.1793785,0.23886300000000002,0.0263375,-0.2383215,0.056421,0.0035995000000000003,0.2001585,0.041902,0.025640500000000004,-0.0710425,-0.0002469999999999972,-0.0016154999999999997,0.0710425,0.0002470000000000007,0.0016155000000000002,-0.1210815,-0.305037,-0.0436885,0.1192265,-0.310747,-0.022851499999999997,-0.1088215,-0.6370570000000001,-0.0166095,0.15238849999999998,-0.6365770000000001,-0.0106245
89,-0.0026335000000000004,0.572896,-0.26315750000000004,-0.1519535,0.459516,-0.09474750000000001,-0.2098035,0.244536,0.015080499999999998,0.1455765,0.455686,-0.0845825,0.1792065,0.238846,0.029270500000000005,-0.23831349999999998,0.057010000000000005,0.0031655000000000003,0.2000765,0.041377,0.029837500000000003,-0.0710335,-0.0004299999999999998,-0.0020854999999999997,0.0710335,0.0004299999999999998,0.0020855,-0.12153349999999999,-0.304394,-0.044130499999999996,0.1183575,-0.311854,-0.0242215,-0.10954349999999999,-0.637744,-0.0169015,0.1509965,-0.637314,-0.0121955
90,-0.002643000000000003,0.5735024999999999,-0.262698,-0.151944,0.4594625,-0.09524800000000001,-0.209794,0.2444825,0.01458,0.145566,0.4556325,-0.08402100000000001,0.179176,0.23891249999999997,0.030945,-0.238304,0.057659499999999995,0.0026650000000000003,0.20002599999999998,0.040708499999999995,0.032577,-0.071024,-0.00045650000000000204,-0.0025859999999999998,0.071024,0.0004564999999999986,0.002586,-0.121534,-0.3043075,-0.044531,0.11836899999999999,-0.31231749999999997,-0.024836999999999998,-0.10963400000000001,-0.6378175,-0.017139,0.150086,-0.6374275,-0.013115
91,-0.0026534999999999996,0.5740314999999999,-0.2621345,-0.1519355,0.4593815,-0.0956945,-0.2097855,0.2444015,0.014133499999999998,0.14556449999999999,0.4555515,-0.0836065,0.1791545,0.23893150000000002,0.0318315,-0.2382955,0.0584405,0.0022185000000000004,0.1999945,0.0393065,0.034540499999999995,-0.0710155,-0.00037550000000000083,-0.0030324999999999996,0.0710155,0.00037550000000000083,0.0030325,-0.1215255,-0.30434849999999997,-0.044693500000000004,0.1183775,-0.3125985,-0.025283499999999997,-0.10963549999999998,-0.6379285,-0.0171375,0.1492645,-0.6375285,-0.0138835
92,-0.002069999999999999,0.57439,-0.261519,-0.15157500000000002,0.45947,-0.096019,-0.21044500000000002,0.24499,0.014135,0.145825,0.45547,-0.08306999999999999,0.178485,0.23885,0.032174,-0.23875500000000002,0.059345,0.0020080000000000002,0.19941499999999998,0.039225,0.035436,-0.070865,-0.0002939999999999991,-0.0034919999999999994,0.070865,0.0002940000000000026,0.0034920000000000003,-0.122185,-0.30443,-0.044597,0.117729,-0.31291,-0.025772999999999997,-0.11028499999999998,-0.63802,-0.017189,0.14796499999999999,-0.63762,-0.014561
93,-0.0007519999999999957,0.5747755,-0.2606835,-0.150028,0.45996549999999997,-0.09579349999999999,-0.209078,0.24644549999999998,0.0151075,0.147112,0.4552055,-0.0824225,0.179542,0.2387955,0.0315975,-0.23763800000000002,0.0608755,0.0044635,0.201142,0.039904499999999996,0.0348725,-0.070792,-0.00023950000000000013,-0.0036255,0.070792,0.00023950000000000013,0.0036254999999999994,-0.12317800000000001,-0.3044845,-0.0448435,0.11613400000000001,-0.3131945,-0.0264085,-0.112288,-0.6380745,-0.0176525,0.145682,-0.6376744999999999,-0.0152715
94,0.0007974999999999996,0.5751405,-0.2596945,-0.1478545,0.4606305,-0.0948985,-0.2067545,0.24800049999999998,0.0172975,0.1490355,0.4545805,-0.08176850000000001,0.1815655,0.2388305,0.030990499999999997,-0.23596450000000002,0.060910500000000006,0.0082805,0.2028255,0.0403555,0.0342585,-0.0707305,-0.0001365000000000012,-0.0036525000000000004,0.0707305,0.0001365000000000012,0.0036525000000000004,-0.12413450000000001,-0.3044895,-0.0454745,0.1145035,-0.3134395,-0.0269215,-0.11506450000000001,-0.6378195,-0.0181175,0.14275549999999998,-0.6375894999999999,-0.0159785
95,0.0024010000000000004,0.5756600000000001,-0.2583865,-0.145761,0.46138999999999997,-0.0935665,-0.203961,0.24963000000000002,0.0201295,0.151409,0.45393,-0.0812375,0.184799,0.23859,0.0303605,-0.23376100000000002,0.061020000000000005,0.013083500000000001,0.204599,0.039588,0.0336005,-0.070683,4.300000000000137e-05,-0.0035665,0.070683,-4.29999999999979e-05,0.0035665000000000002,-0.125191,-0.30465000000000003,-0.0461865,0.112819,-0.31360000000000005,-0.0271245,-0.118461,-0.6374599999999999,-0.0187415,0.139069,-0.63749,-0.0167405
96,0.004382500000000001,0.5761985,-0.256614,-0.1437845,0.46210850000000003,-0.091921,-0.19949450000000002,0.2513385,0.024252000000000003,0.1545455,0.4531985,-0.080898,0.18935549999999998,0.2383285,0.029334,-0.23021450000000002,0.061158500000000005,0.01961,0.2081555,0.0382725,0.032496,-0.0706515,0.0002735000000000029,-0.003375,0.0706515,-0.00027349999999999944,0.0033749999999999995,-0.1262745,-0.3052715,-0.046986,0.11101849999999999,-0.31375149999999996,-0.027076,-0.12239450000000002,-0.6367715,-0.019613,0.1344255,-0.6373515000000001,-0.017608
97,0.005953500000000003,0.576771,-0.254714,-0.14234549999999999,0.46280099999999996,-0.090113,-0.1955855,0.252821,0.028712,0.1566245,0.452561,-0.080739,0.19397450000000002,0.238061,0.027697,-0.22654549999999998,0.062983,0.026866,0.21101450000000002,0.037168999999999994,0.030946,-0.07062550000000001,0.0005959999999999993,-0.003005,0.07062550000000001,-0.0005960000000000028,0.0030050000000000007,-0.12718549999999998,-0.306099,-0.047767,0.10942450000000001,-0.313939,-0.027,-0.1264255,-0.635999,-0.020469,0.12941450000000002,-0.637169,-0.018436
98,0.007265000000000001,0.5772775,-0.253157,-0.14092300000000002,0.4634975,-0.087898,-0.19176300000000002,0.2540975,0.032946,0.158607,0.4518875,-0.080732,0.198457,0.2376375,0.025415,-0.222723,0.0647185,0.033999,0.21408700000000003,0.0362325,0.027770000000000003,-0.070605,0.0009505,-0.002502,0.070605,-0.0009505,0.0025020000000000008,-0.127483,-0.3070825,-0.048997,0.108137,-0.3144625,-0.027094,-0.130023,-0.6353925,-0.021415,0.124587,-0.6370925000000001,-0.019163
99,0.008774,0.577652,-0.2515935,-0.139358,0.464152,-0.08566850000000001,-0.188048,0.255292,0.03687649999999999,0.160862,0.451252,-0.08071450000000001,0.202942,0.237112,0.0229065,-0.219088,0.063946,0.040275500000000006,0.217442,0.0352,0.024048499999999997,-0.070599,0.0012710000000000013,-0.001976500000000001,0.070599,-0.0012709999999999978,0.001976499999999999,-0.127368,-0.308208,-0.0499665,0.107202,-0.315048,-0.0272435,-0.132758,-0.6349079999999999,-0.0222735,0.120422,-0.637158,-0.0197295
100,0.010179500000000001,0.577948,-0.249987,-0.13774250000000002,0.464688,-0.08343900000000001,-0.1845825,0.256278,0.040457,0.1629875,0.450608,-0.080619,0.2067075,0.236818,0.020147,-0.2159025,0.062529,0.046465,0.2204775,0.034612,0.019907,-0.0706675,0.0015829999999999976,-0.0015060000000000004,0.0706675,-0.001583000000000001,0.0015060000000000004,-0.1271025,-0.309402,-0.050794,0.10642750000000001,-0.315852,-0.027627,-0.1349025,-0.634382,-0.023178,0.11670749999999999,-0.6372019999999999,-0.02024
101,0.0119165,0.5783155,-0.2483925,-0.1355065,0.46512549999999997,-0.08128750000000001,-0.1812765,0.2570955,0.0436145,0.1652835,0.4500055,-0.0808285,0.21056350000000001,0.2365855,0.0175705,-0.2129665,0.0612265,0.051647500000000006,0.22330350000000002,0.0342865,0.0159035,-0.0707065,0.0018395000000000009,-0.0010474999999999998,0.0707065,-0.0018395000000000009,0.0010474999999999998,-0.1263265,-0.31068450000000003,-0.0514515,0.1063635,-0.3164545,-0.0282145,-0.1359565,-0.6342645,-0.0242315,0.1138335,-0.6373145,-0.0207675
102,0.013700999999999998,0.578611,-0.2471245,-0.13351,0.465411,-0.0792695,-0.17951,0.257271,0.04609150000000001,0.16727,0.449521,-0.0812065,0.21341000000000002,0.23630099999999998,0.0156005,-0.21164,0.062203999999999995,0.0545755,0.22426000000000001,0.033336000000000005,0.0130955,-0.070694,0.0020739999999999995,-0.0005964999999999998,0.070694,-0.0020739999999999995,0.0005964999999999998,-0.12531,-0.312169,-0.0519525,0.10669000000000001,-0.31709899999999996,-0.028788499999999998,-0.13596,-0.634319,-0.0252985,0.11195,-0.637379,-0.0212675
103,0.015512999999999999,0.5788385,-0.24592950000000002,-0.131735,0.4655785,-0.0777545,-0.179565,0.2573885,0.047004500000000005,0.168455,0.4491285,-0.0816085,0.214775,0.23603849999999998,0.0146745,-0.211715,0.0629135,0.05533250000000001,0.224535,0.031287499999999996,0.0114245,-0.07064899999999999,0.0022674999999999987,-0.00018850000000000117,0.07064899999999999,-0.002267500000000002,0.00018849999999999943,-0.12434500000000001,-0.3134615,-0.0523565,0.107125,-0.3175815,-0.0291615,-0.135015,-0.6344915,-0.0264145,0.111045,-0.6374315,-0.021844500000000003
104,0.017231,0.579041,-0.2450725,-0.130029,0.465731,-0.0766725,-0.180179,0.257531,0.0470025,0.168961,0.448911,-0.08198449999999999,0.21470099999999998,0.235821,0.0140915,-0.21188900000000002,0.063687,0.05543649999999999,0.224791,0.029357,0.0101715,-0.070555,0.002440000000000001,0.00013749999999999873,0.070555,-0.002440000000000001,-0.00013750000000000047,-0.123409,-0.314349,-0.0529205,0.107551,-0.317849,-0.029548500000000002,-0.133389,-0.634629,-0.0275345,0.110841,-0.637569,-0.0224285
105,0.018219000000000003,0.5792425,-0.24476,-0.129068,0.4659225,-0.076158,-0.180168,0.2576125,0.046435000000000004,0.168962,0.4487725,-0.082062,0.214712,0.2356325,0.013524000000000001,-0.211878,0.0632065,0.054868999999999994,0.224802,0.029248500000000004,0.009604000000000001,-0.070558,0.0025625000000000023,0.0003020000000000002,0.070558,-0.002562499999999999,-0.00030199999999999845,-0.12289800000000001,-0.31470750000000003,-0.053477,0.107902,-0.3180575,-0.029922999999999998,-0.131448,-0.6347975,-0.028582,0.11113200000000001,-0.6376775,-0.022947
106,0.018216,0.57943,-0.2446555,-0.129066,0.46604999999999996,-0.0762095,-0.18015599999999998,0.25753,0.0457795,0.16895400000000002,0.44869,-0.0815955,0.214724,0.23546,0.012868500000000001,-0.211866,0.06242,0.0542135,0.224814,0.029166000000000004,0.008948500000000002,-0.070557,0.0026450000000000015,0.000252500000000001,0.070557,-0.002644999999999998,-0.00025249999999999925,-0.12288600000000001,-0.31483,-0.054095500000000005,0.107914,-0.31814000000000003,-0.0304275,-0.129886,-0.63508,-0.0296415,0.111354,-0.63771,-0.0234295
107,0.018219,0.579665,-0.2447525,-0.129052,0.466055,-0.0769165,-0.180362,0.257495,0.0450685,0.168928,0.44865499999999997,-0.08039149999999999,0.214728,0.23536500000000002,0.0127995,-0.211852,0.061352000000000004,0.05350649999999999,0.224828,0.029268,0.0082415,-0.070551,0.0026720000000000008,-7.650000000000018e-05,0.070551,-0.0026720000000000008,7.650000000000018e-05,-0.12287200000000001,-0.314865,-0.0546245,0.10791800000000001,-0.31817500000000004,-0.0306365,-0.128882,-0.6353249999999999,-0.0306965,0.11143800000000001,-0.637655,-0.0239645
108,0.018611,0.579875,-0.244939,-0.12864699999999998,0.466015,-0.07778299999999999,-0.18278699999999998,0.257455,0.04347,0.16876300000000002,0.448615,-0.079117,0.21313300000000002,0.235205,0.013700999999999998,-0.213477,0.059980000000000006,0.051282999999999995,0.22332300000000002,0.028275,0.008563999999999999,-0.070405,0.0026720000000000008,-0.0005590000000000005,0.070405,-0.0026720000000000008,0.0005590000000000005,-0.122477,-0.314905,-0.054972,0.10831299999999999,-0.318215,-0.030938,-0.127967,-0.635675,-0.031687,0.11192300000000001,-0.637615,-0.024665
109,0.019594000000000004,0.5800810000000001,-0.245244,-0.128568,0.46598100000000003,-0.078926,-0.18594799999999997,0.257271,0.041000999999999996,0.168192,0.448651,-0.077753,0.210932,0.234891,0.014974999999999999,-0.215888,0.061288999999999996,0.047462000000000004,0.221622,0.027944999999999998,0.00903,-0.070225,0.002637999999999998,-0.001131,0.070225,-0.0026380000000000015,0.001131,-0.121668,-0.31493899999999997,-0.055152999999999994,0.108962,-0.318289,-0.031207,-0.126778,-0.635909,-0.032808,0.113002,-0.637359,-0.025594
110,0.0200945,0.5800815,-0.245803,-0.1289975,0.4658715,-0.080525,-0.1897875,0.25692149999999997,0.037530999999999995,0.16722250000000002,0.44879149999999995,-0.076436,0.20810250000000002,0.2345115,0.016655999999999997,-0.2188175,0.0622905,0.042948,0.2191625,0.027820499999999998,0.010105999999999997,-0.0700435,0.0025284999999999995,-0.0018480000000000024,0.0700435,-0.0025284999999999995,0.001847999999999999,-0.1212275,-0.3147085,-0.055001,0.10942249999999999,-0.31813850000000005,-0.031212000000000004,-0.1252375,-0.6360684999999999,-0.034237000000000004,0.1145325,-0.6371684999999999,-0.026748
111,0.0203585,0.580021,-0.24673699999999998,-0.1297145,0.465671,-0.08266,-0.19395449999999997,0.25649099999999997,0.033574999999999994,0.16577550000000002,0.44893099999999997,-0.075378,0.2047155,0.234041,0.018527,-0.2223445,0.063166,0.037762000000000004,0.21608549999999999,0.027693000000000002,0.011474000000000002,-0.0698785,0.0023780000000000016,-0.002602,0.0698785,-0.002377999999999998,0.002602,-0.1210845,-0.314379,-0.05516,0.1096655,-0.317969,-0.030688,-0.1236245,-0.636259,-0.036091,0.11607550000000001,-0.6370290000000001,-0.02786
112,0.0204335,0.5798835,-0.2479475,-0.1306275,0.4653935,-0.08522949999999999,-0.1983175,0.25604350000000003,0.0293005,0.1641425,0.4490135,-0.0746155,0.2011325,0.2334935,0.0202465,-0.2260275,0.0614195,0.031635500000000004,0.2126425,0.0266865,0.013114500000000001,-0.0697165,0.0022245000000000008,-0.003362500000000001,0.0697165,-0.0022245000000000008,0.003362500000000001,-0.12110749999999999,-0.31395649999999997,-0.0555455,0.1098025,-0.3175965,-0.0297955,-0.1219175,-0.6364065,-0.0383115,0.1176625,-0.6368165,-0.0290995
113,0.020261499999999998,0.5797840000000001,-0.24934050000000002,-0.1316575,0.465134,-0.0881325,-0.20251750000000002,0.255614,0.0247575,0.16238249999999999,0.449064,-0.0741025,0.1974025,0.233014,0.0216885,-0.2293975,0.059675,0.0255805,0.2093925,0.025267,0.014532499999999997,-0.0695925,0.0020550000000000013,-0.004078500000000002,0.0695925,-0.002054999999999998,0.004078499999999999,-0.12138750000000001,-0.313216,-0.0561315,0.10974249999999999,-0.317376,-0.0286735,-0.1202975,-0.6365059999999999,-0.0407275,0.11917249999999999,-0.6364759999999999,-0.0305565
114,0.0198605,0.579716,-0.251209,-0.1328425,0.464856,-0.091322,-0.20548249999999998,0.255276,0.020828,0.1609475,0.44911599999999996,-0.074243,0.1949075,0.232856,0.022622999999999997,-0.2307125,0.060331,0.021974,0.2072975,0.023848,0.015542,-0.06949949999999999,0.0018800000000000032,-0.00468,0.06949949999999999,-0.0018799999999999997,0.004679999999999997,-0.12178249999999999,-0.312134,-0.057006,0.1096375,-0.317154,-0.027312,-0.1190725,-0.636484,-0.043494,0.1204675,-0.636154,-0.032198
115,0.019525999999999998,0.5795705,-0.2531595,-0.133944,0.4645805,-0.0945235,-0.20627399999999999,0.2551705,0.017632500000000002,0.160356,0.4490905,-0.0750605,0.193996,0.23282049999999999,0.022964500000000006,-0.230494,0.0611875,0.0187975,0.206536,0.022527500000000002,0.015880500000000006,-0.06944800000000001,0.0017165000000000027,-0.005127499999999997,0.06944800000000001,-0.0017164999999999993,0.0051275,-0.12210399999999999,-0.3111895,-0.0578215,0.10960600000000001,-0.3170395,-0.025779499999999997,-0.118144,-0.6365195,-0.0462515,0.12143600000000002,-0.6359994999999999,-0.0340175
116,0.0195955,0.5793135,-0.255042,-0.1349685,0.4643235,-0.09762199999999999,-0.20611849999999998,0.25504350000000003,0.014557,0.1604515,0.4490435,-0.076522,0.1943815,0.2326635,0.022784,-0.2296485,0.0626435,0.015735,0.2063615,0.0212705,0.016218999999999997,-0.0694285,0.0015935000000000012,-0.005486000000000001,0.0694285,-0.0015934999999999977,0.005485999999999998,-0.12233849999999999,-0.3104665,-0.058397000000000004,0.1098315,-0.3170865,-0.024477,-0.11739849999999999,-0.6365665,-0.048872,0.1222115,-0.6359165,-0.035781
117,0.019850000000000003,0.578915,-0.2570755,-0.13593899999999998,0.464025,-0.1007455,-0.20564899999999997,0.254805,0.011460499999999992,0.160781,0.449025,-0.07831350000000001,0.19494100000000003,0.232535,0.021884499999999994,-0.229039,0.061121999999999996,0.012641499999999993,0.20682099999999998,0.020397,0.016417499999999995,-0.06944,0.0015109999999999985,-0.005568500000000004,0.06944,-0.001511000000000002,0.005568499999999997,-0.122539,-0.309735,-0.05870550000000001,0.11016100000000001,-0.31710499999999997,-0.023470500000000005,-0.116869,-0.6364650000000001,-0.051196500000000006,0.12280100000000001,-0.635935,-0.03770450000000001
118,0.020179000000000002,0.5785370000000001,-0.259016,-0.135592,0.463817,-0.103437,-0.205312,0.254677,0.009108999999999999,0.161118,0.449047,-0.080266,0.19525800000000001,0.232547,0.020705999999999995,-0.228712,0.059912,0.011020999999999996,0.207118,0.020569999999999998,0.016583999999999995,-0.069494,0.0014750000000000006,-0.005548000000000004,0.069494,-0.0014750000000000006,0.005547999999999997,-0.122752,-0.308993,-0.05877500000000001,0.11043800000000001,-0.317083,-0.022674000000000003,-0.116572,-0.636023,-0.053188000000000006,0.123158,-0.6358729999999999,-0.039589000000000006
119,0.020286500000000002,0.5778995,-0.260623,-0.1354775,0.4636095,-0.10544999999999999,-0.2052075,0.2545895,0.007755999999999999,0.1612325,0.4489095,-0.082304,0.1953625,0.23275949999999998,0.019053999999999995,-0.22862749999999998,0.058979500000000004,0.010865,0.2071925,0.020796500000000002,0.016323999999999998,-0.0695755,0.0014525000000000024,-0.005309000000000001,0.0695755,-0.001452499999999999,0.005309000000000001,-0.1229075,-0.3086405,-0.058541,0.1105125,-0.3171405,-0.022215000000000002,-0.1165075,-0.6355605000000001,-0.054835,0.12334250000000001,-0.6358305000000001,-0.041333
120,0.020346,0.5772299999999999,-0.2619605,-0.135424,0.46336,-0.1067645,-0.20516399999999999,0.25461,0.007204500000000003,0.161296,0.44871,-0.08426349999999999,0.19639600000000002,0.2327,0.017263500000000008,-0.22775399999999998,0.055824,0.012509500000000007,0.207236,0.021,0.016041500000000007,-0.06961500000000001,0.0014319999999999992,-0.005005499999999996,0.06961500000000001,-0.0014319999999999992,0.005005500000000003,-0.122884,-0.30846,-0.058081499999999994,0.110546,-0.31743,-0.022333499999999996,-0.116484,-0.6351100000000001,-0.05606749999999999,0.123506,-0.63581,-0.0431325
121,0.020409499999999997,0.5765800000000001,-0.2631085,-0.1354025,0.46308,-0.1074055,-0.2042525,0.25458000000000003,0.007607500000000003,0.1616275,0.44843,-0.08592549999999999,0.1980575,0.23255,0.0156265,-0.2266025,0.052675,0.014773500000000002,0.2084975,0.021925,0.0151385,-0.0696215,0.0014319999999999992,-0.004649500000000001,0.0696215,-0.0014319999999999992,0.004649500000000001,-0.1229025,-0.30846,-0.0575475,0.1106175,-0.3178,-0.022941499999999997,-0.1164725,-0.63473,-0.0569365,0.1235775,-0.63591,-0.0447995
122,0.020722500000000005,0.575967,-0.2639765,-0.1348435,0.462907,-0.1074825,-0.2028035,0.254727,0.008729500000000001,0.1625165,0.448167,-0.0870475,0.2005365,0.232937,0.0145355,-0.22513350000000001,0.049684000000000006,0.017683500000000005,0.2108765,0.023108,0.014075500000000005,-0.0696515,0.001509,-0.004251499999999998,0.0696515,-0.001509,0.004251500000000005,-0.1229335,-0.308383,-0.056957499999999994,0.11092650000000001,-0.318023,-0.0237935,-0.11648349999999999,-0.6343129999999999,-0.057345499999999994,0.1236265,-0.635983,-0.0459365
123,0.021206000000000003,0.575411,-0.264455,-0.133956,0.462821,-0.10699,-0.201036,0.25488099999999997,0.010297,0.163714,0.447971,-0.08752199999999999,0.20366399999999998,0.233371,0.014097000000000005,-0.223266,0.046824000000000005,0.021070000000000005,0.213894,0.023967,0.013635000000000001,-0.06971,0.001632999999999999,-0.003915999999999996,0.06971,-0.001632999999999999,0.003916000000000003,-0.12292600000000001,-0.308259,-0.056143,0.11150399999999999,-0.318239,-0.024279999999999996,-0.116506,-0.633939,-0.057171,0.123634,-0.6359790000000001,-0.046433999999999996
124,0.021777,0.5749835,-0.26457949999999997,-0.132897,0.46275350000000004,-0.10632649999999999,-0.198657,0.2550835,0.011943500000000003,0.165403,0.4477935,-0.0883255,0.207103,0.2337935,0.013999499999999998,-0.221167,0.0439475,0.0244005,0.217653,0.024397500000000003,0.013575499999999997,-0.069781,0.0017585000000000031,-0.003786499999999998,0.069781,-0.0017584999999999996,0.003786499999999998,-0.122697,-0.30816649999999995,-0.0554955,0.112143,-0.3182965,-0.0243995,-0.116637,-0.6335164999999999,-0.056764499999999996,0.12360299999999999,-0.6359064999999999,-0.0465755
125,0.022341,0.5745955,-0.264565,-0.131747,0.4627055,-0.105744,-0.19622699999999998,0.2551655,0.013072,0.167273,0.4476355,-0.089506,0.21080300000000002,0.2341955,0.013455000000000002,-0.218697,0.0444415,0.027413000000000007,0.22143300000000002,0.0257935,0.013647,-0.06981899999999999,0.0018934999999999994,-0.0037869999999999987,0.06981899999999999,-0.0018934999999999994,0.0037869999999999987,-0.12231700000000001,-0.3085445,-0.055201,0.112873,-0.3183545,-0.024384999999999997,-0.116897,-0.6331245,-0.056329,0.123523,-0.6358545,-0.046769
126,0.022966999999999998,0.5742445,-0.2645525,-0.130577,0.4626545,-0.1054895,-0.194217,0.2551945,0.013209499999999999,0.168943,0.4474745,-0.0907985,0.214043,0.2346245,0.0120865,-0.216807,0.0417695,0.028125500000000005,0.224773,0.0272535,0.013247500000000002,-0.069877,0.0020485000000000017,-0.0037885,0.069877,-0.0020484999999999982,0.0037885,-0.12187700000000001,-0.3091355,-0.0551935,0.113593,-0.3186555,-0.0248185,-0.11724699999999999,-0.6328755,-0.056223499999999996,0.12335300000000002,-0.6359355,-0.0472225
127,0.0234755,0.573814,-0.264836,-0.1296825,0.46259399999999995,-0.10527600000000001,-0.1930625,0.255224,0.013428000000000002,0.1701575,0.44747400000000004,-0.092125,0.2166375,0.235134,0.010522000000000004,-0.2152225,0.039301,0.028412000000000007,0.2277575,0.029654000000000003,0.012361000000000004,-0.0699545,0.0021810000000000024,-0.003592999999999999,0.0699545,-0.002180999999999999,0.003592999999999999,-0.1214825,-0.309836,-0.054988999999999996,0.1142175,-0.31889599999999996,-0.025495999999999998,-0.1177925,-0.632686,-0.056037,0.12305750000000001,-0.635996,-0.04751
128,0.0235345,0.573606,-0.265757,-0.12899650000000001,0.462536,-0.104762,-0.19244650000000002,0.255096,0.013941000000000002,0.17093350000000002,0.447506,-0.093246,0.21846349999999998,0.23561600000000002,0.009009000000000003,-0.2144065,0.036478,0.02892900000000001,0.23016350000000002,0.032258,0.011408000000000001,-0.0700245,0.0023029999999999995,-0.003242999999999996,0.0700245,-0.0023029999999999995,0.003243000000000003,-0.12110649999999999,-0.310464,-0.054480999999999995,0.11475350000000001,-0.318984,-0.026050999999999998,-0.1184165,-0.632654,-0.05554799999999999,0.1227235,-0.6360340000000001,-0.047493999999999995
129,0.023055000000000003,0.5732295,-0.2665605,-0.1285,0.4624895,-0.10365150000000001,-0.19206,0.2547995,0.015049499999999993,0.17122,0.4474895,-0.09374550000000001,0.21937,0.2360295,0.008131499999999993,-0.21406,0.0363995,0.030036499999999994,0.23187,0.0349455,0.009973499999999996,-0.0701,0.0023774999999999977,-0.0030295000000000044,0.0701,-0.002377500000000001,0.0030294999999999975,-0.12084,-0.3111605,-0.05359950000000001,0.11501,-0.3190005,-0.026048500000000006,-0.11918000000000001,-0.6326705,-0.0544615,0.12220999999999999,-0.6360905,-0.0468715
130,0.022272999999999998,0.5728315,-0.267067,-0.12818000000000002,0.4624415,-0.102295,-0.19191000000000003,0.2542715,0.015683000000000002,0.17114999999999997,0.4474415,-0.094283,0.21976,0.2362615,0.0076960000000000015,-0.2138,0.0363445,0.03155000000000001,0.23259999999999997,0.036490499999999995,0.008823000000000004,-0.070158,0.002425499999999997,-0.002789999999999994,0.070158,-0.0024255000000000006,0.002790000000000001,-0.12092,-0.3118185,-0.052826,0.11503,-0.3190485,-0.025696999999999998,-0.12003,-0.6327185,-0.053055,0.12163999999999998,-0.6361384999999999,-0.045883999999999994
131,0.021457,0.5724835,-0.268232,-0.128928,0.4623835,-0.100854,-0.191898,0.2537835,0.01584,0.17069199999999998,0.44752349999999996,-0.09476699999999999,0.21931199999999998,0.2367235,0.007599000000000002,-0.21349800000000002,0.0362865,0.030496999999999996,0.232562,0.038308499999999995,0.008480000000000001,-0.07025600000000001,0.0024834999999999996,-0.0024290000000000006,0.07025600000000001,-0.0024834999999999996,0.0024290000000000006,-0.121308,-0.3122665,-0.052558,0.114782,-0.3191065,-0.024860999999999998,-0.12106800000000001,-0.6329665,-0.051049,0.12099199999999999,-0.6361964999999999,-0.044216
132,0.020801499999999997,0.5722045,-0.2688795,-0.1296305,0.4622545,-0.0990885,-0.1920005,0.2532845,0.0159865,0.1700795,0.4476245,-0.09518850000000001,0.21863950000000001,0.23709449999999999,0.0077365,-0.2131605,0.0390955,0.028123500000000003,0.2321995,0.0409135,0.008678499999999999,-0.0703365,0.0026124999999999968,-0.0021925,0.0703365,-0.0026125000000000002,0.0021925,-0.1217705,-0.3127255,-0.0533805,0.1144695,-0.3190155,-0.0235545,-0.1226205,-0.6336055,-0.0485635,0.12047950000000002,-0.6362455,-0.0417895
133,0.020444499999999997,0.5719965,-0.269339,-0.1299485,0.4621465,-0.097003,-0.1922585,0.2527065,0.015918999999999996,0.1697815,0.4476865,-0.094577,0.2183515,0.23748650000000002,0.008368999999999994,-0.2127385,0.042470499999999994,0.026334999999999997,0.23190149999999998,0.0422005,0.009459999999999996,-0.07041649999999999,0.0026914999999999994,-0.002018000000000006,0.07041649999999999,-0.002691500000000003,0.002017999999999999,-0.12202850000000001,-0.3131035,-0.054228,0.11426149999999999,-0.3187835,-0.022029000000000003,-0.12433849999999999,-0.6343934999999999,-0.04571,0.1202615,-0.6363635,-0.038664000000000004
134,0.020089500000000003,0.5716625,-0.2694335,-0.13001449999999998,0.4620525,-0.09640850000000001,-0.1923045,0.2519325,0.015739499999999997,0.1697155,0.44779250000000004,-0.0936875,0.2182855,0.2378525,0.009259499999999997,-0.21275449999999999,0.0456825,0.024759499999999997,0.2318255,0.0432535,0.0108925,-0.0704665,0.002742500000000002,-0.0019535000000000004,0.0704665,-0.0027424999999999984,0.001953499999999997,-0.12206449999999999,-0.31348750000000003,-0.0549365,0.11418550000000001,-0.31852749999999996,-0.0205135,-0.1261445,-0.6353175,-0.0426675,0.1202455,-0.6366375000000001,-0.0350855
135,0.0195155,0.5712370000000001,-0.2693885,-0.1302485,0.461887,-0.09582650000000001,-0.1923085,0.25111700000000003,0.0157965,0.1697015,0.447917,-0.09278750000000001,0.21814150000000002,0.238137,0.010458499999999999,-0.2127285,0.048827999999999996,0.0236625,0.2318015,0.044141,0.0122775,-0.0704685,0.0027329999999999993,-0.001844499999999999,0.0704685,-0.0027329999999999993,0.001844499999999999,-0.1220585,-0.313923,-0.0553885,0.1141515,-0.318213,-0.0190065,-0.1278985,-0.636423,-0.0393095,0.12025150000000001,-0.636833,-0.0312355
136,0.018635500000000003,0.570773,-0.2689495,-0.1308295,0.461693,-0.0949865,-0.1923995,0.250363,0.016044499999999996,0.1690205,0.44799300000000003,-0.09193950000000001,0.2176605,0.238323,0.011800499999999998,-0.2127195,0.051893999999999996,0.0229725,0.23146049999999999,0.044778,0.013900499999999996,-0.0704735,0.002737,-0.0016065000000000003,0.0704735,-0.002737,0.0016065000000000003,-0.12213950000000001,-0.314417,-0.0554835,0.11412050000000001,-0.317917,-0.0176005,-0.1296095,-0.637707,-0.0356495,0.12022050000000001,-0.6371870000000001,-0.0270015
137,0.017373,0.5705595,-0.2677525,-0.13170199999999999,0.4614395,-0.0941165,-0.192772,0.2496795,0.0166605,0.16799799999999998,0.44808950000000003,-0.0911285,0.216808,0.2385795,0.012978500000000004,-0.212682,0.0552475,0.022287500000000002,0.230958,0.0438765,0.015540499999999999,-0.070526,0.002717500000000001,-0.0014894999999999978,0.070526,-0.002717500000000001,0.0014895000000000012,-0.12237200000000001,-0.31487050000000005,-0.0553065,0.11391799999999999,-0.3175405,-0.0166625,-0.131212,-0.6390505,-0.0317835,0.120228,-0.6375805,-0.0227115
138,0.016052999999999998,0.5704815,-0.26647699999999996,-0.13271300000000003,0.46120150000000004,-0.09336399999999999,-0.193013,0.2489015,0.017258000000000003,0.16712700000000003,0.4481815,-0.090444,0.21602700000000002,0.2388015,0.013985,-0.212793,0.0581035,0.021788999999999996,0.230447,0.042720499999999995,0.017473000000000002,-0.070589,0.0026834999999999984,-0.001275,0.070589,-0.002683500000000002,0.001275,-0.122423,-0.31533849999999997,-0.055073000000000004,0.113787,-0.3172385,-0.016228,-0.13237300000000002,-0.6404785,-0.027818,0.120567,-0.6380184999999999,-0.018746
139,0.014660499999999993,0.5708555,-0.26527850000000003,-0.1339555,0.4608655,-0.0927575,-0.19352550000000002,0.24789550000000002,0.0177725,0.1662545,0.4483355,-0.0893205,0.2152045,0.2388955,0.014769500000000001,-0.21300550000000001,0.0606075,0.0209465,0.2297345,0.0418395,0.0188865,-0.0706035,0.0026104999999999982,-0.0010954999999999993,0.0706035,-0.0026105000000000017,0.001095500000000001,-0.1224255,-0.3157945,-0.054650500000000005,0.1136445,-0.3168645,-0.016469499999999998,-0.13327550000000002,-0.6420545000000001,-0.0238295,0.1211045,-0.6386245,-0.015002499999999998
140,0.0132875,0.571389,-0.26281299999999996,-0.13534849999999998,0.460509,-0.092359,-0.1941685,0.246799,0.01848,0.1651715,0.448559,-0.087741,0.2142415,0.238929,0.015626,-0.2133685,0.059334,0.021634,0.2287015,0.041106000000000004,0.019058000000000002,-0.07062850000000001,0.0024930000000000004,-0.0011729999999999996,0.07062850000000001,-0.0024929999999999987,0.0011730000000000004,-0.1224885,-0.316181,-0.053783,0.1135215,-0.316291,-0.017216000000000002,-0.1338385,-0.6433009999999999,-0.020284,0.12175150000000001,-0.639191,-0.01176
141,0.012119000000000005,0.5722265000000001,-0.260131,-0.136935,0.4602165,-0.0923,-0.19480499999999998,0.24581650000000002,0.019003,0.164145,0.4488065,-0.085618,0.21299500000000002,0.2389165,0.01656,-0.213775,0.058721499999999996,0.022815,0.227575,0.0415895,0.018791,-0.070635,0.0022864999999999986,-0.001208,0.070635,-0.0022865000000000003,0.0012079999999999999,-0.122535,-0.3164135,-0.051799000000000005,0.113505,-0.31582350000000003,-0.018154,-0.133515,-0.6442034999999999,-0.017133000000000002,0.12249500000000002,-0.6395835,-0.00919
142,0.011162999999999996,0.5733109999999999,-0.2574145,-0.13865700000000003,0.459971,-0.0926525,-0.194807,0.244961,0.0193765,0.16314299999999998,0.449151,-0.0836055,0.211773,0.238831,0.0170315,-0.21403699999999998,0.058226,0.0225355,0.226543,0.042095999999999995,0.0182505,-0.070644,0.002099,-0.0011015,0.070644,-0.002099,0.0011015,-0.122287,-0.316729,-0.0497635,0.113693,-0.315429,-0.0193665,-0.132737,-0.6449290000000001,-0.0145945,0.123353,-0.6398889999999999,-0.0074884999999999995
143,0.010174500000000003,0.5746255,-0.2554585,-0.1394285,0.4597055,-0.0915105,-0.1944985,0.2445155,0.019723499999999998,0.1622115,0.4494155,-0.0816435,0.2108315,0.2386455,0.0174145,-0.2141485,0.0578805,0.0213945,0.2256415,0.0422945,0.0172295,-0.07059850000000001,0.0019045,-0.0009594999999999998,0.07059850000000001,-0.0019045,0.0009594999999999998,-0.1217685,-0.3170745,-0.047773499999999997,0.11409150000000001,-0.3151045,-0.0206375,-0.1318785,-0.6455545,-0.0125985,0.1242915,-0.6400345000000001,-0.0064905
144,0.009142,0.5759615,-0.2542335,-0.14007999999999998,0.4595015,-0.09044050000000001,-0.19416,0.2440815,0.0199975,0.16143000000000002,0.4496015,-0.0804175,0.20992,0.23838150000000002,0.0174845,-0.21414,0.0574425,0.019838500000000002,0.22483,0.0413645,0.0160065,-0.07055600000000001,0.0017375000000000012,-0.0008455000000000008,0.07055600000000001,-0.0017374999999999995,0.0008454999999999999,-0.12117,-0.31733849999999997,-0.0465215,0.11454,-0.3148485,-0.021971499999999998,-0.13113,-0.6460684999999999,-0.011343500000000001,0.12513000000000002,-0.6402185,-0.0059465
145,0.008096500000000003,0.5773955000000001,-0.2528245,-0.1408275,0.45934549999999996,-0.08995349999999999,-0.19376749999999998,0.24370550000000002,0.020220500000000002,0.16116250000000001,0.44969549999999997,-0.0799225,0.2090025,0.2381855,0.0173005,-0.2136775,0.0570415,0.0180025,0.2237925,0.0411685,0.014526500000000001,-0.07052449999999999,0.001576499999999998,-0.0008664999999999992,0.07052449999999999,-0.0015765000000000015,0.0008665000000000001,-0.1208275,-0.3175345,-0.0460145,0.1148325,-0.3145645,-0.0233485,-0.13043749999999998,-0.6464344999999999,-0.010829499999999999,0.12564250000000002,-0.6403245,-0.0059665
146,0.007334000000000002,0.5787815,-0.2514345,-0.14177499999999998,0.45924149999999997,-0.08991550000000001,-0.193575,0.24293150000000002,0.0202795,0.160835,0.4497715,-0.07974450000000001,0.208115,0.2380215,0.0172235,-0.21343499999999999,0.0562085,0.016445500000000002,0.22263500000000003,0.0401825,0.012914499999999999,-0.070451,0.0014405000000000008,-0.0008085000000000002,0.070451,-0.0014404999999999973,0.0008084999999999993,-0.120675,-0.3178385,-0.045955499999999996,0.115065,-0.3143985,-0.0242695,-0.129535,-0.6467885,-0.0106965,0.125975,-0.6403885,-0.0061995
147,0.006588000000000002,0.5803969999999999,-0.24906450000000002,-0.142565,0.459177,-0.08993050000000001,-0.193575,0.242177,0.0202795,0.16041499999999997,0.449857,-0.0789015,0.20719500000000002,0.23777700000000002,0.0172055,-0.21342499999999998,0.055367,0.0154655,0.22134500000000001,0.038307999999999995,0.011570500000000001,-0.070451,0.0013729999999999992,-0.0008085000000000002,0.070451,-0.0013730000000000027,0.0008084999999999993,-0.12070499999999999,-0.318163,-0.0454515,0.115065,-0.314203,-0.024502500000000003,-0.128745,-0.6471030000000001,-0.0104475,0.126195,-0.6403930000000001,-0.0061955
148,0.006063000000000001,0.581619,-0.2458245,-0.14304499999999998,0.459169,-0.08963950000000001,-0.193575,0.241439,0.0202795,0.16023500000000002,0.449869,-0.07733150000000001,0.20658500000000002,0.23732899999999998,0.0171945,-0.213405,0.053208000000000005,0.0148975,0.220505,0.037087,0.0106745,-0.070451,0.001374000000000002,-0.0008085000000000002,0.070451,-0.0013740000000000002,0.0008084999999999993,-0.120725,-0.318501,-0.044477499999999996,0.115065,-0.314141,-0.024502500000000003,-0.12799500000000003,-0.647351,-0.010137499999999999,0.126575,-0.6401709999999999,-0.0061884999999999996
149,0.005720500000000003,0.582964,-0.242133,-0.1433625,0.459164,-0.087402,-0.1933925,0.24062399999999998,0.020968,0.1601575,0.449874,-0.07548099999999999,0.2063975,0.23666399999999999,0.01706,-0.21300249999999998,0.05064199999999999,0.014638000000000002,0.2203175,0.036506,0.010492999999999999,-0.0704535,0.0013949999999999987,-0.0006899999999999996,0.0704535,-0.0013950000000000004,0.0006899999999999996,-0.1207425,-0.31901599999999997,-0.043236,0.11512750000000001,-0.31413599999999997,-0.02462,-0.1272725,-0.647586,-0.009836999999999999,0.12716750000000002,-0.639896,-0.006296
150,0.005481500000000002,0.5844435,-0.2383035,-0.1434685,0.45912349999999996,-0.0853695,-0.1929785,0.2399835,0.021810499999999997,0.1600715,0.4499235,-0.0737795,0.2063615,0.2359435,0.0166895,-0.2126085,0.050056500000000004,0.0141155,0.2202815,0.0359025,0.0098835,-0.07041249999999999,0.0014035000000000002,-0.0005955000000000005,0.07041249999999999,-0.0014035000000000002,0.0005954999999999997,-0.1207885,-0.3194465,-0.0422915,0.1153215,-0.3140865,-0.0251455,-0.1266685,-0.6477965,-0.010061500000000001,0.1280315,-0.6391564999999999,-0.0064905
151,0.005241499999999996,0.586074,-0.2344365,-0.1437865,0.459084,-0.0833845,-0.1919565,0.23938399999999999,0.022877500000000002,0.15990349999999998,0.449984,-0.0722845,0.2062335,0.235254,0.0162625,-0.2119665,0.048275,0.0132865,0.22016349999999998,0.035685999999999996,0.0089225,-0.07037650000000001,0.0013640000000000006,-0.0004664999999999999,0.07037650000000001,-0.0013640000000000006,0.00046650000000000033,-0.1208465,-0.32001599999999997,-0.0415575,0.11562349999999999,-0.314046,-0.0254525,-0.1261865,-0.6479560000000001,-0.010617499999999998,0.12882349999999998,-0.638356,-0.0067415
152,0.004926499999999997,0.5875785,-0.2307645,-0.1441125,0.45903849999999996,-0.0815055,-0.19072250000000002,0.23880849999999998,0.024247499999999998,0.1598675,0.4499785,-0.0710975,0.20603749999999998,0.23453849999999998,0.0157575,-0.21156250000000001,0.0477955,0.0122905,0.2199875,0.0376025,0.0077945,-0.0703415,0.0013185000000000002,-0.0002474999999999999,0.0703415,-0.0013185000000000002,0.0002474999999999999,-0.1209325,-0.3206815,-0.0409705,0.1158675,-0.3142015,-0.0257355,-0.1258625,-0.6480214999999999,-0.011303500000000001,0.1295475,-0.6375915,-0.0070725
153,0.004518500000000001,0.589309,-0.227323,-0.1444605,0.45896899999999996,-0.07963200000000001,-0.1893805,0.23829899999999998,0.025833,0.1599495,0.449909,-0.07016,0.2061295,0.233879,0.015014,-0.2108205,0.045542,0.012354,0.2198895,0.038402,0.006657,-0.0703175,0.0012490000000000001,3.700000000000014e-05,0.0703175,-0.0012490000000000001,-3.700000000000014e-05,-0.1209905,-0.321411,-0.040454,0.1160895,-0.314381,-0.026479,-0.1256405,-0.648101,-0.012037,0.1302795,-0.636911,-0.007378000000000001
154,0.004145999999999998,0.59106,-0.2244325,-0.144725,0.45921,-0.0765695,-0.188535,0.23782,0.0282325,0.160165,0.44983,-0.0692305,0.206465,0.23328000000000002,0.014415500000000001,-0.210155,0.04323,0.0136205,0.219705,0.036121,0.0060475,-0.070246,0.0011780000000000002,0.0003365,0.070246,-0.0011780000000000002,-0.0003365,-0.12104500000000001,-0.32197000000000003,-0.0396555,0.116225,-0.31457,-0.0270825,-0.125485,-0.6482,-0.0123015,0.130915,-0.63646,-0.0074545
155,0.004026499999999996,0.5927445,-0.221313,-0.1450005,0.4595445,-0.072552,-0.18784050000000002,0.2372545,0.031039,0.1605395,0.44980450000000005,-0.06829600000000001,0.20691949999999998,0.2326945,0.014077000000000001,-0.2096305,0.040843500000000005,0.015469,0.2194995,0.033613500000000004,0.005637,-0.07016449999999999,0.0011155000000000002,0.0006840000000000001,0.07016449999999999,-0.0011154999999999984,-0.0006839999999999999,-0.12112049999999999,-0.32234549999999995,-0.038891,0.11630949999999998,-0.31480549999999996,-0.027428,-0.1253805,-0.6483555,-0.012308999999999999,0.13145949999999998,-0.6361255,-0.007356999999999999
156,0.004071499999999995,0.5944175,-0.218141,-0.14528249999999998,0.4598775,-0.068328,-0.18734250000000002,0.23667749999999999,0.033914,0.1608175,0.44980749999999997,-0.067366,0.20747749999999998,0.23223749999999999,0.013973000000000001,-0.20926250000000002,0.0403545,0.017504000000000002,0.2193075,0.031141500000000003,0.004986000000000001,-0.0700885,0.0010734999999999998,0.0008000000000000001,0.0700885,-0.0010734999999999998,-0.0007999999999999999,-0.1212025,-0.3225825,-0.038281,0.11634749999999999,-0.3151025,-0.027541,-0.1253825,-0.6484924999999999,-0.012169,0.13181749999999998,-0.6359524999999999,-0.007247
157,0.004109500000000002,0.596612,-0.21484499999999998,-0.1455805,0.46028199999999997,-0.063478,-0.1871205,0.236092,0.036812,0.1605995,0.449692,-0.066632,0.2078495,0.231922,0.013706,-0.2090605,0.037367,0.018449,0.2191395,0.028393,0.002654,-0.07002649999999999,0.0010109999999999997,0.000801,0.07002649999999999,-0.0010110000000000015,-0.0008010000000000001,-0.1212905,-0.322868,-0.037915000000000004,0.1163595,-0.315708,-0.027911,-0.1254505,-0.648748,-0.0119,0.13198949999999998,-0.636108,-0.007161000000000001
158,0.004008000000000001,0.5989835,-0.211439,-0.145839,0.46073349999999996,-0.060029000000000006,-0.18682900000000002,0.2353635,0.038904999999999995,0.16041100000000003,0.4496535,-0.065899,0.208181,0.2314035,0.013199,-0.20897900000000003,0.0345215,0.019114,0.219001,0.0253865,-7.0000000000002786e-06,-0.069967,0.0009195000000000002,0.0008609999999999998,0.069967,-0.0009195000000000002,-0.000861,-0.121369,-0.3232565,-0.037857,0.116341,-0.31635650000000004,-0.028404,-0.125519,-0.6491065,-0.01166,0.131961,-0.6363965,-0.007091000000000001
159,0.0038875000000000003,0.601866,-0.2078745,-0.14617549999999999,0.46107600000000004,-0.0563815,-0.1866155,0.234546,0.0406925,0.1602045,0.449706,-0.0650775,0.2082945,0.230786,0.0125775,-0.2090455,0.031543,0.0197135,0.2186845,0.023844999999999998,-0.0029435000000000004,-0.06988849999999999,0.0008179999999999993,0.0010915,0.06988849999999999,-0.000818000000000001,-0.0010915,-0.1214355,-0.32378399999999996,-0.0376295,0.11625450000000001,-0.31707399999999997,-0.0289545,-0.1256355,-0.6496040000000001,-0.011225500000000001,0.13174450000000001,-0.6368940000000001,-0.006861500000000001
160,0.003737500000000003,0.605294,-0.20393150000000002,-0.1466085,0.461354,-0.052463499999999996,-0.1865085,0.233514,0.0422045,0.1599615,0.449694,-0.0641275,0.2083615,0.229994,0.011818500000000001,-0.2089785,0.028333999999999998,0.0201525,0.2182615,0.022288,-0.0058455,-0.06976650000000001,0.0006909999999999989,0.0014644999999999999,0.06976650000000001,-0.0006910000000000006,-0.0014644999999999999,-0.1214885,-0.32446600000000003,-0.0371935,0.11612150000000002,-0.317946,-0.029319500000000002,-0.1257285,-0.650276,-0.0106845,0.1315115,-0.6375959999999999,-0.006428500000000001
161,0.003701999999999997,0.6096395,-0.1998355,-0.14692100000000002,0.4615795,-0.0485905,-0.186351,0.2327595,0.0431475,0.15975899999999998,0.4498695,-0.06282750000000001,0.20837899999999998,0.2291195,0.0110465,-0.208951,0.0253785,0.0207725,0.21781899999999998,0.020685500000000002,-0.008716499999999999,-0.069634,0.0005905000000000007,0.0017425,0.069634,-0.000590499999999999,-0.0017425000000000001,-0.121431,-0.3249905,-0.0366125,0.116029,-0.3188605,-0.029568499999999998,-0.125761,-0.6509604999999999,-0.0099675,0.13131900000000002,-0.6383504999999999,-0.005793500000000001
162,0.0038564999999999953,0.614697,-0.195241,-0.1472295,0.46179699999999996,-0.044366,-0.1861295,0.231987,0.043969999999999995,0.1595905,0.449997,-0.061370999999999995,0.2083805,0.22789700000000002,0.010447999999999999,-0.20889950000000002,0.022601999999999997,0.021591,0.2173705,0.01917,-0.011422999999999999,-0.0695095,0.0005190000000000004,0.001987,0.0695095,-0.0005190000000000004,-0.001987,-0.1212995,-0.32532300000000003,-0.036001000000000005,0.1159605,-0.31983300000000003,-0.029695000000000003,-0.1257995,-0.6516329999999999,-0.009103,0.1309405,-0.6394529999999999,-0.00511
163,0.004334499999999995,0.62063,-0.189956,-0.1474485,0.46168000000000003,-0.041172,-0.1858285,0.23086,0.044872999999999996,0.15952149999999998,0.45022,-0.059410000000000004,0.20842149999999998,0.2265,0.009947000000000001,-0.2084785,0.019288,0.021874,0.2166315,0.015858,-0.013942,-0.0693965,0.00046600000000000114,0.0021780000000000002,0.0693965,-0.0004659999999999994,-0.0021780000000000002,-0.1211185,-0.32564,-0.03537800000000001,0.11590149999999999,-0.32083,-0.029788,-0.1258185,-0.65217,-0.008173,0.1305915,-0.64059,-0.004383
164,0.005032500000000004,0.6274315,-0.18387199999999998,-0.1476155,0.4614315,-0.038845000000000005,-0.1854555,0.2294415,0.045787,0.1595545,0.4503815,-0.057224000000000004,0.2084345,0.2249815,0.009504,-0.20770550000000002,0.0165545,0.021220000000000003,0.2157145,0.011527500000000001,-0.016347,-0.0692795,0.0004404999999999999,0.0023510000000000002,0.0692795,-0.0004404999999999999,-0.002351,-0.12092549999999999,-0.3259985,-0.034798,0.11581450000000001,-0.3219385,-0.029824000000000003,-0.1258455,-0.6528084999999999,-0.007266999999999999,0.1302745,-0.6418185,-0.003689999999999999
165,0.006186499999999999,0.6349874999999999,-0.1772435,-0.1477655,0.46107750000000003,-0.0366365,-0.18480549999999998,0.2275875,0.0459845,0.15972450000000002,0.4504175,-0.0548195,0.2084645,0.22357749999999998,0.0091415,-0.2065555,0.015199500000000001,0.0188015,0.21478450000000002,0.006876500000000001,-0.0184425,-0.0691435,0.00044950000000000025,0.0024614999999999997,0.0691435,-0.0004494999999999985,-0.0024615,-0.12072550000000001,-0.3266225,-0.0342425,0.1156945,-0.3230125,-0.0296335,-0.1258455,-0.6536225,-0.0063555,0.1299945,-0.6430825,-0.0030434999999999993
166,0.007762999999999999,0.643103,-0.169992,-0.14789200000000002,0.46058299999999996,-0.035268,-0.184012,0.225633,0.045191999999999996,0.16021799999999997,0.45046299999999995,-0.052085,0.208428,0.222193,0.009014,-0.205252,0.012643999999999999,0.015871999999999997,0.21400799999999998,0.004142999999999999,-0.018978000000000002,-0.06901,0.0005309999999999994,0.0023959999999999997,0.06901,-0.0005310000000000002,-0.0023960000000000006,-0.120542,-0.32732700000000003,-0.033906,0.115558,-0.32407699999999995,-0.029085,-0.125862,-0.654447,-0.005632,0.12984800000000002,-0.644177,-0.0024200000000000003
167,0.009563000000000004,0.6514205000000001,-0.162086,-0.14801299999999998,0.4599105,-0.034205,-0.183173,0.2235705,0.043575,0.16084700000000002,0.45038049999999996,-0.049271999999999996,0.208487,0.2210405,0.008859,-0.203513,0.0106435,0.011798,0.213537,0.0018764999999999997,-0.019176,-0.068878,0.0006674999999999997,0.002221,0.068878,-0.0006675000000000006,-0.002220999999999999,-0.12029299999999998,-0.3281695,-0.033595,0.11541699999999999,-0.32519950000000003,-0.02858,-0.125843,-0.6553095,-0.0049770000000000005,0.129717,-0.6453095,-0.0018279999999999998
168,0.011725,0.6597999999999999,-0.1531835,-0.14805200000000002,0.45931,-0.0332845,-0.182292,0.22155999999999998,0.041237499999999996,0.161638,0.45022,-0.0464815,0.208758,0.22015,0.008550499999999999,-0.20106200000000002,0.008775,0.0065305,0.213418,0.0009759999999999994,-0.019125500000000004,-0.06875600000000001,0.0008079999999999997,0.0020714999999999996,0.06875600000000001,-0.0008080000000000006,-0.0020715000000000004,-0.11999199999999999,-0.32907,-0.0334665,0.115338,-0.32627,-0.0282315,-0.125782,-0.65622,-0.004514500000000001,0.12958799999999998,-0.64641,-0.0013725000000000005
169,0.013919999999999998,0.668108,-0.143271,-0.148022,0.45871799999999996,-0.032342,-0.18142200000000003,0.219688,0.038481,0.16250799999999999,0.449978,-0.043589,0.20911800000000003,0.21940800000000002,0.008158,-0.19819199999999998,0.007024,7.400000000000115e-05,0.21321800000000002,0.00016400000000000008,-0.019081,-0.068675,0.0009480000000000001,0.0018680000000000007,0.068675,-0.0009480000000000001,-0.0018679999999999999,-0.119692,-0.329882,-0.033425,0.115288,-0.327152,-0.027915000000000002,-0.125782,-0.657042,-0.004215999999999999,0.129388,-0.647412,-0.000961
170,0.016054000000000002,0.675861,-0.132751,-0.148003,0.45803099999999997,-0.031077000000000004,-0.180573,0.217721,0.035459,0.163357,0.449581,-0.040592,0.209717,0.21862099999999998,0.007715999999999999,-0.195223,0.005708,-0.006865,0.212917,-0.0006829999999999996,-0.019341,-0.06858399999999999,0.0010390000000000004,0.0016349999999999993,0.06858399999999999,-0.001039,-0.001635000000000001,-0.119533,-0.330729,-0.033169000000000004,0.115097,-0.32809900000000003,-0.027531000000000003,-0.125893,-0.6578890000000001,-0.0038260000000000013,0.129147,-0.648469,-0.00037100000000000154
171,0.018243000000000002,0.683757,-0.12054800000000002,-0.14787699999999998,0.457317,-0.029101000000000002,-0.179877,0.21589699999999998,0.032747,0.164383,0.449157,-0.037422,0.210453,0.21784699999999999,0.007349,-0.192257,0.004491,-0.014612,0.212773,-0.0010119999999999999,-0.020715,-0.068481,0.001055,0.0014560000000000007,0.068481,-0.0010550000000000004,-0.0014560000000000007,-0.119477,-0.331733,-0.032751,0.114803,-0.329033,-0.027011,-0.126087,-0.658783,-0.003300000000000001,0.128813,-0.649723,0.0003849999999999999
172,0.020058999999999997,0.6908065,-0.108514,-0.14765899999999998,0.45661650000000004,-0.026659,-0.17938900000000002,0.2146165,0.030587,0.16547099999999998,0.4488265,-0.03414299999999999,0.211341,0.21727649999999998,0.007214,-0.19166899999999998,0.0041405,-0.020331,0.212781,-0.00042850000000000006,-0.022434,-0.068387,0.0010475000000000003,0.001380000000000001,0.068387,-0.0010475000000000003,-0.0013799999999999993,-0.119359,-0.33268349999999997,-0.032272999999999996,0.114521,-0.32985349999999997,-0.026344999999999997,-0.126359,-0.6597434999999999,-0.002569,0.12844099999999997,-0.6508435,0.0012700000000000003
173,0.021273,0.6970305,-0.096708,-0.147487,0.4559605,-0.023614000000000003,-0.179267,0.2136305,0.029205,0.166433,0.44855049999999996,-0.030496000000000002,0.212063,0.2170105,0.007592,-0.191967,0.0041825000000000005,-0.024648000000000003,0.212733,0.0011375,-0.024221,-0.06823599999999999,0.0009845000000000001,0.0012399999999999998,0.06823599999999999,-0.0009844999999999997,-0.0012399999999999998,-0.119337,-0.33368950000000003,-0.031657,0.11408299999999999,-0.3305795,-0.025467999999999998,-0.126857,-0.6606194999999999,-0.0016059999999999998,0.12784299999999998,-0.6517394999999999,0.002404999999999999
174,0.021844500000000003,0.7023495,-0.085081,-0.1473575,0.4554795,-0.020267999999999998,-0.1796975,0.2129695,0.028999999999999998,0.1671025,0.4483995,-0.026470000000000004,0.21283249999999998,0.2171895,0.008416,-0.19280750000000002,0.0057615,-0.028181,0.2127625,0.0035095,-0.02614,-0.0680635,0.0008765,0.0011519999999999985,0.0680635,-0.0008765000000000001,-0.0011520000000000002,-0.1193875,-0.33494050000000003,-0.030944000000000003,0.1135125,-0.3311605,-0.024451999999999998,-0.1275575,-0.6614105,-0.0005400000000000005,0.12716249999999998,-0.6522505,0.0036939999999999994
175,0.021726,0.7069664999999999,-0.07347100000000001,-0.147267,0.4551165,-0.016324000000000005,-0.180527,0.2124365,0.029602999999999997,0.167183,0.4482965,-0.022291000000000005,0.213203,0.2177565,0.010114999999999999,-0.193857,0.0095235,-0.030195,0.213033,0.0070855,-0.027854000000000004,-0.067882,0.0007145,0.001143,0.067882,-0.0007144999999999999,-0.001143,-0.11945700000000001,-0.3360935,-0.030096000000000005,0.112843,-0.3316135,-0.023129000000000004,-0.128467,-0.6622035000000001,0.0007220000000000004,0.126293,-0.6526135,0.005426
176,0.021115,0.7110755,-0.062543,-0.147378,0.4549355,-0.012018999999999998,-0.181608,0.2119555,0.031103000000000002,0.166902,0.4483455,-0.017922,0.213052,0.21836550000000002,0.012251000000000001,-0.195138,0.0127275,-0.030675,0.213292,0.0114855,-0.029224,-0.0677,0.0005455,0.0011730000000000004,0.0677,-0.0005455,-0.001172999999999997,-0.119788,-0.3370745,-0.029072,0.112022,-0.3318045,-0.021454,-0.129628,-0.6628045,0.0022070000000000024,0.125172,-0.6527944999999999,0.007511000000000002
