sb224sc-HT22-VT27/4dt907/src/data/kinect_good_vs_bad_not_preprocessed_A13_mediapipe/W04.csv
FrameNo,nose_3d_x,nose_3d_y,nose_3d_z,left_shoulder_3d_x,left_shoulder_3d_y,left_shoulder_3d_z,left_elbow_3d_x,left_elbow_3d_y,left_elbow_3d_z,right_shoulder_3d_x,right_shoulder_3d_y,right_shoulder_3d_z,right_elbow_3d_x,right_elbow_3d_y,right_elbow_3d_z,left_wrist_3d_x,left_wrist_3d_y,left_wrist_3d_z,right_wrist_3d_x,right_wrist_3d_y,right_wrist_3d_z,left_hip_3d_x,left_hip_3d_y,left_hip_3d_z,right_hip_3d_x,right_hip_3d_y,right_hip_3d_z,left_knee_3d_x,left_knee_3d_y,left_knee_3d_z,right_knee_3d_x,right_knee_3d_y,right_knee_3d_z,left_ankle_3d_x,left_ankle_3d_y,left_ankle_3d_z,right_ankle_3d_x,right_ankle_3d_y,right_ankle_3d_z
0,0.011344,0.742842,-0.010980499999999997,-0.14216099999999998,0.464912,0.020464500000000004,-0.183931,0.238602,0.03606550000000001,0.154489,0.462582,0.020894500000000003,0.20132899999999998,0.236382,0.027789500000000005,-0.219291,0.06839600000000001,-0.0360915,0.22368900000000003,0.058802,-0.030548499999999992,-0.066976,0.0017100000000000001,-0.0004944999999999949,0.066976,-0.0017099999999999997,0.0004945000000000019,-0.112751,-0.317598,-0.0014494999999999925,0.107739,-0.320498,0.004894500000000003,-0.105441,-0.6389680000000001,0.036215500000000005,0.121239,-0.6306780000000001,0.035397500000000005
1,0.011261999999999994,0.742788,-0.010245999999999998,-0.14208500000000002,0.464988,0.020515000000000005,-0.19383499999999998,0.240288,0.031977000000000005,0.152735,0.463668,0.021027000000000004,0.20871499999999998,0.25203800000000004,0.019917000000000004,-0.23319499999999999,0.079267,-0.048426000000000004,0.233205,0.065767,-0.045257,-0.067052,0.001654,-0.0004720000000000002,0.067052,-0.001654,0.0004720000000000002,-0.11286500000000001,-0.31757199999999997,-0.0013029999999999986,0.10772499999999999,-0.32035199999999997,0.005016000000000003,-0.105295,-0.640632,0.0369,0.121205,-0.630752,0.035453000000000005
2,0.011089000000000005,0.7428215,-0.009386499999999999,-0.142113,0.4652315,0.0214045,-0.206503,0.2480815,0.0245145,0.151887,0.4641515,0.0206335,0.214997,0.2571715,0.013569499999999998,-0.26136299999999996,0.1097615,-0.0655915,0.252607,0.0864305,-0.06841449999999999,-0.06720999999999999,0.0015334999999999997,-0.00035149999999999765,0.06720999999999999,-0.0015335000000000001,0.00035149999999999765,-0.113173,-0.3180385,-0.000726499999999998,0.107627,-0.3202385,0.0053904999999999995,-0.105043,-0.6414084999999999,0.0370965,0.12109700000000001,-0.6307185,0.0355705
3,0.010725500000000004,0.7427155,-0.008913500000000005,-0.14126450000000002,0.4656155,0.020465499999999998,-0.22215449999999998,0.2615455,0.010184499999999999,0.15156550000000002,0.4642555,0.0195715,0.22356550000000003,0.2641855,-0.0011075000000000043,-0.2707145,0.1197455,-0.07809150000000001,0.2771555,0.08455750000000001,-0.1110815,-0.0674695,0.0014725000000000003,-0.0004714999999999997,0.0674695,-0.0014724999999999999,0.0004714999999999997,-0.1135045,-0.3179845,-0.00028250000000000497,0.1073955,-0.3200145,0.005494499999999999,-0.1054145,-0.6414545,0.0373065,0.1211055,-0.6302245000000001,0.0354055
4,0.010600499999999999,0.741989,-0.008395999999999994,-0.1407365,0.465699,0.019790000000000002,-0.2347465,0.281979,-0.00029099999999999265,0.1507335,0.465259,0.019260000000000006,0.2348035,0.28057899999999997,-0.018246999999999992,-0.2977065,0.158469,-0.106468,0.2931635,0.131399,-0.118628,-0.06765850000000001,0.0012279999999999997,-0.0005809999999999982,0.06765850000000001,-0.001228,0.0005810000000000051,-0.11384649999999999,-0.31828100000000004,5.300000000000443e-05,0.1073635,-0.31955100000000003,0.005646000000000005,-0.10557649999999999,-0.642691,0.037382000000000006,0.1209635,-0.630501,0.03521200000000001
5,0.010219999999999998,0.741164,-0.007540499999999999,-0.140293,0.467474,0.0206605,-0.250043,0.299364,-0.011769500000000002,0.149157,0.465694,0.0183505,0.244317,0.292184,-0.029650500000000003,-0.323013,0.184694,-0.1339005,0.31005699999999997,0.155524,-0.1383905,-0.067775,0.00107,-0.00044149999999999745,0.067775,-0.0010699999999999998,0.00044149999999999745,-0.114373,-0.316086,0.00036850000000000077,0.107087,-0.31973599999999996,0.0056825,-0.107643,-0.638796,0.0376045,0.120777,-0.631146,0.0347605
6,0.010085,0.7406659999999999,-0.006865000000000003,-0.140395,0.467586,0.020451999999999998,-0.265845,0.327476,-0.024681,0.14737499999999998,0.466946,0.017334,0.25749500000000003,0.304726,-0.045279,-0.342725,0.232286,-0.150017,0.336055,0.201196,-0.16206700000000002,-0.067899,0.000918,2.4999999999997247e-05,0.067899,-0.000918,-2.5000000000004186e-05,-0.114625,-0.314534,0.00031699999999999784,0.106825,-0.320284,0.005254999999999999,-0.108525,-0.6373040000000001,0.037832,0.120695,-0.6319640000000001,0.034436
7,0.0105375,0.7374499999999999,-0.006265500000000007,-0.1424555,0.46960999999999997,0.020638499999999997,-0.2795455,0.37954,-0.0439595,0.1519845,0.47067,0.016453499999999996,0.2766045,0.37505,-0.06561650000000001,-0.3618155,0.33064,-0.17794949999999998,0.3613845,0.30471,-0.2024395,-0.06782750000000001,0.0008419999999999999,0.0006884999999999947,0.06782750000000001,-0.000842,-0.0006885000000000016,-0.11445549999999999,-0.31793,-0.0001465000000000008,0.10645450000000001,-0.32229,0.005346499999999997,-0.10815549999999999,-0.63812,0.0357235,0.1211845,-0.6333,0.03380349999999999
8,0.010549500000000005,0.735489,-0.005516500000000001,-0.14259249999999998,0.470939,0.0204325,-0.2880125,0.41293899999999994,-0.053603500000000005,0.15258750000000001,0.473109,0.0155005,0.2852675,0.40996900000000003,-0.07682049999999999,-0.3746625,0.392699,-0.1935005,0.3742475,0.36873900000000004,-0.2169805,-0.0678135,0.0007070000000000002,0.0010755,0.0678135,-0.0007069999999999997,-0.0010755,-0.11462249999999999,-0.318731,-0.0003024999999999972,0.10624750000000001,-0.32359099999999996,0.005348499999999999,-0.1083425,-0.639611,0.0353325,0.12124750000000001,-0.6346510000000001,0.0335765
9,0.010607999999999998,0.7333054999999999,-0.004693999999999997,-0.14276100000000003,0.47273550000000003,0.020142,-0.293591,0.4466955,-0.06135,0.153389,0.4755255,0.014547000000000001,0.292089,0.4449055,-0.085021,-0.382591,0.4554855,-0.203971,0.38375899999999996,0.43404550000000003,-0.228431,-0.067784,0.0005734999999999994,0.0013870000000000028,0.067784,-0.0005735000000000002,-0.0013869999999999993,-0.114741,-0.3197645,-0.0006099999999999994,0.106049,-0.3251845,0.005347000000000001,-0.108461,-0.6414145,0.035022000000000005,0.121289,-0.6362745000000001,0.033416
10,0.010709499999999997,0.7309199999999999,-0.0037955000000000003,-0.1428435,0.47449,0.0200135,-0.29666349999999997,0.4809,-0.0671805,0.1543365,0.47825,0.0136615,0.2970965,0.48083000000000004,-0.0909285,-0.3860835,0.5190199999999999,-0.20921849999999997,0.38982649999999996,0.50103,-0.23529849999999997,-0.0677445,0.000451,0.0015154999999999995,0.0677445,-0.000451,-0.001515500000000003,-0.1148535,-0.32125,-0.000737500000000002,0.1058665,-0.32693,0.0053395000000000005,-0.1085735,-0.64381,0.0348945,0.12132649999999999,-0.6381,0.0334275
11,0.0108365,0.7283734999999999,-0.002985999999999999,-0.1428995,0.4765335,0.020014999999999998,-0.29680949999999995,0.5141735,-0.071037,0.1552505,0.4809935,0.012852999999999996,0.29965050000000004,0.5176934999999999,-0.09386699999999999,-0.3862095,0.5803434999999999,-0.210957,0.39140050000000004,0.5667534999999999,-0.23722700000000002,-0.0677015,0.0003394999999999995,0.001514999999999999,0.0677015,-0.0003394999999999995,-0.001514999999999999,-0.11495949999999999,-0.32316649999999997,-0.000736000000000004,0.1057105,-0.3287865,0.005364999999999998,-0.1086795,-0.6464065,0.03483,0.12133050000000001,-0.6402365000000001,0.033512
12,0.0109745,0.7257100000000001,-0.002430999999999999,-0.1429525,0.47853999999999997,0.020125999999999998,-0.2969325,0.54406,-0.071505,0.1562475,0.48375,0.012184999999999998,0.2995375,0.54906,-0.09375499999999999,-0.3863225,0.63604,-0.210845,0.3912875,0.62525,-0.23711500000000002,-0.0676455,0.00022900000000000004,0.001625999999999999,0.0676455,-0.00022900000000000004,-0.001625999999999999,-0.1150625,-0.32520000000000004,-0.000624000000000003,0.1055875,-0.33092,0.005476999999999999,-0.1087925,-0.6491199999999999,0.034767,0.1212775,-0.64261,0.033625
13,0.011073000000000003,0.7227915,-0.0020680000000000004,-0.143122,0.48066149999999996,0.020275,-0.297102,0.5735115000000001,-0.071242,0.157138,0.48665149999999996,0.011680000000000003,0.299368,0.5798015000000001,-0.09349199999999999,-0.386492,0.6889415,-0.210582,0.391118,0.6828015000000001,-0.236852,-0.06757099999999999,0.00013250000000000067,0.0018860000000000023,0.06757099999999999,-0.00013250000000000067,-0.0018859999999999988,-0.115152,-0.32746850000000005,-0.0006419999999999967,0.10539799999999999,-0.33334850000000005,0.005740000000000002,-0.108742,-0.6519085,0.034771,0.121108,-0.6455885,0.033888
14,0.0111765,0.7201919999999999,-0.0017059999999999992,-0.14331950000000002,0.48279200000000005,0.020471,-0.2970395,0.597032,-0.070887,0.15752049999999998,0.489172,0.01131,0.2991705,0.6045419999999999,-0.09312699999999999,-0.3862995,0.732452,-0.21021700000000001,0.3909205,0.7295919999999999,-0.23648700000000003,-0.06749150000000001,6.400000000000156e-05,0.0022199999999999998,0.06749150000000001,-6.399999999999809e-05,-0.0022199999999999998,-0.1151295,-0.329648,-0.0008200000000000013,0.1051705,-0.33582799999999996,0.006104999999999999,-0.1085895,-0.6549980000000001,0.034786,0.1209105,-0.6483380000000001,0.034253
15,0.0112815,0.7175355,-0.001018000000000005,-0.1434055,0.48510549999999997,0.020456999999999996,-0.2936055,0.6171455,-0.07022600000000001,0.1576445,0.49159549999999996,0.011361999999999997,0.2976745,0.6257755,-0.09234600000000001,-0.3807755,0.7705055,-0.20564600000000002,0.3872545,0.7718455,-0.23100600000000002,-0.0673865,-1.2500000000002093e-05,0.0024919999999999977,0.0673865,1.2499999999998623e-05,-0.002492000000000001,-0.1149955,-0.3320245,-0.0009920000000000068,0.1048945,-0.3385145,0.006493999999999996,-0.1083155,-0.6582645,0.034989,0.1206945,-0.6511645,0.034943999999999996
16,0.011428999999999996,0.7150405000000001,0.0001850000000000046,-0.143129,0.4876605,0.020694000000000004,-0.288659,0.6339705,-0.067868,0.157351,0.4932705,0.012268000000000005,0.294341,0.6418305000000001,-0.088868,-0.371319,0.7994305,-0.195378,0.376411,0.8025505,-0.213758,-0.067286,-8.249999999999924e-05,0.0026840000000000024,0.067286,8.249999999999924e-05,-0.002683999999999999,-0.114599,-0.3346195,-0.0014819999999999972,0.104541,-0.3414595,0.007008000000000004,-0.107979,-0.6620094999999999,0.035112000000000004,0.12030099999999999,-0.6543595,0.03583600000000001
17,0.011575999999999998,0.712639,0.001513499999999994,-0.142465,0.489969,0.021262499999999997,-0.279015,0.648479,-0.0610185,0.15703499999999998,0.494849,0.013674499999999996,0.286505,0.654789,-0.07835550000000001,-0.356565,0.8237990000000001,-0.17739549999999998,0.362965,0.829269,-0.1933855,-0.067206,-0.00017599999999999907,0.002859499999999994,0.067206,0.00017599999999999907,-0.002859500000000001,-0.114095,-0.33697099999999997,-0.002551500000000005,0.10413499999999999,-0.344381,0.007652499999999996,-0.10724500000000001,-0.667011,0.0355075,0.119825,-0.6578309999999999,0.037037499999999994
18,0.011689000000000003,0.7102725,0.002578000000000004,-0.141523,0.4918125,0.022355000000000003,-0.26926300000000003,0.6606624999999999,-0.053024,0.156577,0.4962925,0.015805000000000003,0.27752699999999997,0.6668525,-0.066145,-0.341393,0.8441225,-0.158265,0.347037,0.8513324999999999,-0.168435,-0.067102,-0.00015249999999999986,0.0028680000000000025,0.067102,0.00015249999999999986,-0.0028679999999999956,-0.11349300000000001,-0.3393275,-0.0036389999999999964,0.10358700000000001,-0.3475575,0.008671000000000005,-0.105933,-0.6714275000000001,0.036226,0.119197,-0.6616475,0.038661
19,0.011654999999999999,0.7078865,0.003539500000000001,-0.14066399999999998,0.4931765,0.0237645,-0.26031400000000005,0.6705265,-0.044943500000000004,0.15576600000000002,0.49707650000000003,0.0180715,0.268316,0.6767965,-0.0537665,-0.327114,0.8612165,-0.1387805,0.331526,0.8694065,-0.1440905,-0.06698699999999999,-1.5500000000001624e-05,0.002658500000000001,0.06698699999999999,1.5500000000001624e-05,-0.002658500000000001,-0.11286399999999999,-0.3416935,-0.004198500000000001,0.103026,-0.3508135,0.0097835,-0.104734,-0.6749634999999999,0.0373125,0.118426,-0.6656635,0.0403465
20,0.011587999999999994,0.705718,0.004219499999999994,-0.13978800000000002,0.49431800000000004,0.025219499999999995,-0.251848,0.6784479999999999,-0.037296499999999996,0.154682,0.49770799999999993,0.020134499999999996,0.259752,0.684448,-0.042203500000000005,-0.313628,0.875508,-0.1203525,0.317062,0.883618,-0.1214025,-0.066898,0.00012199999999999711,0.0022304999999999964,0.066898,-0.00012200000000000405,-0.0022305000000000033,-0.11215800000000001,-0.34379200000000004,-0.003995500000000006,0.102452,-0.353682,0.010859499999999998,-0.103658,-0.678062,0.0385135,0.117612,-0.669512,0.0418205
21,0.011404999999999998,0.703592,0.004267,-0.138992,0.49492200000000003,0.026465000000000002,-0.244582,0.684302,-0.030507,0.15348799999999999,0.49784199999999995,0.021835,0.25085799999999997,0.6907019999999999,-0.031521,-0.301112,0.8868720000000001,-0.10294499999999998,0.302558,0.8953819999999999,-0.099635,-0.06683,0.0002580000000000013,0.0017479999999999996,0.06683,-0.0002580000000000013,-0.0017479999999999996,-0.111362,-0.345498,-0.0037859999999999977,0.101778,-0.356748,0.011714000000000002,-0.10297,-0.681098,0.039532000000000005,0.11670799999999999,-0.6733880000000001,0.042855000000000004
22,0.011181,0.70168,0.0039030000000000037,-0.138321,0.49522,0.027536,-0.237951,0.6891,-0.024371000000000004,0.152169,0.49775,0.023488000000000002,0.242199,0.6956600000000001,-0.021825999999999998,-0.28987100000000005,0.89592,-0.08719899999999998,0.28777899999999995,0.90485,-0.078579,-0.066747,0.0003989999999999966,0.0013120000000000007,0.066747,-0.0003990000000000035,-0.0013120000000000007,-0.11064099999999999,-0.34697999999999996,-0.0035159999999999983,0.101089,-0.35973999999999995,0.012428000000000002,-0.102404,-0.68396,0.040260000000000004,0.115759,-0.67707,0.043549000000000004
23,0.0107605,0.6995045,0.003380999999999995,-0.1379275,0.49509450000000005,0.028404999999999996,-0.2327575,0.6925144999999999,-0.018252000000000004,0.1506425,0.4973045,0.025044999999999998,0.2338025,0.6995944999999999,-0.013079,-0.2800175,0.9029045,-0.07223600000000001,0.2739625,0.9124745000000001,-0.05995600000000001,-0.0666935,0.00048050000000000176,0.0008489999999999956,0.0666935,-0.00048050000000000176,-0.0008490000000000025,-0.1101275,-0.3482355,-0.0032030000000000045,0.1003125,-0.3630255,0.012991999999999997,-0.1020585,-0.6868055,0.040750999999999996,0.1147125,-0.6808455,0.044022
24,0.010317,0.697387,0.002612000000000003,-0.137731,0.494447,0.028960000000000003,-0.227971,0.695027,-0.012470000000000002,0.149149,0.49685700000000005,0.026358000000000003,0.226239,0.702687,-0.005287,-0.271421,0.9081769999999999,-0.05858,0.261599,0.9181969999999999,-0.044129999999999996,-0.066647,0.0006149999999999975,0.00036599999999999827,0.066647,-0.0006149999999999975,-0.00036599999999999827,-0.109721,-0.349313,-0.0028880000000000017,0.099589,-0.366183,0.013407000000000002,-0.101853,-0.688813,0.041022,0.113709,-0.684493,0.044133
25,0.009817000000000003,0.695615,0.0018084999999999976,-0.137911,0.49339500000000003,0.0291375,-0.224371,0.696235,-0.0074154999999999985,0.147899,0.49629500000000004,0.027272499999999998,0.220289,0.704415,0.00033049999999999746,-0.265301,0.910985,-0.04835350000000001,0.252019,0.9213250000000001,-0.033216499999999996,-0.066622,0.0007530000000000037,0.00018949999999999523,0.066622,-0.0007529999999999967,-0.00018950000000000217,-0.109621,-0.34979499999999997,-0.0027124999999999996,0.09894900000000001,-0.368695,0.013589499999999997,-0.10170799999999999,-0.689815,0.0411655,0.112919,-0.686955,0.0441815
26,0.009239000000000004,0.6939690000000001,0.0010649999999999965,-0.13821499999999998,0.492159,0.029141,-0.22244499999999998,0.696299,-0.0029510000000000022,0.146935,0.495479,0.028103,0.21527500000000002,0.705659,0.005247000000000002,-0.26054499999999997,0.912509,-0.03959000000000001,0.242965,0.923929,-0.023271000000000007,-0.066589,0.0009210000000000051,0.00018900000000000167,0.066589,-0.0009209999999999982,-0.00018900000000000167,-0.109695,-0.350291,-0.002711999999999999,0.098345,-0.371001,0.013595999999999997,-0.101876,-0.690421,0.041167999999999996,0.11218499999999999,-0.689151,0.044073
27,0.008721500000000004,0.69262,0.0010699999999999946,-0.1386725,0.49084,0.029306,-0.22113249999999998,0.69594,0.0009499999999999995,0.1462275,0.49469,0.028886999999999996,0.21131750000000002,0.7059500000000001,0.008101999999999998,-0.2581625,0.9128799999999999,-0.032766,0.2367575,0.9249,-0.01703600000000001,-0.0665595,0.0009849999999999998,0.00018899999999999473,0.0665595,-0.0009849999999999998,-0.00018900000000000167,-0.10984250000000001,-0.35056,-0.002710000000000004,0.0978975,-0.37274,0.013599999999999994,-0.1020315,-0.6907399999999999,0.041159999999999995,0.1116675,-0.6907099999999999,0.044062
28,0.008273999999999997,0.691562,0.0008219999999999963,-0.13901,0.489952,0.029608,-0.22041,0.695612,0.004362999999999999,0.14558,0.49418199999999995,0.029450999999999998,0.20843,0.7060820000000001,0.010006000000000001,-0.25705,0.912872,-0.027602,0.23155,0.925482,-0.012372000000000001,-0.066565,0.0009219999999999992,-6.400000000000156e-05,0.066565,-0.0009219999999999992,6.400000000000156e-05,-0.11004000000000001,-0.350678,-0.0023229999999999987,0.09752999999999999,-0.374058,0.013622000000000002,-0.102108,-0.6918979999999999,0.041222999999999996,0.11121999999999999,-0.6919379999999999,0.043814
29,0.007857999999999997,0.6904575,0.00028049999999999603,-0.13933600000000002,0.4889175,0.0299375,-0.22079600000000002,0.6948175,0.007162499999999995,0.14474399999999998,0.4942774999999999,0.0303845,0.206264,0.7066574999999999,0.011377499999999999,-0.256876,0.9123875,-0.022724499999999995,0.227164,0.9265975,-0.0088185,-0.066551,0.0008085000000000037,-0.0005285000000000012,0.066551,-0.0008084999999999967,0.0005285000000000012,-0.11027500000000001,-0.3509825,-0.0014795000000000016,0.09719399999999999,-0.3753225,0.013520499999999998,-0.10216,-0.6929825000000001,0.0411775,0.11079399999999999,-0.6931625,0.0432725
30,0.007237999999999998,0.6895465000000001,-0.0006919999999999982,-0.13966800000000001,0.48809650000000004,0.029820000000000006,-0.22109800000000002,0.6938265,0.009183000000000004,0.143962,0.49555649999999996,0.031062000000000006,0.20488199999999998,0.7080765,0.011683000000000006,-0.257168,0.9114165,-0.019608,0.224302,0.9282865,-0.007660999999999994,-0.06655,0.0007104999999999959,-0.0008619999999999947,0.06655,-0.0007105000000000028,0.0008620000000000017,-0.110541,-0.3515235,-0.0008489999999999956,0.09697199999999999,-0.3763935,0.013004000000000005,-0.102136,-0.6939735,0.04065900000000001,0.11046199999999999,-0.6941134999999999,0.042100000000000005
31,0.006605999999999997,0.6888685,-0.0015960000000000002,-0.13997700000000002,0.48745849999999996,0.029824000000000003,-0.221287,0.6930285,0.010876000000000004,0.143033,0.49660849999999995,0.031420000000000003,0.203983,0.7092885000000001,0.011499000000000002,-0.257357,0.9106185,-0.017598999999999997,0.22325299999999998,0.9295085000000001,-0.008662999999999997,-0.066541,0.0005325000000000052,-0.0011089999999999989,0.066541,-0.0005324999999999983,0.0011089999999999989,-0.110674,-0.3519415,-0.0007599999999999968,0.096823,-0.37721150000000003,0.012257000000000004,-0.10203,-0.6947715,0.039707,0.110233,-0.6949114999999999,0.040611
32,0.006033499999999997,0.688592,-0.0022900000000000004,-0.1400515,0.487182,0.029864,-0.2214415,0.692612,0.012046000000000001,0.1420985,0.497722,0.031583,0.2034285,0.710062,0.010883,-0.2574215,0.910202,-0.01679,0.2228485,0.930252,-0.009737000000000003,-0.0665425,0.00042600000000000277,-0.0010980000000000018,0.0665425,-0.0004259999999999958,0.0010980000000000018,-0.1106985,-0.352358,-0.0015070000000000014,0.0967685,-0.377648,0.011476,-0.1017935,-0.695188,0.038504,0.1101485,-0.695328,0.039192
33,0.005362499999999996,0.688535,-0.002519500000000001,-0.1400515,0.487125,0.0300115,-0.2220615,0.692365,0.0128955,0.1412585,0.49871499999999996,0.0318905,0.2032185,0.7106950000000001,0.010408499999999998,-0.2581015,0.909995,-0.016468500000000004,0.2225885,0.9308550000000001,-0.010633500000000004,-0.0665355,0.0002600000000000033,-0.0010685,0.0665355,-0.00025999999999999635,0.0010685,-0.11071550000000001,-0.352565,-0.002299500000000003,0.0967685,-0.377855,0.0107585,-0.1016665,-0.6949449999999999,0.0372945,0.11012849999999999,-0.6955349999999999,0.0380105
34,0.004558499999999998,0.6885479999999999,-0.002537499999999998,-0.1400845,0.48702799999999996,0.0301915,-0.2230645,0.6920379999999999,0.012802500000000001,0.1403255,0.49956799999999996,0.0321305,0.2030255,0.7111679999999999,0.009996500000000002,-0.2593645,0.909628,-0.016613500000000003,0.2223055,0.931268,-0.011563499999999997,-0.0665355,8.299999999999974e-05,-0.0010825000000000001,0.0665355,-8.299999999999974e-05,0.0010825000000000001,-0.1107515,-0.352742,-0.0032674999999999996,0.0967555,-0.378032,0.0100185,-0.10165650000000001,-0.694462,0.0360815,0.11011549999999999,-0.695712,0.0368455
35,0.003669499999999999,0.6885874999999999,-0.0024460000000000037,-0.1401235,0.4869075,0.030438999999999997,-0.2243835,0.6913975000000001,0.012677999999999998,0.1391165,0.5002975000000001,0.032392,0.2027665,0.7115075,0.009692999999999997,-0.2612235,0.9089175,-0.016937,0.2220365,0.9315275000000001,-0.012502000000000006,-0.0665225,-7.750000000000118e-05,-0.0010720000000000035,0.0665225,7.750000000000118e-05,0.0010719999999999966,-0.1108375,-0.3529625,-0.004254000000000001,0.0967465,-0.3782825,0.009320999999999996,-0.1016105,-0.6940725000000001,0.034969999999999994,0.11011649999999999,-0.6958724999999999,0.035764
36,0.002663500000000001,0.6886694999999999,-0.0022664999999999977,-0.1402495,0.4867495,0.0309765,-0.2258095,0.6908394999999999,0.012348500000000002,0.1377405,0.5010895,0.0327445,0.20251049999999998,0.7118895,0.0094885,-0.26329949999999996,0.9082494999999999,-0.017327499999999996,0.2218405,0.9318295,-0.013496500000000002,-0.0665245,-0.00023050000000000154,-0.0009904999999999983,0.0665245,0.00023050000000000154,0.0009905000000000053,-0.1109255,-0.3533705,-0.005237499999999999,0.09673050000000001,-0.3784905,0.008678500000000002,-0.10137149999999999,-0.6940005,0.033932500000000004,0.1101405,-0.6960205,0.0347895
37,0.0014734999999999974,0.68878,-0.001925000000000003,-0.1404725,0.48665,0.031633999999999995,-0.2273425,0.6907,0.011942999999999999,0.13614749999999998,0.5017699999999999,0.033132,0.20213749999999997,0.71213,0.009446,-0.2654425,0.90811,-0.018123,0.22168749999999998,0.93199,-0.014679000000000005,-0.0665135,-0.00037000000000000227,-0.0009209999999999982,0.0665135,0.00037000000000000227,0.0009209999999999982,-0.1109425,-0.35377000000000003,-0.006096000000000004,0.0967275,-0.37863,0.008038,-0.1012215,-0.69387,0.033061,0.1102075,-0.6960500000000001,0.033983
38,0.00014149999999999927,0.6890175,-0.001389499999999995,-0.1409415,0.48670749999999996,0.032357500000000004,-0.2289815,0.6906675,0.011521500000000004,0.13460850000000002,0.5022775,0.033196500000000004,0.20165850000000002,0.7124875,0.009489500000000001,-0.2677415,0.9080775,-0.0186975,0.2212285,0.9323275,-0.015272499999999994,-0.0665075,-0.00047549999999999676,-0.0008654999999999982,0.0665075,0.0004755000000000037,0.0008655000000000052,-0.1109715,-0.3540925,-0.006694499999999999,0.0967285,-0.3786625,0.007546500000000001,-0.1007885,-0.6943025,0.0324375,0.1102485,-0.6959825,0.033447500000000005
39,-0.0010319999999999965,0.6892265,-0.0009360000000000063,-0.14151999999999998,0.4868365,0.033234999999999994,-0.23063,0.6906365,0.011102999999999995,0.1331,0.5031265,0.03295699999999999,0.20116,0.7130965,0.009453999999999997,-0.26977999999999996,0.9078865,-0.019112000000000004,0.22076,0.9328965,-0.015704000000000003,-0.066494,-0.0005785000000000026,-0.0008310000000000053,0.066494,0.0005784999999999957,0.0008309999999999984,-0.11098,-0.3543335,-0.007175000000000001,0.09677000000000001,-0.3786935,0.0071359999999999965,-0.10031799999999999,-0.6955235,0.031929,0.11031,-0.6960335,0.033011
40,-0.0024075,0.6894605,-0.0005454999999999974,-0.14287650000000002,0.48722050000000006,0.033662500000000005,-0.23293650000000002,0.6904905,0.010761500000000004,0.1317735,0.5038805000000001,0.032822500000000004,0.20054349999999999,0.7136505000000001,0.009369500000000003,-0.27227650000000003,0.9075805,-0.019451499999999997,0.2202535,0.9334205,-0.0165185,-0.0664885,-0.0006815000000000015,-0.0007584999999999953,0.0664885,0.0006815000000000015,0.0007585000000000022,-0.1108265,-0.35457950000000005,-0.0076595,0.0968835,-0.3786695,0.006773500000000002,-0.0996765,-0.6967795,0.0315075,0.11056350000000001,-0.6960995,0.032643500000000006
41,-0.004056000000000001,0.689737,-0.00028399999999999953,-0.144289,0.48760699999999996,0.033882999999999996,-0.23483900000000002,0.690397,0.010467999999999998,0.13033099999999997,0.503857,0.032522999999999996,0.19983099999999998,0.713337,0.009236999999999999,-0.274739,0.907347,-0.020598000000000005,0.21985100000000002,0.9329470000000001,-0.017243,-0.066481,-0.0008109999999999992,-0.000784,0.066481,0.0008109999999999992,0.000784,-0.110569,-0.354683,-0.008083,0.096981,-0.378583,0.006458999999999996,-0.098883,-0.697843,0.031113,0.110941,-0.696183,0.032319
42,-0.005902999999999998,0.690008,-0.00012999999999999817,-0.14574299999999998,0.48783800000000005,0.033869,-0.236733,0.6902579999999999,0.010110000000000004,0.12871700000000003,0.504608,0.032369,0.199157,0.714158,0.009065000000000004,-0.277173,0.9070579999999999,-0.021921999999999997,0.21946700000000002,0.933618,-0.018060999999999994,-0.066464,-0.0009279999999999983,-0.0008009999999999962,0.066464,0.0009279999999999983,0.0008010000000000031,-0.110283,-0.35469199999999995,-0.008471,0.097047,-0.378432,0.006171000000000003,-0.098093,-0.699002,0.030717000000000005,0.111167,-0.6964020000000001,0.031977000000000005
43,-0.0077564999999999995,0.6902055,-0.00015899999999999942,-0.1470885,0.48796550000000005,0.033824,-0.2384485,0.6899855,0.009533,0.1272715,0.5045955,0.032173,0.1985315,0.7141155,0.008840999999999998,-0.2794185,0.9067255000000001,-0.023196,0.2196015,0.9335655,-0.018826000000000002,-0.0664385,-0.0010034999999999974,-0.0007990000000000011,0.0664385,0.0010034999999999974,0.0007990000000000011,-0.1098985,-0.3548145,-0.008856000000000003,0.0971715,-0.37833449999999996,0.005892999999999999,-0.0973545,-0.6995745,0.030244,0.1115315,-0.6966645,0.031659
44,-0.009699500000000002,0.6904279999999999,-0.00026500000000000135,-0.1484475,0.488058,0.033620000000000004,-0.24009750000000002,0.689798,0.008663,0.12600250000000002,0.5045879999999999,0.031845,0.1979825,0.714108,0.008594000000000001,-0.28144749999999996,0.906428,-0.024522000000000002,0.2194525,0.933558,-0.019561999999999996,-0.0664275,-0.0010879999999999987,-0.0008190000000000003,0.0664275,0.0010879999999999987,0.0008190000000000003,-0.1094275,-0.35490200000000005,-0.009279999999999997,0.0973725,-0.378162,0.005555000000000001,-0.0965735,-0.699752,0.029735,0.1120425,-0.6968920000000001,0.031314
45,-0.0118875,0.6905304999999999,-0.0004965000000000039,-0.1498555,0.4884605,0.0334625,-0.2417655,0.6899704999999999,0.0076875,0.1246145,0.5048104999999999,0.0316225,0.19727450000000002,0.7140205,0.0083465,-0.2833655,0.9064605,-0.025828499999999997,0.2194145,0.9334705,-0.0202115,-0.0663805,-0.0011795,-0.0009245000000000017,0.0663805,0.0011795,0.0009245000000000017,-0.1089155,-0.3550795,-0.009958500000000002,0.0975245,-0.3780395,0.0050475,-0.0954995,-0.6999495,0.0292205,0.1126645,-0.6974095,0.030956499999999998
46,-0.014063500000000001,0.6907044999999999,-0.0007094999999999949,-0.1513275,0.48893449999999994,0.0332425,-0.2433275,0.6903644999999999,0.006557500000000004,0.12337250000000001,0.5046845,0.0313905,0.1966725,0.7135545,0.008117500000000003,-0.28506750000000003,0.9067645,-0.027083499999999996,0.2197825,0.9327445,-0.021048499999999998,-0.0662945,-0.0012584999999999957,-0.0011354999999999976,0.0662945,0.0012585000000000027,0.0011355000000000046,-0.1083375,-0.35562550000000004,-0.010713499999999994,0.0977525,-0.37772550000000005,0.004264500000000004,-0.0940695,-0.7000655,0.028712500000000005,0.1138025,-0.6978655,0.030606500000000005
47,-0.0161715,0.690756,-0.0009235000000000007,-0.1526755,0.489426,0.033021499999999995,-0.24497549999999998,0.6907760000000001,0.005483499999999999,0.12217450000000002,0.505066,0.0310515,0.1960745,0.713596,0.007835499999999999,-0.2865355,0.907126,-0.028221500000000004,0.2198245,0.932576,-0.0217585,-0.0661765,-0.0012990000000000015,-0.0013325000000000004,0.0661765,0.0012990000000000015,0.0013325000000000004,-0.1078055,-0.356494,-0.0115865,0.0980145,-0.377574,0.0033854999999999996,-0.0926405,-0.700214,0.0282215,0.1151545,-0.698264,0.0302125
48,-0.018129,0.6907935000000001,-0.001184499999999998,-0.154286,0.48990350000000005,0.0325955,-0.246526,0.6909335,0.0043645,0.121084,0.5058435,0.030787500000000002,0.195584,0.7142235,0.007527500000000003,-0.287796,0.9072835,-0.029483499999999996,0.220104,0.9330435,-0.0225495,-0.066103,-0.0013364999999999974,-0.001517499999999998,0.066103,0.0013365000000000044,0.0015175000000000015,-0.107046,-0.3574765,-0.012506499999999997,0.098364,-0.37753650000000005,0.002273500000000001,-0.090498,-0.7016764999999999,0.0277025,0.116794,-0.6986964999999999,0.0297485
49,-0.019435499999999998,0.690864,-0.0018774999999999972,-0.15510049999999997,0.490364,0.031912499999999996,-0.2469805,0.691464,0.0027965000000000004,0.11988950000000001,0.506864,0.0305435,0.19496950000000002,0.714994,0.0071605,-0.28815050000000003,0.907844,-0.031016500000000002,0.22105950000000002,0.933594,-0.022913500000000003,-0.0661465,-0.0014069999999999985,-0.0017594999999999972,0.0661465,0.0014070000000000055,0.0017595000000000006,-0.1058105,-0.358766,-0.013561499999999997,0.0992415,-0.377466,0.0004905000000000014,-0.08714949999999999,-0.703306,0.0270025,0.1192895,-0.699456,0.0289495
50,-0.020181999999999995,0.6909285,-0.0026569999999999996,-0.155649,0.4908985,0.031110999999999996,-0.247389,0.6919585,0.0012229999999999984,0.119531,0.5077185,0.030348999999999998,0.194831,0.7156785,0.006755999999999998,-0.28818900000000003,0.9084185,-0.032659,0.222361,0.9342484999999999,-0.023333,-0.066125,-0.0014585000000000015,-0.002034000000000001,0.066125,0.0014585000000000015,0.0020339999999999976,-0.104179,-0.36079150000000004,-0.014466,0.100776,-0.37739150000000005,-0.001925000000000003,-0.082815,-0.7048615,0.026222999999999996,0.122461,-0.7008015,0.027728999999999997
51,-0.020707000000000003,0.691021,-0.0034370000000000026,-0.155687,0.491571,0.030143,-0.247937,0.6926610000000001,-0.000342000000000002,0.11963299999999999,0.508461,0.030137999999999998,0.195023,0.716241,0.006343999999999999,-0.288047,0.909091,-0.03443500000000001,0.223863,0.934601,-0.023759000000000002,-0.06614300000000001,-0.0014369999999999938,-0.0023260000000000017,0.06614300000000001,0.0014370000000000008,0.002325999999999998,-0.10239700000000002,-0.362969,-0.015280000000000002,0.102358,-0.37695900000000004,-0.005055999999999998,-0.07802300000000001,-0.705789,0.025403,0.126063,-0.7022189999999999,0.026166
52,-0.020713000000000002,0.6907774999999999,-0.004428000000000001,-0.155816,0.49134749999999994,0.029109,-0.248026,0.6922275,-0.0020550000000000013,0.119864,0.5087275,0.029827999999999997,0.195544,0.7165675,0.005842,-0.28737599999999996,0.9087974999999999,-0.036341,0.225704,0.9348675,-0.024030000000000003,-0.066136,-0.001524499999999998,-0.002706,0.066136,0.001524500000000005,0.0027059999999999966,-0.100386,-0.36462249999999996,-0.015797,0.104238,-0.37682249999999995,-0.009007000000000001,-0.072576,-0.7062825,0.024645999999999998,0.130244,-0.7023425,0.023958
53,-0.020358000000000005,0.6904525,-0.005612500000000003,-0.156171,0.49119250000000003,0.028035499999999998,-0.247851,0.6920825,-0.0040625,0.120262,0.5090525,0.029527499999999998,0.19628900000000002,0.7167125,0.0052805000000000005,-0.286641,0.9086125,-0.03856950000000001,0.227739,0.9347225,-0.024442500000000002,-0.066154,-0.0015874999999999986,-0.003040499999999998,0.066154,0.0015874999999999986,0.003040499999999998,-0.098301,-0.36551750000000005,-0.016478500000000004,0.10600699999999999,-0.37675749999999997,-0.014472500000000003,-0.06700400000000001,-0.7066875,0.0238035,0.134869,-0.7024874999999999,0.021012499999999996
54,-0.019441499999999997,0.6900755,-0.006895499999999999,-0.1560105,0.49118550000000005,0.0269775,-0.24703050000000001,0.6917655,-0.006165499999999997,0.1209895,0.5093955,0.028984500000000003,0.19756949999999998,0.7169755,0.0046685000000000025,-0.2852105,0.9081555,-0.0409665,0.2300795,0.9346655,-0.025065499999999998,-0.0662285,-0.0016675000000000023,-0.0033574999999999994,0.0662285,0.0016675000000000023,0.003357500000000003,-0.09610049999999999,-0.3656845,-0.017313499999999996,0.1080745,-0.37651450000000003,-0.022245499999999994,-0.0612805,-0.7069145,0.0228385,0.1396095,-0.7026545,0.015816500000000004
55,-0.017929499999999994,0.6894295,-0.008600999999999998,-0.15429949999999998,0.49101950000000005,0.02537,-0.24553950000000002,0.6914495,-0.008757000000000001,0.1231425,0.5094495,0.028176,0.1997005,0.7169495,0.004032999999999998,-0.2826695,0.9076495,-0.04417600000000001,0.23348049999999998,0.9343495,-0.026251000000000003,-0.0664795,-0.0016854999999999995,-0.003674,0.0664795,0.0016854999999999926,0.003674,-0.0935495,-0.3661705,-0.018640999999999998,0.11131350000000001,-0.37212049999999997,-0.040711,-0.0553825,-0.7074104999999999,0.021360999999999998,0.1444605,-0.6980805,0.004396000000000001
56,-0.015585500000000002,0.688026,-0.010405499999999998,-0.1519245,0.490086,0.0236745,-0.24314449999999999,0.690356,-0.011660499999999997,0.1254865,0.508526,0.028271499999999998,0.2025355,0.716046,0.003557499999999998,-0.2794345,0.906346,-0.0482815,0.23773550000000002,0.933346,-0.027596500000000003,-0.0667645,-0.001917000000000002,-0.0044645,0.0667645,0.001917000000000002,0.0044645,-0.0902645,-0.36736399999999997,-0.0195865,0.1157745,-0.363594,-0.0645995,-0.0487405,-0.708654,0.0197455,0.1493455,-0.684944,-0.010666500000000002
57,-0.0132585,0.6865939999999999,-0.011748500000000002,-0.14909650000000002,0.488914,0.0223295,-0.2404965,0.689014,-0.014350500000000002,0.12802349999999998,0.507474,0.028741499999999996,0.2054435,0.7148939999999999,0.003430499999999996,-0.2771665,0.9050039999999999,-0.0530985,0.2417735,0.932004,-0.028484500000000003,-0.0669765,-0.002131999999999995,-0.005530500000000001,0.0669765,0.002132000000000009,0.005530499999999997,-0.0862965,-0.368676,-0.0201015,0.12028049999999998,-0.352266,-0.08933250000000001,-0.0419575,-0.7099960000000001,0.018327499999999997,0.1529435,-0.665586,-0.0276415
58,-0.011141499999999999,0.6851395,-0.012842,-0.1468045,0.4876995,0.021117999999999998,-0.2386145,0.6876994999999999,-0.01686,0.13066450000000002,0.5066595,0.029760999999999996,0.20864549999999998,0.7138195,0.003590999999999997,-0.27503449999999996,0.9035795,-0.057579,0.24572549999999999,0.9306995,-0.029244000000000006,-0.0670745,-0.0023544999999999955,-0.006507000000000002,0.06707450000000001,0.0023545000000000094,0.006506999999999999,-0.08208449999999999,-0.3696505,-0.020677,0.1240115,-0.3326205,-0.11840900000000001,-0.0361315,-0.7111505,0.017079999999999998,0.1542655,-0.6370505,-0.047817000000000005
59,-0.0089095,0.6836679999999999,-0.013434499999999999,-0.1446365,0.486348,0.020387500000000003,-0.2365865,0.6862779999999999,-0.018981500000000002,0.1327335,0.505638,0.0312615,0.21172349999999998,0.712478,0.004365500000000001,-0.27278650000000004,0.902098,-0.0615995,0.24955349999999998,0.9292779999999999,-0.0294435,-0.0673165,-0.0026219999999999993,-0.007093499999999999,0.0673165,0.0026219999999999993,0.007093500000000001,-0.07768649999999999,-0.37037200000000003,-0.020760499999999998,0.12655149999999998,-0.303642,-0.1502375,-0.030896500000000007,-0.712332,0.016317500000000002,0.1536385,-0.600092,-0.07142549999999999
60,-0.005870500000000001,0.6823515,-0.013527499999999998,-0.1419935,0.4851015,0.020047500000000003,-0.2340435,0.6846615,-0.020532499999999995,0.1357145,0.5050215,0.0333125,0.2153165,0.7114015,0.0056135000000000004,-0.26991350000000003,0.9002515,-0.0650965,0.25407650000000004,0.9278415,-0.0291065,-0.06760350000000001,-0.0025794999999999985,-0.007225499999999999,0.0676035,0.0025794999999999985,0.007225500000000003,-0.0721135,-0.37073849999999997,-0.0209035,0.1290675,-0.2669985,-0.1786335,-0.0247435,-0.7125284999999999,0.016031500000000004,0.1520695,-0.5562185,-0.0972735
61,-0.0035014999999999907,0.6807015,-0.013559000000000002,-0.1391425,0.4835315,0.019754,-0.2319325,0.6825315,-0.022086999999999996,0.1385665,0.5044215,0.035279000000000005,0.2186775,0.7106015,0.006678000000000003,-0.2681025,0.8978115,-0.068656,0.2582275,0.9262715,-0.028734999999999997,-0.0679225,-0.002418500000000004,-0.007221999999999999,0.06792250000000001,0.002418500000000004,0.007222000000000001,-0.06650249999999999,-0.37068850000000003,-0.020962999999999996,0.1309765,-0.2191385,-0.20632999999999999,-0.019062499999999996,-0.7128885,0.015796,0.14942450000000002,-0.5016685,-0.12403
62,-0.001114999999999991,0.6787930000000001,-0.013279499999999996,-0.13563,0.481713,0.0199245,-0.22974,0.680103,-0.023242500000000003,0.141665,0.503533,0.0374265,0.22222,0.7096030000000001,0.007801500000000001,-0.26616,0.8950330000000001,-0.0718115,0.2625,0.9244530000000001,-0.0281465,-0.06808,-0.0021889999999999965,-0.0074765000000000005,0.06808,0.0021889999999999965,0.0074765000000000005,-0.060700000000000004,-0.370037,-0.020793500000000003,0.13318200000000002,-0.168934,-0.23256749999999998,-0.013549999999999993,-0.7132769999999999,0.015731500000000002,0.14575700000000003,-0.444647,-0.14996749999999998
63,0.0025420000000000026,0.6766880000000001,-0.012938499999999999,-0.131683,0.479488,0.0203475,-0.226993,0.677598,-0.024230500000000002,0.146255,0.502698,0.0396315,0.22708699999999998,0.708528,0.0090135,-0.263603,0.892128,-0.0749745,0.267887,0.922058,-0.0275155,-0.067893,-0.0014009999999999995,-0.007858500000000001,0.06789300000000001,0.0014009999999999995,0.007858500000000001,-0.053353,-0.36946199999999996,-0.020783499999999996,0.13300499999999998,-0.10769699999999999,-0.2564625,-0.006892999999999996,-0.714082,0.015759500000000003,0.139381,-0.376212,-0.1738125
64,0.006221999999999991,0.6750595,-0.012643999999999999,-0.128828,0.4776695000000001,0.020680999999999998,-0.224588,0.6752995,-0.024919,0.15001799999999998,0.5025795000000001,0.041583999999999996,0.23160199999999997,0.7081495,0.009727,-0.261938,0.8894695,-0.077943,0.272762,0.9203795,-0.027150999999999998,-0.067578,-0.00031349999999999434,-0.007970999999999999,0.067578,0.0003135000000000082,0.007971,-0.046518000000000004,-0.36924049999999997,-0.021383999999999997,0.132055,-0.05039349999999999,-0.27014299999999997,-0.0006180000000000074,-0.7144604999999999,0.015699,0.132859,-0.31372049999999996,-0.192103
65,0.0095195,0.673832,-0.012121500000000004,-0.1263705,0.476282,0.0211605,-0.2225405,0.673512,-0.025380500000000004,0.1540175,0.503072,0.0427685,0.2359695,0.7080219999999999,0.0104735,-0.2605805,0.887272,-0.0799495,0.2772295,0.919082,-0.0265695,-0.0673705,0.0006440000000000057,-0.0078155,0.0673705,-0.0006439999999999918,0.0078155,-0.040760500000000005,-0.369298,-0.0223165,0.1301705,0.0028870000000000146,-0.2782795,0.004809499999999994,-0.714278,0.0158245,0.1264155,-0.259668,-0.2068195
66,0.013003500000000001,0.6725425,-0.011037999999999996,-0.1240065,0.47494250000000005,0.022258000000000003,-0.22088649999999999,0.6717325000000001,-0.025177999999999996,0.1578965,0.5035725,0.044613,0.2406035,0.7079525,0.011847000000000002,-0.25800649999999997,0.8853725,-0.08022,0.2821035,0.9178525000000001,-0.025384,-0.0671865,0.0015634999999999954,-0.007269000000000001,0.06718650000000001,-0.0015635000000000093,0.007269000000000001,-0.03490649999999999,-0.3698175,-0.022962,0.1284635,0.0533525,-0.28391999999999995,0.010343500000000005,-0.7140575,0.016405000000000003,0.1212825,-0.2115175,-0.21818
67,0.016656000000000004,0.670818,-0.0094735,-0.12099399999999999,0.473538,0.0240385,-0.218394,0.669658,-0.024158500000000003,0.162166,0.503868,0.0467005,0.24565599999999999,0.707898,0.0135885,-0.25557399999999997,0.883108,-0.08003350000000001,0.287416,0.916238,-0.023646499999999997,-0.06703400000000001,0.002488000000000004,-0.006831500000000001,0.067034,-0.002488000000000004,0.006831500000000001,-0.028773999999999994,-0.370312,-0.023784500000000004,0.127366,0.09537799999999999,-0.2839835,0.015836000000000003,-0.713832,0.0170995,0.117809,-0.172464,-0.22554349999999998
68,0.02020200000000001,0.6694785,-0.007938,-0.11786799999999997,0.4722885,0.025673,-0.216138,0.6679385,-0.023121999999999997,0.166359,0.5043584999999999,0.049004000000000006,0.250672,0.7081985,0.015257000000000003,-0.253288,0.8813185,-0.079629,0.292852,0.9151785,-0.022014,-0.06683799999999998,0.003737499999999991,-0.006071,0.06683800000000001,-0.0037375000000000047,0.0060710000000000035,-0.02224799999999999,-0.37054149999999997,-0.024881,0.127082,0.12829849999999998,-0.28251899999999996,0.02124200000000001,-0.7134015,0.017891000000000004,0.115762,-0.1417155,-0.228679
69,0.022787500000000002,0.6679210000000001,-0.006537999999999995,-0.11579250000000002,0.470701,0.027186000000000002,-0.2142925,0.6660210000000001,-0.022224,0.16931849999999998,0.504291,0.051054,0.2546775,0.708071,0.016733000000000005,-0.2520025,0.8791810000000001,-0.079181,0.29728750000000004,0.9134610000000001,-0.020558,-0.0666525,0.004538,-0.005304999999999997,0.0666525,-0.004538,0.005305000000000001,-0.017392500000000005,-0.371259,-0.025777999999999995,0.1279335,0.150731,-0.282871,0.025287500000000004,-0.714119,0.018802000000000003,0.1154815,-0.12059899999999998,-0.22939099999999998
70,0.0253395,0.6663525,-0.0050025,-0.1140805,0.46913250000000006,0.0288885,-0.21269049999999998,0.6642625000000001,-0.020861499999999998,0.1720665,0.5041325,0.0532025,0.25830949999999997,0.7076625000000001,0.0184935,-0.25059050000000005,0.8772525,-0.07843649999999999,0.30143949999999997,0.9116325000000001,-0.0189775,-0.06658050000000001,0.0051775000000000015,-0.004597499999999997,0.0665805,-0.005177499999999988,0.004597500000000001,-0.01288049999999999,-0.3722575,-0.026148499999999998,0.1301555,0.15847250000000002,-0.28403649999999997,0.028829499999999994,-0.7148175,0.0199545,0.1166735,-0.1129385,-0.22962649999999998
71,0.025194000000000008,0.665925,-0.004680500000000001,-0.115116,0.46865499999999993,0.0294745,-0.213646,0.6637149999999999,-0.0209085,0.172165,0.5051249999999999,0.0539815,0.259054,0.708245,0.019096500000000002,-0.251776,0.876585,-0.07890849999999999,0.30261400000000005,0.911015,-0.0184185,-0.06634599999999999,0.005629000000000009,-0.004472500000000001,0.06634600000000002,-0.005628999999999995,0.004472500000000001,-0.011095999999999995,-0.37268500000000004,-0.027503499999999997,0.13093600000000002,0.160005,-0.2844885,0.029474000000000014,-0.714495,0.019950500000000003,0.11845800000000001,-0.112378,-0.2314185
72,0.02325400000000001,0.6659345,-0.0043345000000000015,-0.11712600000000001,0.4687245,0.0300705,-0.215906,0.6635245000000001,-0.020898499999999997,0.17062000000000002,0.5061045000000001,0.0546485,0.257934,0.7090445000000001,0.0196875,-0.254656,0.8762645,-0.0793485,0.301804,0.9110545,-0.0179405,-0.06634599999999999,0.006088500000000011,-0.004472500000000001,0.06634600000000002,-0.006088499999999997,0.004472500000000001,-0.011715999999999976,-0.37272550000000004,-0.0280705,0.13092600000000001,0.1604645,-0.2854485,0.02826400000000001,-0.7138855,0.0199605,0.118428,-0.1119185,-0.2342485
73,0.021264000000000005,0.6660345000000001,-0.003920499999999997,-0.118946,0.46877450000000004,0.0306635,-0.21856599999999998,0.6630745,-0.020871499999999998,0.16901500000000003,0.5065145,0.0551425,0.25680400000000003,0.7094545000000001,0.0202615,-0.257476,0.8756744999999999,-0.0796485,0.300874,0.9112545000000001,-0.0175905,-0.06634599999999999,0.006498500000000004,-0.004472500000000001,0.06634600000000002,-0.006498500000000004,0.004472500000000001,-0.01288599999999998,-0.3718655,-0.028058499999999997,0.13092600000000001,0.1608745,-0.2854485,0.027164000000000008,-0.7133255000000001,0.0199715,0.11841600000000001,-0.11150850000000001,-0.2353685
74,0.019168999999999978,0.6662185,-0.003842999999999999,-0.120471,0.4687785,0.030717,-0.22114100000000003,0.6625085000000001,-0.021158000000000003,0.16731599999999996,0.5068185000000001,0.055193,0.25546899999999995,0.7097585000000001,0.020501,-0.26055100000000003,0.8749585,-0.08029,0.299639,0.9114985,-0.017769,-0.06634100000000001,0.006802500000000003,-0.0041010000000000005,0.06634099999999998,-0.006802500000000003,0.0041010000000000005,-0.014161000000000035,-0.3710415,-0.028415999999999997,0.13091399999999997,0.1611785,-0.28649,0.026128999999999986,-0.7126515,0.019611,0.11931199999999997,-0.11120450000000001,-0.23435
75,0.01689199999999999,0.666593,-0.004054000000000002,-0.12193800000000002,0.468843,0.030315,-0.223618,0.6619729999999999,-0.021747999999999997,0.165419,0.507193,0.054835,0.25369200000000003,0.710013,0.020353000000000003,-0.264108,0.874173,-0.08126799999999999,0.297912,0.9118029999999999,-0.018584999999999997,-0.066438,0.006428000000000003,-0.0038909999999999986,0.066438,-0.006428000000000003,0.003891000000000002,-0.01596800000000001,-0.37044699999999997,-0.029205999999999996,0.133425,0.148813,-0.291418,0.024872000000000005,-0.712257,0.018962,0.124139,-0.124323,-0.23503800000000002
76,0.013882499999999992,0.6671335,-0.004319499999999997,-0.12392750000000002,0.46916350000000007,0.0297115,-0.2269175,0.6618835000000001,-0.0222795,0.1622325,0.5075335,0.0543235,0.2507025,0.7099635,0.0201075,-0.2682575,0.8738435,-0.0822295,0.2951225,0.9123135,-0.0195435,-0.06649749999999999,0.005624499999999991,-0.003895500000000003,0.0664975,-0.0056245000000000045,0.0038954999999999997,-0.01889750000000001,-0.36955649999999995,-0.0299735,0.1355245,0.13035349999999998,-0.2935395,0.023002499999999995,-0.7116565,0.0184165,0.1280755,-0.1423665,-0.2356995
77,0.010460500000000011,0.6677945000000001,-0.004453499999999999,-0.1264195,0.46979449999999995,0.029301499999999998,-0.2303795,0.6619845,-0.0226055,0.1588725,0.5077845000000001,0.0538845,0.2472505,0.7099445,0.0198285,-0.2730095,0.8736245,-0.0829425,0.2915105,0.9127844999999999,-0.0201825,-0.0664795,0.004726499999999995,-0.004198500000000001,0.06647950000000001,-0.0047265000000000085,0.004198499999999997,-0.022499500000000006,-0.3688955,-0.0302925,0.13821150000000001,0.1059145,-0.2942725,0.020570500000000005,-0.7108755,0.0181505,0.13227750000000002,-0.1659035,-0.2359825
78,0.006441000000000002,0.668262,-0.005014999999999999,-0.129579,0.47016199999999997,0.028646,-0.23461900000000002,0.661972,-0.023370999999999996,0.15487,0.5076620000000001,0.053238,0.243211,0.709702,0.019182000000000005,-0.278519,0.873222,-0.08388399999999999,0.287181,0.912872,-0.021024999999999995,-0.066859,0.0036530000000000035,-0.0048829999999999985,0.066859,-0.0036530000000000035,0.004883000000000002,-0.026858999999999994,-0.367408,-0.030723,0.141198,0.07418199999999998,-0.294674,0.017711000000000005,-0.710508,0.017787000000000004,0.138423,-0.196598,-0.23463399999999998
79,0.002146000000000009,0.6689115,-0.005361500000000005,-0.133254,0.47030149999999993,0.028292499999999998,-0.23924399999999998,0.6617514999999999,-0.024003500000000004,0.150294,0.5072515,0.0528945,0.238736,0.7092615,0.0188375,-0.28441399999999994,0.8726615,-0.0844025,0.28249599999999997,0.9129514999999999,-0.0215365,-0.067214,0.0023485000000000034,-0.005337500000000002,0.067214,-0.0023485000000000034,0.0053374999999999985,-0.031483999999999984,-0.3660785,-0.030754500000000004,0.14347100000000002,0.034131499999999995,-0.2945825,0.014366000000000004,-0.7103785,0.0178035,0.145348,-0.23409850000000001,-0.2296225
80,-0.002377000000000018,0.669477,-0.005246500000000001,-0.13745700000000002,0.47038699999999994,0.0284045,-0.24397700000000003,0.661687,-0.023885499999999997,0.145175,0.5067170000000001,0.0528005,0.23401299999999997,0.708817,0.0189545,-0.29079699999999997,0.8721770000000001,-0.0844455,0.27774299999999996,0.913027,-0.0219655,-0.067577,0.0010209999999999941,-0.005859499999999997,0.06757699999999998,-0.0010209999999999941,0.0058595,-0.036307000000000006,-0.365993,-0.030468500000000003,0.145181,-0.009806999999999996,-0.2939655,0.010622999999999994,-0.7104229999999999,0.0180545,0.15354099999999998,-0.277423,-0.2224055
81,-0.006502000000000008,0.670156,-0.004909499999999997,-0.141632,0.470826,0.0284765,-0.248472,0.6619759999999999,-0.023545500000000004,0.140224,0.505636,0.0524375,0.229748,0.7077659999999999,0.019049499999999997,-0.296712,0.872126,-0.08431350000000001,0.273718,0.913016,-0.022949499999999998,-0.06784200000000001,-0.0004549999999999971,-0.006150500000000003,0.067842,0.00045500000000001095,0.0061505,-0.04078200000000001,-0.365834,-0.0300345,0.145552,-0.053828999999999995,-0.2913435,0.006898000000000001,-0.7101139999999999,0.0183875,0.161446,-0.320764,-0.21420350000000002
82,-0.01020299999999999,0.671185,-0.004657999999999999,-0.14560299999999998,0.47163499999999997,0.028638999999999998,-0.252133,0.662695,-0.023317,0.13548,0.504675,0.051889000000000005,0.226147,0.706735,0.01874,-0.302283,0.872645,-0.084239,0.27009700000000003,0.912915,-0.024391,-0.067913,-0.001898999999999998,-0.006567,0.067913,0.001898999999999998,0.006567,-0.04525299999999999,-0.365535,-0.029339,0.144901,-0.09980800000000001,-0.286069,0.0032970000000000083,-0.709515,0.018841999999999998,0.169804,-0.367315,-0.203879
83,-0.011553000000000008,0.672024,-0.004602999999999996,-0.14714300000000002,0.472294,0.028828,-0.253483,0.663264,-0.023295999999999997,0.13351,0.503594,0.051347000000000004,0.22478700000000001,0.7053039999999999,0.018133,-0.305033,0.8731639999999999,-0.084188,0.268737,0.912654,-0.026248,-0.068333,-0.0027370000000000033,-0.007059000000000003,0.068333,0.0027369999999999894,0.007058999999999999,-0.04750300000000002,-0.36607599999999996,-0.028569999999999998,0.145302,-0.14153,-0.27985800000000005,0.0019570000000000004,-0.708906,0.019353000000000002,0.17763099999999998,-0.411346,-0.191848
84,-0.012566000000000008,0.67319,-0.004802999999999998,-0.14815599999999995,0.47329000000000004,0.028987000000000002,-0.254486,0.6641900000000001,-0.023386,0.132225,0.50298,0.0507,0.223774,0.7041599999999999,0.017112000000000002,-0.30690599999999996,0.87408,-0.084141,0.267704,0.9128700000000001,-0.028641999999999997,-0.068736,-0.0031090000000000007,-0.00733,0.068736,0.0031090000000000007,0.00733,-0.04936600000000001,-0.36639,-0.027916,0.14605,-0.18368,-0.269661,0.0010440000000000033,-0.7079599999999999,0.019837,0.18558000000000002,-0.45428,-0.17692100000000002
85,-0.013371499999999995,0.6744155000000001,-0.005151000000000003,-0.14895149999999996,0.47439549999999997,0.029213,-0.2552915,0.6654055,-0.023643000000000004,0.1314195,0.5030255,0.050427,0.22302850000000002,0.7036255,0.016035999999999998,-0.3080515,0.8751655,-0.083909,0.2670585,0.9130855,-0.031310000000000004,-0.06925150000000001,-0.0032744999999999996,-0.007346999999999999,0.0692515,0.0032744999999999996,0.007346999999999999,-0.050681500000000004,-0.36707449999999997,-0.027251000000000004,0.1467395,-0.2213345,-0.257109,0.00037850000000000383,-0.7070445,0.020481,0.1933645,-0.4950545,-0.159619
86,-0.013987999999999987,0.675365,-0.004463500000000002,-0.149918,0.47522499999999995,0.0306275,-0.256068,0.6664049999999999,-0.0225975,0.130452,0.5026649999999999,0.0514895,0.22265200000000002,0.7028650000000001,0.0158615,-0.309008,0.8758349999999999,-0.08232149999999999,0.266962,0.9126650000000001,-0.032858500000000006,-0.06952799999999999,-0.0037960000000000077,-0.007244500000000001,0.069528,0.003795999999999994,0.0072444999999999975,-0.05197800000000001,-0.367465,-0.025404500000000003,0.146363,-0.25456500000000004,-0.24053149999999998,-0.00026800000000000435,-0.707065,0.022463499999999997,0.200052,-0.533165,-0.1410415
87,-0.014493999999999993,0.6762085,-0.0038589999999999944,-0.151144,0.47606849999999995,0.032185000000000005,-0.256654,0.6673184999999999,-0.021699999999999997,0.129226,0.5022785000000001,0.052811000000000004,0.22243600000000002,0.7020884999999999,0.015756000000000003,-0.310234,0.8764485,-0.080623,0.267146,0.9119584999999999,-0.03403199999999999,-0.069344,-0.0044685,-0.007183999999999996,0.06934400000000002,0.0044685,0.007184000000000003,-0.053274,-0.3685115,-0.023271999999999994,0.146068,-0.28184149999999997,-0.22209299999999998,-0.0011839999999999906,-0.7069415000000001,0.024720000000000006,0.203633,-0.5666115,-0.12433299999999999
88,-0.014963999999999991,0.6770805,-0.003297500000000002,-0.15255400000000002,0.4769304999999999,0.0338305,-0.257054,0.6682604999999999,-0.0210505,0.128347,0.5018604999999999,0.0542545,0.222776,0.7012404999999999,0.0157795,-0.31175400000000003,0.8771905,-0.0791425,0.267686,0.9112104999999999,-0.035122499999999994,-0.069124,-0.0051775000000000015,-0.007092500000000002,0.06912399999999999,0.0051775000000000015,0.007092499999999998,-0.05478400000000001,-0.37104950000000003,-0.0209175,0.145673,-0.30204949999999997,-0.20434249999999998,-0.0021639999999999993,-0.7072995000000001,0.0271295,0.20546799999999998,-0.5951195,-0.1099725
89,-0.015183499999999989,0.678103,-0.0030394999999999936,-0.1532635,0.47795299999999996,0.0342695,-0.2572235,0.669283,-0.020628499999999994,0.1277605,0.501483,0.05498550000000001,0.2232065,0.700283,0.015778500000000004,-0.3132635,0.878143,-0.0778785,0.2685065,0.910563,-0.03616949999999999,-0.0689035,-0.005907999999999997,-0.006898499999999995,0.0689035,0.0059080000000000105,0.006898500000000002,-0.05655350000000001,-0.373987,-0.0183295,0.14531650000000002,-0.319087,-0.1866585,-0.0033634999999999915,-0.707507,0.029674500000000003,0.20526850000000002,-0.6186969999999999,-0.09657849999999998
90,-0.015577000000000008,0.67973,-0.002929999999999995,-0.15395699999999998,0.47938,0.034236,-0.257327,0.6709099999999999,-0.020804000000000003,0.127046,0.5023500000000001,0.055574,0.223603,0.70059,0.015616000000000001,-0.31465699999999996,0.8797200000000001,-0.07735,0.269623,0.91065,-0.037178,-0.068547,-0.005960000000000007,-0.006620000000000001,0.068547,0.005959999999999993,0.006620000000000001,-0.059157000000000015,-0.37742,-0.015681,0.1437,-0.33368000000000003,-0.16884,-0.005367000000000011,-0.7070400000000001,0.032279,0.20319399999999999,-0.63988,-0.08313
91,-0.016172499999999992,0.6814905,-0.0029759999999999995,-0.15482250000000003,0.48093050000000004,0.033804,-0.2577225,0.6726905,-0.02109699999999999,0.1263765,0.5032405,0.056118,0.22388750000000002,0.7012105,0.015245000000000005,-0.3158925,0.8814005,-0.07761599999999999,0.2708175,0.9107405000000001,-0.03844499999999999,-0.0681825,-0.005798499999999998,-0.006290999999999998,0.06818250000000001,0.005798499999999998,0.006291000000000005,-0.06220250000000001,-0.3806795,-0.013168,0.1407385,-0.34355949999999996,-0.152596,-0.007852499999999998,-0.7063895,0.034787000000000005,0.2002555,-0.6549395,-0.07142599999999999
92,-0.016857499999999997,0.6835709999999999,-0.0029789999999999955,-0.15555750000000002,0.48270099999999994,0.03308,-0.2585475,0.674741,-0.021417000000000005,0.1255235,0.504451,0.056473,0.2242425,0.702131,0.014769999999999998,-0.3171375,0.883211,-0.078151,0.2719725,0.911161,-0.039839,-0.06769750000000001,-0.005382000000000005,-0.005912000000000001,0.0676975,0.005381999999999998,0.005912000000000001,-0.06537749999999999,-0.38177900000000003,-0.010652999999999996,0.1374255,-0.352509,-0.13554100000000002,-0.010667499999999996,-0.705369,0.037275,0.1970835,-0.6667190000000001,-0.060760999999999996
93,-0.017722500000000002,0.6856765,-0.003223499999999997,-0.15644249999999998,0.4845365,0.0321135,-0.2595325,0.6768464999999999,-0.0221735,0.1247755,0.5056765000000001,0.0560565,0.22440749999999998,0.7030265,0.014099500000000001,-0.3186325,0.8850165000000001,-0.07913450000000001,0.27300749999999996,0.9114964999999999,-0.0414625,-0.06713250000000001,-0.0049454999999999985,-0.0057035,0.0671325,0.0049455000000000054,0.0057035,-0.06880250000000002,-0.3821935,-0.0081735,0.1345425,-0.3578535,-0.1198045,-0.0140425,-0.7042535000000001,0.039614500000000004,0.1937835,-0.6763535,-0.0511245
94,-0.01874500000000001,0.6877785,-0.0036255000000000037,-0.15704500000000005,0.48637850000000005,0.030683499999999996,-0.260645,0.6788585,-0.023151500000000005,0.12403299999999999,0.5073585,0.055209499999999995,0.22418499999999997,0.7045085,0.013040499999999997,-0.32010500000000003,0.8865785,-0.0806915,0.273725,0.9117985,-0.0430155,-0.066505,-0.004478499999999996,-0.005705500000000002,0.066505,0.004478499999999996,0.005705499999999995,-0.072195,-0.3816815,-0.0059255,0.13170099999999998,-0.3616215,-0.1043915,-0.017875000000000002,-0.7030715,0.0418715,0.189219,-0.6832215,-0.042133500000000004
95,-0.0196365,0.6897795,-0.004580000000000001,-0.1582565,0.4881095,0.028983,-0.2619165,0.6805295,-0.024856999999999997,0.1227815,0.5087395,0.05378,0.2238335,0.7056695000000001,0.011749999999999997,-0.3217265,0.8878895,-0.08283300000000002,0.2744435,0.9118395,-0.045117,-0.06599650000000001,-0.0039205,-0.0056799999999999976,0.0659965,0.0039205,0.0056799999999999976,-0.0758665,-0.3795305,-0.004074000000000001,0.1288855,-0.3643605,-0.089333,-0.022626500000000008,-0.7016405,0.043968,0.18341649999999998,-0.6880404999999999,-0.034117
96,-0.020184999999999995,0.6915800000000001,-0.005762999999999997,-0.15935499999999997,0.48967,0.026975,-0.262895,0.6819000000000001,-0.026821000000000005,0.12154500000000001,0.5099100000000001,0.051803,0.223765,0.7065400000000001,0.010118000000000002,-0.323005,0.88878,-0.08543999999999999,0.275555,0.9115300000000001,-0.047709999999999995,-0.065675,-0.0032989999999999964,-0.005602000000000003,0.06567500000000001,0.0032990000000000033,0.005602000000000003,-0.079365,-0.37779,-0.002579999999999999,0.126478,-0.36638,-0.07563999999999999,-0.027384999999999993,-0.7002999999999999,0.045859,0.17782,-0.69095,-0.026988000000000005
97,-0.020783999999999997,0.6931835,-0.007436999999999999,-0.157946,0.49092349999999996,0.023976000000000004,-0.263296,0.6829735,-0.029016,0.12284900000000001,0.5108435,0.04828,0.224444,0.7071335,0.0070320000000000035,-0.324736,0.8889334999999999,-0.08838700000000001,0.27641400000000005,0.9104335,-0.051217,-0.065416,-0.002771500000000003,-0.005299999999999999,0.06541600000000002,0.002771499999999996,0.005299999999999999,-0.083786,-0.37663650000000004,-0.0013009999999999966,0.122839,-0.3677165,-0.063747,-0.034065999999999985,-0.6988565,0.047759,0.17034300000000002,-0.6925765,-0.02043099999999999
98,-0.021312499999999998,0.6944319999999999,-0.009217000000000003,-0.15745949999999997,0.491882,0.021991000000000004,-0.2638695,0.683972,-0.03138199999999999,0.1233645,0.511792,0.04529,0.2248905,0.707732,0.0036660000000000026,-0.3264495,0.8889020000000001,-0.09160499999999999,0.2773205,0.909022,-0.055105,-0.06519950000000001,-0.002360999999999995,-0.004956000000000002,0.0651995,0.002361000000000002,0.004956000000000002,-0.0872495,-0.375458,-0.0008039999999999992,0.1193085,-0.368648,-0.05301500000000001,-0.040719500000000006,-0.697778,0.049268,0.16252650000000002,-0.6935279999999999,-0.014743000000000006
99,-0.021456000000000003,0.695397,-0.011066999999999994,-0.157213,0.49294699999999997,0.020597999999999998,-0.264373,0.6846070000000001,-0.033423999999999995,0.12376899999999999,0.5123270000000001,0.042665,0.225207,0.7078770000000001,0.0002930000000000016,-0.327813,0.888737,-0.094629,0.278087,0.907617,-0.058968999999999994,-0.065073,-0.002035000000000002,-0.004561999999999997,0.06507299999999999,0.002035000000000002,0.004561999999999997,-0.09019300000000001,-0.375043,-0.0005830000000000002,0.115791,-0.368893,-0.045409000000000005,-0.047013,-0.697193,0.050467,0.154859,-0.6938829999999999,-0.010525000000000007
100,-0.0212645,0.696141,-0.012941500000000009,-0.1574215,0.49372099999999997,0.019507499999999997,-0.26477150000000005,0.6851510000000001,-0.0349715,0.12353249999999999,0.512711,0.040015499999999996,0.2254185,0.707821,-0.003327500000000004,-0.3292415,0.8885810000000001,-0.09702250000000001,0.2785285,0.906321,-0.0631625,-0.06500149999999999,-0.0017739999999999978,-0.004099500000000006,0.06500149999999999,0.0017740000000000047,0.004099499999999999,-0.0930415,-0.374509,-0.0007765000000000064,0.1120805,-0.368979,-0.0388145,-0.053671500000000004,-0.696909,0.051503499999999994,0.1465205,-0.694169,-0.006808500000000009
101,-0.020893500000000002,0.696716,-0.014796000000000004,-0.1581495,0.49437600000000004,0.018727,-0.2651095,0.685606,-0.03619800000000001,0.12293950000000001,0.512806,0.037433999999999995,0.22543049999999998,0.707626,-0.006960000000000008,-0.3304195,0.888636,-0.09908900000000001,0.2787805,0.904706,-0.067359,-0.0649595,-0.0015270000000000006,-0.0035649999999999987,0.0649595,0.0015270000000000006,0.0035649999999999987,-0.09574950000000002,-0.374004,-0.0010459999999999983,0.1082365,-0.369174,-0.033909999999999996,-0.060319500000000005,-0.696914,0.052461,0.1383275,-0.6943739999999999,-0.003722000000000003
102,-0.019999999999999997,0.697165,-0.0164995,-0.156955,0.49489500000000003,0.018079500000000005,-0.264535,0.686075,-0.037113499999999994,0.124633,0.5121549999999999,0.0347875,0.225985,0.7072350000000001,-0.0106295,-0.330625,0.888725,-0.1005445,0.278805,0.903165,-0.0712645,-0.064925,-0.0013199999999999948,-0.0030474999999999947,0.064925,0.0013200000000000017,0.0030475000000000016,-0.09822499999999999,-0.373575,-0.0013384999999999994,0.104341,-0.369675,-0.0301665,-0.067275,-0.697195,0.0533585,0.130332,-0.694585,-0.0010804999999999981
103,-0.018723499999999997,0.6974265,-0.017948,-0.1554065,0.4952365,0.018001999999999997,-0.2630065,0.6864165,-0.037660000000000006,0.1261505,0.5113365000000001,0.03233899999999999,0.2265935,0.7066965000000001,-0.013914000000000003,-0.3303665,0.8890665,-0.101054,0.2791535,0.9014865000000001,-0.07492400000000002,-0.06493850000000001,-0.0011725,-0.002572999999999999,0.06493850000000001,0.0011725,0.002572999999999999,-0.10043649999999998,-0.3734735,-0.0017130000000000062,0.1009565,-0.3702935,-0.027488000000000005,-0.07390649999999999,-0.6978934999999999,0.053903,0.1229575,-0.6950235,0.0010480000000000003
104,-0.017072,0.6974935,-0.018774,-0.15311899999999998,0.49556350000000005,0.017977000000000007,-0.261189,0.6866535,-0.03758199999999999,0.128381,0.5105035,0.030154000000000004,0.227421,0.7060335,-0.016917,-0.32949900000000004,0.8892535,-0.101188,0.279381,0.9000035,-0.07797799999999999,-0.06499200000000001,-0.0011175000000000004,-0.0021759999999999974,0.06499200000000001,0.0011175000000000004,0.0021760000000000043,-0.102099,-0.37329650000000003,-0.0022999999999999965,0.097959,-0.37118650000000003,-0.026144,-0.079945,-0.6988065,0.05436200000000001,0.11623599999999999,-0.6954565,0.0026430000000000065
105,-0.015457499999999999,0.6974235000000001,-0.019519999999999996,-0.1503395,0.49578350000000004,0.017904000000000003,-0.2591495,0.6867635000000001,-0.037391999999999995,0.1309205,0.5095735,0.027969,0.2281505,0.7052835000000001,-0.019811999999999996,-0.3283795,0.8892935000000001,-0.10114699999999999,0.2792905,0.8987435,-0.080897,-0.06506050000000001,-0.0010774999999999951,-0.0017439999999999956,0.06506050000000001,0.001077500000000002,0.0017440000000000025,-0.1036595,-0.3732565,-0.0031270000000000048,0.0948045,-0.3721365,-0.025451,-0.0857865,-0.6987665,0.054634,0.1091015,-0.6961665,0.003381000000000002
106,-0.013184500000000002,0.6973295,-0.019955,-0.14945250000000002,0.4959895000000001,0.017659,-0.25705249999999996,0.6870995,-0.03764999999999999,0.1313375,0.5086595,0.026838000000000008,0.2280975,0.7045795,-0.021608000000000002,-0.3260325,0.8893595000000001,-0.10139899999999999,0.27935750000000004,0.8980595,-0.08312900000000001,-0.0650545,-0.001073499999999998,-0.0013689999999999952,0.0650545,0.001073499999999998,0.0013690000000000022,-0.1038125,-0.37244049999999995,-0.005797999999999998,0.0928015,-0.37354050000000005,-0.02525799999999999,-0.0900325,-0.6987705,0.054157000000000004,0.1034775,-0.6969105,0.003505000000000001
107,-0.011029000000000002,0.697188,-0.020478000000000003,-0.148828,0.496128,0.017151,-0.254988,0.687478,-0.038173000000000006,0.131742,0.507768,0.025436,0.22806200000000001,0.704098,-0.023383999999999995,-0.323558,0.8896080000000001,-0.10192700000000002,0.279172,0.897428,-0.08518700000000001,-0.065106,-0.001006,-0.0008669999999999997,0.065106,0.001006,0.0008669999999999997,-0.104688,-0.37195199999999995,-0.010308000000000005,0.090635,-0.37405200000000005,-0.025345,-0.09568,-0.698842,0.052106,0.097872,-0.6978219999999999,0.0033330000000000026
108,-0.009057,0.696994,-0.021081500000000003,-0.148346,0.49618399999999996,0.016563499999999995,-0.252606,0.687814,-0.0384125,0.131824,0.506884,0.024054499999999993,0.228024,0.703774,-0.0251565,-0.321266,0.890044,-0.1025375,0.27884400000000004,0.896644,-0.08697750000000001,-0.065282,-0.0009660000000000016,-0.00028250000000000497,0.065282,0.0009660000000000016,0.00028249999999999803,-0.10586699999999999,-0.371666,-0.0187595,0.08843499999999999,-0.374246,-0.025549500000000003,-0.10165199999999999,-0.697456,0.046904499999999995,0.09224399999999999,-0.698806,0.0029474999999999987
109,-0.007075999999999999,0.6966600000000001,-0.02176,-0.14525500000000002,0.49687000000000003,0.017484999999999994,-0.24985500000000002,0.68852,-0.037814,0.133905,0.50474,0.023168999999999995,0.228355,0.70241,-0.026515999999999998,-0.31859499999999996,0.89108,-0.10248299999999999,0.278575,0.89588,-0.08821300000000001,-0.065458,-0.0007959999999999981,0.0003769999999999954,0.065458,0.0007959999999999981,-0.00037700000000000233,-0.107662,-0.37096,-0.031559000000000004,0.086615,-0.3745,-0.02591700000000001,-0.106837,-0.69474,0.039616,0.087435,-0.69984,0.002477999999999994
110,-0.0052035,0.695858,-0.022644499999999998,-0.14175949999999998,0.49727800000000005,0.018408499999999994,-0.2473495,0.688878,-0.0371775,0.1362905,0.5022679999999999,0.021879499999999996,0.2286505,0.7008679999999999,-0.0284485,-0.3159495,0.891798,-0.10216349999999999,0.2782405,0.894938,-0.09020349999999999,-0.0657825,-0.0003850000000000034,0.0011414999999999967,0.0657825,0.00038499999999999646,-0.0011415000000000036,-0.1107185,-0.365852,-0.0514535,0.0845605,-0.375162,-0.026632500000000003,-0.11225750000000001,-0.6900120000000001,0.0249215,0.08200049999999999,-0.701022,0.0015434999999999963
111,-0.0036134999999999987,0.6948399999999999,-0.023309499999999997,-0.14006849999999998,0.49745999999999996,0.019492499999999996,-0.24547850000000002,0.6892100000000001,-0.036251500000000006,0.1365915,0.5006299999999999,0.020768499999999995,0.2285615,0.6991400000000001,-0.030119500000000007,-0.3137485,0.8924399999999999,-0.10136049999999999,0.27781150000000004,0.89375,-0.09220049999999999,-0.0661705,6.899999999999962e-05,0.0021124999999999963,0.0661705,-6.899999999999962e-05,-0.0021125000000000033,-0.1144275,-0.35879,-0.0742305,0.0830815,-0.37401,-0.0273105,-0.11712550000000001,-0.6802299999999999,0.007364499999999996,0.0768315,-0.70218,0.0006324999999999942
112,-0.0020595000000000058,0.6934819999999999,-0.023688,-0.1386525,0.49708199999999997,0.02064,-0.2437825,0.689052,-0.035554,0.13809749999999998,0.498732,0.019745999999999993,0.2291375,0.697112,-0.031935000000000005,-0.3114225,0.892562,-0.100505,0.2774375,0.892112,-0.09441500000000001,-0.0666775,0.0005539999999999989,0.0030749999999999944,0.0666775,-0.0005539999999999989,-0.0030750000000000013,-0.1183965,-0.341508,-0.10432500000000001,0.08108749999999999,-0.37252799999999997,-0.028211,-0.1221975,-0.660408,-0.015456999999999999,0.0713375,-0.7035680000000001,-0.0002060000000000048
113,-0.00047950000000000076,0.691932,-0.023680499999999993,-0.1371575,0.49652199999999996,0.021957500000000005,-0.2418535,0.688502,-0.03462749999999999,0.1393965,0.49638200000000005,0.019026500000000002,0.22989649999999998,0.6948920000000001,-0.0332875,-0.3090735,0.892312,-0.09951149999999999,0.27734650000000005,0.8903719999999999,-0.0964715,-0.06719649999999999,0.0010880000000000056,0.003952500000000005,0.0671965,-0.0010879999999999987,-0.003952499999999998,-0.1217225,-0.322218,-0.13569150000000002,0.0789865,-0.371038,-0.028949500000000003,-0.12665749999999998,-0.6351579999999999,-0.0402555,0.0660965,-0.7051479999999999,-0.0006554999999999964
114,0.0010620000000000074,0.690341,-0.023490000000000004,-0.136082,0.495981,0.023358000000000004,-0.24017,0.688091,-0.033516,0.14043,0.494011,0.018995000000000005,0.23074,0.692541,-0.034226,-0.30684,0.892041,-0.09876299999999999,0.2775,0.8887109999999999,-0.09829299999999999,-0.06770999999999999,0.001446999999999997,0.004572,0.06770999999999999,-0.0014470000000000038,-0.004572,-0.12515099999999998,-0.29862900000000003,-0.168893,0.07691,-0.369279,-0.029744,-0.130669,-0.6047790000000001,-0.067993,0.06091,-0.706549,-0.0010620000000000004
115,0.0022150000000000017,0.6885265,-0.022931499999999994,-0.134602,0.4953465,0.0245575,-0.238554,0.6872265,-0.0323025,0.141546,0.49148650000000005,0.019360500000000003,0.231466,0.6900565,-0.034701499999999996,-0.304984,0.8910265,-0.09826149999999999,0.27784600000000004,0.8869765000000001,-0.09962149999999999,-0.068326,0.0018084999999999976,0.004812499999999997,0.068326,-0.0018084999999999976,-0.004812499999999997,-0.129579,-0.2653435,-0.2029515,0.074896,-0.3677735,-0.030136499999999997,-0.133801,-0.5690035,-0.0971315,0.056305999999999995,-0.7081135,-0.0011204999999999965
116,0.003449500000000001,0.686755,-0.02226149999999999,-0.1324165,0.49476499999999995,0.025772500000000007,-0.23706349999999998,0.6861349999999999,-0.03106049999999999,0.1431865,0.488975,0.020023500000000007,0.2326265,0.687465,-0.0348005,-0.3030735,0.8899250000000001,-0.09761349999999999,0.2784465,0.885515,-0.10069349999999999,-0.0688865,0.0019930000000000017,0.004818500000000003,0.06888649999999999,-0.0019930000000000017,-0.004818499999999996,-0.1341935,-0.22245499999999999,-0.23468350000000002,0.0725065,-0.365835,-0.03070049999999999,-0.1364575,-0.5236149999999999,-0.1283035,0.05167649999999999,-0.709695,-0.0010724999999999901
117,0.004451499999999997,0.6850815,-0.021396500000000006,-0.1301825,0.4942915,0.0271855,-0.23623450000000001,0.6852015,-0.0301475,0.1449155,0.4863915,0.020858500000000002,0.2339455,0.6850115,-0.034611499999999996,-0.3013045,0.8886515,-0.0967325,0.27894549999999996,0.8840515,-0.10138249999999999,-0.0692355,0.002195500000000003,0.005025500000000002,0.0692355,-0.002195499999999996,-0.005025500000000002,-0.1390365,-0.1774885,-0.2613825,0.06982549999999998,-0.3636585,-0.0311455,-0.1388705,-0.4775685,-0.1575325,0.04711549999999999,-0.7110584999999999,-0.0008214999999999958
118,0.004803999999999989,0.68355,-0.020361000000000004,-0.12985400000000002,0.4936,0.028038999999999998,-0.236005,0.68445,-0.02941300000000001,0.144805,0.48463000000000006,0.021994,0.234615,0.68282,-0.034123,-0.300125,0.88754,-0.09572699999999999,0.27929499999999996,0.8825599999999999,-0.10121700000000002,-0.069555,0.002263999999999995,0.005524000000000001,0.069555,-0.002264000000000002,-0.005524000000000001,-0.144021,-0.127751,-0.28224699999999997,0.066475,-0.36173,-0.031227000000000005,-0.141413,-0.43045,-0.18561699999999998,0.042295,-0.71219,-0.00027599999999999847
119,0.004475499999999993,0.682621,-0.018609499999999994,-0.1309265,0.49363100000000004,0.029524500000000002,-0.2364935,0.684361,-0.028073499999999994,0.1441965,0.48338100000000006,0.023913500000000004,0.2348765,0.6811510000000001,-0.032791499999999994,-0.29972350000000003,0.8870910000000001,-0.09419350000000001,0.2792365,0.881761,-0.09988350000000001,-0.0695365,0.0018150000000000041,0.0058075,0.0695365,-0.0018149999999999972,-0.0058075,-0.1486095,-0.08292999999999999,-0.2953135,0.06260650000000001,-0.360599,-0.030616499999999998,-0.1429025,-0.38000900000000004,-0.2079435,0.037446499999999994,-0.7125889999999999,0.0010225000000000026
120,0.0041039999999999965,0.681695,-0.016552499999999998,-0.13259,0.494145,0.0315075,-0.23738,0.684385,-0.026327500000000004,0.14322,0.481975,0.0261835,0.23499,0.679475,-0.030906500000000003,-0.29931,0.886515,-0.0922095,0.27903999999999995,0.881015,-0.09813949999999999,-0.06949000000000001,0.0013789999999999983,0.0060295,0.06949,-0.0013789999999999983,-0.006029499999999993,-0.153155,-0.034301,-0.3052295,0.05831,-0.361035,-0.029912499999999995,-0.143781,-0.333385,-0.22772949999999997,0.033049999999999996,-0.7127549999999999,0.002547500000000001
121,0.0037365000000000037,0.6808010000000001,-0.013871500000000009,-0.1347155,0.495261,0.03418349999999999,-0.2388225,0.6852210000000001,-0.02395950000000001,0.1413975,0.48030100000000003,0.028687499999999998,0.2345075,0.677691,-0.028202500000000005,-0.29912249999999996,0.8863310000000001,-0.08963449999999999,0.27881750000000005,0.880471,-0.09578450000000001,-0.0693075,0.0011050000000000018,0.006000499999999999,0.0693075,-0.0011049999999999949,-0.006000500000000006,-0.1570985,0.0043330000000000035,-0.3071745,0.05458750000000001,-0.361309,-0.02910950000000001,-0.14386349999999998,-0.296879,-0.24345450000000002,0.029157500000000003,-0.712449,0.004390499999999999
122,0.000772999999999982,0.6792895,-0.010075500000000001,-0.139457,0.49595950000000005,0.0379635,-0.242863,0.6862495,-0.0203445,0.13721699999999998,0.4786695,0.0323655,0.23211699999999996,0.6736894999999999,-0.022830500000000004,-0.301223,0.8857495,-0.08564650000000001,0.277227,0.8772795,-0.09169650000000001,-0.06889700000000001,0.0005985000000000018,0.005784499999999998,0.068897,-0.0005985000000000018,-0.005784499999999998,-0.163211,0.040629500000000006,-0.3063865,0.04840699999999999,-0.3617505,-0.027804499999999996,-0.144263,-0.2660505,-0.2562965,0.022826999999999986,-0.7123005,0.007355500000000001
123,-0.0019350000000000062,0.6773505,-0.006022500000000014,-0.144284,0.4968505,0.04186849999999999,-0.247078,0.6876005,-0.01640650000000002,0.133162,0.47736049999999997,0.036313499999999985,0.22988199999999998,0.6701405,-0.017130500000000007,-0.30319799999999997,0.8854605,-0.0811695,0.27578199999999997,0.8743505,-0.08712950000000003,-0.068552,1.5000000000015001e-06,0.005488499999999993,0.068552,-1.5000000000015001e-06,-0.005488500000000007,-0.170104,0.0743905,-0.3025395,0.042281999999999986,-0.3634495,-0.02691650000000001,-0.146468,-0.2396695,-0.26108950000000003,0.016671999999999992,-0.7113695,0.010144499999999987
124,-0.004485000000000003,0.6754975,-0.001981499999999997,-0.149748,0.49840750000000006,0.045676499999999995,-0.251539,0.6897074999999999,-0.012548500000000004,0.129021,0.47562750000000004,0.040209499999999995,0.22787100000000002,0.6665774999999999,-0.011213500000000001,-0.305229,0.8856175,-0.07662750000000002,0.274251,0.8716075,-0.0821675,-0.068211,-0.0007555000000000062,0.005140499999999992,0.068211,0.0007554999999999992,-0.005140500000000006,-0.176188,0.0986675,-0.29872750000000003,0.036521,-0.3650825,-0.026274500000000006,-0.148627,-0.21786250000000001,-0.26369750000000003,0.011110999999999996,-0.7105925000000001,0.012751499999999999
125,-0.006855,0.673616,0.0018105000000000065,-0.154864,0.499976,0.0492465,-0.255635,0.691806,-0.008888499999999994,0.125125,0.473746,0.0438825,0.225935,0.663226,-0.005669499999999994,-0.307175,0.885776,-0.0719975,0.27276500000000004,0.869036,-0.0772375,-0.067865,-0.0015219999999999956,0.004800499999999999,0.067865,0.0015220000000000025,-0.004800499999999999,-0.18139,0.115326,-0.2951575,0.031445000000000015,-0.36663399999999996,-0.025597499999999995,-0.150669,-0.203044,-0.26331750000000004,0.006305000000000005,-0.7096439999999999,0.014974500000000002
126,-0.008738999999999997,0.6718139999999999,0.005306000000000005,-0.159417,0.501474,0.05250200000000001,-0.259263,0.6939639999999999,-0.005400999999999989,0.121817,0.471844,0.04723900000000001,0.224207,0.660184,-0.0006459999999999938,-0.308863,0.8860439999999999,-0.06726099999999999,0.27158699999999997,0.866494,-0.072571,-0.06761700000000001,-0.0021829999999999974,0.004487000000000005,0.067617,0.0021829999999999974,-0.004486999999999991,-0.185938,0.138194,-0.28812099999999996,0.026986999999999997,-0.367336,-0.02530099999999999,-0.152639,-0.183866,-0.262471,0.002036999999999997,-0.708886,0.016889000000000015
127,-0.008681499999999995,0.670168,0.008331000000000005,-0.1619265,0.5029480000000001,0.055267,-0.2610225,0.696598,-0.0023390000000000077,0.12043749999999999,0.47003800000000007,0.050096999999999996,0.22434749999999998,0.657288,0.003800999999999999,-0.3088125,0.886648,-0.06246499999999999,0.2721475,0.8636280000000001,-0.06848499999999999,-0.0674375,-0.002595,0.004166000000000003,0.0674375,0.002595,-0.004166000000000003,-0.18861650000000002,0.154878,-0.279565,0.024437499999999987,-0.367912,-0.025455000000000005,-0.1533885,-0.167042,-0.261685,-0.0003125000000000072,-0.707932,0.018331
128,-0.0072429999999999994,0.668558,0.010555499999999995,-0.163242,0.504358,0.05724649999999999,-0.261143,0.699168,4.049999999998499e-05,0.12038700000000001,0.468348,0.05210749999999999,0.22556700000000002,0.654518,0.007248499999999991,-0.307423,0.887438,-0.05806250000000002,0.273797,0.860518,-0.0652325,-0.067517,-0.0028950000000000017,0.00411149999999999,0.06751700000000001,0.0028950000000000017,-0.004111500000000004,-0.190773,0.17063799999999998,-0.27217250000000004,0.023507000000000014,-0.368932,-0.026382500000000003,-0.153895,-0.155558,-0.2613925,-0.0011130000000000029,-0.706922,0.01911349999999999
129,-0.004979500000000012,0.666989,0.012525499999999995,-0.1635795,0.504949,0.058935499999999995,-0.26043950000000005,0.701029,0.002625499999999989,0.1212105,0.46670900000000004,0.053849499999999995,0.2272305,0.651669,0.010239499999999999,-0.30554950000000003,0.888269,-0.053332500000000005,0.2760505,0.854709,-0.061842499999999995,-0.0675405,-0.0030659999999999993,0.004016499999999992,0.0675405,0.0030659999999999993,-0.004016500000000006,-0.19208350000000002,0.179559,-0.26775249999999995,0.023480499999999987,-0.370451,-0.02744250000000001,-0.1539235,-0.14596900000000002,-0.2619825,-0.0009495000000000059,-0.706091,0.019656499999999993
130,-0.003257999999999997,0.6661579999999999,0.013749499999999998,-0.164707,0.5051979999999999,0.0601495,-0.260408,0.7015779999999999,0.004733500000000002,0.12172200000000001,0.465788,0.0547835,0.228082,0.650528,0.011579500000000006,-0.304728,0.889878,-0.049226500000000006,0.277682,0.853198,-0.06091650000000001,-0.067532,-0.0033149999999999985,0.0044125,0.067532,0.0033149999999999985,-0.0044125,-0.192429,0.179808,-0.26702649999999994,0.02328200000000001,-0.37020200000000003,-0.029006500000000005,-0.153912,-0.14572000000000002,-0.2612565,-0.0010179999999999911,-0.7058420000000001,0.019681500000000005
131,-0.0022779999999999884,0.6660145,0.014239500000000002,-0.16541899999999998,0.5053544999999999,0.0606555,-0.260558,0.7017344999999999,0.0061955000000000066,0.122042,0.46504449999999997,0.0549935,0.228082,0.6506845,0.011579500000000006,-0.30469799999999997,0.8913445,-0.04606650000000001,0.277682,0.8533545,-0.06091650000000001,-0.067532,-0.003445499999999997,0.0044125,0.067532,0.003445500000000004,-0.0044125,-0.19317099999999998,0.1799645,-0.2670165,0.022842000000000015,-0.3700455,-0.030826500000000007,-0.15389799999999998,-0.1455635,-0.2598865,-0.0010280000000000011,-0.7056855000000001,0.018999500000000002
132,-0.0019295000000000007,0.666084,0.014829499999999995,-0.1657455,0.505424,0.0611145,-0.2605795,0.701804,0.0078535,0.1222005,0.464554,0.0552205,0.22809050000000003,0.650754,0.011579500000000006,-0.3046595,0.892924,-0.04323650000000001,0.2776905,0.8534240000000001,-0.06091650000000001,-0.0675405,-0.003375999999999997,0.0044125,0.06754049999999999,0.003376000000000004,-0.0044125,-0.1932595,0.178694,-0.2670165,0.0218705,-0.36997599999999997,-0.0320965,-0.1546705,-0.145846,-0.2576765,-0.0010195000000000065,-0.705616,0.018709500000000004
133,-0.0003110000000000057,0.6663169999999999,0.015621499999999996,-0.164325,0.505007,0.0616515,-0.258941,0.7020369999999999,0.010238499999999998,0.12376899999999999,0.464767,0.0555385,0.22969900000000001,0.650987,0.011562500000000003,-0.303031,0.894627,-0.0408835,0.27929899999999996,0.853657,-0.060933500000000015,-0.06769900000000001,-0.003143,0.004414500000000002,0.06769900000000001,0.003143,-0.004414500000000002,-0.19168400000000002,0.16834700000000002,-0.27014350000000004,0.021828999999999987,-0.369453,-0.0328435,-0.158206,-0.154893,-0.25204350000000003,0.00027900000000000147,-0.706183,0.018632499999999996
134,0.004956000000000002,0.66686,0.015512499999999999,-0.15921,0.50481,0.06152049999999999,-0.253894,0.70245,0.0115175,0.129046,0.46531,0.0551295,0.23475600000000002,0.65275,0.0100875,-0.297904,0.89659,-0.0401755,0.284516,0.8554900000000001,-0.0620455,-0.068116,-0.0025369999999999976,0.00502749999999999,0.068116,0.0025370000000000045,-0.005027500000000004,-0.186905,0.15139,-0.2661755,0.025426000000000018,-0.36939,-0.033515500000000004,-0.16003299999999998,-0.16666999999999998,-0.24367550000000002,0.005246000000000001,-0.70606,0.017953499999999997
135,0.010762500000000008,0.6679014999999999,0.014776499999999984,-0.1535945,0.5045115,0.06085149999999999,-0.2486875,0.7024414999999999,0.012023499999999993,0.1348425,0.4658115,0.05422049999999999,0.2398025,0.6543015,0.008251499999999995,-0.2930375,0.8984415,-0.040317500000000006,0.28963249999999996,0.8571415,-0.06347750000000002,-0.0684925,-0.001850499999999998,0.005544499999999994,0.06849250000000001,0.001850500000000005,-0.005544500000000008,-0.18105549999999998,0.12997150000000002,-0.2622775,0.029342499999999994,-0.3690485,-0.034637500000000015,-0.1594795,-0.1826285,-0.23621750000000002,0.010422500000000001,-0.7067085000000001,0.016817499999999985
136,0.016436999999999993,0.669149,0.013707499999999984,-0.148114,0.504059,0.05997949999999999,-0.243853,0.702019,0.01199249999999999,0.140527,0.466199,0.05308449999999999,0.244427,0.655939,0.006239499999999995,-0.288723,0.899929,-0.04137750000000001,0.294427,0.8588389999999999,-0.0650975,-0.068817,-0.0010889999999999997,0.006017499999999995,0.068817,0.0010889999999999997,-0.006017500000000009,-0.175317,0.10672899999999999,-0.25836749999999997,0.033127000000000004,-0.368871,-0.03586750000000001,-0.158527,-0.201851,-0.2282275,0.015366999999999992,-0.7071810000000001,0.015575499999999992
137,0.021886500000000003,0.6712565,0.012185500000000002,-0.14181349999999998,0.5032865000000001,0.05873250000000001,-0.23834349999999999,0.7010965,0.011105500000000004,0.1469765,0.46712649999999994,0.05156550000000001,0.24907649999999998,0.6583565,0.0034945000000000115,-0.2843835,0.9007665,-0.0428955,0.2994365,0.8612765,-0.06743549999999998,-0.0691565,0.00021050000000000235,0.006536500000000001,0.0691565,-0.0002104999999999954,-0.006536500000000001,-0.1683135,0.060146500000000006,-0.25286549999999997,0.0381465,-0.3693035,-0.036045499999999994,-0.1560895,-0.24005349999999998,-0.21437549999999997,0.0215365,-0.7078734999999999,0.014169500000000002
138,0.0270025,0.6736935000000001,0.011020000000000002,-0.1354185,0.5028635,0.057745,-0.2329175,0.7002735,0.009937000000000001,0.1533425,0.46863350000000004,0.050387,0.2535125,0.6612335,0.0010389999999999983,-0.2801275,0.9013235,-0.04405200000000001,0.3041225,0.8636035000000001,-0.06967200000000001,-0.0693525,0.001187500000000001,0.006614999999999996,0.06935250000000001,-0.001187500000000001,-0.006614999999999996,-0.1603175,-0.0001505000000000048,-0.250222,0.0433625,-0.3706165,-0.035561999999999996,-0.1532875,-0.29198650000000004,-0.19945200000000002,0.027902499999999997,-0.7086565,0.013186000000000003
139,0.030282500000000004,0.6763755,0.010187500000000002,-0.13058150000000002,0.5027254999999999,0.0569025,-0.2295775,0.6995454999999999,0.0091035,0.1581025,0.4705455,0.0495395,0.25614250000000005,0.6644355,-0.0013244999999999924,-0.2775175,0.9020254999999999,-0.044870499999999994,0.30695249999999996,0.8664054999999999,-0.07189050000000001,-0.0694025,0.0018994999999999984,0.0066195,0.0694025,-0.0018994999999999984,-0.0066195,-0.1534095,-0.0607115,-0.2465905,0.0475525,-0.3721045,-0.034770499999999996,-0.1511895,-0.3462345,-0.1836005,0.033142500000000005,-0.7092045,0.012576500000000004
140,0.0322795,0.6790945,0.009429999999999994,-0.1264625,0.5026545,0.056274,-0.2271935,0.6987445,0.008494000000000002,0.16208650000000002,0.47262449999999995,0.048912,0.2578465,0.6679845000000001,-0.003729999999999997,-0.2757935,0.9026845,-0.045891000000000015,0.3088065,0.8690345,-0.07397100000000001,-0.0693865,0.0025584999999999983,0.006516999999999995,0.0693865,-0.0025584999999999983,-0.006516999999999995,-0.1465465,-0.1224785,-0.24060099999999998,0.0513965,-0.3735855,-0.033751,-0.14943050000000002,-0.4033755,-0.165901,0.037876499999999994,-0.7097855,0.012274999999999994
141,0.03284100000000001,0.681802,0.008381999999999987,-0.123844,0.5025620000000001,0.05582199999999999,-0.225697,0.697802,0.007970999999999992,0.164083,0.47546200000000005,0.04771399999999999,0.258533,0.672102,-0.006642000000000009,-0.274827,0.903342,-0.04759100000000002,0.309643,0.874132,-0.07697100000000001,-0.069213,0.0032160000000000036,0.006361999999999993,0.069213,-0.0032159999999999966,-0.0063620000000000065,-0.138669,-0.18618800000000002,-0.22834100000000002,0.055523,-0.375988,-0.032321000000000016,-0.14643499999999998,-0.46532799999999996,-0.144841,0.042613,-0.710288,0.012143999999999988
142,0.031760000000000004,0.683959,0.007176000000000002,-0.12298400000000001,0.502799,0.055605,-0.22516699999999998,0.6976289999999999,0.007316000000000003,0.16431300000000001,0.4780090000000001,0.04635,0.25782299999999997,0.674889,-0.009241,-0.274947,0.9034789999999999,-0.049621999999999986,0.308733,0.874769,-0.078892,-0.068863,0.0037430000000000033,0.006150000000000003,0.06886300000000001,-0.0037429999999999963,-0.006150000000000003,-0.132436,-0.234641,-0.213262,0.058873,-0.37854099999999996,-0.030761999999999998,-0.142283,-0.512971,-0.124682,0.04632300000000001,-0.710331,0.012283000000000002
143,0.029535500000000006,0.6858965,0.005910499999999999,-0.1237125,0.5030465000000001,0.0551505,-0.2263995,0.6974065,0.006697499999999995,0.1632505,0.4807365,0.0449395,0.2560405,0.6777365000000001,-0.011901499999999995,-0.2764495,0.9034665000000001,-0.05186450000000001,0.30643050000000005,0.8752865000000001,-0.0808845,-0.0684505,0.004077499999999998,0.006145499999999998,0.0684505,-0.004077500000000005,-0.006145499999999998,-0.12772450000000002,-0.2749935,-0.1956345,0.061260499999999996,-0.3809435,-0.028874499999999997,-0.1390475,-0.5567934999999999,-0.10535449999999999,0.049160499999999996,-0.7107735,0.0126825
144,0.026677000000000006,0.6879995,0.004298499999999997,-0.124896,0.5032194999999999,0.054063499999999994,-0.228141,0.6972195,0.005820499999999992,0.161559,0.4838495,0.04332749999999999,0.25382899999999997,0.6808595,-0.014897500000000008,-0.27854100000000004,0.9034995,-0.0544665,0.303609,0.8759795,-0.0831365,-0.068009,0.004212500000000001,0.006141499999999994,0.068009,-0.004212500000000001,-0.006141500000000008,-0.123558,-0.3104205,-0.17478649999999998,0.063569,-0.38277049999999996,-0.026826500000000003,-0.13583299999999998,-0.5958005000000001,-0.08728650000000002,0.051859,-0.7110905000000001,0.013161499999999993
145,0.02393850000000001,0.6900455000000001,0.0016339999999999966,-0.1264015,0.5034155,0.052087999999999995,-0.23043049999999998,0.6968755000000001,0.0029629999999999934,0.1598995,0.4873055,0.04111399999999999,0.2519095,0.6842155000000001,-0.01822900000000001,-0.2810405,0.9029555,-0.05751500000000001,0.3008795,0.8767155000000001,-0.08566500000000002,-0.06752949999999999,0.004289499999999995,0.0058,0.06752949999999999,-0.004289500000000002,-0.0058,-0.1190985,-0.3444245,-0.146855,0.0667095,-0.38589450000000003,-0.024285,-0.1297075,-0.6314345,-0.068465,0.0561095,-0.7111544999999999,0.013877999999999988
146,0.020593999999999994,0.6910105,-0.0007364999999999872,-0.129055,0.5034204999999999,0.050140500000000005,-0.233705,0.6964505,0.0005575000000000024,0.157005,0.4902105,0.03910550000000001,0.249365,0.6867905,-0.021006499999999997,-0.284495,0.9014705,-0.06000649999999999,0.297595,0.8770705,-0.0876565,-0.06690499999999999,0.004147499999999998,0.005147499999999999,0.06690499999999999,-0.004147500000000005,-0.005147499999999999,-0.11547099999999999,-0.3554695,-0.1276565,0.068575,-0.38696949999999997,-0.0230065,-0.12468000000000001,-0.6487695,-0.05531649999999999,0.059544999999999994,-0.7112895,0.015072500000000003
147,0.016867,0.6920115,-0.003317500000000001,-0.13209100000000001,0.5039215,0.04781149999999999,-0.237365,0.6963415000000001,-0.0022845000000000087,0.153755,0.49330150000000006,0.03701449999999999,0.24650500000000003,0.6895615,-0.023879499999999998,-0.288625,0.9011015,-0.0630195,0.293995,0.8771115,-0.0895195,-0.06636500000000001,0.0038715,0.004369499999999998,0.06636500000000001,-0.0038715,-0.004369499999999998,-0.111675,-0.36206849999999996,-0.1096995,0.07033500000000001,-0.3867385,-0.0214395,-0.120254,-0.6631785,-0.0435195,0.063055,-0.7113285,0.01673849999999999
148,0.013201499999999991,0.6929299999999999,-0.006263000000000005,-0.13458350000000002,0.5042599999999999,0.045568,-0.2404435,0.69607,-0.00563000000000001,0.15113649999999998,0.49622000000000005,0.035101999999999994,0.24394649999999998,0.69224,-0.026715000000000003,-0.2931435,0.9006799999999999,-0.06659500000000002,0.2904365,0.87666,-0.091445,-0.06585650000000001,0.0034430000000000016,0.00348699999999999,0.0658565,-0.0034430000000000016,-0.003487000000000004,-0.10741650000000001,-0.36851999999999996,-0.09149499999999999,0.07228649999999999,-0.38631,-0.019905000000000006,-0.1160405,-0.6747500000000001,-0.03181500000000001,0.0667565,-0.7116100000000001,0.01848799999999999
149,0.0100495,0.694286,-0.009094500000000005,-0.1365605,0.504906,0.043615499999999995,-0.2432505,0.6963159999999999,-0.008878499999999998,0.1491995,0.4994759999999999,0.033610499999999995,0.24187950000000003,0.695296,-0.02926050000000001,-0.2980005,0.901026,-0.07120050000000001,0.2872995,0.875906,-0.0932805,-0.0653405,0.0026400000000000035,0.002521499999999996,0.0653405,-0.0026399999999999965,-0.002521499999999996,-0.1041885,-0.37270400000000004,-0.0745205,0.07432949999999999,-0.38548400000000005,-0.018300499999999997,-0.1113295,-0.6821740000000001,-0.020820500000000006,0.0707595,-0.711914,0.020699499999999996
150,0.007674500000000004,0.6952455,-0.012498499999999996,-0.1387695,0.5051155,0.039927500000000005,-0.2461395,0.6962554999999999,-0.013281500000000002,0.1471905,0.5022055000000001,0.031399500000000004,0.24039049999999998,0.6977154999999999,-0.031739500000000004,-0.3021195,0.9010655000000001,-0.07673949999999999,0.2851305,0.8750155,-0.0950195,-0.0649805,0.0021135000000000043,0.0017894999999999994,0.0649805,-0.0021134999999999973,-0.0017894999999999994,-0.1018215,-0.3737545,-0.06222949999999999,0.0768105,-0.3849345,-0.016959500000000002,-0.1055935,-0.6841545,-0.011935500000000002,0.0755815,-0.7121845,0.023141500000000002
151,0.005652999999999998,0.6959044999999999,-0.016123500000000013,-0.140692,0.5050445,0.03584649999999999,-0.24885200000000002,0.6959145,-0.018303500000000014,0.14559799999999998,0.5048045,0.029313499999999992,0.239378,0.7000244999999999,-0.03395350000000001,-0.30569199999999996,0.9009245,-0.08254350000000002,0.28338800000000003,0.8741344999999999,-0.09667350000000002,-0.06464,0.0017695000000000002,0.0010344999999999938,0.06464,-0.0017695000000000002,-0.0010345000000000076,-0.10005499999999999,-0.37387549999999997,-0.051363500000000006,0.079393,-0.3845555,-0.015693500000000013,-0.09963899999999999,-0.6856355000000001,-0.003892500000000007,0.080499,-0.7125855,0.024777499999999987
152,0.004022500000000002,0.6965245,-0.0197885,-0.1424215,0.5048845,0.0316835,-0.2507815,0.6955645,-0.023638499999999993,0.1444285,0.5070145,0.027353500000000003,0.23837850000000002,0.7021445,-0.035958500000000004,-0.3084415,0.9006744999999999,-0.0883585,0.2820685,0.8734744999999999,-0.09813849999999999,-0.0643285,0.0015384999999999982,0.0004284999999999983,0.0643285,-0.0015384999999999982,-0.0004284999999999983,-0.0992485,-0.37361550000000004,-0.041998499999999994,0.0817505,-0.38426550000000004,-0.014558500000000002,-0.09423050000000001,-0.6860955,0.002970500000000001,0.0856715,-0.7125655000000001,0.026492500000000002
153,0.002708000000000004,0.6966475,-0.023765499999999995,-0.144018,0.5047175,0.0275045,-0.252298,0.6951375,-0.029385499999999995,0.143562,0.5087675,0.025400500000000006,0.237572,0.7034775,-0.03780549999999999,-0.310438,0.9002975,-0.0943255,0.280852,0.8725475,-0.0993455,-0.064057,0.0014624999999999985,-0.00010449999999999349,0.064057,-0.0014624999999999985,0.00010450000000000736,-0.09951399999999999,-0.3735525,-0.03361549999999999,0.08398900000000001,-0.3840725,-0.013775499999999996,-0.08903499999999999,-0.6860525,0.0094645,0.09098600000000001,-0.7125025,0.028248500000000003
154,0.001510499999999996,0.6966159999999999,-0.02728599999999999,-0.1450805,0.5042660000000001,0.023521000000000014,-0.2530005,0.6946760000000001,-0.03453599999999998,0.14285949999999997,0.5099959999999999,0.023839000000000013,0.23793949999999997,0.7037359999999999,-0.039216,-0.3107005,0.8994660000000001,-0.100246,0.2807995,0.8725160000000001,-0.09997599999999998,-0.0639545,0.0013969999999999955,-0.000666999999999987,0.0639545,-0.0013970000000000024,0.0006670000000000009,-0.1002905,-0.373584,-0.026586,0.0857815,-0.383874,-0.015165999999999999,-0.0851365,-0.6860839999999999,0.015194000000000013,0.09530749999999999,-0.712534,0.03027500000000001
155,0.0012970000000000004,0.6967985,-0.030544500000000002,-0.145722,0.5041785,0.01949350000000001,-0.253222,0.6942685000000001,-0.0396145,0.143148,0.5109485,0.022636500000000004,0.242528,0.7039185,-0.040334499999999995,-0.308432,0.8982785,-0.10612449999999998,0.28288800000000003,0.8722485,-0.1005045,-0.063992,0.0012594999999999967,-0.001281499999999991,0.063992,-0.0012595000000000037,0.0012815000000000049,-0.10062199999999999,-0.37318150000000005,-0.020904499999999993,0.08885599999999999,-0.3834115,-0.017564499999999997,-0.08143,-0.6862515,0.020971500000000004,0.10039000000000001,-0.7123515,0.03163650000000001
156,0.0018420000000000034,0.6969004999999999,-0.033604499999999995,-0.146014,0.5039505,0.0159455,-0.253884,0.6936405,-0.04502450000000001,0.14391600000000002,0.5111304999999999,0.022428500000000004,0.247556,0.7040204999999999,-0.04142449999999999,-0.304414,0.8967904999999999,-0.11346450000000001,0.285916,0.8714204999999999,-0.10195449999999999,-0.064192,0.0012095000000000022,-0.0018345000000000028,0.064192,-0.0012094999999999953,0.0018345000000000028,-0.100784,-0.37242949999999997,-0.015964500000000006,0.092395,-0.3829495,-0.022684499999999996,-0.07847499999999999,-0.6861395,0.02675949999999999,0.10543000000000001,-0.7118895000000001,0.031024499999999997
157,0.0026625000000000017,0.6967295,-0.036796999999999996,-0.1467905,0.5037695,0.011444999999999997,-0.2553605,0.6929795000000001,-0.05076700000000001,0.1440295,0.5111995,0.022409,0.2513695,0.7040895,-0.04263700000000001,-0.3006705,0.8954095,-0.12120700000000001,0.2896995,0.8707395,-0.10689700000000002,-0.0644195,0.0011405000000000026,-0.002347000000000002,0.0644195,-0.0011404999999999957,0.002346999999999988,-0.1012405,-0.3710405,-0.011977000000000002,0.09615649999999999,-0.3823705,-0.029127000000000014,-0.0768215,-0.6852905,0.03229399999999999,0.1092255,-0.7113704999999999,0.027845999999999996
158,0.003536500000000003,0.6964060000000001,-0.039685,-0.14814850000000002,0.502946,0.006664000000000003,-0.2579585,0.690696,-0.05802499999999999,0.1436315,0.511266,0.020917999999999992,0.2540515,0.702016,-0.044454999999999995,-0.29807849999999997,0.893756,-0.131525,0.2923315,0.869536,-0.112875,-0.0647055,0.0010739999999999986,-0.002595,0.0647055,-0.0010739999999999986,0.002595,-0.1014485,-0.369154,-0.007695000000000007,0.0987635,-0.381154,-0.03778500000000001,-0.0760935,-0.684264,0.03827,0.1118345,-0.710784,0.01936299999999999
159,0.003632000000000005,0.696115,-0.04216500000000001,-0.148441,0.501915,0.0028349999999999903,-0.261691,0.6873250000000001,-0.06529499999999999,0.14374900000000002,0.511555,0.02034599999999999,0.256499,0.696825,-0.045985,-0.298081,0.890745,-0.14361500000000002,0.292379,0.867615,-0.11960500000000002,-0.064829,0.0009260000000000032,-0.002835000000000004,0.064829,-0.0009259999999999963,0.0028349999999999903,-0.102001,-0.36651500000000004,-0.00328500000000001,0.09878100000000001,-0.379525,-0.04771500000000001,-0.07739599999999999,-0.681705,0.04358999999999999,0.11227000000000001,-0.709615,0.008294999999999997
160,0.003609499999999998,0.696338,-0.04439499999999999,-0.1484855,0.500458,-0.0011449999999999932,-0.2650455,0.682448,-0.07375499999999999,0.1437445,0.512068,0.020107000000000014,0.26106450000000003,0.689378,-0.04671499999999998,-0.2966855,0.886188,-0.15706499999999998,0.29236449999999997,0.862608,-0.12761499999999998,-0.0648325,0.0006050000000000014,-0.0031849999999999934,0.0648325,-0.0006049999999999944,0.0031850000000000073,-0.10194550000000001,-0.363612,0.0020050000000000068,0.0990065,-0.377252,-0.05867499999999998,-0.07831650000000001,-0.678662,0.04889000000000002,0.1150095,-0.706922,-0.006024999999999989
161,0.003588499999999998,0.6967885,-0.04643,-0.1485125,0.49885850000000004,-0.004479999999999984,-0.2651625,0.6754385,-0.08460999999999999,0.1437375,0.5121884999999999,0.019790000000000002,0.26984749999999996,0.6784384999999999,-0.047359999999999985,-0.29159250000000003,0.8778785,-0.17334,0.2941375,0.8523985000000001,-0.1355,-0.06483749999999999,0.0002674999999999969,-0.0036299999999999943,0.06483749999999999,-0.00026750000000000385,0.0036300000000000082,-0.1018925,-0.3600515,0.0074800000000000005,0.1010815,-0.3746215,-0.06983999999999999,-0.0782535,-0.6759215000000001,0.05487500000000001,0.12024750000000001,-0.7038415,-0.023040000000000005
162,0.0038135000000000044,0.697312,-0.047595,-0.1486885,0.49649200000000004,-0.007574999999999998,-0.2654185,0.6634220000000001,-0.09536499999999998,0.14425150000000003,0.511452,0.019915000000000016,0.2806515,0.662852,-0.04377499999999998,-0.2834385,0.863052,-0.190315,0.2978015,0.838532,-0.14325499999999997,-0.0649855,-6.799999999999862e-05,-0.004354999999999998,0.0649855,6.799999999999862e-05,0.004355000000000012,-0.1019785,-0.35545800000000005,0.011905000000000013,0.1055215,-0.371428,-0.08060499999999998,-0.0783195,-0.6734479999999999,0.062070000000000014,0.12831150000000002,-0.700238,-0.042374999999999996
163,0.0046615000000000024,0.698135,-0.048360000000000014,-0.1493225,0.493745,-0.009740000000000026,-0.2670525,0.649345,-0.10862000000000002,0.1447675,0.510275,0.020699999999999982,0.29416749999999997,0.644735,-0.042080000000000006,-0.2730925,0.843805,-0.20804,0.30171749999999997,0.818945,-0.15151000000000003,-0.0654815,-0.00038799999999999946,-0.004620000000000013,0.0654815,0.00038799999999999946,0.004619999999999985,-0.10276249999999999,-0.350805,0.015429999999999985,0.1102955,-0.368525,-0.08935000000000001,-0.0797335,-0.671085,0.06991799999999998,0.1374975,-0.695795,-0.06312000000000001
164,0.006924999999999997,0.6999565,-0.04993000000000003,-0.14797300000000002,0.4898064999999999,-0.012430000000000024,-0.268923,0.6176365,-0.12255000000000005,0.14481699999999997,0.5073965,0.021509999999999974,0.306867,0.6115865,-0.035160000000000025,-0.256873,0.7996265,-0.22717000000000004,0.30449699999999996,0.7764365,-0.15525,-0.06608,-0.0006904999999999967,-0.004400000000000015,0.06608,0.0006905000000000036,0.004399999999999987,-0.105333,-0.3452035,0.019659999999999983,0.116827,-0.3634035,-0.09564000000000003,-0.085784,-0.6667835,0.08159899999999998,0.14975699999999997,-0.6881535,-0.08565000000000003
165,0.009729000000000003,0.7021925,-0.050895000000000024,-0.144823,0.4847125,-0.017165000000000014,-0.270053,0.5806425000000001,-0.13292500000000002,0.145367,0.5041525,0.022035,0.31856700000000004,0.5746625000000001,-0.025795000000000012,-0.238463,0.7508125,-0.24401500000000004,0.307987,0.7282725,-0.15675500000000003,-0.06640499999999999,-0.0009634999999999991,-0.004435000000000022,0.06640499999999999,0.0009634999999999991,0.0044349999999999945,-0.108153,-0.3395175,0.022684999999999983,0.123917,-0.35834750000000004,-0.09914499999999998,-0.09337899999999999,-0.6622075,0.093577,0.16164699999999999,-0.6812874999999999,-0.10595500000000002
