sb224sc-HT22-VT27/4dt907/src/data/kinect_good_vs_bad_not_preprocessed_A13_mediapipe/W05.csv
FrameNo,nose_3d_x,nose_3d_y,nose_3d_z,left_shoulder_3d_x,left_shoulder_3d_y,left_shoulder_3d_z,left_elbow_3d_x,left_elbow_3d_y,left_elbow_3d_z,right_shoulder_3d_x,right_shoulder_3d_y,right_shoulder_3d_z,right_elbow_3d_x,right_elbow_3d_y,right_elbow_3d_z,left_wrist_3d_x,left_wrist_3d_y,left_wrist_3d_z,right_wrist_3d_x,right_wrist_3d_y,right_wrist_3d_z,left_hip_3d_x,left_hip_3d_y,left_hip_3d_z,right_hip_3d_x,right_hip_3d_y,right_hip_3d_z,left_knee_3d_x,left_knee_3d_y,left_knee_3d_z,right_knee_3d_x,right_knee_3d_y,right_knee_3d_z,left_ankle_3d_x,left_ankle_3d_y,left_ankle_3d_z,right_ankle_3d_x,right_ankle_3d_y,right_ankle_3d_z
0,0.007458500000000001,0.734065,-0.0277455,-0.1537535,0.468895,0.0379215,-0.1838035,0.247575,0.0790095,0.1532465,0.466655,0.028839499999999997,0.1870365,0.242415,0.052781499999999995,-0.2139935,0.055015,0.0485315,0.2189465,0.024339,-0.00033850000000000546,-0.0679635,0.0014039999999999999,-0.0011685000000000029,0.0679635,-0.0014039999999999999,0.001168499999999996,-0.1063235,-0.319345,-0.0009774999999999992,0.1048665,-0.335875,-0.017509500000000004,-0.0843715,-0.639805,0.033603499999999994,0.1178565,-0.636975,0.014122499999999996
1,0.007875499999999999,0.7337805000000001,-0.028693000000000003,-0.15324749999999998,0.4693505,0.037710999999999995,-0.18281750000000002,0.2477805,0.078096,0.1536825,0.4668505,0.029130999999999994,0.1903725,0.2432905,0.054033,-0.21367750000000002,0.061041500000000005,0.045982999999999996,0.2181725,0.0227215,-0.0003000000000000086,-0.0675665,0.0014445,-0.0005510000000000029,0.0675665,-0.0014444999999999996,0.0005509999999999959,-0.1070775,-0.31920950000000003,-0.0022090000000000026,0.1040225,-0.3357195,-0.018568000000000008,-0.0854445,-0.6403795,0.032638999999999994,0.1168925,-0.6364495,0.012921999999999993
2,0.008878500000000003,0.7332814999999999,-0.029539500000000003,-0.1512805,0.4698815,0.0370125,-0.1817105,0.24844149999999998,0.0774705,0.1542995,0.46725150000000004,0.029467499999999994,0.1909795,0.2436615,0.054273499999999995,-0.21348050000000002,0.060477500000000003,0.044116499999999996,0.2181695,0.022914499999999997,0.0004564999999999951,-0.0675705,0.0015444999999999999,-0.0005795000000000036,0.0675705,-0.0015444999999999999,0.0005794999999999967,-0.10718049999999998,-0.3193085,-0.002854500000000003,0.1039995,-0.33564849999999996,-0.018975500000000006,-0.08580850000000001,-0.6404285000000001,0.032097499999999994,0.1166895,-0.6362285000000001,0.012346499999999996
3,0.009648999999999996,0.7331070000000001,-0.029304999999999998,-0.150399,0.47008700000000003,0.037324,-0.18124900000000002,0.248607,0.07735,0.15534099999999998,0.467027,0.030433,0.192551,0.243487,0.054956000000000005,-0.21351900000000001,0.060362,0.043374,0.219001,0.022592,0.0014200000000000011,-0.067583,0.001604,-0.0005049999999999985,0.067583,-0.001604,0.000505000000000002,-0.10732900000000001,-0.319243,-0.002942,0.103711,-0.335593,-0.019270999999999996,-0.08612,-0.640443,0.031884,0.116251,-0.636543,0.012088000000000002
4,0.011736999999999996,0.7333270000000001,-0.029041,-0.14916200000000002,0.469947,0.037348,-0.18003200000000003,0.248367,0.076963,0.15882799999999997,0.467067,0.032847,0.19395800000000002,0.243097,0.056854,-0.213322,0.060079,0.041368,0.22099799999999997,0.022222,0.0036099999999999986,-0.06769,0.0018410000000000002,-0.0005709999999999986,0.06769,-0.0018409999999999998,0.0005709999999999986,-0.107392,-0.319373,-0.0032289999999999992,0.103568,-0.334803,-0.019773000000000002,-0.08641900000000001,-0.640983,0.031559,0.11567799999999999,-0.6366729999999999,0.011615
5,0.012754500000000004,0.7334735,-0.029345,-0.14995750000000002,0.4700635,0.037488,-0.17932749999999997,0.2480735,0.076336,0.15904250000000003,0.4665335,0.032295000000000004,0.1943625,0.2428035,0.057475,-0.21300750000000002,0.059909500000000004,0.03974,0.2218025,0.0218765,0.004785000000000001,-0.0677875,0.0019495000000000003,-0.000512000000000002,0.0677875,-0.0019494999999999998,0.000512000000000002,-0.1070875,-0.32061649999999997,-0.003209,0.1035225,-0.3342365,-0.019773999999999996,-0.08685949999999999,-0.6410165000000001,0.03156,0.1152725,-0.6362565,0.011504
6,0.0145005,0.73375,-0.029824999999999997,-0.1479335,0.47022,0.037323,-0.1783035,0.24831999999999999,0.075987,0.15958650000000002,0.46639,0.031624,0.19627650000000002,0.24322,0.05846,-0.2125335,0.059830999999999995,0.038350999999999996,0.22415649999999998,0.02202,0.007516999999999999,-0.0678875,0.0020729999999999998,-0.0005500000000000019,0.0678875,-0.002073,0.0005499999999999984,-0.1065435,-0.32166999999999996,-0.0029730000000000034,0.1032765,-0.33436,-0.020003,-0.0871715,-0.64131,0.031043,0.1148465,-0.63634,0.011476
7,0.015432999999999995,0.733704,-0.032732000000000004,-0.146853,0.470274,0.036254999999999996,-0.177863,0.248524,0.075297,0.160317,0.467204,0.030167,0.197537,0.244394,0.058854000000000004,-0.211553,0.061135,0.039962,0.224037,0.022951,0.009196,-0.067667,0.0021309999999999996,1.7999999999997185e-05,0.067667,-0.002131,-1.8000000000000654e-05,-0.107873,-0.32206599999999996,-0.004471000000000003,0.101447,-0.336396,-0.021325999999999998,-0.090059,-0.6428159999999999,0.030268999999999997,0.111427,-0.636556,0.009686999999999998
8,0.016791,0.7337305,-0.033739,-0.145973,0.4704405,0.035801,-0.17690299999999998,0.2487305,0.074995,0.16143700000000002,0.46730049999999995,0.02962,0.198797,0.24470050000000002,0.059446,-0.210723,0.0612515,0.039432999999999996,0.225247,0.023067499999999998,0.010639,-0.067687,0.0022475,0.00020699999999999885,0.067687,-0.0022475000000000004,-0.00020699999999999885,-0.107973,-0.32287950000000004,-0.004969000000000001,0.100867,-0.3367195,-0.021917,-0.091271,-0.6433595,0.029847,0.11004699999999999,-0.6365795000000001,0.008968999999999998
9,0.017757500000000002,0.733691,-0.0349665,-0.1452565,0.470591,0.0353485,-0.1758065,0.248931,0.0748675,0.1620935,0.467391,0.0290725,0.2000035,0.245141,0.0598065,-0.2095065,0.059759,0.0388515,0.2263935,0.023301,0.0118995,-0.0676735,0.002348,0.000507500000000001,0.0676735,-0.0023480000000000003,-0.000507500000000001,-0.1083765,-0.324029,-0.005475499999999998,0.1000035,-0.337289,-0.0226775,-0.0930315,-0.6438389999999999,0.0294035,0.10806349999999999,-0.636849,0.008147500000000002
10,0.018558000000000005,0.733625,-0.0362255,-0.144481,0.470665,0.0349755,-0.174941,0.24906499999999998,0.0748105,0.162629,0.467455,0.0285335,0.201149,0.245525,0.0598825,-0.208091,0.056333,0.0389545,0.227639,0.023514,0.0130675,-0.06765399999999999,0.0024300000000000003,0.0008554999999999986,0.06765399999999999,-0.00243,-0.0008554999999999986,-0.108786,-0.325545,-0.006349500000000001,0.09908900000000001,-0.337985,-0.0234665,-0.095025,-0.6443150000000001,0.0287985,0.105799,-0.6372150000000001,0.0073165
11,0.0189925,0.7336275,-0.03767450000000001,-0.1438345,0.47078749999999997,0.034666499999999996,-0.1739745,0.24939750000000002,0.0752845,0.1630155,0.4676275,0.0278885,0.2020855,0.2460275,0.0597575,-0.2072745,0.0532305,0.0392225,0.22868549999999999,0.023883500000000002,0.013978499999999998,-0.0676595,0.0024825000000000003,0.0012084999999999978,0.0676595,-0.0024824999999999995,-0.0012085000000000012,-0.1092345,-0.3275425,-0.008344500000000005,0.0978455,-0.3388425,-0.024286500000000003,-0.0973575,-0.6448425,0.0273875,0.1029055,-0.6374925,0.006496499999999999
12,0.018937,0.733556,-0.039010500000000004,-0.143652,0.47094600000000003,0.0344845,-0.173452,0.249776,0.0759365,0.162998,0.46779600000000005,0.0269535,0.202788,0.246596,0.059345499999999995,-0.206892,0.05261,0.0398045,0.229358,0.024375,0.0142435,-0.06773,0.0024549999999999997,0.0015804999999999986,0.06773,-0.0024549999999999997,-0.0015804999999999986,-0.109751,-0.329524,-0.011045500000000003,0.096388,-0.33955399999999997,-0.025012500000000003,-0.099703,-0.6454139999999999,0.0256105,0.099708,-0.637834,0.005792499999999999
13,0.018612,0.7334130000000001,-0.0402805,-0.143585,0.471143,0.0344655,-0.17289500000000002,0.250243,0.0770525,0.162735,0.468093,0.026051500000000002,0.20360499999999998,0.24718299999999999,0.059069500000000004,-0.20686500000000002,0.05211,0.0410315,0.230315,0.024902999999999998,0.014287500000000002,-0.067845,0.0024319999999999997,0.0018125000000000016,0.067845,-0.002432,-0.0018124999999999981,-0.10919,-0.331757,-0.015961499999999997,0.095165,-0.340167,-0.0256365,-0.100705,-0.6457069999999999,0.023298500000000003,0.096515,-0.6381469999999999,0.005244500000000003
14,0.018186499999999998,0.7331975000000001,-0.041521999999999996,-0.1433585,0.4713675,0.034525,-0.17214849999999998,0.2507375,0.07856199999999999,0.1623115,0.4683775,0.025144999999999997,0.2045015,0.2478475,0.058878,-0.20680849999999998,0.0519385,0.042773,0.2317515,0.0257415,0.014155,-0.0679645,0.0024065,0.001956999999999997,0.0679645,-0.0024065000000000007,-0.0019570000000000004,-0.1085035,-0.3338925,-0.021180000000000004,0.0941115,-0.34064249999999996,-0.026178,-0.10071050000000001,-0.6459925,0.020456999999999996,0.0932715,-0.6383125,0.004801999999999997
15,0.0174215,0.732925,-0.0425755,-0.1433895,0.471625,0.0349935,-0.1716995,0.251305,0.0803605,0.1617205,0.468655,0.0241585,0.20526049999999998,0.24854500000000002,0.058702500000000005,-0.2066395,0.051489,0.0460995,0.2334605,0.026548,0.0139865,-0.0680885,0.002383,0.0020745,0.0680885,-0.0023829999999999997,-0.0020745,-0.10773750000000001,-0.335925,-0.026733499999999997,0.09295049999999999,-0.341005,-0.026641500000000002,-0.0995625,-0.646375,0.0170045,0.0899105,-0.638335,0.004545500000000001
16,0.016205499999999998,0.7326545,-0.0433605,-0.14362950000000002,0.4718945,0.0356075,-0.1713995,0.2519145,0.08247650000000001,0.1608105,0.4689045,0.0232405,0.2057905,0.24930449999999998,0.0584395,-0.2076695,0.0487045,0.0497685,0.23490049999999998,0.0273715,0.0140035,-0.0682305,0.0023465000000000005,0.0022105000000000007,0.0682305,-0.0023464999999999996,-0.0022105000000000007,-0.1067855,-0.33789549999999996,-0.0324635,0.09156049999999999,-0.34111549999999996,-0.026895500000000003,-0.0969675,-0.6467554999999999,0.0132865,0.0864405,-0.6382355,0.004481499999999999
17,0.014426000000000001,0.7324120000000001,-0.043905000000000007,-0.144143,0.472182,0.036407,-0.171363,0.252552,0.084841,0.159547,0.46920199999999995,0.022351,0.20616700000000002,0.250122,0.0582,-0.209413,0.047365000000000004,0.053576,0.23586700000000002,0.028257000000000004,0.014189,-0.068397,0.002300000000000001,0.0024659999999999994,0.068397,-0.0023,-0.002466000000000003,-0.105416,-0.339718,-0.038082,0.089927,-0.341098,-0.027019,-0.092883,-0.647428,0.009531999999999999,0.08297700000000001,-0.6380979999999999,0.004506
18,0.012296000000000001,0.732221,-0.044232,-0.144917,0.472361,0.037216,-0.172017,0.253191,0.087199,0.157483,0.46941099999999997,0.021435,0.206093,0.25083099999999997,0.057962,-0.212117,0.046560000000000004,0.057594,0.23618299999999998,0.028964999999999998,0.014332,-0.068493,0.002256,0.0027909999999999983,0.068493,-0.002256,-0.002791000000000002,-0.10325999999999999,-0.341239,-0.043482,0.08851300000000001,-0.341119,-0.027039,-0.086539,-0.648249,0.005607999999999998,0.080163,-0.637969,0.0045590000000000006
19,0.010131500000000002,0.7319749999999999,-0.044487,-0.14572849999999998,0.472485,0.038025,-0.1725985,0.253835,0.08959700000000001,0.1556915,0.469625,0.020497,0.2061115,0.251545,0.057514,-0.2142485,0.046121,0.061095000000000003,0.2362115,0.029652,0.014339000000000001,-0.0685215,0.0022110000000000003,0.003172000000000001,0.0685215,-0.0022110000000000003,-0.003172000000000001,-0.10026550000000001,-0.34219499999999997,-0.048165,0.0869915,-0.341385,-0.027102,-0.0783735,-0.649065,0.0016770000000000014,0.0778415,-0.6379250000000001,0.004535000000000001
20,0.008793500000000003,0.7316940000000001,-0.04432699999999999,-0.1466445,0.47278400000000004,0.039064,-0.1735445,0.254414,0.091992,0.1543055,0.469864,0.019759000000000002,0.2060455,0.252284,0.057049,-0.21533449999999998,0.046179,0.065344,0.2348655,0.030452,0.014431000000000003,-0.06851550000000001,0.0022390000000000005,0.0036140000000000026,0.06851550000000001,-0.0022389999999999997,-0.003613999999999999,-0.09594849999999999,-0.34249599999999997,-0.051264000000000004,0.0858855,-0.341566,-0.026893999999999994,-0.0688075,-0.649496,-0.0012179999999999969,0.0765055,-0.637846,0.004685000000000002
21,0.0083055,0.731621,-0.0437795,-0.1470705,0.473261,0.0406365,-0.1738805,0.255171,0.0949975,0.1537195,0.470221,0.0188435,0.20574950000000003,0.253011,0.056418499999999996,-0.2155705,0.049340999999999996,0.0703135,0.23443950000000002,0.031195,0.014214500000000001,-0.0684795,0.0022259999999999997,0.003960500000000002,0.0684795,-0.0022260000000000005,-0.003960499999999999,-0.0915035,-0.342599,-0.05276449999999999,0.0853995,-0.341469,-0.026320499999999997,-0.0587155,-0.6496390000000001,-0.0031264999999999973,0.07600950000000001,-0.637429,0.0051275
22,0.008356999999999996,0.7317035000000001,-0.042984999999999995,-0.146971,0.47373350000000003,0.042301000000000005,-0.17370100000000002,0.2559935,0.09788100000000001,0.153689,0.47062350000000003,0.018231000000000004,0.205729,0.2537235,0.056064,-0.216391,0.0506565,0.075399,0.234419,0.0319315,0.013902000000000005,-0.06844900000000001,0.0022265,0.004418000000000002,0.06844900000000001,-0.0022264999999999993,-0.004417999999999998,-0.08801500000000001,-0.3423265,-0.051633,0.085449,-0.3419465,-0.025661999999999997,-0.049716,-0.6495265,-0.004164999999999995,0.076049,-0.6368465,0.005616000000000003
23,0.007542999999999994,0.731893,-0.0419,-0.14685399999999998,0.474313,0.044176,-0.173524,0.256933,0.100739,0.153206,0.471143,0.017953999999999998,0.20571599999999998,0.254323,0.055777999999999994,-0.217924,0.053957,0.08049100000000001,0.234376,0.032411,0.013117999999999998,-0.068426,0.0021999999999999997,0.004780999999999997,0.068426,-0.0021999999999999997,-0.0047810000000000005,-0.084972,-0.341847,-0.049939000000000004,0.08549599999999999,-0.342397,-0.024793000000000003,-0.04180300000000001,-0.649347,-0.004237000000000005,0.075946,-0.636197,0.006301999999999999
24,0.0060645000000000004,0.732109,-0.040697,-0.1470425,0.47495899999999996,0.046201,-0.1740225,0.257869,0.103364,0.1517875,0.471639,0.017814999999999998,0.2056875,0.254819,0.055368,-0.2203125,0.056806,0.08404400000000001,0.2339375,0.032907,0.011921999999999999,-0.0684075,0.0022010000000000007,0.005122999999999996,0.06840750000000001,-0.002201,-0.0051230000000000026,-0.0823625,-0.341351,-0.048087000000000005,0.08531749999999999,-0.342891,-0.023858000000000004,-0.0353625,-0.648961,-0.003467000000000005,0.0757575,-0.6355109999999999,0.007074999999999998
25,0.003997500000000001,0.7323625,-0.0393945,-0.1477045,0.4756125,0.04836850000000001,-0.1752945,0.25878249999999997,0.10590350000000001,0.1501555,0.4721525,0.017920500000000006,0.2053355,0.2553325,0.05508550000000001,-0.2235745,0.0586485,0.08741650000000001,0.23292549999999998,0.0334205,0.010865500000000007,-0.0683755,0.0022165000000000006,0.005379500000000002,0.0683755,-0.0022164999999999997,-0.005379499999999995,-0.0803375,-0.3407275,-0.04608549999999999,0.0846555,-0.3431075,-0.0229235,-0.0308705,-0.6479575,-0.0022414999999999935,0.07560549999999999,-0.6347575,0.007984500000000005
26,0.0017850000000000019,0.732653,-0.03802350000000001,-0.148725,0.476313,0.050548499999999996,-0.177005,0.259753,0.10823050000000001,0.148565,0.472673,0.0180875,0.204665,0.255883,0.0546425,-0.227215,0.060573,0.0905545,0.23126500000000003,0.033698000000000006,0.009941499999999999,-0.068345,0.002209000000000001,0.0055575,0.068345,-0.002208999999999999,-0.0055575,-0.07902,-0.340187,-0.0438835,0.08393500000000001,-0.343787,-0.02199650000000001,-0.027802,-0.646797,-0.0007764999999999994,0.075775,-0.634077,0.008969499999999998
27,-0.00028450000000000003,0.7329805,-0.036396,-0.1496065,0.4770005,0.052409000000000004,-0.17880649999999998,0.26082049999999996,0.110723,0.1469935,0.47313049999999995,0.018384000000000005,0.20397350000000003,0.2564405,0.054235000000000005,-0.2310465,0.0622245,0.09353,0.22922350000000002,0.0341215,0.009146000000000008,-0.0683735,0.0021805,0.005520000000000004,0.0683735,-0.0021805,-0.005519999999999997,-0.0779115,-0.3398395,-0.04106699999999999,0.0833135,-0.34451950000000003,-0.02097099999999999,-0.0262355,-0.6461895,0.0011990000000000056,0.0763735,-0.6334695,0.010185000000000007
28,-0.0023859999999999992,0.7333685,-0.034777499999999996,-0.150564,0.47752849999999997,0.0542665,-0.180814,0.2617285,0.1132145,0.145296,0.4735385,0.018572500000000002,0.202966,0.2568785,0.0536585,-0.234394,0.0638365,0.09610450000000001,0.22723600000000002,0.0344775,0.008258500000000002,-0.06834599999999999,0.0021244999999999997,0.0054535,0.068346,-0.0021244999999999997,-0.0054535,-0.076409,-0.3394615,-0.0378215,0.082856,-0.3452615,-0.0202395,-0.024805999999999998,-0.6455415,0.0032744999999999996,0.077526,-0.6328515,0.0114615
29,-0.004234500000000002,0.733746,-0.0333865,-0.1513875,0.47793599999999997,0.0558805,-0.1830475,0.26250599999999996,0.1154985,0.14378249999999998,0.47381599999999996,0.018861500000000003,0.2019425,0.257136,0.0531345,-0.2373875,0.065263,0.09843650000000001,0.22545249999999997,0.034657,0.007344500000000004,-0.0682925,0.002029999999999999,0.0052805000000000005,0.0682925,-0.0020300000000000006,-0.0052805000000000005,-0.0745285,-0.339304,-0.0345975,0.08265249999999999,-0.34656400000000004,-0.019985500000000003,-0.0230055,-0.644754,0.0052105,0.0792725,-0.632344,0.012549500000000005
30,-0.005840999999999999,0.7338105,-0.03222849999999999,-0.152274,0.4780105,0.0571105,-0.185344,0.2629905,0.1171785,0.142966,0.4737905,0.019332500000000002,0.201026,0.2569205,0.052952500000000007,-0.240404,0.0664825,0.1001505,0.223836,0.0344415,0.0066395000000000065,-0.068266,0.0018154999999999994,0.005086500000000001,0.068266,-0.0018155000000000011,-0.005086499999999994,-0.072491,-0.3395095,-0.0318345,0.082536,-0.3475795,-0.020935499999999996,-0.021045999999999995,-0.6440895,0.006716500000000007,0.08116600000000002,-0.6320595,0.012857500000000001
31,-0.007513499999999996,0.73374,-0.031162999999999996,-0.1534555,0.47806,0.058292000000000004,-0.18781549999999997,0.26348,0.118695,0.1418145,0.47375,0.019767,0.20000450000000003,0.25672,0.052773,-0.24337550000000002,0.068469,0.101978,0.22258449999999996,0.034237000000000004,0.006198000000000002,-0.0682045,0.0015859999999999989,0.004805000000000004,0.0682045,-0.0015860000000000006,-0.004804999999999997,-0.0713955,-0.3406,-0.029147999999999993,0.08257450000000001,-0.34744,-0.024505,-0.019793499999999995,-0.64291,0.008024000000000003,0.0832245,-0.63183,0.009836000000000004
32,-0.008989999999999998,0.7336015,-0.030025499999999997,-0.154471,0.4780715,0.0593765,-0.190101,0.2638715,0.1199735,0.140909,0.4736315,0.020222500000000004,0.199149,0.2564515,0.0528825,-0.246261,0.0702855,0.1030575,0.22277899999999998,0.033975500000000006,0.006427500000000003,-0.068129,0.0014045000000000012,0.004625500000000005,0.068129,-0.0014044999999999995,-0.004625499999999998,-0.071465,-0.3415685,-0.0267405,0.082729,-0.3472585,-0.030062499999999992,-0.019263,-0.6418185,0.009181500000000002,0.08576900000000001,-0.6316485,0.0034015000000000017
33,-0.010332000000000001,0.7334295000000001,-0.028683499999999994,-0.1552,0.4781395,0.0605735,-0.19195,0.26412949999999996,0.1212905,0.14045,0.4734295,0.021012500000000003,0.19827,0.2561395,0.0534865,-0.24869,0.07196050000000001,0.1039895,0.22277999999999998,0.033682500000000004,0.007615500000000004,-0.06804500000000001,0.0012295000000000014,0.0044405,0.06804500000000001,-0.0012294999999999997,-0.0044405,-0.07123,-0.34256050000000005,-0.024585500000000003,0.08292000000000001,-0.34715050000000003,-0.04218349999999999,-0.018531000000000002,-0.6409205,0.010307500000000004,0.08934,-0.6302304999999999,-0.011823499999999994
34,-0.011277499999999996,0.7329885,-0.027343000000000006,-0.1555215,0.4779785,0.061863999999999995,-0.1936715,0.2640885,0.122666,0.1400785,0.4729585,0.022021,0.1976185,0.2555785,0.054313999999999994,-0.2504715,0.0729635,0.10470499999999999,0.2228585,0.0331345,0.008891999999999997,-0.0680095,0.0010034999999999992,0.004239999999999994,0.0680095,-0.001003500000000001,-0.004240000000000001,-0.0707785,-0.3440415,-0.02255,0.08322850000000001,-0.3472815,-0.05526700000000001,-0.017481499999999997,-0.6403614999999999,0.011351999999999994,0.0933085,-0.6288115,-0.030062000000000005
35,-0.0119825,0.7322810000000001,-0.026160000000000003,-0.1555795,0.477511,0.063008,-0.1949895,0.263931,0.123905,0.13987049999999998,0.47232100000000005,0.02309,0.19721049999999998,0.254881,0.055479,-0.2519895,0.07362099999999999,0.105514,0.2229005,0.032432,0.010029000000000003,-0.06801850000000001,0.0007460000000000001,0.0039980000000000016,0.06801850000000001,-0.0007460000000000001,-0.0039980000000000016,-0.0700745,-0.34544899999999995,-0.020709000000000005,0.0837505,-0.34667899999999996,-0.07134499999999999,-0.016266500000000003,-0.639989,0.012284000000000003,0.0974505,-0.626629,-0.054365
36,-0.01271,0.7314615,-0.0251875,-0.155511,0.47690150000000003,0.0639315,-0.196311,0.2635715,0.1249495,0.139829,0.4715915,0.0240195,0.196979,0.2541015,0.0564215,-0.253281,0.0737585,0.1063785,0.222949,0.0316445,0.010953499999999998,-0.068,0.0003964999999999993,0.003870499999999999,0.068,-0.000396500000000001,-0.003870499999999999,-0.069286,-0.3467085,-0.0191345,0.084339,-0.3457685,-0.0903955,-0.014853000000000002,-0.6400285,0.012942500000000003,0.102159,-0.6238785,-0.08229550000000001
37,-0.013102,0.730541,-0.024109,-0.155333,0.476281,0.064828,-0.197433,0.263161,0.125927,0.140077,0.470811,0.024912999999999998,0.197047,0.253281,0.057325,-0.254193,0.073905,0.107343,0.223187,0.030744,0.012422999999999997,-0.068066,-1.3999999999998389e-05,0.003717999999999999,0.068066,1.4000000000000123e-05,-0.003717999999999999,-0.068301,-0.347789,-0.017678000000000006,0.085227,-0.344189,-0.11221799999999998,-0.012976000000000001,-0.6403789999999999,0.01353,0.106297,-0.6202989999999999,-0.115978
38,-0.013059999999999997,0.7294915,-0.023098,-0.154837,0.47550149999999997,0.065789,-0.197937,0.2625915,0.126816,0.140643,0.4699215,0.025661000000000003,0.197323,0.2523815,0.058182,-0.254897,0.0733955,0.10817,0.223663,0.029864500000000002,0.015004999999999998,-0.06815399999999999,-0.00038749999999999896,0.003598999999999998,0.06815399999999999,0.0003875000000000007,-0.003598999999999998,-0.066671,-0.3483485,-0.016605,0.086543,-0.34110850000000004,-0.13611399999999999,-0.010524999999999998,-0.6408585,0.013934000000000002,0.11091300000000001,-0.6147985,-0.154304
39,-0.012802000000000003,0.7284055,-0.021890000000000007,-0.1542,0.4744155,0.06731,-0.19809000000000002,0.2617155,0.128192,0.14132999999999998,0.4690155,0.026927,0.19788,0.2514655,0.059614,-0.25522,0.07285349999999999,0.10894799999999999,0.22454,0.0287895,0.017916999999999995,-0.068422,-0.0006645000000000002,0.003488999999999999,0.068422,0.0006644999999999984,-0.003488999999999999,-0.064605,-0.3489545,-0.015683000000000002,0.08800999999999999,-0.3320445,-0.162499,-0.007467000000000002,-0.6414045,0.014299,0.11521999999999999,-0.6069845,-0.20008900000000002
40,-0.012079999999999999,0.7272369999999999,-0.020465499999999998,-0.152956,0.473257,0.06888250000000001,-0.197756,0.260667,0.1297255,0.142644,0.467907,0.028433500000000007,0.198874,0.250347,0.06139650000000001,-0.254796,0.072569,0.1097535,0.225604,0.028041,0.021831500000000004,-0.068815,-0.0009659999999999998,0.003411500000000005,0.068815,0.0009659999999999998,-0.003411499999999998,-0.061648999999999995,-0.349703,-0.015145499999999992,0.089731,-0.322513,-0.18863049999999998,-0.004188999999999998,-0.641723,0.014674500000000007,0.118974,-0.5974430000000001,-0.2475905
41,-0.011365500000000002,0.725997,-0.018829000000000005,-0.1520695,0.472027,0.070836,-0.1975495,0.259437,0.13153,0.1438705,0.466757,0.030332,0.1992305,0.249057,0.063732,-0.2546195,0.072367,0.11093,0.2265405,0.027241,0.026209000000000003,-0.0692555,-0.0012370000000000003,0.003283000000000001,0.0692555,0.0012369999999999994,-0.003283000000000001,-0.0586085,-0.35047300000000003,-0.014655999999999995,0.09114649999999999,-0.31134300000000004,-0.216258,-0.0010265000000000022,-0.642123,0.015011999999999998,0.12078050000000001,-0.587043,-0.298738
42,-0.009985,0.724754,-0.016799499999999995,-0.15064300000000003,0.470734,0.07322450000000001,-0.196523,0.258154,0.1337055,0.14598699999999998,0.465574,0.032796500000000006,0.200297,0.247694,0.0665425,-0.253753,0.072054,0.11276850000000001,0.22817700000000002,0.026532,0.030674500000000007,-0.069388,-0.0012579999999999996,0.0030245000000000064,0.069388,0.0012579999999999996,-0.0030244999999999994,-0.054562,-0.350746,-0.014184499999999989,0.093518,-0.295956,-0.24019649999999998,0.0028009999999999997,-0.642646,0.01532950000000001,0.121617,-0.568326,-0.35012649999999995
43,-0.009106500000000002,0.7231925,-0.01312400000000001,-0.1497835,0.46922250000000004,0.077047,-0.1960135,0.2568825,0.137434,0.1477365,0.46411250000000004,0.036466,0.20132650000000002,0.2460725,0.07034299999999999,-0.2536235,0.0716155,0.11634,0.23090650000000001,0.0251525,0.037367,-0.0694655,-0.0009125000000000001,0.0025569999999999968,0.0694655,0.0009125000000000001,-0.0025570000000000037,-0.0506035,-0.3485375,-0.014029,0.0956665,-0.2690375,-0.269182,0.006625499999999999,-0.6435075,0.016003999999999997,0.1218165,-0.5314175,-0.410682
44,-0.008320500000000003,0.7216990000000001,-0.009164499999999999,-0.1489655,0.467789,0.08097850000000001,-0.1957855,0.255629,0.1413405,0.1492345,0.462679,0.04036050000000001,0.2023545,0.244549,0.07428850000000001,-0.2538155,0.070951,0.1201295,0.2327845,0.025103,0.04410750000000001,-0.0695015,-0.0005279999999999998,0.0021455000000000016,0.0695015,0.0005279999999999998,-0.0021455000000000016,-0.0469335,-0.345711,-0.0140775,0.09694849999999999,-0.239671,-0.2960275,0.010169499999999998,-0.6442709999999999,0.0166535,0.1220145,-0.492131,-0.46675749999999994
45,-0.0074769999999999975,0.7202605,-0.005359000000000003,-0.148369,0.4665105,0.084678,-0.195639,0.2546505,0.144865,0.150581,0.4614005,0.04381399999999999,0.203281,0.2431905,0.077836,-0.254459,0.0703415,0.123594,0.23461100000000001,0.025486500000000002,0.05033699999999999,-0.069494,-2.9500000000000012e-05,0.0017739999999999978,0.069494,2.9500000000000012e-05,-0.0017739999999999978,-0.043454,-0.3422595,-0.014906000000000003,0.097312,-0.2061095,-0.320453,0.013496000000000001,-0.6448395,0.016895,0.12158100000000001,-0.4488495,-0.5200130000000001
46,-0.0065720000000000015,0.7189725,-0.0016255000000000158,-0.147727,0.4653725,0.08820049999999999,-0.195767,0.2538325,0.14817149999999998,0.151833,0.46027250000000003,0.04710149999999999,0.204093,0.2426825,0.08109649999999999,-0.25555700000000003,0.0694005,0.1271725,0.236283,0.0271425,0.05574349999999999,-0.069445,0.00047849999999999976,0.001505499999999993,0.069445,-0.00047849999999999976,-0.0015055000000000068,-0.039914000000000005,-0.3389975,-0.01626050000000001,0.097077,-0.1720375,-0.34172349999999996,0.01647,-0.6451275,0.016776499999999993,0.12035299999999999,-0.4055175,-0.5679434999999999
47,-0.005851499999999999,0.717685,0.0019000000000000059,-0.14754250000000002,0.464175,0.09155100000000001,-0.19650250000000002,0.252965,0.151313,0.1526575,0.45905500000000005,0.050210000000000005,0.20474750000000003,0.24218499999999998,0.084032,-0.2574125,0.068555,0.130482,0.2377975,0.029246,0.059778000000000005,-0.0693565,0.0009470000000000004,0.0011680000000000024,0.0693565,-0.0009469999999999999,-0.0011680000000000024,-0.0365395,-0.33580499999999996,-0.018270999999999996,0.0953575,-0.135605,-0.359259,0.018846500000000002,-0.645235,0.016333000000000007,0.1174375,-0.361595,-0.611159
48,-0.004540500000000003,0.716298,0.005358499999999995,-0.1466345,0.463058,0.0943955,-0.19693449999999998,0.252128,0.15416049999999998,0.1538855,0.457648,0.05306849999999999,0.2077255,0.241638,0.08623149999999999,-0.2588645,0.067854,0.1335965,0.2401055,0.03296,0.06237749999999999,-0.0691535,0.0012689999999999997,0.0008664999999999923,0.0691535,-0.0012690000000000002,-0.0008665000000000062,-0.0329245,-0.332912,-0.02057550000000001,0.09338849999999999,-0.105242,-0.37343650000000006,0.021237499999999996,-0.644902,0.01555249999999999,0.11242450000000001,-0.319392,-0.6462865
49,-0.0036540000000000045,0.7149895,0.008700499999999993,-0.14619100000000002,0.46190950000000003,0.09692049999999999,-0.198081,0.2513095,0.15686250000000002,0.154269,0.4562195,0.05596349999999999,0.209979,0.24453950000000002,0.08806749999999999,-0.261671,0.0672155,0.1367315,0.24159899999999998,0.0392165,0.06380849999999999,-0.068974,0.0015484999999999997,0.0008034999999999987,0.068974,-0.0015485,-0.0008034999999999987,-0.030421,-0.3298405,-0.0234235,0.090882,-0.0746325,-0.3848465,0.022855999999999998,-0.6441105,0.014369499999999993,0.106407,-0.2783405,-0.6758465
50,-0.002579500000000002,0.713714,0.011969500000000001,-0.1453225,0.460774,0.0989525,-0.1991125,0.250634,0.15927550000000001,0.15466749999999999,0.454784,0.058699499999999995,0.2122575,0.249194,0.0893845,-0.26399249999999996,0.066729,0.1395925,0.2429175,0.04735399999999999,0.0645955,-0.0687455,0.001844,0.0007894999999999985,0.0687455,-0.0018440000000000002,-0.0007894999999999985,-0.028077500000000002,-0.327056,-0.026363499999999998,0.0861315,-0.036194000000000004,-0.39258250000000006,0.0245295,-0.6432260000000001,0.0131275,0.0984205,-0.23038599999999998,-0.6980725
51,-0.002194500000000002,0.7124999999999999,0.015373499999999991,-0.1455175,0.45958,0.1006125,-0.2012475,0.25005,0.1616555,0.1537525,0.45345,0.06121649999999999,0.2138125,0.25587000000000004,0.09031449999999999,-0.2670975,0.066566,0.14230349999999997,0.2432025,0.059433,0.0650775,-0.0688575,0.002269,0.0007744999999999974,0.0688575,-0.002269,-0.0007745000000000113,-0.026986500000000004,-0.32474,-0.02933250000000001,0.0797865,-0.0025009999999999998,-0.39731150000000004,0.024621499999999998,-0.64209,0.011905499999999992,0.0894365,-0.19198,-0.7111415
52,-0.001233999999999999,0.7115480000000001,0.017642500000000005,-0.145233,0.458548,0.1012765,-0.20264300000000002,0.249448,0.16281250000000003,0.15320699999999998,0.45241800000000004,0.0628475,0.215617,0.262778,0.09024950000000001,-0.26902299999999996,0.066278,0.1438865,0.243437,0.071796,0.0649055,-0.068934,0.0025,0.000622500000000005,0.068934,-0.0025,-0.0006224999999999981,-0.026177,-0.318602,-0.03319449999999999,0.073429,0.02111,-0.3970725,0.024694999999999998,-0.641002,0.010010500000000006,0.0811,-0.170292,-0.7113624999999999
53,0.00015149999999999886,0.7105640000000001,0.019634000000000006,-0.14452050000000002,0.457464,0.10178600000000002,-0.20343050000000001,0.24876399999999999,0.163655,0.1531295,0.451354,0.06411800000000001,0.2184795,0.269794,0.089799,-0.27000050000000003,0.06590499999999999,0.145131,0.2439895,0.083729,0.064599,-0.0690865,0.0027949999999999997,0.0004450000000000079,0.0690865,-0.0027949999999999997,-0.00044500000000000095,-0.024928500000000003,-0.312826,-0.03686099999999999,0.0680265,0.042142,-0.397005,0.025179499999999997,-0.640046,0.008102000000000005,0.0737005,-0.151286,-0.711205
54,0.003386,0.7092565,0.020954,-0.14186,0.4559965,0.101676,-0.20203000000000002,0.2477865,0.163885,0.15497999999999998,0.4499965,0.064788,0.22371,0.2765765,0.08953,-0.26842,0.0649575,0.14585,0.24742,0.0947955,0.06460400000000001,-0.069303,0.0031565,0.0004159999999999997,0.069303,-0.0031565,-0.0004159999999999997,-0.021781000000000002,-0.3067135,-0.040455,0.065049,0.0587695,-0.397415,0.027278999999999998,-0.6386835000000001,0.005871000000000001,0.068783,-0.1366435,-0.711495
55,0.007064999999999998,0.7080755,0.021268000000000002,-0.13886900000000002,0.4544655,0.100577,-0.199639,0.2466255,0.163007,0.157561,0.4488455,0.064058,0.22991099999999998,0.2837955,0.088129,-0.265409,0.0639285,0.145105,0.251811,0.10262550000000001,0.062459,-0.069509,0.0035475000000000003,0.0008599999999999997,0.069509,-0.0035475000000000003,-0.0008599999999999997,-0.018251999999999997,-0.3003845,-0.044743,0.063283,0.0747975,-0.397123,0.030029,-0.6371545,0.0026600000000000026,0.064899,-0.1226045,-0.712913
56,0.010728000000000001,0.7070850000000001,0.021603499999999998,-0.135819,0.452895,0.09946150000000001,-0.196789,0.24526499999999998,0.1621055,0.160331,0.44793499999999997,0.0632725,0.23611100000000002,0.291155,0.0869265,-0.26141899999999996,0.062819,0.14425949999999998,0.256091,0.11180499999999999,0.0603905,-0.069719,0.00387,0.0013635000000000036,0.069719,-0.00387,-0.0013634999999999967,-0.014820999999999994,-0.29407500000000003,-0.04839449999999999,0.062654,0.08720699999999999,-0.3958345,0.032834,-0.6357649999999999,-0.0002915000000000001,0.069157,-0.11099500000000001,-0.7135045
57,0.013538499999999995,0.7066355,0.021752499999999994,-0.1336455,0.4517455,0.09838749999999999,-0.1942555,0.2442655,0.16113149999999998,0.16232449999999998,0.4476355,0.062126499999999994,0.2395245,0.2978555,0.0857705,-0.2579455,0.0621205,0.1432725,0.2588045,0.11873550000000001,0.05871749999999999,-0.0696955,0.0039675,0.001952499999999996,0.0696955,-0.0039675000000000005,-0.0019525000000000028,-0.012514500000000005,-0.2883745,-0.0517885,0.0611105,0.10022550000000001,-0.3940685,0.0348985,-0.6351045000000001,-0.002854500000000003,0.0726465,-0.09926149999999999,-0.7141785
58,0.016438499999999998,0.7061799999999999,0.021659499999999998,-0.1313505,0.4506,0.0975155,-0.1909605,0.24298,0.16008650000000002,0.1648495,0.44739,0.0605375,0.2422495,0.30017,0.0847565,-0.2541605,0.061135999999999996,0.1421335,0.2604995,0.12106,0.057244500000000004,-0.06985050000000001,0.004092,0.0024985000000000007,0.0698505,-0.004092,-0.0024985000000000007,-0.0101645,-0.28896,-0.0536035,0.0596125,0.11032,-0.3923635,0.0373335,-0.63426,-0.0046695,0.0765065,-0.088032,-0.7140535
59,0.0190475,0.705754,0.0216675,-0.1292265,0.449494,0.0969215,-0.1874565,0.241664,0.1592305,0.1674035,0.447214,0.058887499999999995,0.2445335,0.300784,0.0841575,-0.2504965,0.059631,0.1410825,0.2619935,0.121674,0.0563385,-0.06991649999999999,0.004171,0.0031445000000000015,0.06991649999999999,-0.004171,-0.0031445000000000015,-0.0084575,-0.289616,-0.055199500000000006,0.0603795,0.11146400000000001,-0.39207949999999997,0.0394655,-0.633406,-0.0062935000000000005,0.0822805,-0.08335,-0.7137295
60,0.021196,0.705521,0.020734,-0.127131,0.448691,0.096114,-0.183751,0.240211,0.157745,0.170019,0.447171,0.056676,0.246929,0.300911,0.083118,-0.246391,0.058166999999999996,0.13927799999999999,0.26376900000000003,0.12180099999999999,0.055043999999999996,-0.069971,0.004164,0.0038569999999999993,0.069971,-0.004163999999999999,-0.0038569999999999993,-0.006419000000000001,-0.283679,-0.057784999999999996,0.061767,0.112861,-0.392345,0.042323,-0.632999,-0.008997999999999999,0.090857,-0.078422,-0.714035
61,0.022861000000000006,0.7053,0.019703000000000002,-0.12516,0.44794,0.095272,-0.18024,0.23878,0.156317,0.17231000000000002,0.44722,0.054531,0.25067,0.30142,0.081071,-0.24139,0.05655,0.13745,0.26749,0.1223,0.053,-0.07009,0.004161,0.004545,0.07009,-0.004161,-0.004545,-0.004078999999999992,-0.27719,-0.060322999999999995,0.06389700000000001,0.1139,-0.39321300000000003,0.045027000000000005,-0.63281,-0.011653999999999998,0.09969800000000001,-0.075,-0.715013
62,0.023558500000000003,0.705027,0.018769500000000005,-0.12399650000000001,0.447057,0.0948725,-0.1775365,0.237147,0.1552265,0.1736035,0.447257,0.0525875,0.2538835,0.302217,0.07964850000000001,-0.2367765,0.054544,0.13590950000000002,0.27069350000000003,0.12309700000000001,0.0515815,-0.07015650000000001,0.004078,0.005234500000000003,0.0701565,-0.004078,-0.005234499999999996,-0.0014254999999999962,-0.277313,-0.06228349999999999,0.0664665,0.115667,-0.39413349999999997,0.0468155,-0.6325430000000001,-0.013560499999999996,0.1104105,-0.07149,-0.7158735
63,0.0221205,0.7047675,0.0185645,-0.12472250000000001,0.44614750000000003,0.0952925,-0.1765225,0.2354975,0.1550435,0.1729675,0.4471575,0.0513805,0.25215750000000003,0.3020575,0.07992450000000001,-0.2339625,0.0507945,0.1351695,0.27024750000000003,0.1209975,0.0523585,-0.07013250000000001,0.0039785,0.005753500000000002,0.0701325,-0.003978499999999999,-0.005753500000000002,-0.0009294999999999998,-0.27061250000000003,-0.06482650000000001,0.0665405,0.1172475,-0.3938965,0.0472305,-0.6322125,-0.0150835,0.11986250000000001,-0.0684975,-0.7159165
64,0.020713000000000002,0.70478,0.0181935,-0.125234,0.44565,0.09571450000000001,-0.175944,0.23436,0.15500150000000001,0.172016,0.44729,0.0505605,0.249716,0.30175,0.0804945,-0.232064,0.047353,0.1346125,0.269486,0.11852,0.0534665,-0.070124,0.003964,0.005941500000000002,0.07012399999999999,-0.0039640000000000005,-0.005941500000000002,-0.0008830000000000018,-0.27655,-0.0641285,0.066505,0.11728999999999999,-0.3945185,0.046964,-0.6319899999999999,-0.015219499999999997,0.12945299999999998,-0.06836500000000001,-0.7168785000000001
65,0.019592499999999992,0.704963,0.017780500000000005,-0.1253895,0.445473,0.0961105,-0.1752495,0.23358299999999999,0.15497149999999998,0.1712505,0.447583,0.0498265,0.2472905,0.300853,0.0814605,-0.23045949999999998,0.044496,0.1342255,0.2688405,0.114703,0.0552455,-0.07010949999999999,0.003891,0.006111500000000006,0.07010949999999999,-0.0038909999999999995,-0.006111499999999999,-0.00032450000000000534,-0.276837,-0.06466849999999999,0.0664495,0.116753,-0.3953485,0.04690849999999999,-0.631697,-0.016049499999999994,0.1396855,-0.06807200000000001,-0.7180985000000001
66,0.018814500000000005,0.7053564999999999,0.017452000000000002,-0.1253475,0.4456465,0.096636,-0.1744675,0.2332465,0.155112,0.1708225,0.4482065,0.049269,0.24496250000000003,0.3000665,0.082223,-0.22922749999999997,0.0427425,0.134085,0.2685425,0.1113265,0.056649000000000005,-0.0701075,0.0036025,0.006169000000000001,0.0701075,-0.0036025,-0.006169000000000001,0.0006005000000000038,-0.2778835,-0.065238,0.06660350000000001,0.1158565,-0.395988,0.0468705,-0.6317635,-0.016688999999999996,0.1508535,-0.0670715,-0.7193780000000001
67,0.015293000000000001,0.705839,0.017227,-0.12834900000000002,0.446149,0.09714,-0.176429,0.233379,0.15526299999999998,0.167441,0.44894900000000004,0.04886,0.239611,0.299539,0.08299000000000001,-0.231349,0.042173,0.134356,0.265351,0.108609,0.057915999999999995,-0.06983900000000001,0.003255,0.006256999999999999,0.069839,-0.003255,-0.006256999999999999,-0.0010770000000000016,-0.28340099999999996,-0.064637,0.066549,0.114229,-0.396277,0.04369,-0.631441,-0.016515000000000002,0.162381,-0.06628,-0.719617
68,0.011942999999999995,0.7061824999999999,0.0168435,-0.131491,0.4466625,0.0975685,-0.178631,0.2336325,0.1553775,0.16408899999999998,0.4496625,0.0484985,0.234259,0.2986825,0.0836625,-0.233871,0.042563500000000004,0.1346305,0.262069,0.10584249999999999,0.0589875,-0.069591,0.0029235,0.006319499999999999,0.06959099999999999,-0.0029235,-0.006319499999999999,-0.002681000000000003,-0.28428749999999997,-0.0651725,0.06652899999999999,0.11300249999999999,-0.3966425,0.040610999999999994,-0.6312975000000001,-0.0169575,0.16619899999999999,-0.0654125,-0.7188725
69,0.008202000000000001,0.7062495000000001,0.016636500000000002,-0.135112,0.44702949999999997,0.0978375,-0.181612,0.2339595,0.1554305,0.160348,0.4500095,0.048308500000000004,0.230558,0.2975095,0.0839735,-0.237452,0.0432805,0.1351785,0.258358,0.10463950000000001,0.059300500000000006,-0.069392,0.0028255,0.006262500000000004,0.069392,-0.0028255,-0.006262499999999997,-0.004754000000000001,-0.2895305,-0.06444949999999999,0.066595,0.1112095,-0.3967595,0.036804,-0.6306204999999999,-0.016711499999999997,0.168748,-0.06525349999999999,-0.7175995
70,0.004230500000000005,0.7063185,0.0166615,-0.1386835,0.4474785,0.0982305,-0.1849335,0.2344585,0.15563549999999998,0.1563765,0.4504285,0.0483855,0.2265965,0.2958685,0.0842845,-0.2413935,0.0437905,0.1355835,0.2544065,0.10299849999999999,0.0596245,-0.06918350000000001,0.0027145,0.006266500000000001,0.06918350000000001,-0.0027145000000000003,-0.006266500000000001,-0.006636499999999997,-0.2954815,-0.0630145,0.0665635,0.1083885,-0.3973045,0.033233500000000006,-0.6313315,-0.015890500000000002,0.1710665,-0.06531050000000001,-0.7167345
71,0.0006784999999999985,0.7062895,0.016859500000000003,-0.14170549999999998,0.4479895,0.0984765,-0.1880555,0.23512950000000002,0.15580349999999998,0.15283449999999998,0.4508095,0.0486495,0.2230645,0.2939195,0.0847735,-0.24493550000000003,0.0445815,0.1359505,0.2508745,0.1009535,0.0601285,-0.0691155,0.0025215000000000003,0.006240500000000003,0.0691155,-0.0025215,-0.006240499999999996,-0.007880500000000006,-0.3015205,-0.0610865,0.0677965,0.1051695,-0.3978465,0.030331499999999997,-0.6322305,-0.0148405,0.1737645,-0.06768550000000001,-0.7164665
72,-0.0017310000000000034,0.706273,0.016961499999999997,-0.143501,0.44856300000000005,0.0988985,-0.190571,0.235963,0.1562755,0.150559,0.451183,0.0491335,0.221819,0.290663,0.0850585,-0.24771100000000001,0.045415,0.1364325,0.249619,0.097719,0.0604055,-0.069171,0.002344,0.006149499999999995,0.069171,-0.002344,-0.006149500000000002,-0.008641000000000003,-0.306367,-0.06056450000000001,0.070377,0.102593,-0.3987545,0.027972999999999998,-0.631137,-0.014228500000000005,0.17779899999999998,-0.070262,-0.7162145
73,-0.0037885,0.70618,0.017143,-0.1451465,0.44927999999999996,0.09959299999999999,-0.1931865,0.23683,0.157028,0.1486235,0.45153,0.049855,0.2207835,0.2869,0.085546,-0.2510565,0.046935000000000004,0.137233,0.2485635,0.093974,0.06078599999999999,-0.0690865,0.0021720000000000003,0.005929999999999998,0.0690865,-0.0021719999999999995,-0.005930000000000005,-0.0095325,-0.30475,-0.061562000000000006,0.0727255,0.09906100000000001,-0.399462,0.025469500000000003,-0.63056,-0.014082000000000004,0.1819835,-0.07561699999999999,-0.715692
74,-0.005479499999999998,0.7059485,0.017207500000000004,-0.14653349999999998,0.4500185,0.1002455,-0.1957835,0.2376085,0.1577555,0.1471365,0.4519185,0.050613500000000006,0.2194865,0.2828185,0.0860385,-0.2546235,0.0462145,0.1380185,0.24725650000000002,0.0899045,0.06107850000000001,-0.06894349999999999,0.0020725,0.005674500000000006,0.06894349999999999,-0.0020724999999999997,-0.005674499999999999,-0.011645500000000003,-0.30306150000000004,-0.0621145,0.0751145,0.09570849999999999,-0.4000845,0.0231325,-0.6301815000000001,-0.014055499999999999,0.1861265,-0.08006650000000001,-0.7138445
75,-0.007508500000000001,0.7058735,0.017118999999999995,-0.1484135,0.4509535,0.100727,-0.1988135,0.2386335,0.158252,0.1452065,0.4524435,0.051267999999999994,0.21750650000000002,0.2783535,0.086486,-0.2589935,0.0472495,0.13882499999999998,0.2452665,0.0854635,0.061474999999999995,-0.0688185,0.0020565,0.0055529999999999954,0.0688185,-0.0020564999999999993,-0.005553000000000002,-0.014231500000000001,-0.30696650000000003,-0.062228000000000006,0.07685349999999999,0.0922145,-0.40084800000000004,0.0203555,-0.6296565000000001,-0.013716000000000006,0.1892865,-0.0803725,-0.712038
76,-0.007816500000000004,0.7057805,0.016886,-0.14867650000000002,0.4517705,0.10106200000000001,-0.1998465,0.2394505,0.158533,0.14512350000000002,0.4526405,0.051867,0.21780349999999998,0.2724705,0.08695900000000001,-0.2613665,0.047869499999999995,0.139198,0.2456535,0.0800865,0.061902,-0.0688385,0.0022135,0.005378000000000001,0.0688385,-0.0022135,-0.005377999999999994,-0.014885500000000003,-0.3107895,-0.062537,0.0785575,0.0888585,-0.401567,0.019681499999999998,-0.6296695,-0.013628999999999995,0.1897835,-0.0844085,-0.710237
77,-0.008202000000000001,0.7057760000000001,0.016634499999999997,-0.14899,0.452566,0.1012785,-0.20079,0.24035600000000001,0.1586455,0.14506999999999998,0.452816,0.0525105,0.21821,0.26747600000000005,0.0875735,-0.26424000000000003,0.048739,0.1386665,0.24674,0.074847,0.0624195,-0.068825,0.0023380000000000007,0.005197500000000001,0.068825,-0.002338,-0.005197500000000001,-0.015609000000000005,-0.30885399999999996,-0.0632145,0.080353,0.076386,-0.4028345,0.019176,-0.630134,-0.013968500000000002,0.1905,-0.088002,-0.7115845
78,-0.008552500000000001,0.7057059999999999,0.015902500000000003,-0.14914750000000002,0.453396,0.1009695,-0.20173750000000001,0.241286,0.1581825,0.1451725,0.45301600000000003,0.052693500000000004,0.2189225,0.262496,0.0878125,-0.26685749999999997,0.04958,0.1375055,0.2480725,0.069773,0.062434500000000004,-0.0687875,0.0024210000000000004,0.0049745,0.0687875,-0.0024209999999999995,-0.0049745,-0.016111500000000004,-0.312484,-0.0628975,0.0823955,0.064095,-0.4045075,0.018677499999999996,-0.630694,-0.0143065,0.1914425,-0.091184,-0.7129774999999999
79,-0.008993000000000001,0.7052525000000001,0.0148755,-0.149407,0.4541425,0.1006085,-0.202857,0.2422425,0.1576975,0.145333,0.4531025,0.052687500000000005,0.219653,0.2573825,0.08780450000000001,-0.269457,0.0500085,0.1360655,0.250373,0.0641225,0.062129500000000004,-0.06880800000000001,0.0025035000000000005,0.004871500000000001,0.06880800000000001,-0.0025034999999999988,-0.004871499999999994,-0.016794000000000003,-0.3114575,-0.06414249999999999,0.081322,0.0527275,-0.4059025,0.018120999999999998,-0.6311075,-0.015157499999999997,0.190723,-0.0943475,-0.7120925
80,-0.0100955,0.704859,0.013101500000000002,-0.1501725,0.45487900000000003,0.0994925,-0.20448249999999998,0.24320899999999998,0.1564905,0.1450475,0.453119,0.051708500000000004,0.2199975,0.25249900000000003,0.0858025,-0.2724625,0.050273,0.1336735,0.2526175,0.058138,0.0601795,-0.0687915,0.002491,0.004848499999999999,0.0687915,-0.002491,-0.004848499999999999,-0.0182615,-0.310421,-0.0651095,0.0804205,0.041893,-0.4070695,0.016798499999999997,-0.6299710000000001,-0.015782499999999998,0.1908075,-0.10201099999999999,-0.7109295
81,-0.011398999999999996,0.7044085,0.0112335,-0.15098099999999998,0.4553285,0.0981975,-0.20599099999999998,0.2439285,0.1553885,0.144569,0.4530285,0.0504005,0.22026900000000002,0.2495485,0.0837185,-0.27531100000000003,0.0503995,0.1312685,0.254919,0.053226499999999996,0.0579445,-0.068847,0.002445499999999998,0.004885500000000001,0.068847,-0.0024454999999999998,-0.004885500000000001,-0.019545999999999997,-0.3091415,-0.06650149999999999,0.081901,0.0298225,-0.4083915,0.015538000000000001,-0.6285315,-0.016417499999999995,0.191639,-0.1096315,-0.7100915
82,-0.013043000000000006,0.703936,0.009164499999999999,-0.152085,0.456256,0.09689049999999999,-0.207695,0.24504599999999999,0.1540865,0.14382499999999998,0.452916,0.0488205,0.220475,0.24741600000000002,0.08111650000000001,-0.27797499999999997,0.049588,0.1290045,0.256815,0.049124,0.0553455,-0.068911,0.002336999999999999,0.004872500000000002,0.068911,-0.0023370000000000023,-0.004872500000000002,-0.020726,-0.306754,-0.0697335,0.084002,0.020617999999999997,-0.4090335,0.014708999999999996,-0.627274,-0.018930499999999996,0.192255,-0.11673399999999999,-0.7102535
83,-0.014945999999999997,0.7042335000000001,0.007599999999999996,-0.15333000000000002,0.4575835,0.095896,-0.20965,0.2467735,0.153455,0.1424,0.4534235,0.047742,0.22047,0.2462635,0.078516,-0.28082999999999997,0.0493655,0.127555,0.2587,0.0447875,0.052407999999999996,-0.06902,0.002120500000000001,0.004704,0.06902,-0.002120500000000001,-0.004704,-0.022554,-0.3032365,-0.071155,0.084589,0.0118805,-0.409575,0.014565000000000002,-0.6252365,-0.019544,0.19257,-0.11975650000000002,-0.709435
84,-0.016861500000000005,0.7043094999999999,0.005754999999999996,-0.15466449999999998,0.4588795,0.095144,-0.2115745,0.2484095,0.15298,0.1405955,0.4538195,0.046491,0.2204855,0.2452495,0.075401,-0.2839245,0.0482055,0.126023,0.2605255,0.0448465,0.048976,-0.0691355,0.0017825000000000028,0.004674999999999999,0.0691355,-0.0017824999999999994,-0.004674999999999999,-0.024186500000000003,-0.3006705,-0.07433000000000001,0.0848375,0.003109500000000001,-0.41018,0.014739499999999999,-0.6239605,-0.022084000000000006,0.1916055,-0.12298049999999999,-0.70849
85,-0.019280499999999996,0.7039125,0.003722000000000003,-0.1563725,0.4592625,0.094082,-0.2140225,0.2493625,0.152487,0.1383475,0.4540425,0.045057,0.22007749999999998,0.2447025,0.071517,-0.28748250000000003,0.0468055,0.12482299999999999,0.2617875,0.0423155,0.04504,-0.0693365,0.0013314999999999959,0.004653999999999998,0.0693365,-0.0013314999999999994,-0.004653999999999998,-0.0258355,-0.2956375,-0.07836300000000002,0.08467250000000001,-0.005635500000000002,-0.41073299999999996,0.014534500000000002,-0.6212675,-0.024628000000000004,0.19026749999999998,-0.1269375,-0.7063429999999999
86,-0.0229295,0.702892,0.0009904999999999983,-0.15869850000000002,0.45962200000000003,0.0925295,-0.21730850000000002,0.250552,0.1522865,0.1354015,0.45440200000000003,0.042986500000000004,0.2191415,0.24442199999999997,0.0660035,-0.2914485,0.047859,0.1246155,0.2628415,0.04105199999999999,0.0363585,-0.0696975,0.0006289999999999976,0.0045065000000000036,0.0696975,-0.0006290000000000046,-0.004506499999999997,-0.027610500000000003,-0.289028,-0.08349350000000001,0.0839965,-0.006386000000000003,-0.4110135,0.013714500000000001,-0.6170880000000001,-0.026981500000000005,0.1886215,-0.132258,-0.7035534999999999
87,-0.026831500000000005,0.7019354999999999,-0.001901,-0.16158550000000002,0.45928549999999996,0.090841,-0.2209355,0.2513955,0.152736,0.1324545,0.45428549999999995,0.040168,0.2183745,0.2442455,0.059860000000000003,-0.2958155,0.050428499999999994,0.12437300000000001,0.2641945,0.0416055,0.027641000000000002,-0.0700865,3.4999999999965614e-06,0.004628,0.0700865,-3.5000000000035003e-06,-0.004628,-0.029231500000000004,-0.2845745,-0.08929400000000001,0.0829635,-0.007884500000000003,-0.41144400000000003,0.0131405,-0.6135145000000001,-0.029222999999999992,0.1869845,-0.13843450000000002,-0.6999139999999999
88,-0.030877500000000002,0.7006669999999999,-0.006659500000000006,-0.16438250000000001,0.45881700000000003,0.0872645,-0.2247925,0.252337,0.15144849999999999,0.12946749999999999,0.45398700000000003,0.0353335,0.2177575,0.24467699999999998,0.0514515,-0.3011325,0.05836,0.12215749999999999,0.2649875,0.049537000000000005,0.016253499999999997,-0.0704565,-0.0007629999999999998,0.004819499999999997,0.0704565,0.0007629999999999998,-0.004819500000000004,-0.0311045,-0.281443,-0.09757149999999999,0.08204249999999999,-0.009641999999999998,-0.4120315,0.012640499999999997,-0.609193,-0.0330705,0.1846575,-0.145133,-0.6958715000000001
89,-0.0347345,0.699468,-0.011811499999999989,-0.16666150000000002,0.45838799999999996,0.0834695,-0.2286015,0.253698,0.1499185,0.1266585,0.454018,0.030055500000000006,0.2179885,0.24668800000000002,0.042822500000000006,-0.3061715,0.067121,0.1200315,0.2669685,0.058298,0.0026885000000000034,-0.07091549999999999,-0.0013820000000000013,0.005082500000000004,0.07091549999999999,0.0013820000000000013,-0.005082499999999997,-0.0325375,-0.279052,-0.1054265,0.08148849999999999,-0.007963000000000005,-0.41246649999999996,0.0126095,-0.603772,-0.03698349999999999,0.1825185,-0.146532,-0.6964865
90,-0.039103,0.6982634999999999,-0.017735999999999988,-0.16876,0.4580435,0.079736,-0.23349,0.2631735,0.148372,0.12359,0.4544635,0.023950000000000006,0.21926,0.2565635,0.032857000000000004,-0.31360000000000005,0.07759650000000001,0.11805900000000001,0.27104,0.0687735,-0.015256999999999993,-0.07136500000000001,-0.001850499999999991,0.005262000000000003,0.07136500000000001,0.001850500000000005,-0.005261999999999996,-0.033987,-0.2774765,-0.11345599999999999,0.080988,-0.010742499999999988,-0.412716,0.013057999999999998,-0.5969065,-0.040737999999999996,0.17888,-0.1490965,-0.696986
91,-0.043938000000000005,0.696693,-0.02448700000000001,-0.170961,0.45746299999999995,0.07582699999999999,-0.241041,0.27347299999999997,0.14704099999999998,0.12029899999999999,0.455333,0.017577999999999996,0.221839,0.26686299999999996,0.021982999999999996,-0.326811,0.08999399999999999,0.114812,0.278329,0.08107199999999999,-0.03562900000000001,-0.071988,-0.0032430000000000098,0.0055529999999999954,0.071988,0.003242999999999996,-0.005553000000000002,-0.035669000000000006,-0.27713699999999997,-0.12140700000000001,0.08013699999999999,-0.015384000000000009,-0.412937,0.013203999999999997,-0.589727,-0.04360800000000001,0.172729,-0.15812700000000002,-0.697627
92,-0.0484285,0.6939835,-0.031327499999999994,-0.1728955,0.4567435,0.0722245,-0.25059549999999997,0.2822735,0.1455005,0.1171345,0.4557235,0.0110325,0.2255345,0.2756635,0.011223500000000004,-0.3465455,0.1040745,0.1087765,0.28681450000000003,0.0965575,-0.05715049999999999,-0.07259650000000001,-0.0044545,0.005879500000000003,0.07259650000000001,0.0044545,-0.005879499999999996,-0.0370355,-0.2781765,-0.1285705,0.07968149999999999,-0.022166500000000006,-0.41320049999999997,0.012390499999999999,-0.5815465000000001,-0.0464875,0.1649745,-0.16864649999999998,-0.6942105
93,-0.052939499999999994,0.6908639999999999,-0.039166999999999993,-0.17489149999999998,0.456044,0.067288,-0.2648715,0.290244,0.140704,0.11379850000000001,0.456384,0.0033070000000000044,0.2308285,0.283634,-0.0026300000000000004,-0.37076149999999997,0.129253,0.09764300000000001,0.2978385,0.123655,-0.08358199999999999,-0.0731725,-0.0054459999999999925,0.0061270000000000005,0.0731725,0.005446000000000006,-0.0061270000000000005,-0.038614499999999996,-0.280456,-0.135312,0.07934150000000001,-0.03017600000000001,-0.41284200000000004,0.011619500000000005,-0.573906,-0.04978199999999999,0.15692850000000003,-0.18024600000000002,-0.691302
94,-0.0566915,0.6856960000000001,-0.04669000000000001,-0.1762775,0.457266,0.06243599999999999,-0.2793075,0.29865600000000003,0.133332,0.1112225,0.457666,-0.0042150000000000035,0.23374250000000002,0.29230599999999995,-0.020642000000000008,-0.3881675,0.160527,0.08007899999999998,0.3007225,0.155442,-0.114061,-0.0735635,-0.0059040000000000065,0.006469999999999997,0.0735635,0.005903999999999993,-0.0064700000000000035,-0.0393095,-0.28189400000000003,-0.139881,0.07953350000000001,-0.040074,-0.412481,0.0109865,-0.5692539999999999,-0.05335200000000001,0.14998250000000002,-0.19292399999999998,-0.688451
95,-0.059702000000000005,0.6801745,-0.052592999999999994,-0.17816400000000002,0.4585245,0.058808,-0.293184,0.3137745,0.121562,0.109516,0.4589245,-0.010051999999999998,0.236696,0.3070945,-0.037237,-0.402684,0.2062245,0.058437,0.301636,0.2039755,-0.136473,-0.073568,-0.006205500000000003,0.006904,0.073568,0.006205500000000003,-0.006904,-0.039434000000000004,-0.2847155,-0.142393,0.07959,-0.04960550000000001,-0.412083,0.010844999999999997,-0.5677455,-0.056154,0.143586,-0.20557550000000002,-0.6856129999999999
96,-0.0627775,0.6753045,-0.057982000000000006,-0.18052949999999998,0.4585245,0.055403999999999995,-0.30393950000000003,0.3328045,0.108638,0.10798050000000001,0.4589245,-0.014806,0.23707050000000002,0.3257945,-0.051859,-0.4144495,0.2610445,0.037354,0.30039049999999995,0.2601145,-0.155764,-0.07407749999999999,-0.006205500000000003,0.007190999999999996,0.07407749999999999,0.006205500000000003,-0.007191000000000003,-0.0395995,-0.2873655,-0.144264,0.0795835,-0.057545499999999986,-0.411384,0.010627499999999998,-0.5677455,-0.058864,0.13724050000000002,-0.21761550000000002,-0.682794
97,-0.0662565,0.6739944999999999,-0.062480499999999994,-0.1830795,0.4585245,0.0518185,-0.3138995,0.3685045,0.0923205,0.1067705,0.4589245,-0.0188515,0.2364005,0.36301449999999996,-0.0643605,-0.4241695,0.3395445,0.0170745,0.2994905,0.3411445,-0.1720205,-0.0746385,-0.006205500000000003,0.0073634999999999985,0.0746385,0.006205500000000003,-0.007363500000000002,-0.0419235,-0.2877155,-0.1461205,0.0797625,-0.06356550000000001,-0.41016050000000004,0.009968499999999998,-0.5667655,-0.0622215,0.13105050000000001,-0.22822550000000003,-0.6803305
98,-0.06971350000000001,0.6739944999999999,-0.0673835,-0.1863295,0.4602845,0.0466275,-0.3210695,0.40964449999999997,0.0741835,0.10535049999999999,0.4608145,-0.0237575,0.2358605,0.4050545,-0.0752635,-0.4281795,0.4245045,-0.0013234999999999983,0.29857049999999996,0.4265845,-0.1825135,-0.0747595,-0.006205500000000003,0.0075555,0.0747595,0.006205500000000003,-0.0075555,-0.0452745,-0.2877155,-0.1493635,0.07981949999999999,-0.06667549999999998,-0.4087635,0.008820499999999995,-0.5652355,-0.0669335,0.12475049999999999,-0.23672550000000003,-0.6794935
99,-0.07245599999999999,0.67216,-0.07069500000000001,-0.188418,0.46258,0.041631,-0.326448,0.45350999999999997,0.055952,0.104152,0.46326999999999996,-0.026969,0.235582,0.44945999999999997,-0.084535,-0.429888,0.51094,-0.019996,0.298142,0.51082,-0.188535,-0.07488500000000001,-0.006970000000000004,0.007381000000000002,0.07488500000000001,0.006970000000000004,-0.007380999999999999,-0.049016,-0.28955,-0.15210500000000002,0.079823,-0.06850999999999999,-0.406465,0.007027000000000004,-0.56452,-0.071625,0.118452,-0.24308,-0.679415
100,-0.07432,0.6683245,-0.0713435,-0.19007300000000002,0.4654545,0.0392295,-0.32831299999999997,0.49812449999999997,0.0400885,0.102937,0.4662545,-0.027659499999999997,0.235147,0.4953145,-0.0892235,-0.430673,0.5906345000000001,-0.034654500000000005,0.296567,0.5917045,-0.18920350000000002,-0.07500799999999999,-0.007405499999999995,0.0069175000000000035,0.07500799999999999,0.007405500000000009,-0.0069175,-0.052163,-0.29338549999999997,-0.1512135,0.079958,-0.07234549999999998,-0.4038135,0.005449999999999997,-0.5653555,-0.0736235,0.11887700000000001,-0.24691549999999998,-0.6791235
101,-0.0757015,0.664127,-0.0716425,-0.19141750000000002,0.46710700000000005,0.0372005,-0.3284975,0.5426570000000001,0.024781499999999998,0.10199249999999999,0.46730700000000003,-0.027984500000000002,0.2327825,0.540037,-0.09205250000000001,-0.4305775,0.6685070000000001,-0.045457500000000005,0.29149250000000004,0.668907,-0.1892725,-0.07515949999999999,-0.007852999999999999,0.006543499999999997,0.07515949999999999,0.007852999999999999,-0.006543500000000001,-0.055447500000000004,-0.298223,-0.1492625,0.0799985,-0.07963299999999998,-0.4015925,0.003244499999999997,-0.5686329999999999,-0.07487250000000001,0.1184925,-0.25420299999999996,-0.6794825
102,-0.0762595,0.6589855,-0.071607,-0.19251249999999998,0.46966549999999996,0.035844999999999995,-0.3283725,0.5798555,0.012537999999999997,0.1007795,0.47266549999999996,-0.027114,0.22882750000000002,0.5804155,-0.091807,-0.4300625,0.7326555,-0.051404,0.2834575,0.7362755,-0.188777,-0.0752975,-0.008537500000000003,0.006551999999999999,0.0752975,0.008537500000000003,-0.006552000000000002,-0.0587545,-0.3033945,-0.145457,0.0798625,-0.09017449999999999,-0.401587,0.0005855000000000008,-0.5757645,-0.075267,0.1185475,-0.2660445,-0.679487
103,-0.0743715,0.6546105,-0.0704075,-0.19154349999999998,0.4721405,0.0345365,-0.32624349999999996,0.6124605,0.0026855000000000004,0.1014225,0.4769305,-0.025950499999999998,0.2246765,0.6161005,-0.0915555,-0.4219635,0.7882005,-0.0519975,0.2732365,0.7959905,-0.1860655,-0.0747305,-0.0079105,0.006516499999999998,0.0747305,0.0079105,-0.006516499999999998,-0.0602665,-0.3071395,-0.1406255,0.0816905,-0.0989295,-0.4014555,-0.00019749999999999976,-0.5847795,-0.0752155,0.1206165,-0.2758695,-0.6796154999999999
104,-0.07176450000000001,0.6514355,-0.0685365,-0.1892835,0.4742855,0.0337295,-0.3224535,0.6359954999999999,-0.002212499999999999,0.1022265,0.48056550000000003,-0.024219499999999998,0.21913649999999998,0.6431855,-0.09107849999999999,-0.4052335,0.8272655,-0.0532715,0.26133649999999997,0.8376754999999999,-0.1800485,-0.0739535,-0.007258500000000001,0.006337499999999999,0.0739535,0.007258500000000001,-0.006337499999999996,-0.061254499999999996,-0.3096945,-0.13543850000000002,0.08359649999999999,-0.10578449999999999,-0.4014485,-0.0006934999999999997,-0.5946945,-0.0750585,0.12319649999999999,-0.28109449999999997,-0.6781185
105,-0.0688395,0.6489885,-0.0651535,-0.1867255,0.4756485,0.0337985,-0.3136055,0.6546384999999999,-0.005409499999999998,0.10305750000000001,0.4830185,-0.0211605,0.2111145,0.6653985,-0.08880350000000001,-0.38387550000000004,0.8566185,-0.0540435,0.2462145,0.8707985,-0.1678835,-0.0730875,-0.006676500000000002,0.006028499999999999,0.0730875,0.006676499999999998,-0.006028499999999999,-0.06193749999999999,-0.31193150000000003,-0.12977349999999999,0.08546150000000001,-0.11076150000000001,-0.4007035,-0.0009164999999999972,-0.6062315,-0.07418350000000001,0.1266545,-0.2860315,-0.6796635000000001
106,-0.06676950000000001,0.6492494999999999,-0.061848,-0.1848515,0.4759095,0.034042,-0.3043815,0.6606495,-0.005582999999999998,0.1029305,0.4866395,-0.017709000000000003,0.2051385,0.6739495,-0.081671,-0.36955150000000003,0.8661395,-0.05459699999999999,0.23874849999999997,0.8827094999999999,-0.150731,-0.0719765,-0.006448499999999999,0.005687000000000001,0.0719765,0.006448499999999999,-0.005686999999999998,-0.0616105,-0.3145505,-0.125431,0.08655249999999999,-0.11164049999999999,-0.400311,-0.0008005000000000043,-0.6164005,-0.073251,0.1294485,-0.2886505,-0.682811
107,-0.065018,0.6513565,-0.058474500000000006,-0.18329600000000001,0.4765465,0.0342065,-0.29524599999999995,0.6661165,-0.0059255,0.10289999999999999,0.48819650000000003,-0.0144725,0.198954,0.6809465,-0.0727275,-0.357276,0.8737165,-0.0507005,0.232154,0.8916465,-0.1352775,-0.07077800000000001,-0.005834499999999999,0.005149499999999998,0.07077800000000001,0.005834500000000001,-0.005149500000000001,-0.061126,-0.3157835,-0.12064749999999999,0.08758099999999999,-0.11149350000000001,-0.3999475,-0.0008569999999999984,-0.6254135,-0.0721475,0.131804,-0.28639349999999997,-0.6865275
108,-0.063228,0.655278,-0.055131,-0.18199200000000001,0.478238,0.034357,-0.288142,0.670698,-0.006133000000000003,0.103287,0.490688,-0.011483999999999998,0.194468,0.686918,-0.064424,-0.347502,0.8798980000000001,-0.04691999999999999,0.22783799999999998,0.8989280000000001,-0.121997,-0.06955,-0.0048,0.004563000000000001,0.06955,0.0048000000000000004,-0.004563000000000001,-0.060215000000000005,-0.315222,-0.115487,0.088548,-0.108732,-0.399527,-0.0007760000000000024,-0.633312,-0.070417,0.134178,-0.28161200000000003,-0.691987
109,-0.0606405,0.6582125,-0.05199949999999999,-0.1807155,0.4789825,0.0346645,-0.2815255,0.6739124999999999,-0.006156499999999999,0.1039635,0.4925725,-0.008583499999999997,0.1914545,0.6913125,-0.05688649999999999,-0.3385255,0.8848425,-0.0435145,0.22399449999999999,0.9046725,-0.10964850000000001,-0.0684985,-0.003912500000000001,0.0041805,0.0684985,0.0039125,-0.0041805,-0.059161500000000006,-0.3139375,-0.10998849999999999,0.0894375,-0.1044165,-0.3997085,-0.0007185000000000004,-0.6407475,-0.0674575,0.1363945,-0.2763275,-0.6952085
110,-0.05772499999999999,0.6600389999999999,-0.0485405,-0.17862399999999998,0.481429,0.0357395,-0.277374,0.677209,-0.005222499999999998,0.10464300000000001,0.4967190000000001,-0.004581500000000002,0.189896,0.6962389999999999,-0.050183500000000006,-0.334494,0.8878889999999999,-0.0423675,0.22215600000000002,0.9100189999999999,-0.1007565,-0.067407,-0.003194999999999998,0.003804499999999999,0.067407,0.003195,-0.0038045000000000023,-0.057884,-0.312401,-0.1041465,0.09032899999999999,-0.099386,-0.4000865,-0.00013799999999999576,-0.6476310000000001,-0.0633595,0.138636,-0.270671,-0.6976665000000001
111,-0.054703,0.6620769999999999,-0.0458975,-0.177032,0.482577,0.0363565,-0.273642,0.679477,-0.004402500000000004,0.105366,0.49738699999999997,-0.001515500000000003,0.188668,0.698727,-0.0438295,-0.329862,0.8903869999999999,-0.0411255,0.220668,0.9131469999999999,-0.0912895,-0.066884,-0.0021060000000000002,0.0036274999999999988,0.066884,0.0021060000000000002,-0.0036274999999999988,-0.057032,-0.311623,-0.09899950000000002,0.090804,-0.094278,-0.4010395,0.0002939999999999991,-0.653213,-0.0588305,0.140368,-0.263313,-0.7006795
112,-0.05209950000000001,0.6641980000000001,-0.04361,-0.17580749999999998,0.483768,0.036747,-0.2702975,0.6817380000000001,-0.003011,0.1055525,0.49865800000000005,0.0014939999999999988,0.1868325,0.701428,-0.038072,-0.32553750000000004,0.8930480000000001,-0.039585,0.21914250000000002,0.916048,-0.083311,-0.0668885,-0.001336999999999998,0.0035589999999999997,0.0668885,0.0013370000000000014,-0.0035589999999999997,-0.0567395,-0.31163199999999996,-0.094271,0.09078649999999999,-0.089285,-0.401301,0.0003374999999999975,-0.658582,-0.054461,0.1412625,-0.257252,-0.705771
113,-0.04964299999999999,0.6653665,-0.041397500000000004,-0.174672,0.4846365,0.0373175,-0.266922,0.6837665,-0.0014904999999999988,0.105579,0.5001465,0.004501500000000002,0.18569800000000003,0.7036465,-0.0329175,-0.322352,0.8950065,-0.0375775,0.21827800000000003,0.9184665,-0.0757265,-0.066734,-0.0005894999999999997,0.0034775000000000014,0.066734,0.0005894999999999997,-0.0034774999999999945,-0.05631599999999999,-0.3130035,-0.0898065,0.090799,-0.0854145,-0.4011365,0.00043600000000000236,-0.6640635,-0.0502915,0.141688,-0.25570350000000003,-0.7108065
114,-0.0478055,0.666358,-0.0396275,-0.1738865,0.48548800000000003,0.0377865,-0.26394650000000003,0.686028,-1.1500000000004562e-05,0.10568150000000001,0.502408,0.007287499999999999,0.1847935,0.7065980000000001,-0.0288505,-0.3190765,0.897398,-0.0352095,0.2176735,0.921658,-0.06908349999999999,-0.0662445,-5.6000000000000494e-05,0.0033784999999999996,0.0662445,5.6000000000000494e-05,-0.0033784999999999996,-0.05558249999999999,-0.314002,-0.0857935,0.0906875,-0.08203099999999999,-0.4009935,0.00040050000000000155,-0.668432,-0.0464405,0.1420535,-0.253272,-0.7117635
115,-0.04547,0.667316,-0.0375325,-0.172264,0.485916,0.0384765,-0.259744,0.687746,0.0021324999999999955,0.106379,0.503626,0.009821499999999997,0.18464599999999998,0.708556,-0.024475500000000004,-0.314264,0.899416,-0.032220500000000006,0.217806,0.923726,-0.0624795,-0.065964,0.00037100000000000327,0.003505499999999998,0.065964,-0.00037099999999999633,-0.0035055000000000017,-0.053947999999999996,-0.315274,-0.08173150000000001,0.091161,-0.0811,-0.4014915,0.0010010000000000002,-0.672624,-0.04267150000000001,0.14318599999999998,-0.251284,-0.7114115
116,-0.043667,0.667588,-0.035911,-0.171211,0.484588,0.03883,-0.256181,0.687758,0.0039310000000000005,0.107044,0.504598,0.012006000000000003,0.184219,0.710158,-0.021239999999999995,-0.309791,0.899818,-0.029622999999999997,0.217519,0.925558,-0.05695,-0.06604,0.0005019999999999955,0.003654000000000001,0.06604,-0.0005020000000000024,-0.0036539999999999975,-0.05306200000000001,-0.31687200000000004,-0.078836,0.091224,-0.08035500000000001,-0.402486,0.001121999999999998,-0.6761820000000001,-0.03941499999999999,0.144399,-0.253922,-0.712516
117,-0.042206499999999994,0.6671565,-0.0346435,-0.1704785,0.4836465,0.0387845,-0.2533485,0.6874565,0.005799499999999999,0.1073755,0.5056565000000001,0.0139905,0.1834315,0.7116965000000001,-0.018689500000000005,-0.3050585,0.9000665,-0.027098500000000005,0.2168515,0.9273165,-0.052428499999999996,-0.0658885,0.0006364999999999982,0.0036444999999999984,0.0658885,-0.0006364999999999982,-0.003644500000000002,-0.052491499999999996,-0.31886349999999997,-0.07673750000000001,0.09110950000000001,-0.0809815,-0.4024775,0.0008615000000000046,-0.6796335,-0.0370155,0.14451150000000001,-0.2569935,-0.7149375
118,-0.040555499999999994,0.6664005000000001,-0.030991000000000005,-0.1696075,0.48231050000000003,0.041186,-0.2504575,0.6869805,0.009982999999999999,0.1079625,0.5065705,0.018259,0.18273250000000002,0.7128905,-0.014001,-0.2999675,0.9003205000000001,-0.022170000000000002,0.21625250000000001,0.9287305,-0.046121999999999996,-0.0657175,0.0007694999999999994,0.0025029999999999983,0.0657175,-0.0007694999999999994,-0.0025029999999999983,-0.051838499999999996,-0.3211395,-0.072631,0.09173750000000001,-0.08309949999999999,-0.401291,0.000562500000000004,-0.6825095,-0.032614000000000004,0.14457250000000002,-0.2600495,-0.715131
119,-0.038578999999999995,0.665343,-0.027743499999999997,-0.168347,0.48027299999999995,0.0433905,-0.24740700000000002,0.685693,0.013853499999999998,0.109112,0.506473,0.021846499999999998,0.182293,0.7128829999999999,-0.010326500000000002,-0.29453700000000005,0.899703,-0.017358500000000006,0.215923,0.928793,-0.04132450000000001,-0.065486,0.0008379999999999985,0.0013945,0.065486,-0.0008380000000000054,-0.0013945,-0.051177,-0.32333700000000004,-0.0690335,0.092429,-0.08630800000000001,-0.3999735,0.00023300000000000404,-0.6850970000000001,-0.028834500000000006,0.14383300000000002,-0.263447,-0.7127534999999999
120,-0.037554500000000005,0.6643655,-0.024391999999999997,-0.16795349999999998,0.47847550000000005,0.04589,-0.24560350000000003,0.6840955,0.017556999999999996,0.1090995,0.5043355,0.024886999999999996,0.18145650000000002,0.7108055,-0.006991000000000004,-0.2908035,0.8985555000000001,-0.013565,0.2148465,0.9267155,-0.037783,-0.0663975,-9.15000000000013e-05,0.000556999999999995,0.0663975,9.15000000000013e-05,-0.0005570000000000019,-0.05178150000000001,-0.32477449999999997,-0.066195,0.0921215,-0.0886545,-0.398405,-0.001387500000000005,-0.6871545,-0.025845000000000007,0.1421965,-0.2658145,-0.7081350000000001
121,-0.036292500000000005,0.662895,-0.020533500000000003,-0.1676005,0.476595,0.0489965,-0.2439805,0.682075,0.0212245,0.10904449999999999,0.502125,0.0286105,0.18096949999999998,0.708485,-0.0032814999999999997,-0.2874105,0.896935,-0.009569500000000002,0.21388949999999998,0.924415,-0.034389499999999996,-0.06750049999999999,-0.0010859999999999967,-0.00037449999999999983,0.06750049999999999,0.0010860000000000036,0.00037449999999999983,-0.05246050000000001,-0.326545,-0.0628725,0.0918495,-0.091065,-0.39655250000000003,-0.002865500000000005,-0.689465,-0.022297500000000005,0.1400295,-0.268225,-0.7027525
122,-0.0349525,0.661536,-0.016315999999999997,-0.1668335,0.475036,0.052473,-0.2427335,0.680246,0.025063000000000002,0.1093365,0.500146,0.032762,0.18120650000000002,0.706506,0.0005170000000000036,-0.2846235,0.895226,-0.005872999999999996,0.2142965,0.9224559999999999,-0.030624,-0.0686395,-0.0020940000000000056,-0.0010989999999999958,0.0686395,0.0020939999999999986,0.0010990000000000028,-0.0533005,-0.327994,-0.059035000000000004,0.0913745,-0.093171,-0.394705,-0.0039334999999999995,-0.691414,-0.018419999999999992,0.13768650000000002,-0.27046400000000004,-0.688625
123,-0.0331315,0.6602325,-0.012567999999999996,-0.1656225,0.47367249999999994,0.055416,-0.2414625,0.6786825,0.028538,0.1101375,0.4983225,0.036617000000000004,0.1817775,0.7046924999999999,0.004035000000000004,-0.2819825,0.8937025,-0.002482999999999999,0.2147675,0.9206424999999999,-0.0271,-0.0696985,-0.002971500000000002,-0.0018479999999999955,0.0696985,0.002971500000000002,0.0018480000000000024,-0.0540425,-0.32950749999999995,-0.055437,0.0908025,-0.0959765,-0.393007,-0.0044305,-0.6935275000000001,-0.014836000000000002,0.1359375,-0.27469750000000004,-0.674157
124,-0.031161999999999995,0.658795,-0.0089025,-0.164325,0.472155,0.0586215,-0.240745,0.6772050000000001,0.0322245,0.11136499999999999,0.49656500000000003,0.0406215,0.183345,0.702935,0.007668500000000002,-0.280225,0.892195,0.0011395000000000016,0.216175,0.918885,-0.023456499999999998,-0.070598,-0.003689999999999999,-0.0025794999999999985,0.070598,0.003689999999999999,0.0025794999999999985,-0.054631,-0.331195,-0.0517005,0.09015400000000001,-0.098918,-0.39128050000000003,-0.004782999999999996,-0.695465,-0.011082500000000002,0.133225,-0.27880499999999997,-0.6610604999999999
125,-0.028987500000000003,0.6572895000000001,-0.005668000000000006,-0.16278150000000002,0.47060949999999996,0.061285,-0.2399715,0.6759995000000001,0.035543,0.11250849999999998,0.49505950000000004,0.044098,0.1853985,0.7014294999999999,0.010910999999999997,-0.2786515,0.8908294999999999,0.004410999999999998,0.21790849999999998,0.9173795,-0.020947999999999994,-0.07160749999999999,-0.004251499999999991,-0.003241999999999995,0.07160749999999999,0.004251500000000005,0.003242000000000002,-0.055130500000000006,-0.3327005,-0.048653,0.0895795,-0.10148249999999999,-0.389343,-0.005032500000000004,-0.6971404999999999,-0.0076979999999999965,0.1318085,-0.2841605,-0.654943
126,-0.025972000000000002,0.656084,-0.0022889999999999994,-0.160995,0.469194,0.06412100000000001,-0.23923499999999998,0.674964,0.038929000000000005,0.114535,0.493224,0.047782000000000005,0.18894499999999997,0.6990339999999999,0.013876000000000006,-0.277865,0.889624,0.007827000000000008,0.220675,0.9150039999999999,-0.019408999999999996,-0.072684,-0.004651000000000002,-0.003962999999999994,0.072684,0.004651000000000002,0.003963000000000008,-0.056108000000000005,-0.333716,-0.045638,0.088777,-0.103868,-0.38723799999999997,-0.005310000000000002,-0.698346,-0.004425999999999999,0.130525,-0.289086,-0.650108
127,-0.022602999999999998,0.655691,-0.0024874999999999897,-0.15911999999999998,0.46843100000000004,0.06339750000000001,-0.23867,0.674291,0.03840450000000001,0.11684,0.492561,0.04794550000000001,0.19257,0.697661,0.013450500000000011,-0.27766,0.889091,0.007375500000000007,0.22403,0.913541,-0.02220649999999999,-0.073839,-0.004934999999999995,-0.003891499999999992,0.073839,0.004935000000000009,0.003891500000000006,-0.057384,-0.33386899999999997,-0.046401499999999984,0.08734,-0.10533999999999999,-0.3871515,-0.005657999999999997,-0.698489,-0.00499949999999999,0.12837,-0.293379,-0.6456715
128,-0.0166365,0.655371,-0.0028419999999999973,-0.15764050000000002,0.46796099999999996,0.062438,-0.2372205,0.673851,0.037749000000000005,0.1198195,0.49187100000000006,0.048228,0.1982395,0.695711,0.013064,-0.2775405,0.888841,0.006749999999999999,0.22949950000000002,0.911321,-0.025888999999999995,-0.0749895,-0.004934999999999995,-0.003820000000000004,0.0749895,0.004935000000000009,0.003820000000000004,-0.0586555,-0.333639,-0.047314999999999996,0.0861785,-0.10722,-0.387075,-0.005582500000000001,-0.6982389999999999,-0.005921999999999997,0.1275095,-0.297289,-0.634015
129,-0.008982,0.654871,-0.0032090000000000035,-0.154883,0.467831,0.061281999999999996,-0.23416299999999998,0.673581,0.03661299999999999,0.12415700000000002,0.49114100000000005,0.048625999999999996,0.206257,0.693241,0.012630999999999996,-0.276513,0.8886310000000001,0.005850999999999995,0.23727700000000002,0.908491,-0.029648000000000008,-0.075041,-0.004934999999999995,-0.003817000000000001,0.075041,0.004935000000000009,0.003817000000000001,-0.059194000000000004,-0.333639,-0.048206,0.08638799999999999,-0.10986499999999999,-0.387096,-0.003647000000000002,-0.698019,-0.007863000000000009,0.128467,-0.30183899999999997,-0.623736
130,-0.0006419999999999993,0.654101,-0.004578499999999999,-0.14905000000000002,0.467831,0.0579595,-0.23001000000000002,0.673021,0.0342305,0.13076,0.489691,0.0489435,0.21511,0.690611,0.0111435,-0.27529,0.887511,0.003873500000000002,0.2461,0.905361,-0.0342465,-0.07492299999999999,-0.004934999999999995,-0.0038264999999999966,0.07492299999999999,0.004935000000000009,0.0038265000000000035,-0.059805,-0.333649,-0.0498575,0.08680399999999999,-0.113174,-0.38647750000000003,-0.001499,-0.6978489999999999,-0.010605500000000004,0.12958,-0.306829,-0.6140175
131,0.008409000000000002,0.6531589999999999,-0.006551000000000001,-0.143233,0.46780900000000003,0.054352000000000004,-0.225243,0.672509,0.031020000000000002,0.137427,0.48850899999999997,0.049063,0.224497,0.6880189999999999,0.009093000000000004,-0.27391299999999996,0.8862289999999999,0.0007759999999999989,0.25513699999999995,0.9023289999999999,-0.038465,-0.074767,-0.004809999999999995,-0.0038669999999999954,0.074767,0.004810000000000009,0.0038670000000000024,-0.060301999999999994,-0.333411,-0.05184899999999999,0.08734,-0.11714799999999999,-0.385639,0.0006270000000000017,-0.697411,-0.013649999999999995,0.130877,-0.322921,-0.598629
132,0.017614000000000005,0.6530834999999999,-0.009459499999999996,-0.13752099999999998,0.46845349999999997,0.050312499999999996,-0.22001099999999998,0.6728835,0.0259965,0.14330900000000002,0.48897349999999995,0.0482315,0.235079,0.6853334999999999,0.006891499999999995,-0.27220099999999997,0.8857435,-0.005263500000000004,0.265319,0.8990435,-0.04358150000000001,-0.074801,-0.0038555000000000117,-0.003916500000000003,0.074801,0.003855499999999998,0.003916499999999996,-0.06081999999999999,-0.3323665,-0.054281499999999996,0.088338,-0.1219645,-0.3841815,0.002371000000000005,-0.6955165,-0.017134499999999997,0.132229,-0.3381465,-0.5837515
133,0.026767000000000006,0.6532515000000001,-0.0124755,-0.13113999999999998,0.46909150000000005,0.0461365,-0.21427000000000002,0.6729415000000001,0.020512500000000003,0.14991,0.4884715,0.0485705,0.24518999999999996,0.6829115000000001,0.0045795,-0.26971,0.8847815000000001,-0.012598499999999999,0.27559,0.8959415,-0.048946500000000004,-0.074834,-0.0026714999999999933,-0.003873500000000002,0.074834,0.002671500000000007,0.003873500000000002,-0.061507,-0.3307985,-0.0571265,0.089482,-0.1265325,-0.3828765,0.003970000000000003,-0.6930784999999999,-0.020860500000000004,0.13356,-0.35224849999999996,-0.5700665
134,0.0354565,0.653668,-0.015204499999999996,-0.1253025,0.47001799999999994,0.0425595,-0.2087925,0.6733779999999999,0.0150845,0.1564975,0.488378,0.0491665,0.25531750000000003,0.6803779999999999,0.0028115000000000015,-0.2668625,0.884038,-0.02037549999999999,0.2859875,0.892598,-0.054127499999999995,-0.0748325,-0.001562999999999995,-0.003884499999999999,0.0748325,0.0015630000000000088,0.003884500000000006,-0.0623305,-0.32882199999999995,-0.0599075,0.0909095,-0.13049,-0.3816375,0.005455500000000002,-0.690212,-0.024320499999999995,0.13732750000000002,-0.364452,-0.5628175
135,0.0422035,0.654208,-0.018131999999999995,-0.12028649999999999,0.47135799999999994,0.038646,-0.2045565,0.674218,0.009502000000000003,0.1619635,0.48828799999999994,0.049263,0.26369349999999997,0.678528,0.0006390000000000007,-0.26400650000000003,0.883688,-0.02989,0.2952535,0.889798,-0.059515,-0.07481550000000001,-0.0007240000000000024,-0.003971999999999996,0.07481550000000001,0.0007239999999999955,0.003972000000000003,-0.06310450000000001,-0.326942,-0.063175,0.0928235,-0.13331300000000001,-0.38050500000000004,0.006720500000000001,-0.687412,-0.028003,0.1415335,-0.377072,-0.554695
136,0.047230499999999995,0.6548274999999999,-0.021537999999999995,-0.1160715,0.4730775,0.033918000000000004,-0.2013015,0.6753374999999999,0.003574000000000001,0.1662885,0.48832749999999997,0.048295000000000005,0.27043849999999997,0.6765574999999999,-0.002800999999999998,-0.26215150000000004,0.8836774999999999,-0.039817,0.30239849999999996,0.8870275000000001,-0.065441,-0.07487150000000001,-5.2499999999996994e-05,-0.004066,0.07487150000000001,5.250000000000393e-05,0.004066,-0.0644565,-0.3249925,-0.06690099999999999,0.0945085,-0.1354035,-0.379521,0.007528499999999997,-0.6843625,-0.032519,0.14467850000000002,-0.3888325,-0.548691
137,0.0488285,0.65556,-0.024829500000000004,-0.1124335,0.47482,0.028853499999999997,-0.1993735,0.67645,-0.0022365000000000024,0.1691865,0.48849,0.0464195,0.2742965,0.67524,-0.007120500000000002,-0.2610335,0.88363,-0.0496625,0.3067265,0.88498,-0.07136050000000001,-0.0750005,0.0005440000000000028,-0.004106499999999999,0.0750005,-0.0005439999999999959,0.004106499999999999,-0.0660505,-0.32317,-0.0704405,0.0958065,-0.136673,-0.3785605,0.007820500000000001,-0.6815,-0.03737750000000001,0.1464665,-0.40016,-0.5410905
138,0.048931999999999996,0.6561745,-0.028333499999999998,-0.109703,0.47646449999999996,0.023476499999999997,-0.19865200000000002,0.6770145,-0.0084505,0.17121799999999998,0.48854450000000005,0.043276499999999996,0.276118,0.6743145,-0.012603500000000004,-0.260662,0.8834545,-0.059841500000000006,0.308908,0.8833945,-0.0780625,-0.075161,0.0009855000000000003,-0.0040245,0.075161,-0.0009855000000000003,0.0040245,-0.067713,-0.32186549999999997,-0.0736625,0.096188,-0.1373895,-0.3781325,0.007442999999999998,-0.6792555,-0.0429035,0.147428,-0.41128549999999997,-0.5347325
139,0.0473405,0.6567035,-0.031439999999999996,-0.11067750000000001,0.4778435,0.019184,-0.1999555,0.6779635,-0.013886999999999997,0.1705545,0.48851350000000004,0.039061,0.2761645,0.6732735000000001,-0.018123,-0.2615355,0.8839235000000001,-0.068932,0.30912449999999997,0.8818535000000001,-0.084842,-0.07543849999999999,0.001184500000000005,-0.0038870000000000016,0.07543849999999999,-0.001184499999999998,0.0038870000000000016,-0.0696475,-0.32096650000000004,-0.076622,0.0956245,-0.13770549999999998,-0.378132,0.006454499999999998,-0.6775964999999999,-0.047947000000000004,0.14717449999999999,-0.4223565,-0.530802
140,0.045576,0.657536,-0.0344165,-0.11229900000000001,0.47932600000000003,0.0158615,-0.201855,0.678776,-0.019043499999999998,0.16891499999999998,0.487846,0.0344385,0.274745,0.672056,-0.023309499999999997,-0.263525,0.884426,-0.07643849999999999,0.307145,0.880306,-0.09135850000000001,-0.07578399999999999,0.0011079999999999979,-0.0037335000000000007,0.07578399999999999,-0.0011080000000000048,0.0037335000000000007,-0.071782,-0.320144,-0.0793085,0.09445500000000001,-0.13731300000000002,-0.37840850000000004,0.005108000000000001,-0.676074,-0.0526025,0.145375,-0.42181399999999997,-0.5343885
141,0.0438115,0.6583875,-0.036804500000000004,-0.1140395,0.47994749999999997,0.0138565,-0.2037375,0.6788375,-0.0233355,0.1670325,0.48617749999999993,0.0301465,0.2728625,0.6716375,-0.027601499999999998,-0.2654075,0.8843675,-0.0807305,0.3051325,0.8795375,-0.0978405,-0.0761065,0.0007874999999999965,-0.0034035000000000003,0.0761065,-0.0007875000000000035,0.0034035000000000003,-0.0741725,-0.31942250000000005,-0.08157049999999999,0.0927525,-0.1362005,-0.3796805,0.0035435000000000015,-0.6754525,-0.055529499999999996,0.1435025,-0.4214725,-0.5385605
142,0.041721,0.6588175000000001,-0.0390535,-0.11579999999999999,0.4796774999999999,0.013412500000000003,-0.205692,0.6789075,-0.0269765,0.16505799999999998,0.48542749999999996,0.026246500000000002,0.270818,0.6707575,-0.0325725,-0.267382,0.8844875,-0.0846305,0.302968,0.8784175000000001,-0.1047505,-0.07639599999999999,0.0002484999999999987,-0.0030104999999999993,0.07639599999999999,-0.0002484999999999987,0.0030105000000000028,-0.076738,-0.3198225,-0.0838805,0.09093799999999999,-0.1355695,-0.3810105,0.001632999999999999,-0.6752724999999999,-0.05839849999999999,0.141528,-0.42171250000000005,-0.5424605
143,0.03848650000000001,0.6588965,-0.0410815,-0.1171685,0.4792665,0.0134405,-0.2080885,0.6788665,-0.029629500000000003,0.16338149999999999,0.48439649999999995,0.0225855,0.2690715,0.6700965000000001,-0.0386105,-0.2689785,0.8845065000000001,-0.0882965,0.3010815,0.8777765000000001,-0.1127465,-0.0767385,-0.00026450000000000085,-0.0023724999999999996,0.0767385,0.00026450000000000085,0.0023724999999999996,-0.0789435,-0.3205335,-0.0867845,0.08946150000000001,-0.1353915,-0.3828365,7.450000000000165e-05,-0.6752235,-0.061440499999999995,0.1390315,-0.42062350000000004,-0.5460765000000001
144,0.033897000000000004,0.6590039999999999,-0.042647,-0.11929999999999999,0.47928399999999993,0.013979,-0.21147100000000002,0.6791539999999999,-0.030183,0.161559,0.48284399999999994,0.019339000000000002,0.265249,0.669024,-0.045196,-0.27164099999999997,0.8848239999999999,-0.090664,0.297369,0.876494,-0.12077400000000002,-0.076999,-0.0007069999999999993,-0.0016539999999999992,0.076999,0.0007069999999999993,0.001654000000000001,-0.080607,-0.32170600000000005,-0.089779,0.087799,-0.134455,-0.384794,-0.0012179999999999969,-0.674766,-0.06445799999999999,0.136239,-0.419176,-0.548994
145,0.028811,0.658725,-0.043165999999999996,-0.121896,0.480495,0.015899999999999997,-0.215075,0.679735,-0.029008,0.15909500000000001,0.480905,0.015071000000000001,0.26176499999999997,0.667755,-0.051292,-0.274785,0.885415,-0.09023,0.293355,0.875105,-0.128236,-0.077015,-0.0013179999999999997,-0.0007710000000000009,0.077015,0.0013179999999999997,0.000771,-0.081146,-0.322755,-0.09163700000000001,0.086545,-0.13286199999999998,-0.386606,-0.0015730000000000015,-0.673845,-0.06632700000000001,0.134135,-0.41741500000000004,-0.551566
146,0.0233265,0.6587535,-0.0435025,-0.1245165,0.48255349999999997,0.017926499999999998,-0.2191765,0.6810635,-0.026855499999999997,0.1560035,0.4790135,0.0104275,0.2573835,0.6665735,-0.057637499999999994,-0.2787765,0.8868135,-0.0885595,0.2884335,0.8739034999999999,-0.13568750000000002,-0.0769475,-0.001846500000000001,0.0003185000000000002,0.0769475,0.001846500000000001,-0.0003185000000000002,-0.08064450000000001,-0.3241365,-0.0929845,0.0848535,-0.1302035,-0.38781750000000004,-0.002018500000000003,-0.6716765,-0.0676165,0.1271935,-0.4078065,-0.5658675
147,0.016465500000000004,0.658232,-0.04384299999999999,-0.1278925,0.484822,0.019757,-0.2248925,0.682132,-0.024337,0.1518875,0.47727200000000003,0.005976,0.2516675,0.665672,-0.064415,-0.2846225,0.888162,-0.08533400000000001,0.2819075,0.872902,-0.14283099999999999,-0.0771475,-0.0023999999999999994,0.0009820000000000002,0.0771475,0.0023999999999999994,-0.0009819999999999994,-0.0809675,-0.325608,-0.094266,0.0812275,-0.127325,-0.388491,-0.0034084999999999983,-0.669038,-0.068595,0.1181675,-0.396758,-0.5824010000000001
148,0.0096125,0.6579565,-0.0443225,-0.1310935,0.48797650000000004,0.0210915,-0.2311435,0.6835265,-0.0221245,0.1479865,0.4769565,0.0015845,0.2463565,0.6654765,-0.07121050000000001,-0.29090350000000004,0.8898065000000001,-0.08247950000000001,0.27574649999999995,0.8728065,-0.1496565,-0.07739650000000001,-0.002572500000000002,0.0011354999999999998,0.07739650000000001,0.0025724999999999984,-0.0011355000000000002,-0.0813365,-0.32768349999999996,-0.09703650000000001,0.07692650000000001,-0.12378449999999999,-0.3894565,-0.0040835,-0.6654035,-0.0704515,0.1095565,-0.3850435,-0.5976465000000001
149,0.002303999999999997,0.6584979999999999,-0.0445565,-0.135523,0.489578,0.022489500000000003,-0.237283,0.6840579999999999,-0.020171500000000002,0.143277,0.477038,-0.0038185000000000007,0.240387,0.665898,-0.0779165,-0.29924300000000004,0.8897179999999999,-0.08047349999999999,0.268947,0.8733879999999999,-0.1563875,-0.077547,-0.0028249999999999977,0.0012545,0.077547,0.002825000000000001,-0.0012545000000000004,-0.081545,-0.330302,-0.1030175,0.07269,-0.11823800000000001,-0.3907575,-0.004467000000000006,-0.6587620000000001,-0.0740265,0.100637,-0.370682,-0.6139175
150,-0.005335999999999997,0.659161,-0.044571,-0.140323,0.489701,0.023739,-0.244053,0.6830809999999999,-0.018625,0.137887,0.477071,-0.009075,0.23383700000000002,0.6663509999999999,-0.08401600000000001,-0.307753,0.888351,-0.078957,0.261677,0.8740509999999999,-0.16220099999999998,-0.077957,-0.0037529999999999994,0.001435,0.077957,0.0037529999999999994,-0.0014349999999999996,-0.082486,-0.33208899999999997,-0.11062100000000001,0.068329,-0.112922,-0.392441,-0.005711999999999998,-0.651259,-0.078708,0.091387,-0.35588899999999996,-0.630101
151,-0.014355499999999998,0.6595305,-0.0444995,-0.1465395,0.4887605,0.0247635,-0.2523495,0.6812805000000001,-0.0180065,0.13105050000000001,0.47714049999999997,-0.013743499999999999,0.22610050000000004,0.6670005,-0.0891525,-0.3172995,0.8862305,-0.07859350000000001,0.25296050000000003,0.8748905,-0.1674215,-0.0786205,-0.0051695,0.0020234999999999997,0.0786205,0.0051695,-0.0020235,-0.08462249999999999,-0.33297950000000004,-0.1187415,0.0629875,-0.10715949999999999,-0.39403150000000003,-0.007688499999999997,-0.6462395,-0.08358550000000001,0.0811005,-0.34134950000000003,-0.6459515
152,-0.023437,0.6591870000000001,-0.044689999999999994,-0.152814,0.487827,0.025114,-0.261274,0.678857,-0.017528000000000002,0.12455600000000001,0.477637,-0.017935,0.218586,0.6676970000000001,-0.09386,-0.327374,0.8833270000000001,-0.078044,0.24425600000000003,0.8753770000000001,-0.173072,-0.079176,-0.006633,0.0027640000000000004,0.079176,0.006633,-0.002764,-0.086087,-0.336893,-0.129632,0.058012999999999995,-0.101033,-0.396262,-0.009700999999999998,-0.6410929999999999,-0.08834,0.071226,-0.326143,-0.661642
153,-0.032592,0.658411,-0.0447,-0.15887500000000002,0.486911,0.025741,-0.270455,0.676171,-0.016708,0.11841499999999999,0.478781,-0.021115,0.211375,0.668971,-0.09848100000000001,-0.33770500000000003,0.880111,-0.077153,0.23554499999999998,0.876611,-0.17822100000000002,-0.07977500000000001,-0.008193,0.0035529999999999997,0.079775,0.008192999999999999,-0.0035529999999999997,-0.087859,-0.34046899999999997,-0.14000100000000001,0.053089,-0.094839,-0.39804100000000003,-0.012063000000000008,-0.636029,-0.09291,0.062375,-0.309769,-0.676731
154,-0.042188500000000004,0.65826,-0.045382,-0.1651505,0.48555,0.026346,-0.28027050000000003,0.67272,-0.015884999999999996,0.1099095,0.47811,-0.025147000000000003,0.20273950000000002,0.66831,-0.103034,-0.34898049999999997,0.8759199999999999,-0.07645099999999999,0.2259895,0.87608,-0.183104,-0.0804395,-0.009565,0.004364000000000001,0.0804395,0.009564999999999999,-0.004364,-0.08973049999999999,-0.34353,-0.151034,0.048445499999999996,-0.08732,-0.39980400000000005,-0.015067500000000001,-0.62939,-0.097694,0.0536985,-0.29141,-0.691554
155,-0.0520525,0.657228,-0.046607,-0.17171350000000002,0.482218,0.026794000000000002,-0.2896835,0.6677379999999999,-0.015501000000000001,0.10146649999999999,0.47687799999999997,-0.028909999999999998,0.1941465,0.667088,-0.107577,-0.3601735,0.870128,-0.076768,0.2164665,0.874868,-0.187967,-0.0811865,-0.011303,0.0050620000000000005,0.0811865,0.011303,-0.0050620000000000005,-0.0915985,-0.34556200000000004,-0.16172699999999998,0.0443255,-0.07972199999999999,-0.401257,-0.0186055,-0.623212,-0.102827,0.0501315,-0.280302,-0.694407
156,-0.0622225,0.656262,-0.047951,-0.1792305,0.478332,0.02707,-0.29982050000000005,0.662102,-0.015930999999999997,0.09191950000000002,0.474542,-0.033211,0.1851095,0.664642,-0.111583,-0.3719305,0.863702,-0.07841500000000001,0.2067295,0.872422,-0.19256299999999998,-0.0819095,-0.013028999999999999,0.0057020000000000005,0.0819095,0.013028999999999999,-0.005702,-0.0936255,-0.346858,-0.171573,0.040591499999999996,-0.07125800000000002,-0.402683,-0.021758500000000004,-0.616568,-0.10751300000000001,0.0465185,-0.268078,-0.699073
157,-0.0688885,0.6546350000000001,-0.04944,-0.18365250000000002,0.473225,0.026906,-0.3058825,0.655795,-0.016876000000000002,0.08589749999999999,0.47177500000000006,-0.037415000000000004,0.1797175,0.661865,-0.11516900000000001,-0.3821725,0.8548950000000001,-0.082594,0.2009075,0.869405,-0.197229,-0.08172750000000001,-0.015094999999999997,0.005938,0.08172750000000001,0.015095000000000004,-0.005938,-0.09185650000000001,-0.34672499999999995,-0.180089,0.040550499999999996,-0.062785,-0.403399,-0.020712500000000005,-0.6103649999999999,-0.111179,0.04676149999999999,-0.25585499999999994,-0.703359
158,-0.0751865,0.651211,-0.051200999999999997,-0.1860655,0.468311,0.026125,-0.3134755,0.647461,-0.018279,0.08101449999999999,0.469091,-0.040261000000000005,0.1756745,0.658641,-0.11870499999999999,-0.3896155,0.846091,-0.08698499999999999,0.1964245,0.865781,-0.202295,-0.0814945,-0.017039,0.0061990000000000005,0.0814945,0.017039,-0.006199,-0.0905185,-0.34602900000000003,-0.185645,0.040589499999999994,-0.056219000000000005,-0.40415500000000004,-0.018950500000000002,-0.606769,-0.113075,0.047197499999999996,-0.247139,-0.705875
159,-0.0827675,0.6468035,-0.053384499999999994,-0.1875405,0.46279349999999997,0.0248075,-0.3205005,0.6389535,-0.0198275,0.0760195,0.4671335,-0.042858499999999994,0.1715195,0.6559935,-0.1223815,-0.3976205,0.8365435,-0.0916635,0.19209949999999998,0.8627334999999999,-0.2073615,-0.0809095,-0.018324500000000007,0.0064835000000000005,0.0809095,0.0183245,-0.0064835000000000005,-0.0893655,-0.34645650000000006,-0.1912915,0.0404115,-0.0499265,-0.4051815,-0.0171775,-0.6041165000000001,-0.1142015,0.0473615,-0.23811649999999998,-0.7076915
160,-0.091053,0.647424,-0.0536385,-0.189922,0.462704,0.025264500000000002,-0.32816199999999995,0.634574,-0.019700500000000003,0.06966800000000001,0.468394,-0.0443975,0.165968,0.6570339999999999,-0.12369750000000002,-0.40650200000000003,0.830794,-0.09518750000000001,0.187218,0.8633740000000001,-0.20978750000000002,-0.080458,-0.016615000000000005,0.0078875,0.080458,0.01661499999999999,-0.0078875,-0.08882799999999999,-0.341676,-0.19438750000000002,0.039551,-0.03832600000000001,-0.4080675,-0.015966999999999995,-0.593256,-0.1130975,0.047168,-0.223456,-0.7068075
161,-0.10018549999999998,0.6471355000000001,-0.054474,-0.1924385,0.4615855,0.024480000000000002,-0.3347785,0.6296155000000001,-0.022130999999999998,0.06315150000000001,0.4688955,-0.046226,0.1599715,0.6574255,-0.12544,-0.41585849999999996,0.8242155,-0.09978999999999999,0.18281150000000002,0.8629255,-0.21319000000000002,-0.08043149999999999,-0.014924499999999993,0.009191000000000001,0.0804315,0.014924500000000007,-0.009191,-0.0881035,-0.3337945,-0.1951,0.03914350000000001,-0.02685449999999999,-0.4104,-0.014882499999999993,-0.5824045,-0.11198999999999999,0.04792450000000001,-0.2081845,-0.70549
162,-0.10882,0.6463789999999999,-0.056041499999999994,-0.192279,0.459299,0.022214499999999998,-0.33889900000000006,0.623989,-0.025000500000000002,0.057693999999999995,0.46982900000000005,-0.048530500000000004,0.15487099999999998,0.658249,-0.1278565,-0.423949,0.816229,-0.1046465,0.179501,0.863069,-0.2171465,-0.07958100000000001,-0.013800999999999994,0.0107535,0.079581,0.013801000000000008,-0.010753500000000001,-0.08626400000000001,-0.325101,-0.1964465,0.03972999999999999,-0.014620999999999995,-0.4128065,-0.012644000000000006,-0.570971,-0.11084649999999999,0.05007199999999999,-0.19202099999999997,-0.7039665
163,-0.114537,0.6448050000000001,-0.0565205,-0.18987300000000001,0.457295,0.0208415,-0.34042300000000003,0.618925,-0.0269745,0.056201,0.472365,-0.0491255,0.152777,0.6606650000000001,-0.1299045,-0.42962300000000003,0.8089949999999999,-0.1078645,0.17862699999999998,0.864725,-0.2206645,-0.078417,-0.012685000000000002,0.012180499999999999,0.078417,0.012684999999999988,-0.0121805,-0.082666,-0.317015,-0.1966645,0.041998999999999995,-0.003855000000000011,-0.41492450000000003,-0.009654000000000003,-0.561415,-0.1088045,0.05426399999999999,-0.177535,-0.7014144999999999
164,-0.119864,0.643525,-0.056863500000000004,-0.187448,0.45692499999999997,0.0201055,-0.341698,0.615135,-0.028602500000000003,0.054513000000000006,0.47462499999999996,-0.0498625,0.15049200000000001,0.662925,-0.1317405,-0.43502799999999997,0.8029350000000001,-0.10910050000000002,0.17738199999999998,0.8663350000000001,-0.2239805,-0.077232,-0.011164999999999994,0.013529499999999998,0.077232,0.011164999999999994,-0.0135295,-0.079746,-0.30912500000000004,-0.1966705,0.044112,0.006934999999999997,-0.4169505,-0.006981000000000001,-0.5518949999999999,-0.10630050000000002,0.058392,-0.163155,-0.6986305
165,-0.123615,0.643485,-0.057555999999999996,-0.18455900000000003,0.456475,0.018264,-0.339039,0.611845,-0.029217000000000003,0.054167999999999994,0.478565,-0.05033699999999999,0.149111,0.666975,-0.133663,-0.43743899999999997,0.797175,-0.10905300000000001,0.176811,0.869685,-0.227553,-0.07597100000000001,-0.010035000000000016,0.014693,0.075971,0.010034999999999988,-0.014693000000000001,-0.07599600000000001,-0.300895,-0.197313,0.046777,0.018275,-0.418373,-0.0038350000000000016,-0.542095,-0.104043,0.06222699999999999,-0.150105,-0.695703
166,-0.1274645,0.64328,-0.0581845,-0.1824255,0.45641,0.0167405,-0.3368455,0.60884,-0.0296175,0.053267499999999995,0.48202999999999996,-0.0505835,0.14725449999999998,0.6704800000000001,-0.1353845,-0.4378755,0.7934,-0.10718450000000002,0.1755945,0.8726400000000001,-0.23057450000000002,-0.0747545,-0.008560000000000012,0.0158855,0.0747545,0.008560000000000012,-0.0158855,-0.0726935,-0.29335999999999995,-0.1980545,0.0489845,0.029109999999999997,-0.41986450000000003,-0.0009195000000000036,-0.5330199999999999,-0.1019245,0.0651935,-0.13787000000000002,-0.6926445
167,-0.13105899999999998,0.6433500000000001,-0.058712999999999994,-0.180209,0.45729000000000003,0.015119,-0.337989,0.60826,-0.027105999999999998,0.05198799999999999,0.48558,-0.05058000000000001,0.145001,0.67421,-0.136262,-0.44004899999999997,0.79057,-0.10484199999999999,0.17396099999999998,0.87592,-0.23168199999999997,-0.073281,-0.0068999999999999895,0.016916,0.073281,0.006900000000000017,-0.016916,-0.06984699999999999,-0.28558,-0.19886199999999998,0.050622,0.03982000000000002,-0.42099200000000003,0.0013549999999999986,-0.52399,-0.099772,0.067299,-0.12606999999999996,-0.6895319999999999
168,-0.1336515,0.64437,-0.059050500000000006,-0.1771315,0.45932999999999996,0.013424499999999999,-0.3365415,0.60623,-0.0279125,0.05076350000000001,0.48897999999999997,-0.05072550000000001,0.1428585,0.67791,-0.1370105,-0.4416215,0.78497,-0.1036205,0.17232850000000002,0.8791599999999999,-0.2327005,-0.0717335,-0.005260000000000015,0.018016499999999998,0.0717335,0.005259999999999987,-0.018016500000000005,-0.0669385,-0.27701000000000003,-0.1990405,0.05220350000000001,0.05063999999999998,-0.42191049999999997,0.003668500000000005,-0.5144500000000001,-0.09783050000000001,0.0693085,-0.11503000000000002,-0.6848705
169,-0.13734000000000002,0.64125,-0.061614,-0.17501,0.45720000000000005,0.009644999999999997,-0.33658,0.60166,-0.031043,0.049015,0.4899,-0.052212999999999996,0.14027,0.6788,-0.13995400000000002,-0.44508000000000003,0.77718,-0.105194,0.16974,0.87966,-0.236784,-0.071731,-0.0061400000000000066,0.018059,0.071731,0.0061400000000000066,-0.018059,-0.06562899999999999,-0.27281999999999995,-0.20113399999999998,0.052301,0.05668999999999999,-0.421254,0.005023999999999997,-0.50966,-0.097734,0.069743,-0.10893,-0.6823940000000001
170,-0.1396175,0.641315,-0.0635625,-0.17290750000000002,0.45591499999999996,0.005832500000000001,-0.33413750000000003,0.597885,-0.0336195,0.046960499999999995,0.490445,-0.0545655,0.1384425,0.679185,-0.14166449999999997,-0.4456775,0.771285,-0.1057145,0.1670025,0.880665,-0.23780450000000003,-0.07170850000000001,-0.006945000000000007,0.018424500000000003,0.07170850000000001,0.006945000000000007,-0.018424499999999996,-0.06416949999999999,-0.26673499999999994,-0.20245449999999998,0.052353500000000004,0.06414500000000001,-0.4204045,0.0061895000000000006,-0.503285,-0.0969445,0.07024549999999999,-0.10123499999999999,-0.6799244999999999
171,-0.140886,0.63928,-0.0656215,-0.172136,0.4555,0.003664500000000001,-0.331826,0.59531,-0.0342095,0.046102000000000004,0.49061999999999995,-0.056683500000000005,0.138354,0.6789,-0.1431515,-0.446726,0.76739,-0.1065515,0.165024,0.88072,-0.2388415,-0.071698,-0.007000000000000006,0.0185885,0.071698,0.007000000000000006,-0.0185885,-0.063098,-0.26386,-0.2034915,0.052375000000000005,0.06816,-0.4200515,0.006954000000000002,-0.50031,-0.0976515,0.070771,-0.09681999999999999,-0.6782715
172,-0.1431915,0.6379699999999999,-0.068771,-0.17426149999999999,0.45579,0.0035260000000000014,-0.33376150000000004,0.5955999999999999,-0.035062,0.0438905,0.49069999999999997,-0.05826499999999999,0.1361485,0.6784399999999999,-0.144571,-0.45055150000000005,0.76768,-0.108431,0.1621185,0.88037,-0.24074099999999998,-0.0718015,-0.0070400000000000185,0.018746000000000002,0.0718015,0.007039999999999991,-0.018746,-0.0638595,-0.26366,-0.204351,0.0511655,0.06873999999999998,-0.419221,0.006052499999999999,-0.50002,-0.098501,0.0695725,-0.09625,-0.6767610000000001
173,-0.145367,0.63764,-0.071826,-0.176277,0.45579,0.003158999999999995,-0.335817,0.5955999999999999,-0.036097000000000004,0.041836,0.49069999999999997,-0.059307,0.134133,0.6784399999999999,-0.144916,-0.454867,0.76768,-0.10869600000000001,0.160073,0.88037,-0.241676,-0.071873,-0.0070400000000000185,0.018712,0.071873,0.007039999999999991,-0.018712,-0.06431400000000001,-0.26366,-0.205336,0.050044000000000005,0.06885999999999998,-0.41865600000000003,0.005586999999999998,-0.50002,-0.099576,0.068475,-0.09610000000000002,-0.675636
174,-0.14725149999999998,0.63764,-0.07443150000000001,-0.1789215,0.45579,0.0034485,-0.3376415,0.5955999999999999,-0.0364205,0.0400765,0.49069999999999997,-0.059878499999999994,0.1324685,0.6784399999999999,-0.1446115,-0.4583115,0.76768,-0.10796150000000002,0.1583685,0.88037,-0.24137150000000002,-0.0717385,-0.0070400000000000185,0.0186925,0.0717385,0.007039999999999991,-0.0186925,-0.06477749999999999,-0.26366,-0.2050915,0.049229499999999995,0.06940999999999999,-0.4175015,0.005405500000000001,-0.50002,-0.1002815,0.0676805,-0.09561000000000003,-0.6740615
175,-0.14807,0.63764,-0.07671149999999999,-0.18128,0.45635,0.003957499999999996,-0.33859,0.5970599999999999,-0.035729500000000004,0.03877299999999999,0.49069999999999997,-0.059434499999999994,0.132,0.6784399999999999,-0.14421150000000002,-0.46063000000000004,0.7686,-0.1066115,0.15664,0.88037,-0.24090150000000002,-0.07149,-0.0070400000000000185,0.0185425,0.07149,0.007039999999999991,-0.018542500000000003,-0.06564500000000001,-0.26366,-0.20468150000000002,0.048340999999999995,0.07447999999999998,-0.41604149999999995,0.005324999999999996,-0.49997,-0.1001715,0.066812,-0.09063000000000004,-0.6721715
