sb224sc-HT22-VT27/4dt907/src/data/kinect_good_vs_bad_not_preprocessed_A13_mediapipe/W12.csv
FrameNo,nose_3d_x,nose_3d_y,nose_3d_z,left_shoulder_3d_x,left_shoulder_3d_y,left_shoulder_3d_z,left_elbow_3d_x,left_elbow_3d_y,left_elbow_3d_z,right_shoulder_3d_x,right_shoulder_3d_y,right_shoulder_3d_z,right_elbow_3d_x,right_elbow_3d_y,right_elbow_3d_z,left_wrist_3d_x,left_wrist_3d_y,left_wrist_3d_z,right_wrist_3d_x,right_wrist_3d_y,right_wrist_3d_z,left_hip_3d_x,left_hip_3d_y,left_hip_3d_z,right_hip_3d_x,right_hip_3d_y,right_hip_3d_z,left_knee_3d_x,left_knee_3d_y,left_knee_3d_z,right_knee_3d_x,right_knee_3d_y,right_knee_3d_z,left_ankle_3d_x,left_ankle_3d_y,left_ankle_3d_z,right_ankle_3d_x,right_ankle_3d_y,right_ankle_3d_z
0,0.015830999999999998,0.7384689999999999,-0.0338735,-0.142417,0.467939,0.025499499999999998,-0.175427,0.21709900000000001,0.052490499999999995,0.155843,0.464929,0.027645499999999996,0.185223,0.218719,0.0526205,-0.19530699999999998,0.009066000000000001,-0.0014245000000000022,0.202123,0.012529,-0.009923500000000002,-0.067085,0.0019770000000000005,-0.000618500000000001,0.067085,-0.001977,0.0006184999999999941,-0.111907,-0.309991,0.002321499999999997,0.105823,-0.317501,0.012747499999999998,-0.11882699999999999,-0.630201,0.043221499999999996,0.122053,-0.616531,0.042360499999999995
1,0.015935500000000002,0.7384000000000001,-0.0340405,-0.1407545,0.46786,0.026793499999999998,-0.1751745,0.21701,0.0525785,0.1557455,0.46466999999999997,0.027185499999999998,0.1851655,0.21833,0.0526485,-0.1953945,0.008976000000000001,-0.0011705000000000049,0.2027555,0.011882,-0.008669500000000004,-0.0670805,0.001998,-0.0007445000000000021,0.0670805,-0.0019979999999999998,0.0007444999999999952,-0.1117245,-0.31017,0.0018484999999999994,0.1059755,-0.31754000000000004,0.012194499999999997,-0.1185745,-0.63068,0.0426275,0.1222855,-0.61662,0.0417795
2,0.015948999999999998,0.7382135,-0.033991499999999994,-0.14252800000000002,0.4684535,0.0272485,-0.175228,0.2167935,0.0526445,0.15581199999999998,0.4645035,0.0272245,0.185132,0.21828350000000002,0.0527735,-0.195018,0.0087545,-0.0012565000000000007,0.202362,0.0118275,-0.008608499999999998,-0.06707199999999999,0.0019885,-0.0007394999999999971,0.06707199999999999,-0.0019885000000000002,0.0007394999999999971,-0.11160800000000001,-0.3100865,0.0017115000000000012,0.106012,-0.31761649999999997,0.012139500000000001,-0.11846799999999999,-0.6318665,0.0424985,0.122202,-0.6165565000000001,0.0417495
3,0.015948999999999998,0.7382080000000001,-0.0339305,-0.143341,0.468358,0.026693500000000002,-0.175201,0.216768,0.0525645,0.155689,0.464578,0.027133500000000005,0.184909,0.21831799999999998,0.0531755,-0.195001,0.008697,-0.0012094999999999953,0.20238899999999999,0.011947,-0.008452499999999995,-0.06706200000000001,0.001972,-0.0008214999999999958,0.06706200000000001,-0.001972,0.0008215000000000028,-0.111621,-0.310102,0.001684500000000002,0.105959,-0.317592,0.012071500000000002,-0.118561,-0.6321119999999999,0.0423805,0.12223899999999999,-0.6165219999999999,0.041800500000000004
4,0.015894,0.7382575,-0.03374050000000001,-0.143846,0.46808750000000005,0.0263295,-0.175156,0.2164975,0.0526665,0.155474,0.46457750000000003,0.0272175,0.184904,0.2183175,0.0531475,-0.195056,0.0083935,-0.0008845000000000033,0.202094,0.0119195,-0.008488500000000003,-0.067055,0.0019574999999999996,-0.0008104999999999987,0.067055,-0.0019575,0.0008104999999999987,-0.111646,-0.31016249999999995,0.0016914999999999986,0.10597400000000001,-0.31760249999999995,0.012040499999999999,-0.118646,-0.6331224999999999,0.042313500000000004,0.122254,-0.6165324999999999,0.0417725
5,0.0157325,0.738262,-0.03342199999999999,-0.14410450000000002,0.468092,0.026219000000000003,-0.17512450000000002,0.216452,0.052679000000000004,0.1554955,0.464532,0.027424000000000004,0.18471549999999998,0.218162,0.05312700000000001,-0.1950445,0.008345,-0.0008529999999999996,0.20191550000000003,0.011802,-0.008639999999999995,-0.0670565,0.001947,-0.0008849999999999969,0.0670565,-0.001947,0.0008850000000000038,-0.1117345,-0.310268,0.001865000000000002,0.1059855,-0.31768799999999997,0.012106000000000002,-0.1186745,-0.633948,0.042495000000000005,0.1222855,-0.616488,0.041727
6,0.015839,0.7383485,-0.033485,-0.14139000000000002,0.4683685,0.027693000000000002,-0.17485,0.2166285,0.052557000000000006,0.15558,0.4642985,0.027039,0.18483,0.21800850000000002,0.053002,-0.19483,0.0085385,-0.00102,0.20209,0.0116905,-0.008889000000000001,-0.067047,0.0020194999999999996,-0.0008729999999999988,0.067047,-0.0020195,0.0008730000000000022,-0.11157,-0.3101215,0.0017190000000000018,0.10618,-0.3175415,0.011935000000000001,-0.11829999999999999,-0.6336315,0.042373,0.12251999999999999,-0.6163115,0.041565000000000005
7,0.015772500000000002,0.738345,-0.033288,-0.1423105,0.468225,0.027504999999999998,-0.1748405,0.21667499999999998,0.053058999999999995,0.15551949999999998,0.464235,0.027301,0.18465949999999998,0.21761499999999998,0.053057999999999994,-0.1947605,0.008738,-0.001011999999999999,0.2018995,0.011658,-0.009799000000000002,-0.0670735,0.002016,-0.000896000000000001,0.0670735,-0.002016,0.0008959999999999975,-0.1115605,-0.309945,0.0018229999999999982,0.1060395,-0.317545,0.011882999999999998,-0.1184305,-0.632795,0.042283,0.1223895,-0.616805,0.041465999999999996
8,0.015738,0.7383445000000001,-0.0331495,-0.14234,0.4682445,0.0277255,-0.17477,0.2166445,0.0531965,0.15544,0.4641445,0.0273555,0.18459,0.2174645,0.0530535,-0.19471,0.0087385,-0.0009694999999999981,0.2018,0.0116645,-0.009967499999999997,-0.067075,0.0020195000000000005,-0.0009004999999999985,0.067075,-0.0020195,0.000900500000000002,-0.11152999999999999,-0.3099155,0.0018595000000000035,0.10605999999999999,-0.3175155,0.011845500000000002,-0.11839,-0.6328155,0.0422615,0.12242,-0.6169754999999999,0.0414035
9,0.015705499999999997,0.7383500000000001,-0.033030000000000004,-0.14226250000000001,0.46827,0.027947999999999997,-0.17468250000000002,0.21666,0.053388,0.15539750000000002,0.46403,0.027404999999999995,0.1845175,0.21738,0.053023999999999995,-0.19461250000000002,0.008763,-0.0009210000000000051,0.20169749999999997,0.011702,-0.010450000000000001,-0.0670745,0.002022,-0.0009120000000000031,0.0670745,-0.0020220000000000004,0.0009119999999999961,-0.1114825,-0.30984,0.0018859999999999953,0.1060575,-0.3175,0.011771999999999998,-0.11833250000000001,-0.63278,0.04224,0.1224475,-0.61714,0.041325
10,0.015674000000000004,0.7383700000000001,-0.0329155,-0.14213399999999998,0.46821,0.0280865,-0.174564,0.21668,0.053613499999999994,0.155386,0.46392,0.0274755,0.184466,0.2173,0.0530015,-0.19453399999999998,0.008785000000000001,-0.000850500000000004,0.201596,0.011748,-0.0109825,-0.067067,0.002031,-0.0009205000000000046,0.067067,-0.002031,0.0009204999999999977,-0.11143399999999999,-0.30978,0.0019214999999999996,0.106056,-0.31747,0.011696499999999999,-0.118254,-0.63274,0.042235499999999995,0.122506,-0.6173299999999999,0.041249499999999995
11,0.0156255,0.7383745,-0.032805999999999995,-0.1420385,0.4681345,0.028142999999999998,-0.1744685,0.2166945,0.053844,0.1553915,0.46387449999999997,0.027545,0.1844115,0.21728450000000002,0.052990999999999996,-0.1944785,0.008809500000000001,-0.0007580000000000017,0.2014515,0.0117725,-0.011470000000000001,-0.0670615,0.0020325000000000005,-0.0009260000000000032,0.0670615,-0.0020324999999999996,0.0009259999999999997,-0.1113985,-0.3097655,0.0019609999999999975,0.1060315,-0.3174655,0.011625,-0.1181985,-0.6326855,0.042248999999999995,0.1225415,-0.6175255,0.041164
12,0.015583499999999998,0.7383665,-0.0327235,-0.14195750000000001,0.4680665,0.028144500000000003,-0.1743675,0.2167065,0.0540325,0.1553825,0.4638665,0.027625500000000004,0.1843825,0.2172365,0.052998500000000004,-0.1943975,0.0088535,-0.0006474999999999953,0.2013125,0.0117675,-0.011942499999999995,-0.0670515,0.0020275000000000007,-0.0009305000000000008,0.0670515,-0.0020275,0.0009305000000000008,-0.1113575,-0.3097535,0.001993500000000002,0.10602249999999999,-0.3174535,0.011552500000000004,-0.1181375,-0.6326535,0.0422895,0.1226025,-0.6177235,0.0410775
13,0.015563999999999995,0.738368,-0.0326585,-0.14186300000000002,0.467968,0.028124500000000004,-0.174263,0.21671800000000002,0.05420850000000001,0.155387,0.463858,0.027708500000000004,0.184357,0.217178,0.052978500000000005,-0.194333,0.008885,-0.0005314999999999973,0.201177,0.011688,-0.012393499999999995,-0.067036,0.002024,-0.0009364999999999998,0.067036,-0.0020239999999999998,0.0009365000000000033,-0.111303,-0.309732,0.002025500000000003,0.10603699999999999,-0.317452,0.011477500000000002,-0.118053,-0.632572,0.042294500000000006,0.122677,-0.617882,0.0409915
14,0.015536499999999998,0.7383555,-0.032580500000000005,-0.14198950000000002,0.4678355,0.028118499999999998,-0.1741695,0.21671549999999998,0.054335499999999995,0.1554005,0.4638355,0.027840499999999997,0.18436049999999998,0.21713549999999998,0.0529665,-0.19427950000000002,0.0089025,-0.00039250000000000396,0.2011105,0.011609499999999998,-0.012819500000000005,-0.06701750000000001,0.0020204999999999997,-0.0009375000000000008,0.06701750000000001,-0.0020205000000000006,0.0009374999999999974,-0.11125950000000001,-0.3097145,0.002085499999999997,0.10605049999999999,-0.3174545,0.011413499999999997,-0.1179895,-0.6325545,0.04231549999999999,0.12273049999999999,-0.6180945,0.0409185
15,0.015499,0.7383535,-0.032503500000000005,-0.142098,0.4677035,0.027994500000000002,-0.174098,0.21675350000000002,0.0543345,0.15540199999999998,0.4638135,0.0279655,0.18443199999999998,0.2170735,0.0529385,-0.194238,0.0089415,-0.00040649999999999714,0.201132,0.0115725,-0.013101499999999995,-0.066999,0.0020185000000000003,-0.0009375000000000008,0.066999,-0.0020184999999999995,0.0009375000000000008,-0.111238,-0.3097065,0.002156500000000002,0.10605200000000001,-0.3174465,0.011353500000000002,-0.11793799999999999,-0.6323965,0.0423475,0.122782,-0.6181365,0.0408925
16,0.015418,0.7383705,-0.032430499999999994,-0.142262,0.46760050000000003,0.027921500000000002,-0.174092,0.2167705,0.0543405,0.155378,0.46383050000000003,0.0280455,0.184448,0.2171205,0.0528755,-0.194282,0.0089715,-0.0004004999999999981,0.201148,0.0117285,-0.013319499999999998,-0.066991,0.0020165,-0.0009325000000000028,0.066991,-0.0020165,0.0009324999999999993,-0.111262,-0.30969949999999996,0.002232500000000002,0.10599800000000001,-0.31741949999999997,0.0113125,-0.11794199999999999,-0.6323795,0.0424055,0.122808,-0.6181795,0.0408735
17,0.015313999999999998,0.73836,-0.0323385,-0.142376,0.46759,0.027910499999999998,-0.174116,0.2168,0.0543525,0.155354,0.46384000000000003,0.0280575,0.184454,0.21717999999999998,0.052560499999999996,-0.194386,0.009000999999999999,-0.0003855000000000039,0.201154,0.0119,-0.013528499999999999,-0.066997,0.0020069999999999997,-0.0009315000000000018,0.066997,-0.002007,0.0009314999999999983,-0.111306,-0.30976,0.002307499999999997,0.105934,-0.31739999999999996,0.011306499999999997,-0.117956,-0.63239,0.042465499999999996,0.12281399999999999,-0.61818,0.0408675
18,0.015224,0.7383625,-0.032203499999999996,-0.142544,0.4676025,0.027962499999999998,-0.174444,0.21697249999999998,0.0541485,0.155336,0.4638525,0.0281055,0.184696,0.2172925,0.0514875,-0.194874,0.0091845,-0.0005394999999999983,0.201146,0.012060500000000002,-0.013746500000000002,-0.066998,0.0019945,-0.0009214999999999987,0.066998,-0.0019944999999999997,0.0009214999999999987,-0.111354,-0.3098175,0.002420499999999999,0.105896,-0.3173575,0.011356499999999999,-0.117964,-0.6323775,0.0425805,0.122846,-0.6181575,0.0409155
19,0.015150000000000002,0.7383545,-0.0319415,-0.142542,0.4676145,0.028050499999999996,-0.177462,0.2200345,0.0506215,0.155298,0.4638845,0.028173499999999997,0.186098,0.2203245,0.0468235,-0.199452,0.013007500000000002,-0.006152500000000005,0.203798,0.015131499999999999,-0.017949500000000007,-0.066997,0.0019675,-0.0008905000000000024,0.066997,-0.0019674999999999996,0.0008904999999999955,-0.111402,-0.3099455,0.0025524999999999957,0.105868,-0.3172855,0.011424499999999997,-0.117992,-0.6323555,0.042747499999999994,0.122878,-0.6180855,0.0409955
20,0.015057000000000004,0.738321,-0.031517,-0.142507,0.467601,0.028208,-0.180837,0.223651,0.046183,0.155183,0.463981,0.028123000000000002,0.188083,0.224231,0.041191,-0.206107,0.019534,-0.016692,0.207903,0.020085000000000002,-0.025730000000000003,-0.067002,0.0019540000000000004,-0.0008359999999999965,0.067002,-0.001954,0.0008359999999999999,-0.11147699999999999,-0.310139,0.0027219999999999987,0.105823,-0.317149,0.011484000000000001,-0.118037,-0.632439,0.042966000000000004,0.12293300000000001,-0.618039,0.041064
21,0.0149035,0.738291,-0.030953499999999995,-0.1422985,0.467611,0.0283735,-0.1862685,0.22922099999999998,0.0398545,0.1549915,0.464231,0.0277295,0.1917415,0.22928099999999998,0.0327125,-0.2159385,0.029558,-0.030991500000000005,0.21528150000000001,0.027419,-0.038322499999999995,-0.06702849999999999,0.001944,-0.0007874999999999965,0.06702849999999999,-0.0019440000000000004,0.0007875,-0.1116085,-0.310359,0.0029474999999999987,0.10576150000000001,-0.316909,0.0115875,-0.11811849999999999,-0.6327889999999999,0.0431565,0.12300150000000001,-0.617999,0.0411175
22,0.014655000000000001,0.738229,-0.029995499999999994,-0.142404,0.467789,0.0283225,-0.194264,0.236789,0.0311605,0.154486,0.464639,0.027055500000000003,0.196616,0.23545899999999997,0.022240500000000003,-0.228934,0.043840000000000004,-0.05002449999999999,0.225196,0.039417,-0.05737749999999999,-0.06708,0.001912,-0.0007614999999999983,0.06708,-0.0019119999999999996,0.0007615000000000018,-0.111784,-0.310591,0.003213500000000001,0.105646,-0.316611,0.011762500000000002,-0.118254,-0.633251,0.043513500000000004,0.123086,-0.6180209999999999,0.0411865
23,0.014287000000000005,0.7381345,-0.0286,-0.142645,0.4680845,0.028412999999999997,-0.204335,0.2464945,0.020249999999999997,0.15374500000000002,0.4651945,0.025952999999999997,0.204015,0.2442445,0.007412999999999996,-0.244555,0.06445150000000001,-0.07448,0.237995,0.055633499999999995,-0.08227000000000001,-0.06714,0.0018484999999999999,-0.0007220000000000004,0.06714,-0.0018485000000000003,0.000721999999999997,-0.11197499999999999,-0.3108455,0.0034809999999999945,0.105495,-0.3163555,0.011989999999999997,-0.118345,-0.6335155,0.043858999999999995,0.123145,-0.6180655,0.04126199999999999
24,0.01381,0.7379985,-0.026849000000000005,-0.143191,0.4686685,0.028432,-0.217271,0.2611285,0.005541999999999998,0.152839,0.4660385,0.024808999999999998,0.21402900000000002,0.2566985,-0.009351000000000005,-0.26222100000000004,0.0895275,-0.10275099999999998,0.253019,0.0795525,-0.112181,-0.067204,0.0017824999999999998,-0.0006029999999999994,0.067204,-0.0017824999999999998,0.0006029999999999994,-0.112181,-0.3110315,0.0037579999999999975,0.105299,-0.3161115,0.012249,-0.118481,-0.6336314999999999,0.044162999999999994,0.123189,-0.6181315,0.041358
25,0.013058000000000002,0.737706,-0.0246115,-0.14374099999999998,0.469376,0.0285365,-0.233561,0.28382599999999997,-0.010451500000000002,0.15204900000000002,0.467426,0.0236165,0.227279,0.278786,-0.0276575,-0.283121,0.131996,-0.1350265,0.269189,0.12152600000000001,-0.14398650000000002,-0.0673,0.0016790000000000004,-0.0004494999999999985,0.0673,-0.001679,0.0004494999999999985,-0.112451,-0.31131400000000004,0.004067500000000002,0.105039,-0.315894,0.0125555,-0.118671,-0.633964,0.0444115,0.123169,-0.6182340000000001,0.0414335
26,0.011918000000000003,0.7368264999999999,-0.021859499999999997,-0.144281,0.4704165,0.0286935,-0.250051,0.3156565,-0.026236500000000003,0.151199,0.4694165,0.0222105,0.240589,0.3104365,-0.045574500000000004,-0.302971,0.1902065,-0.1636985,0.284589,0.18030649999999998,-0.1745685,-0.067436,0.0014945,-0.00018449999999999717,0.067436,-0.0014944999999999997,0.00018449999999999717,-0.112791,-0.3120635,0.004265500000000002,0.10466900000000001,-0.31603349999999997,0.012772499999999999,-0.118871,-0.6346735,0.0445555,0.12306900000000001,-0.6188235000000001,0.041459499999999996
27,0.010577999999999997,0.7356269999999999,-0.018808,-0.14482499999999998,0.47153700000000004,0.028600999999999998,-0.267445,0.35014700000000004,-0.04015,0.150115,0.471777,0.020873,0.25366500000000003,0.346347,-0.06156,-0.321215,0.25644700000000004,-0.191658,0.298425,0.247707,-0.20089800000000002,-0.067573,0.001267,9.000000000002062e-06,0.067573,-0.0012670000000000001,-9.000000000002062e-06,-0.113145,-0.313123,0.0044989999999999995,0.104265,-0.316513,0.012961,-0.11904500000000001,-0.635663,0.044788,0.12293499999999999,-0.619773,0.041581
28,0.009190000000000002,0.7341095000000001,-0.015825,-0.145397,0.47300949999999997,0.028666999999999998,-0.27775700000000003,0.3867895,-0.048493999999999995,0.149193,0.4743695,0.019729999999999998,0.262503,0.3820095,-0.070441,-0.332827,0.3264895,-0.206411,0.308523,0.3177595,-0.22343100000000002,-0.067687,0.0009885,0.00018399999999999667,0.067687,-0.0009885,-0.0001840000000000036,-0.11349699999999999,-0.3146205,0.004815,0.103873,-0.3174705,0.013214999999999998,-0.119317,-0.6370604999999999,0.045085,0.122803,-0.6211405,0.041874999999999996
29,0.007639500000000003,0.732522,-0.013634,-0.1459785,0.474432,0.028839,-0.28552849999999996,0.42555200000000004,-0.054523,0.14813150000000003,0.476982,0.018813,0.2685015,0.42193200000000003,-0.075987,-0.3401285,0.39968200000000004,-0.209767,0.3134815,0.393762,-0.22915700000000003,-0.0677865,0.000699,0.0003109999999999988,0.0677865,-0.0006990000000000001,-0.0003109999999999988,-0.1138785,-0.316208,0.005039000000000002,0.1034815,-0.318578,0.01344,-0.1196685,-0.638378,0.045451,0.1226115,-0.6225780000000001,0.042264
30,0.005942499999999996,0.7304660000000001,-0.011966499999999998,-0.1462405,0.47678600000000004,0.0289995,-0.2902305,0.465326,-0.0584935,0.1469095,0.479796,0.017969500000000003,0.2718395,0.46361600000000003,-0.07817849999999998,-0.3438405,0.47766600000000004,-0.20942850000000002,0.3143095,0.47278600000000004,-0.2289285,-0.0678465,0.0004499999999999999,0.0005124999999999991,0.0678465,-0.0004499999999999999,-0.0005124999999999991,-0.11428050000000001,-0.318224,0.005297500000000004,0.10306950000000001,-0.32012399999999996,0.013698500000000002,-0.1200805,-0.6402439999999999,0.0458335,0.12233949999999999,-0.624494,0.0426595
31,0.003990499999999997,0.727628,-0.0107685,-0.1465585,0.479138,0.028909500000000005,-0.29206849999999995,0.510738,-0.059811500000000004,0.1457915,0.483568,0.017442500000000003,0.27314150000000004,0.510868,-0.0778225,-0.34431849999999997,0.560148,-0.2090325,0.31383150000000004,0.555428,-0.2285325,-0.0678455,0.00012799999999999964,0.0008804999999999993,0.0678455,-0.0001280000000000005,-0.0008804999999999993,-0.1147585,-0.32095199999999996,0.005693500000000004,0.1025915,-0.322202,0.014094500000000003,-0.1205385,-0.642682,0.0462535,0.1219615,-0.627182,0.043147500000000005
32,0.0016999999999999967,0.724139,-0.009971500000000001,-0.14666,0.48219900000000004,0.028592500000000003,-0.29261,0.5553389999999999,-0.059187500000000004,0.14464,0.487119,0.0174405,0.2726,0.5588489999999999,-0.0771985,-0.34486,0.639169,-0.2084085,0.31329,0.6398889999999999,-0.2279085,-0.067826,-0.00021799999999999944,0.0013265000000000013,0.067826,0.00021800000000000118,-0.0013264999999999944,-0.1152,-0.32421099999999997,0.0062425000000000015,0.10203999999999999,-0.324661,0.014587500000000003,-0.12103,-0.645831,0.046949500000000005,0.12150999999999999,-0.630741,0.0438575
33,-0.0006334999999999937,0.720359,-0.009194,-0.1468015,0.48535900000000004,0.028478000000000003,-0.29314149999999994,0.599009,-0.058452000000000004,0.1434085,0.48996900000000004,0.017551,0.27206850000000005,0.605409,-0.076463,-0.34535150000000003,0.7166389999999999,-0.20610299999999998,0.3127885,0.719499,-0.22597300000000003,-0.0678005,-0.0005729999999999989,0.0018130000000000021,0.0678005,0.0005730000000000006,-0.0018129999999999952,-0.11558149999999999,-0.327771,0.006738000000000001,0.1015085,-0.327391,0.015082000000000002,-0.12149149999999999,-0.649661,0.047684000000000004,0.1210585,-0.634811,0.044629
34,-0.0027880000000000005,0.7165975,-0.008299,-0.1473,0.4884875,0.028134999999999997,-0.29362,0.6347475,-0.05759600000000001,0.14229999999999998,0.49206749999999994,0.017726,0.27159,0.6429775000000001,-0.075527,-0.34437,0.7778575000000001,-0.196507,0.31018999999999997,0.7821075000000001,-0.21557699999999996,-0.067744,-0.0008435000000000005,0.0023079999999999976,0.067744,0.0008435000000000005,-0.0023080000000000045,-0.11588,-0.33128250000000004,0.007207999999999999,0.10102,-0.3302425,0.015616999999999999,-0.12181,-0.6537124999999999,0.048468,0.12063,-0.6389024999999999,0.045484
35,-0.004576000000000004,0.7130690000000001,-0.007239000000000002,-0.14772200000000002,0.49133899999999997,0.027919,-0.292122,0.661089,-0.055511000000000005,0.14101799999999998,0.493579,0.018105,0.269648,0.670539,-0.069309,-0.339552,0.8231390000000001,-0.17978899999999998,0.30357799999999996,0.828029,-0.19693899999999998,-0.06765,-0.0009469999999999999,0.002687000000000002,0.06765,0.0009469999999999999,-0.002687000000000002,-0.116042,-0.33419099999999996,0.007684999999999997,0.10063799999999999,-0.332831,0.016214,-0.12212200000000001,-0.657631,0.049409,0.120268,-0.642921,0.046511
36,-0.0062460000000000016,0.709379,-0.006307,-0.148046,0.493529,0.028036,-0.286756,0.684009,-0.048794,0.139364,0.49463899999999994,0.01885,0.26414400000000005,0.693179,-0.059708000000000004,-0.33136600000000005,0.859719,-0.157335,0.29366400000000004,0.8646889999999999,-0.170795,-0.067546,-0.0010250000000000016,0.0029899999999999996,0.067546,0.0010249999999999981,-0.0029899999999999996,-0.116106,-0.337221,0.008163999999999998,0.100304,-0.33548100000000003,0.016916999999999998,-0.122396,-0.661931,0.050579,0.119944,-0.647251,0.047834999999999996
37,-0.0078645,0.7061175,-0.005880999999999997,-0.1482225,0.4953575,0.028227000000000002,-0.2775825,0.7020175,-0.04054,0.13806749999999998,0.4954075,0.019571,0.2549075,0.7129075,-0.048124999999999994,-0.3194225,0.8889275,-0.130336,0.2822275,0.8956175,-0.142096,-0.0674555,-0.0010434999999999993,0.0031940000000000024,0.0674555,0.0010434999999999993,-0.0031940000000000024,-0.11612249999999999,-0.33983250000000004,0.008544,0.10001750000000001,-0.3376425,0.017511000000000002,-0.12261249999999999,-0.6659325,0.051788,0.11964749999999999,-0.6512325,0.049165
38,-0.009325000000000003,0.7029485,-0.005918000000000007,-0.148122,0.49703850000000005,0.028473999999999996,-0.268492,0.7176085,-0.032289,0.136818,0.4960285,0.020544999999999997,0.24570799999999998,0.7273585,-0.036257,-0.308392,0.9127785,-0.10687900000000002,0.271208,0.9186785,-0.11414900000000001,-0.06736400000000001,-0.0010355000000000017,0.003251999999999998,0.06736400000000001,0.0010354999999999948,-0.003252000000000005,-0.11608199999999999,-0.3424715,0.009035999999999995,0.099828,-0.3397815,0.018198999999999996,-0.122812,-0.6696915,0.053133,0.11940799999999999,-0.6553015,0.050560999999999995
39,-0.010609999999999998,0.700163,-0.006248999999999998,-0.14788199999999999,0.497723,0.029018000000000006,-0.258112,0.730063,-0.02545199999999999,0.135328,0.496263,0.021859000000000007,0.236668,0.7388629999999999,-0.025345999999999994,-0.298472,0.9283629999999999,-0.08389200000000001,0.261628,0.936353,-0.08970199999999999,-0.067299,-0.0010530000000000053,0.0033060000000000034,0.067299,0.0010529999999999984,-0.0033059999999999964,-0.116022,-0.344727,0.009454000000000004,0.099668,-0.34142700000000004,0.018802000000000006,-0.123052,-0.673227,0.05437600000000001,0.119198,-0.658937,0.051785000000000005
40,-0.011573000000000002,0.698037,-0.006539999999999997,-0.147427,0.498307,0.029782999999999997,-0.252147,0.734657,-0.020846999999999997,0.133893,0.49517700000000003,0.023001,0.230683,0.7436269999999999,-0.017946000000000004,-0.290887,0.9346869999999999,-0.06954099999999999,0.253363,0.945777,-0.066251,-0.067272,-0.0009629999999999986,0.0032070000000000015,0.067272,0.0009629999999999986,-0.0032070000000000015,-0.11587700000000001,-0.346193,0.009584000000000002,0.099573,-0.34263299999999997,0.019235,-0.123197,-0.676033,0.05534,0.119073,-0.661783,0.0527
41,-0.01212,0.6965425,-0.006482500000000009,-0.146871,0.4982225,0.03047849999999999,-0.248591,0.7382025,-0.018079500000000005,0.132769,0.49404249999999994,0.023735499999999993,0.227039,0.7450025,-0.013126500000000006,-0.28544099999999994,0.9385025,-0.0622515,0.248879,0.9491425,-0.056052500000000005,-0.067244,-0.0008265000000000008,0.003098499999999997,0.067244,0.0008265000000000008,-0.003098500000000004,-0.115731,-0.34701750000000003,0.009453499999999997,0.099529,-0.3435475,0.019521499999999994,-0.123261,-0.6782075000000001,0.05585249999999999,0.118909,-0.6639275,0.05307649999999999
42,-0.012563499999999997,0.695378,-0.006213000000000003,-0.1465545,0.49773799999999996,0.030971,-0.2461845,0.7377980000000001,-0.015916000000000007,0.1317455,0.49327799999999994,0.024258999999999996,0.2243355,0.7440680000000001,-0.008933000000000003,-0.28020449999999997,0.9395180000000001,-0.05695,0.2452755,0.949628,-0.04865800000000001,-0.0672275,-0.0006870000000000001,0.002918999999999998,0.0672275,0.0006870000000000001,-0.002919000000000005,-0.1156045,-0.34750200000000003,0.009196999999999997,0.0994755,-0.344202,0.019652999999999997,-0.12333449999999999,-0.6798919999999999,0.056126999999999996,0.1187155,-0.6656519999999999,0.053241
43,-0.013029999999999998,0.6942915,-0.006214999999999998,-0.146318,0.4971815,0.030965,-0.244338,0.7369315,-0.01473,0.130782,0.49304149999999997,0.024328,0.22249200000000002,0.7429115,-0.005717,-0.276628,0.9388814999999999,-0.055111999999999994,0.24263200000000001,0.9487315,-0.04406500000000001,-0.067237,-0.000619500000000002,0.002918999999999998,0.067237,0.0006194999999999951,-0.002918999999999998,-0.115538,-0.3479585,0.008461999999999997,0.099412,-0.3447685,0.019302,-0.123418,-0.6813485,0.055862999999999996,0.11840200000000001,-0.6673585000000001,0.052865999999999996
44,-0.013474999999999997,0.69343,-0.006204999999999995,-0.146366,0.49662000000000006,0.031098,-0.24380600000000002,0.73665,-0.014467,0.129894,0.4928,0.024640000000000002,0.22187400000000002,0.74224,-0.0036589999999999956,-0.274276,0.9389,-0.055166999999999994,0.24159399999999998,0.9483900000000001,-0.042373999999999995,-0.067247,-0.0006379999999999997,0.002919000000000005,0.067247,0.0006379999999999997,-0.002918999999999998,-0.115526,-0.34848999999999997,0.007852999999999999,0.099354,-0.34536,0.019104000000000003,-0.123486,-0.68255,0.055584,0.118064,-0.66876,0.052477
45,-0.013815999999999997,0.6931095,-0.006197000000000001,-0.146459,0.4966195,0.031262,-0.243929,0.7369895000000001,-0.014464000000000005,0.129491,0.49294950000000004,0.024953999999999997,0.221771,0.7423095000000001,-0.0027450000000000044,-0.27319899999999997,0.9395895000000001,-0.055192,0.241471,0.9484795,-0.042371,-0.067271,-0.0006345000000000031,0.002919999999999999,0.067271,0.0006344999999999962,-0.002919999999999999,-0.115549,-0.34870049999999997,0.0074730000000000005,0.09931100000000001,-0.34566050000000004,0.019104999999999997,-0.123569,-0.6831005,0.055335999999999996,0.11775100000000001,-0.6695105,0.052108
46,-0.014319999999999998,0.692706,-0.006396499999999999,-0.146714,0.496776,0.0314115,-0.24419400000000002,0.737026,-0.014669500000000002,0.12895600000000002,0.492996,0.025340500000000002,0.221516,0.7422259999999999,-0.0026725000000000013,-0.272804,0.940076,-0.0554135,0.24120599999999998,0.948696,-0.042576499999999996,-0.067316,-0.0006539999999999949,0.0027145000000000016,0.067316,0.0006540000000000018,-0.0027145000000000016,-0.115674,-0.349184,0.006928500000000004,0.099166,-0.346154,0.0188975,-0.123804,-0.683884,0.0548065,0.117296,-0.670604,0.0514295
47,-0.014912,0.6923509999999999,-0.007359500000000005,-0.14701,0.497151,0.030781499999999996,-0.24454,0.736501,-0.01591850000000001,0.12840000000000001,0.49324100000000004,0.024863499999999993,0.22117,0.741901,-0.003921500000000008,-0.27267,0.940581,-0.056774500000000006,0.24086,0.948631,-0.0438255,-0.067376,-0.0006890000000000021,0.002626499999999997,0.067376,0.0006890000000000021,-0.002626500000000004,-0.11583,-0.349709,0.005358499999999995,0.09906000000000001,-0.346679,0.017642499999999995,-0.12407,-0.684799,0.053039499999999996,0.11678000000000001,-0.672079,0.04936449999999999
48,-0.015621500000000003,0.6920415,-0.0089855,-0.14745450000000002,0.49785150000000006,0.029500499999999995,-0.24537450000000002,0.7360614999999999,-0.0184285,0.12771549999999998,0.4934515,0.023776499999999996,0.2212055,0.7410315,-0.006026500000000004,-0.2728745,0.9409114999999999,-0.0608485,0.2407055,0.9479715,-0.0466135,-0.0674305,-0.0007725000000000024,0.002624499999999995,0.0674305,0.0007724999999999954,-0.002624500000000002,-0.1160745,-0.3501485,0.0029124999999999984,0.0989155,-0.3471185,0.015340499999999996,-0.1244445,-0.6856185,0.0503685,0.1162855,-0.6735685,0.0464495
49,-0.0163595,0.6920314999999999,-0.011172000000000001,-0.1479495,0.49878150000000004,0.027683,-0.2466295,0.7360614999999999,-0.021843999999999995,0.1270205,0.4937915,0.022147,0.2216305,0.7407014999999999,-0.008686,-0.2732895,0.9410115,-0.06633700000000001,0.2410505,0.9477915,-0.050937,-0.0674995,-0.0007725000000000024,0.0025340000000000015,0.0674995,0.0007724999999999954,-0.0025340000000000015,-0.1162995,-0.3501485,-0.00012000000000000205,0.0988605,-0.3475685,0.012531,-0.12479950000000001,-0.6860985000000001,0.046972,0.11575049999999999,-0.6747185,0.042948
50,-0.0170275,0.6920115,-0.014109000000000003,-0.1484155,0.49909149999999997,0.024886,-0.2475755,0.7354615,-0.026231000000000004,0.1265145,0.4933815,0.019725,0.2223245,0.7404915,-0.012452000000000005,-0.2737055,0.9408614999999999,-0.07291,0.2418045,0.9477315,-0.056704000000000004,-0.0676475,-0.0007725000000000024,0.0022749999999999992,0.0676475,0.0007724999999999954,-0.002275000000000006,-0.11629550000000001,-0.3504085,-0.003929000000000002,0.09894449999999999,-0.34852849999999996,0.009004999999999996,-0.1250655,-0.6867385,0.042654,0.1152545,-0.6757085,0.038763
51,-0.017581999999999997,0.6919715,-0.0180935,-0.148733,0.49909149999999997,0.0211465,-0.248623,0.7343215,-0.0320645,0.126077,0.4930815,0.0162275,0.223237,0.7396615,-0.017793500000000004,-0.274103,0.9401514999999999,-0.0813835,0.242917,0.9465914999999999,-0.0643515,-0.067846,-0.0007725000000000024,0.0020774999999999995,0.067846,0.0007724999999999954,-0.002077500000000003,-0.11623299999999999,-0.35274849999999996,-0.009041500000000001,0.09919700000000001,-0.3500485,0.004355499999999998,-0.125123,-0.6875585000000001,0.0369785,0.11507700000000001,-0.6775385,0.0329235
52,-0.0179,0.692047,-0.0233685,-0.148901,0.49921699999999997,0.016379499999999998,-0.24901099999999998,0.732787,-0.0394655,0.12581900000000001,0.493017,0.011589499999999997,0.224269,0.738537,-0.024364500000000004,-0.274191,0.939727,-0.09085750000000001,0.24441900000000003,0.944697,-0.0739175,-0.06790399999999999,-0.0008310000000000053,0.0017894999999999994,0.06790399999999999,0.0008309999999999984,-0.001789500000000003,-0.11610100000000001,-0.355633,-0.015362500000000001,0.099719,-0.35196299999999997,-0.0018065000000000025,-0.12504099999999999,-0.688303,0.0300215,0.11515900000000001,-0.679493,0.0257615
53,-0.018168000000000004,0.6922065,-0.029445999999999996,-0.149043,0.49982649999999995,0.010957000000000001,-0.249253,0.7299165,-0.047669,0.125617,0.49324650000000003,0.006358000000000001,0.225327,0.7367265,-0.031997,-0.274223,0.9396865,-0.101574,0.24601699999999999,0.9425365,-0.084454,-0.067906,-0.0010065000000000004,0.0017140000000000002,0.067906,0.0010064999999999935,-0.0017140000000000002,-0.11608299999999999,-0.3584635,-0.022531,0.100357,-0.3534835,-0.009069999999999998,-0.124973,-0.6887035,0.022154,0.114867,-0.6813735,0.01743
54,-0.0184525,0.6920545,-0.036218,-0.1491945,0.5003545,0.004895000000000001,-0.24947450000000002,0.7276144999999999,-0.056891000000000004,0.1253655,0.49403450000000004,0.00047100000000000093,0.2264055,0.7348545,-0.040622,-0.27452449999999995,0.9391745,-0.113729,0.24762549999999997,0.9395045,-0.096219,-0.0679095,-0.001173500000000001,0.0017480000000000013,0.0679095,0.001173500000000001,-0.0017479999999999996,-0.1162745,-0.3609855,-0.030798,0.1010755,-0.3545355,-0.017258,-0.1248645,-0.6886355,0.013461,0.1144955,-0.6828955,0.008037
55,-0.018585499999999998,0.6909970000000001,-0.0446245,-0.1492035,0.5006569999999999,-0.0031815000000000003,-0.2495635,0.723937,-0.0682615,0.12499650000000001,0.494717,-0.0074035,0.2277665,0.732807,-0.0519815,-0.2747235,0.9393769999999999,-0.12916750000000002,0.24948650000000003,0.936477,-0.1111575,-0.0683025,-0.0011959999999999957,0.0017305,0.0683025,0.0011960000000000026,-0.0017305000000000003,-0.1163535,-0.361473,-0.0417815,0.1022565,-0.353813,-0.028291499999999997,-0.1245635,-0.686693,0.0023385,0.1143065,-0.682623,-0.0036585000000000003
56,-0.0186015,0.689529,-0.053328999999999994,-0.14900750000000001,0.49960899999999997,-0.011748,-0.2496175,0.7203189999999999,-0.080456,0.12485249999999999,0.49507899999999994,-0.015795,0.2289525,0.730669,-0.064416,-0.2747275,0.939439,-0.14608300000000002,0.2513525,0.931989,-0.127893,-0.0686865,-0.0012510000000000021,0.00162,0.0686865,0.0012510000000000021,-0.00162,-0.1162575,-0.36077099999999995,-0.053957,0.1037125,-0.35160100000000005,-0.040607,-0.1241075,-0.683031,-0.009466,0.1142125,-0.681461,-0.015753
57,-0.018390000000000004,0.68765,-0.0624595,-0.148729,0.49907,-0.0209885,-0.249759,0.71487,-0.09383749999999999,0.124731,0.49673999999999996,-0.0245685,0.23038099999999997,0.72812,-0.07798150000000001,-0.274739,0.93862,-0.1644815,0.253291,0.9276599999999999,-0.1451315,-0.069112,-0.0014430000000000033,0.0014944999999999993,0.069112,0.0014429999999999998,-0.001494500000000001,-0.116149,-0.35945000000000005,-0.0671465,0.105421,-0.34865,-0.0540375,-0.123649,-0.67828,-0.022013500000000002,0.114071,-0.67882,-0.028380500000000003
58,-0.018054000000000008,0.6865025,-0.0728755,-0.14819600000000002,0.49694249999999995,-0.0313085,-0.249586,0.7107325,-0.10925449999999999,0.124664,0.49548250000000005,-0.034604499999999996,0.23177399999999998,0.7247325,-0.09331149999999999,-0.274626,0.9397425,-0.1860505,0.255214,0.9230125,-0.1641505,-0.06952900000000001,-0.0013974999999999994,0.001284500000000001,0.06952900000000001,0.0013974999999999994,-0.001284500000000001,-0.116116,-0.3543275,-0.0822045,0.10766399999999998,-0.3426375,-0.0699465,-0.12304600000000002,-0.6691975,-0.0360735,0.11405399999999999,-0.6717075,-0.0425545
59,-0.017362000000000002,0.6847559999999999,-0.0894335,-0.147196,0.493686,-0.047730499999999995,-0.249156,0.7061759999999999,-0.13246449999999999,0.12425399999999999,0.49304600000000004,-0.0507525,0.233804,0.720486,-0.1154885,-0.274116,0.933306,-0.21481050000000002,0.257534,0.9182159999999999,-0.19095050000000002,-0.070077,-0.001467,0.0012414999999999995,0.070077,0.0014669999999999996,-0.0012414999999999995,-0.116396,-0.342844,-0.1053895,0.11082399999999999,-0.330364,-0.0938805,-0.121556,-0.6548740000000001,-0.056279499999999996,0.114364,-0.658204,-0.0636815
60,-0.015780500000000003,0.6837840000000001,-0.10555,-0.1449675,0.489964,-0.063732,-0.2479275,0.702474,-0.155563,0.1246225,0.490634,-0.066464,0.2367625,0.718244,-0.13803500000000002,-0.2725475,0.925394,-0.24429499999999998,0.2607025,0.919214,-0.220115,-0.0707255,-0.0014410000000000013,0.0009979999999999989,0.0707255,0.0014410000000000013,-0.0009979999999999989,-0.1166875,-0.325696,-0.131791,0.11422249999999999,-0.313596,-0.120387,-0.11920750000000001,-0.635576,-0.07585800000000001,0.11522249999999999,-0.638806,-0.083738
61,-0.014105999999999994,0.680884,-0.12206349999999999,-0.143134,0.485294,-0.08019349999999999,-0.246484,0.696264,-0.17953449999999999,0.125156,0.487584,-0.0825635,0.240496,0.713394,-0.1621725,-0.27060399999999996,0.919034,-0.27904450000000003,0.263886,0.917304,-0.2521245,-0.071402,-0.0014300000000000007,0.0012515000000000026,0.071402,0.0014300000000000007,-0.0012514999999999887,-0.117234,-0.301516,-0.1597535,0.11716599999999999,-0.290136,-0.1483065,-0.11654399999999998,-0.609186,-0.09597149999999999,0.11590600000000001,-0.612116,-0.1042505
62,-0.012486000000000002,0.6763015000000001,-0.1381585,-0.14097600000000002,0.4809915,-0.0966685,-0.245206,0.6881915000000001,-0.20351750000000002,0.125304,0.4846015,-0.09866849999999999,0.244584,0.7072815000000001,-0.1844895,-0.268656,0.9090514999999999,-0.3141775,0.267434,0.9102414999999999,-0.2843675,-0.07216700000000001,-0.0013144999999999962,0.0013615000000000016,0.07216700000000001,0.00131450000000001,-0.0013615000000000016,-0.11826600000000001,-0.2748885,-0.1861935,0.119364,-0.2647685,-0.17542750000000001,-0.11399600000000001,-0.5806785000000001,-0.1159285,0.11607400000000001,-0.5830184999999999,-0.12403549999999999
63,-0.0103785,0.67178,-0.154325,-0.1391245,0.47578,-0.11359,-0.2465145,0.6777899999999999,-0.22796,0.1257455,0.47911,-0.11512599999999999,0.2492155,0.6980899999999999,-0.20622000000000001,-0.2657545,0.89516,-0.35141,0.2713755,0.8982699999999999,-0.31818,-0.0729885,-0.0010000000000000009,0.0013299999999999979,0.0729885,0.0009999999999999731,-0.0013299999999999979,-0.1191945,-0.23965000000000003,-0.21178999999999998,0.1216055,-0.23096,-0.201893,-0.1109945,-0.5432300000000001,-0.13623,0.1159355,-0.54443,-0.143985
64,-0.008340499999999995,0.666505,-0.163238,-0.13740549999999999,0.470235,-0.124693,-0.24802549999999998,0.668265,-0.24434499999999998,0.1261045,0.473415,-0.124806,0.2536745,0.684815,-0.221325,-0.26208549999999997,0.874825,-0.380725,0.2749045,0.882375,-0.34457499999999996,-0.0736005,-0.0008549999999999947,0.0011850000000000055,0.0736005,0.0008549999999999947,-0.0011850000000000055,-0.12064549999999999,-0.19422499999999998,-0.228295,0.1231745,-0.185585,-0.219664,-0.1081955,-0.49304499999999996,-0.14952,0.1152445,-0.49326499999999995,-0.157262
65,-0.006270500000000005,0.659165,-0.169823,-0.1357485,0.464075,-0.134051,-0.2516285,0.6513249999999999,-0.255585,0.1260015,0.466285,-0.13278099999999998,0.2606215,0.6655949999999999,-0.23380499999999999,-0.2592185,0.8434949999999999,-0.405045,0.2787415,0.8572150000000001,-0.368515,-0.07414950000000001,-0.0008450000000000124,0.0011550000000000171,0.07414950000000001,0.0008449999999999847,-0.0011549999999999894,-0.1223285,-0.14415500000000003,-0.242365,0.12470149999999999,-0.135625,-0.234455,-0.1054785,-0.43822500000000003,-0.160916,0.1150715,-0.43570499999999995,-0.16938199999999998
66,-0.0040065,0.654455,-0.17712499999999998,-0.1344045,0.46140499999999995,-0.144475,-0.2560245,0.636995,-0.271155,0.1260155,0.46140499999999995,-0.14211,0.2678255,0.6454949999999999,-0.246965,-0.2558045,0.8112849999999999,-0.432845,0.2826955,0.830405,-0.39397499999999996,-0.0747925,-0.0003250000000000197,0.0012250000000000039,0.0747925,0.0003249999999999642,-0.001224999999999976,-0.12400449999999999,-0.08941500000000002,-0.25604499999999997,0.1264355,-0.08132500000000004,-0.249015,-0.1025145,-0.379495,-0.17398399999999997,0.1149655,-0.374335,-0.18284099999999998
67,-0.0010124999999999978,0.648685,-0.180613,-0.1322335,0.45992900000000003,-0.150756,-0.2600935,0.6193649999999999,-0.28654999999999997,0.1275165,0.459948,-0.14846600000000001,0.27687649999999997,0.626395,-0.25772,-0.2512035,0.7746850000000001,-0.45625,0.2877865,0.803125,-0.41625,-0.07521549999999999,-0.00017499999999998073,0.0016199999999999826,0.07521549999999999,0.00017499999999998073,-0.0016200000000000103,-0.12550350000000002,-0.03290500000000002,-0.26655,0.1286765,-0.024434999999999985,-0.2596,-0.09885350000000001,-0.319425,-0.18460500000000002,0.11544650000000001,-0.311715,-0.193551
68,0.0016895000000000052,0.645265,-0.175877,-0.13059849999999998,0.45929699999999996,-0.149071,-0.2650185,0.5979949999999999,-0.29359,0.1295515,0.45866199999999996,-0.146571,0.2846015,0.604405,-0.26119000000000003,-0.2461185,0.738485,-0.47,0.2925315,0.7710049999999999,-0.42991999999999997,-0.07538349999999999,0.0006149999999999767,0.0022800000000000042,0.07538349999999999,-0.0006150000000000322,-0.0022800000000000042,-0.12696849999999998,0.020314999999999972,-0.26981,0.1297815,0.02931499999999998,-0.26292,-0.09316849999999999,-0.261625,-0.182918,0.1158615,-0.252725,-0.196853
69,0.004773000000000001,0.640405,-0.169479,-0.12868000000000002,0.45833500000000005,-0.145702,-0.27104,0.5743590000000001,-0.29664999999999997,0.13178,0.45651800000000003,-0.143007,0.29225,0.577898,-0.26302,-0.24085,0.698855,-0.47948999999999997,0.29521,0.728885,-0.44106999999999996,-0.075139,0.0011150000000000326,0.003140000000000004,0.075139,-0.0011149999999999771,-0.003139999999999976,-0.1275,0.07137500000000002,-0.27213,0.13028,0.08027500000000004,-0.26526,-0.08852,-0.20594499999999993,-0.17979599999999998,0.11678000000000001,-0.196905,-0.199207
70,0.007495999999999996,0.6367769999999999,-0.160996,-0.12773400000000001,0.45779,-0.140176,-0.277534,0.551389,-0.29771000000000003,0.133146,0.454993,-0.13771,0.298046,0.550137,-0.261049,-0.23670400000000003,0.6524,-0.48079000000000005,0.29758599999999996,0.68609,-0.44715000000000005,-0.07486999999999999,0.0011400000000000299,0.0037699999999999956,0.07486999999999999,-0.0011400000000000299,-0.0037699999999999956,-0.128024,0.11510999999999999,-0.27147,0.12792599999999998,0.12649,-0.26512,-0.084564,-0.15580000000000005,-0.174923,0.117396,-0.14682000000000006,-0.200433
71,0.009913500000000002,0.633547,-0.148738,-0.1276775,0.45818,-0.133505,-0.2851575,0.528579,-0.296815,0.1342225,0.45172,-0.130331,0.3022825,0.519457,-0.256564,-0.23257749999999996,0.59998,-0.481005,0.2996725,0.637879,-0.449985,-0.0746335,0.0017199999999999438,0.0038749999999999896,0.0746335,-0.0017200000000000548,-0.0038750000000000173,-0.1286375,0.15794999999999998,-0.267595,0.1235025,0.16945,-0.2579,-0.0811545,-0.10645000000000004,-0.167817,0.1174895,-0.10058,-0.198592
72,0.010847999999999998,0.6309109999999999,-0.135482,-0.130154,0.46063999999999994,-0.12669299999999997,-0.291124,0.5077999999999999,-0.29371499999999995,0.13389600000000002,0.45036999999999994,-0.12195299999999998,0.305856,0.48754999999999993,-0.24640999999999996,-0.230224,0.5572739999999999,-0.48106499999999996,0.299036,0.5875419999999999,-0.449965,-0.074185,0.0020599999999999508,0.0038650000000000073,0.074185,-0.0020600000000000618,-0.0038649999999999796,-0.129704,0.19269999999999993,-0.25966999999999996,0.11870299999999999,0.20423999999999992,-0.24713799999999997,-0.079727,-0.0663800000000001,-0.161236,0.116744,-0.06337000000000004,-0.19603399999999999
73,0.012212999999999998,0.6302479999999999,-0.12473699999999999,-0.13194999999999998,0.46355999999999997,-0.12082999999999999,-0.29648,0.49466,-0.291635,0.13445,0.44926999999999995,-0.115561,0.30829999999999996,0.46109999999999995,-0.237296,-0.22804,0.5309999999999999,-0.483325,0.29879,0.5479999999999999,-0.45253499999999997,-0.07367499999999999,0.0022400000000000198,0.003945000000000004,0.07367499999999999,-0.0022400000000000198,-0.003944999999999976,-0.12943,0.21615999999999996,-0.252873,0.115288,0.22680999999999996,-0.23751,-0.074661,-0.03997000000000006,-0.15606899999999999,0.11694299999999999,-0.039410000000000056,-0.19506099999999998
74,0.011587999999999998,0.631289,-0.11271600000000001,-0.13487000000000002,0.46859500000000004,-0.11570300000000001,-0.30084,0.48879500000000004,-0.288405,0.13455,0.449905,-0.10897000000000001,0.31012,0.442595,-0.22795200000000002,-0.22645,0.519595,-0.484125,0.29708,0.521645,-0.455255,-0.073095,0.002574999999999994,0.0037549999999999806,0.073095,-0.002574999999999994,-0.0037550000000000083,-0.12972,0.23450500000000002,-0.24747000000000002,0.111758,0.24533500000000003,-0.228392,-0.070098,-0.019324999999999926,-0.15088800000000002,0.11587700000000001,-0.020544999999999924,-0.192587
75,0.009473499999999998,0.627934,-0.096723,-0.1389815,0.465755,-0.106074,-0.3036215,0.485055,-0.282575,0.1336485,0.445355,-0.099904,0.31096850000000004,0.429705,-0.214764,-0.2257915,0.512885,-0.478955,0.2951785,0.507795,-0.453345,-0.0725815,0.00187499999999996,0.0027550000000000074,0.0725815,-0.00187499999999996,-0.0027550000000000074,-0.13067150000000002,0.24922499999999997,-0.240012,0.1074615,0.256185,-0.217606,-0.0664125,-0.005855000000000055,-0.141565,0.1138695,-0.009495000000000031,-0.187664
76,0.0048839999999999995,0.622976,-0.07640699999999999,-0.14716200000000002,0.46254999999999996,-0.09132099999999999,-0.305952,0.48512,-0.264089,0.13058799999999998,0.44037,-0.08301899999999998,0.308948,0.4238,-0.19963099999999998,-0.22994199999999998,0.51713,-0.46265,0.291348,0.50082,-0.44089,-0.072408,0.0011900000000000244,0.0018900000000000028,0.072408,-0.0011900000000000244,-0.001889999999999975,-0.13485200000000003,0.25897,-0.224354,0.10293,0.26247,-0.20632399999999998,-0.066716,0.003889999999999949,-0.141305,0.112824,-0.0033800000000000496,-0.186191
77,-0.0008869999999999989,0.6147400000000001,-0.050799999999999984,-0.15572200000000003,0.4582100000000001,-0.07168399999999998,-0.309542,0.4875500000000001,-0.24323499999999998,0.127528,0.4353800000000001,-0.06303999999999998,0.30264800000000003,0.42009000000000013,-0.182992,-0.23414199999999996,0.5234600000000001,-0.44377,0.286538,0.5000800000000001,-0.42706,-0.072408,-0.00010999999999994348,0.0018900000000000028,0.072408,0.0001100000000000545,-0.001889999999999975,-0.138332,0.2657500000000001,-0.20917199999999997,0.099658,0.26462000000000013,-0.19705599999999998,-0.066716,0.011460000000000137,-0.141305,0.112824,-0.0005599999999998939,-0.186191
78,-0.006950000000000001,0.6006600000000001,-0.016825000000000007,-0.159362,0.4493700000000001,-0.039025000000000004,-0.31003200000000003,0.4854200000000001,-0.219932,0.125938,0.42620000000000013,-0.032094999999999985,0.295888,0.4169400000000001,-0.158137,-0.237262,0.5234600000000001,-0.41129499999999997,0.279118,0.5000800000000001,-0.409375,-0.072181,-0.00010999999999994348,0.0022749999999999992,0.072181,0.0001100000000000545,-0.0022749999999999992,-0.143222,0.2702100000000001,-0.189972,0.100948,0.2588700000000001,-0.194041,-0.065973,0.01224000000000014,-0.13827699999999998,0.114114,-0.005499999999999838,-0.183176
79,-0.015389500000000004,0.588445,0.016695000000000015,-0.1690985,0.443005,-0.00856499999999999,-0.3112785,0.48461499999999996,-0.19470099999999999,0.1242515,0.41973499999999997,-0.0033149999999999846,0.2833615,0.41783499999999996,-0.13927599999999998,-0.24146850000000003,0.524355,-0.38426499999999997,0.2672615,0.500975,-0.386845,-0.0722595,-0.0010050000000000336,0.0023450000000000137,0.0722595,0.0010049999999999226,-0.002344999999999986,-0.14947850000000001,0.27480499999999997,-0.178416,0.1012395,0.25359499999999996,-0.18850799999999998,-0.06755950000000001,0.015514999999999946,-0.137023,0.11420749999999999,-0.009575,-0.186166
80,-0.023348499999999994,0.5810200000000001,0.04821,-0.1778285,0.43907,0.021800000000000014,-0.3111685,0.48602,-0.168011,0.1251435,0.41849000000000003,0.024499999999999994,0.2725715,0.4213,-0.118777,-0.2440585,0.53129,-0.35211000000000003,0.2552415,0.50444,-0.36105,-0.0721665,-0.0016599999999999948,0.0013299999999999979,0.0721665,0.0016599999999999948,-0.0013299999999999979,-0.15491850000000001,0.27475000000000005,-0.16819399999999998,0.10241150000000002,0.25196,-0.18556499999999998,-0.0710645,0.01870000000000005,-0.136709,0.11769850000000001,-0.010139999999999927,-0.193971
81,-0.032765,0.5701250000000001,0.08167000000000002,-0.18706699999999998,0.43242500000000006,0.05523,-0.31238699999999997,0.48399500000000006,-0.13436499999999998,0.12439,0.41577500000000006,0.05277000000000001,0.260443,0.42225500000000005,-0.10049699999999999,-0.24844699999999997,0.5420450000000001,-0.31509,0.244893,0.5069250000000001,-0.33311999999999997,-0.072188,-0.002374999999999905,0.00043999999999999595,0.072188,0.002375000000000016,-0.00043999999999999595,-0.162317,0.27084500000000006,-0.157301,0.105437,0.2422350000000001,-0.184829,-0.075687,0.018605000000000094,-0.135637,0.125293,-0.016424999999999912,-0.20060499999999998
82,-0.043512999999999996,0.5549750000000001,0.11893999999999999,-0.194737,0.42354500000000006,0.09188999999999997,-0.31367700000000004,0.48460500000000006,-0.098833,0.123933,0.41337500000000005,0.08373999999999998,0.246153,0.43008500000000005,-0.08083000000000001,-0.253427,0.559585,-0.273512,0.233393,0.5148050000000001,-0.29348,-0.07214999999999999,-0.002374999999999905,-0.0006200000000000094,0.07214999999999999,0.002375000000000016,0.0006199999999999817,-0.169717,0.26905500000000004,-0.143798,0.111174,0.22634500000000002,-0.185501,-0.081147,0.017405000000000115,-0.135822,0.13386299999999998,-0.023764999999999925,-0.208734
83,-0.050849500000000006,0.539515,0.15999,-0.1989475,0.412835,0.13399999999999998,-0.3136275,0.489865,-0.05332999999999999,0.1265435,0.410865,0.11687,0.2353325,0.445175,-0.05560000000000001,-0.2564275,0.588925,-0.220856,0.22414250000000002,0.5349550000000001,-0.245302,-0.0708535,-0.004735000000000045,0.0037399999999999933,0.0708535,0.004735000000000045,-0.0037399999999999933,-0.18359750000000002,0.265075,-0.121095,0.1220625,0.210125,-0.182395,-0.0933475,0.00961500000000004,-0.133986,0.1463625,-0.03143499999999999,-0.214618
84,-0.05788149999999999,0.52231,0.2017,-0.20251950000000002,0.40192,0.17453999999999997,-0.3143895,0.49302,-0.0028900000000000314,0.1288105,0.40652000000000005,0.15021999999999996,0.2245105,0.46374000000000004,-0.03102000000000002,-0.26017949999999995,0.61289,-0.16313900000000003,0.2148305,0.56143,-0.197142,-0.0691035,-0.008580000000000032,0.008559999999999984,0.0691035,0.008580000000000032,-0.008560000000000012,-0.19446950000000002,0.25892000000000004,-0.09877700000000002,0.1333905,0.19157999999999997,-0.17956100000000003,-0.10080949999999998,-0.0010299999999999754,-0.12967,0.15955049999999998,-0.04125999999999996,-0.22146900000000003
85,-0.0626375,0.509225,0.21609,-0.2027275,0.39385500000000007,0.17058,-0.3109175,0.4927250000000001,0.034269999999999995,0.1295685,0.40390500000000007,0.14622999999999997,0.2173025,0.4790650000000001,-0.014399999999999996,-0.2595775,0.6277210000000001,-0.11659800000000001,0.2065625,0.584265,-0.153636,-0.0674975,-0.010684999999999945,0.014279999999999987,0.0674975,0.010685000000000056,-0.014280000000000015,-0.2060175,0.2544550000000001,-0.10247800000000001,0.1456625,0.17496500000000004,-0.177451,-0.11222750000000001,-0.009974999999999956,-0.13961700000000002,0.1739825,-0.04907499999999987,-0.229685
86,-0.065019,0.49801000000000006,0.22606000000000004,-0.20019900000000002,0.38729,0.16594000000000003,-0.306079,0.49309000000000003,0.06939000000000001,0.131546,0.40236000000000005,0.14161,0.212501,0.49355000000000004,0.0022400000000000198,-0.25758899999999996,0.638648,-0.06510999999999997,0.20021100000000003,0.60658,-0.10741299999999998,-0.064899,-0.012689999999999979,0.019810000000000022,0.064899,0.01269000000000009,-0.019809999999999994,-0.215999,0.24944000000000005,-0.10682999999999998,0.159491,0.16026000000000007,-0.17796299999999998,-0.121929,-0.019499999999999962,-0.15045399999999998,0.190701,-0.05585999999999991,-0.23970299999999997
87,-0.06513600000000001,0.48889999999999995,0.23181000000000002,-0.19645600000000002,0.38131999999999994,0.16282999999999997,-0.299996,0.49398999999999993,0.10521999999999998,0.133341,0.4008999999999999,0.13739,0.210494,0.50139,0.016219999999999984,-0.255706,0.6450659999999999,-0.019180000000000003,0.19575399999999998,0.6157699999999999,-0.057249999999999995,-0.062196,-0.013590000000000102,0.023919999999999997,0.062195999999999994,0.013589999999999991,-0.023919999999999997,-0.222746,0.24331999999999993,-0.110846,0.17413399999999998,0.1476599999999999,-0.178227,-0.129586,-0.029360000000000053,-0.16024,0.208404,-0.0611600000000001,-0.24876500000000001
88,-0.06400600000000001,0.469405,0.24638,-0.196176,0.368705,0.17401999999999995,-0.28949600000000003,0.484675,0.14548999999999995,0.134315,0.392755,0.13972999999999997,0.214364,0.5029950000000001,0.02320999999999998,-0.253846,0.646131,0.04507999999999998,0.197144,0.616835,-0.006410000000000027,-0.061366,-0.014654999999999974,0.03675999999999999,0.061366000000000004,0.014655000000000085,-0.036760000000000015,-0.22941599999999998,0.23047500000000004,-0.12498400000000003,0.19010400000000002,0.142845,-0.168419,-0.136376,-0.046924999999999994,-0.19095000000000004,0.225974,-0.06011499999999992,-0.242099
89,-0.0651515,0.45165,0.26337,-0.19896149999999999,0.35662,0.18408,-0.2833115,0.47718,0.17897,0.1325485,0.38566,0.14125000000000001,0.2074685,0.5055799999999999,0.030459999999999987,-0.2546415,0.648716,0.10491999999999999,0.1947885,0.61942,0.024719999999999992,-0.062151500000000005,-0.017240000000000033,0.04097999999999999,0.0621515,0.017240000000000033,-0.04097999999999999,-0.2390515,0.21875999999999995,-0.136519,0.20359850000000002,0.13225999999999993,-0.16164,-0.1461215,-0.0635,-0.217559,0.23803850000000001,-0.06352000000000002,-0.235287
90,-0.061455,0.438515,0.279475,-0.19754500000000003,0.34813500000000003,0.18416499999999997,-0.27909500000000004,0.46953500000000004,0.210015,0.13666599999999998,0.381145,0.134855,0.200125,0.5114650000000001,0.03314499999999998,-0.256025,0.654601,0.16019499999999998,0.19236499999999998,0.625305,0.05253499999999997,-0.06271499999999999,-0.021954999999999947,0.04349499999999998,0.06271499999999999,0.021955000000000058,-0.043495000000000006,-0.24356500000000003,0.20030499999999996,-0.14980000000000002,0.210445,0.125575,-0.15449800000000002,-0.151675,-0.077345,-0.24196700000000002,0.24417499999999998,-0.062415,-0.23292200000000002
91,-0.062106999999999996,0.42941999999999997,0.30046,-0.200347,0.34226999999999996,0.18505,-0.27596699999999996,0.46334,0.24031999999999998,0.135011,0.37690999999999997,0.12940000000000002,0.193753,0.51658,0.033310000000000006,-0.259417,0.656201,0.21861000000000003,0.189253,0.62579,0.059329999999999994,-0.062817,-0.026110000000000078,0.042950000000000016,0.062817,0.026109999999999967,-0.04294999999999999,-0.252227,0.18275999999999992,-0.157681,0.21565299999999998,0.13007999999999997,-0.140704,-0.160327,-0.09488000000000008,-0.250395,0.248593,-0.05790000000000006,-0.226005
92,-0.0608225,0.42607,0.32064499999999996,-0.2030225,0.34276,0.18460499999999996,-0.27283250000000003,0.46061,0.26570499999999997,0.1336055,0.37774,0.12211499999999997,0.1858575,0.51291,0.022924999999999973,-0.2636125,0.660375,0.275645,0.1857375,0.6290100000000001,0.06611499999999998,-0.0636625,-0.02686999999999995,0.04252499999999998,0.0636625,0.02687000000000006,-0.04252500000000001,-0.2554925,0.17974,-0.165532,0.21800750000000002,0.13878000000000001,-0.12813800000000003,-0.1635525,-0.09787999999999997,-0.25870400000000005,0.2509375,-0.04920000000000002,-0.21343700000000002
93,-0.06071,0.42667000000000005,0.33148,-0.20689999999999997,0.34736000000000006,0.17403,-0.27101,0.45999,0.27632999999999996,0.130693,0.38247000000000003,0.10607000000000003,0.17838,0.51223,0.003250000000000003,-0.26753,0.66468,0.32475,0.18127,0.6355000000000001,0.06422,-0.06432,-0.025519999999999987,0.04152,0.06432,0.025519999999999987,-0.04152,-0.25784999999999997,0.18046000000000006,-0.180434,0.22000000000000003,0.15073000000000003,-0.124101,-0.16591,-0.09711999999999998,-0.27412000000000003,0.25294,-0.037229999999999985,-0.209399
94,-0.060500499999999985,0.4258,0.33940000000000003,-0.2074805,0.35031,0.16218000000000002,-0.2696405,0.45815,0.28839000000000004,0.1305465,0.38548,0.08842999999999998,0.1691795,0.50414,-0.014960000000000001,-0.2721505,0.66142,0.37636000000000003,0.1738995,0.6381,0.045270000000000005,-0.0643905,-0.024930000000000008,0.03855,0.0643905,0.024930000000000008,-0.03855,-0.2581905,0.17952,-0.195148,0.22044950000000002,0.16052,-0.117368,-0.16625049999999997,-0.09802999999999995,-0.28869,0.25337950000000004,-0.02742,-0.202664
95,-0.061338500000000004,0.424005,0.350295,-0.21001850000000002,0.35242500000000004,0.153225,-0.2695185,0.455535,0.293655,0.1275085,0.386925,0.07753500000000002,0.1590205,0.49413500000000005,-0.031154999999999988,-0.27311850000000004,0.661555,0.381645,0.16479149999999998,0.640055,0.026865,-0.06499849999999999,-0.02479500000000001,0.03489500000000001,0.0649985,0.02479500000000001,-0.03489499999999998,-0.2569085,0.17872500000000002,-0.20963199999999999,0.2205215,0.17102499999999998,-0.10489899999999999,-0.1649485,-0.09878500000000001,-0.303205,0.2534515,-0.016915000000000013,-0.190193
96,-0.060189000000000006,0.42328,0.358395,-0.213619,0.35564999999999997,0.143295,-0.25975899999999996,0.45196,0.30051500000000003,0.123361,0.38954999999999995,0.064865,0.153122,0.49069999999999997,-0.04854499999999998,-0.269059,0.6673199999999999,0.388645,0.16179,0.64096,0.024815000000000004,-0.065979,-0.02395999999999998,0.031025000000000025,0.06597900000000001,0.02395999999999998,-0.031024999999999997,-0.25614899999999996,0.18055999999999994,-0.223663,0.224661,0.17945,-0.09181099999999999,-0.164149,-0.09694000000000003,-0.317245,0.257591,-0.008480000000000043,-0.17710499999999998
97,-0.0595475,0.43084500000000003,0.36414500000000005,-0.21616749999999998,0.363215,0.147735,-0.25124749999999996,0.45427500000000004,0.30658500000000005,0.12083450000000001,0.396975,0.06892500000000001,0.1459245,0.489435,-0.06959599999999998,-0.2651975,0.669295,0.394815,0.15955750000000002,0.626955,0.019175000000000025,-0.0675075,-0.02094499999999999,0.024965000000000015,0.06750750000000001,0.02094499999999999,-0.024964999999999987,-0.25493750000000004,0.18811500000000003,-0.21931799999999996,0.2283725,0.184195,-0.07986199999999997,-0.16290749999999998,-0.08938499999999994,-0.312895,0.2613025,-0.003715000000000024,-0.16515499999999997
98,-0.0607535,0.43617999999999996,0.36782,-0.21963350000000004,0.36855,0.15144999999999997,-0.22866350000000002,0.45397,0.28223,0.1174335,0.40238999999999997,0.07263,0.1452175,0.48667999999999995,-0.08916400000000001,-0.25099350000000004,0.66989,0.38762,0.1551315,0.6101599999999999,0.004149999999999987,-0.07062349999999999,-0.017390000000000017,0.01641999999999999,0.0706235,0.017390000000000017,-0.016420000000000018,-0.2567235,0.19345,-0.215634,0.23057650000000002,0.1864,-0.069164,-0.1646435,-0.08404,-0.30920000000000003,0.2635065,-0.0014899999999999913,-0.154457
99,-0.0626515,0.43922500000000003,0.36821000000000004,-0.22355150000000001,0.37164500000000006,0.15189000000000002,-0.2044315,0.45396500000000006,0.24831000000000003,0.11437950000000001,0.40575500000000003,0.07424,0.1458425,0.47709500000000005,-0.10710499999999999,-0.2304115,0.6588350000000001,0.36052000000000006,0.1546245,0.573775,-0.012969999999999982,-0.0728615,-0.01338499999999998,0.007810000000000011,0.07286150000000001,0.013385000000000091,-0.007809999999999984,-0.26064149999999997,0.19654500000000008,-0.21520799999999998,0.2279585,0.188685,-0.057429999999999995,-0.16854149999999998,-0.08094499999999993,-0.30878,0.2609085,0.0008150000000000102,-0.142723
100,-0.062181000000000014,0.44282999999999995,0.37965999999999994,-0.22309099999999998,0.37527,0.16333999999999999,-0.181811,0.45310999999999996,0.22021000000000002,0.114839,0.40924,0.08557999999999999,0.147275,0.46753999999999996,-0.11165800000000001,-0.210161,0.6491199999999999,0.32184999999999997,0.14782099999999998,0.54406,-0.02729000000000001,-0.074051,-0.00992000000000004,-0.004820000000000019,0.074051,0.009919999999999929,0.004819999999999991,-0.260181,0.20021,-0.20376100000000003,0.223139,0.1911299999999999,-0.050306000000000003,-0.168081,-0.07725000000000004,-0.29733,0.25610900000000003,0.003269999999999995,-0.135601
101,-0.06064599999999999,0.44248,0.39097000000000004,-0.22166600000000003,0.37496,0.17466,-0.16438600000000003,0.44895,0.18787,0.115433,0.40884,0.09698999999999999,0.145106,0.45939,-0.11130400000000001,-0.19469600000000004,0.63622,0.27498,0.142231,0.51686,-0.05475600000000001,-0.074426,-0.010220000000000007,-0.008629999999999999,0.07442599999999999,0.010220000000000007,0.008629999999999999,-0.25875600000000004,0.19991000000000003,-0.19243100000000002,0.212824,0.19282999999999995,-0.045895000000000005,-0.166676,-0.07752000000000003,-0.28602000000000005,0.245824,0.00497000000000003,-0.13119
102,-0.06083849999999999,0.4425599999999999,0.39847499999999997,-0.22196849999999999,0.3750799999999999,0.18217499999999998,-0.1492485,0.4446299999999999,0.148465,0.1150725,0.40867999999999993,0.10469499999999998,0.1380985,0.4521499999999999,-0.107798,-0.17958849999999998,0.6234399999999999,0.208185,0.1297595,0.4930799999999999,-0.08025600000000002,-0.07454849999999999,-0.01053000000000004,-0.012405000000000013,0.0745485,0.010529999999999928,0.012405,-0.25905849999999997,0.20004999999999995,-0.184905,0.2006615,0.19540999999999986,-0.042269000000000015,-0.1670085,-0.07735000000000014,-0.278505,0.23368150000000001,0.007549999999999946,-0.127565
103,-0.06322549999999999,0.44387000000000004,0.40228,-0.22443549999999998,0.37642000000000003,0.18590999999999996,-0.14794549999999998,0.4485,0.11188999999999999,0.1132225,0.40950000000000003,0.10876999999999998,0.1273705,0.44584,-0.10452700000000002,-0.1623855,0.60409,0.13144,0.1175145,0.46074000000000004,-0.10288300000000002,-0.07579549999999999,-0.01049,-0.015390000000000015,0.0757955,0.01049,0.015389999999999987,-0.2615055,0.20140999999999998,-0.18108000000000002,0.18722450000000002,0.19838,-0.038935000000000025,-0.1694955,-0.07596999999999998,-0.27470000000000006,0.2202845,0.010519999999999974,-0.12423200000000002
104,-0.051089499999999996,0.4400300000000001,0.3967200000000001,-0.2125595,0.3723600000000001,0.18034999999999998,-0.14240950000000002,0.4385000000000001,0.056400000000000006,0.1263265,0.4057400000000001,0.10318,0.1210935,0.4449800000000001,-0.10966,-0.13996950000000002,0.5790000000000001,0.042899999999999994,0.1132065,0.4371300000000001,-0.13241899999999998,-0.07349950000000001,-0.010009999999999963,-0.014679999999999999,0.0734995,0.010010000000000074,0.014679999999999999,-0.2496295,0.19763000000000008,-0.186635,0.1774505,0.19790000000000008,-0.043987,-0.15768949999999998,-0.07972999999999986,-0.28025999999999995,0.2105305,0.010040000000000049,-0.12928399999999998
105,-0.042541999999999996,0.43724999999999997,0.39325,-0.20418599999999998,0.36935999999999997,0.17687999999999998,-0.13440600000000003,0.42691999999999997,0.0006299999999999917,0.13594,0.40302,0.09949,0.116047,0.43440999999999996,-0.111491,-0.11500600000000001,0.55009,-0.052763000000000004,0.111238,0.41124,-0.159916,-0.07173600000000001,-0.009689999999999976,-0.012319999999999998,0.071736,0.009689999999999976,0.012319999999999998,-0.24124599999999996,0.19487,-0.190112,0.172614,0.19818999999999998,-0.04586,-0.149356,-0.08250000000000002,-0.28373000000000004,0.206924,0.010319999999999996,-0.131185
106,-0.036004999999999995,0.43583,0.39269,-0.192926,0.36529,0.17622,-0.12929600000000002,0.41398,-0.050688,0.148479,0.39953,0.09883,0.110181,0.42444,-0.111433,-0.090096,0.52119,-0.14696499999999998,0.10649600000000001,0.37258,-0.157957,-0.070436,-0.00931000000000004,-0.0126,0.070436,0.00931000000000004,0.0126,-0.230016,0.19103000000000003,-0.19078299999999998,0.16661399999999998,0.20088000000000006,-0.046551999999999996,-0.13817600000000002,-0.08633000000000002,-0.2844,0.202154,0.012990000000000057,-0.131905
107,-0.029286500000000007,0.43206999999999995,0.39330499999999996,-0.18433850000000002,0.36151999999999995,0.17678500000000003,-0.12567850000000003,0.40903999999999996,-0.05398299999999999,0.15758149999999999,0.39597999999999994,0.09850500000000001,0.1139245,0.4267699999999999,-0.10929299999999999,-0.0864785,0.52821,-0.15025999999999998,0.1106515,0.36763999999999997,-0.138072,-0.0707185,-0.009220000000000006,-0.012344999999999995,0.07071849999999999,0.009220000000000006,0.012345000000000023,-0.2214485,0.18725999999999998,-0.190215,0.1631015,0.19990999999999992,-0.04887999999999999,-0.1296585,-0.09010000000000007,-0.283815,0.1986715,0.0119999999999999,-0.134234
108,-0.02283649999999999,0.427795,0.39407000000000003,-0.1752465,0.357205,0.17749,-0.1233465,0.40674499999999997,-0.057158,0.16713350000000002,0.391725,0.09912000000000001,0.1163565,0.428095,-0.108168,-0.08414649999999999,0.535705,-0.153435,0.1143785,0.361765,-0.118493,-0.0717265,-0.00912500000000005,-0.012199999999999989,0.0717265,0.009124999999999939,0.012199999999999989,-0.2123765,0.18295499999999998,-0.189506,0.1600635,0.206855,-0.051279000000000005,-0.12064649999999999,-0.09440499999999996,-0.28311,0.19444350000000002,0.012414999999999954,-0.136605
109,-0.015983999999999998,0.42305499999999996,0.39224000000000003,-0.165407,0.352425,0.17714999999999997,-0.11557700000000001,0.40111499999999994,-0.057588000000000014,0.17751299999999998,0.38695499999999994,0.09877999999999998,0.13605099999999998,0.42831499999999995,-0.10690200000000001,-0.076427,0.5427249999999999,-0.156109,0.129048,0.35467499999999996,-0.09422100000000001,-0.072467,-0.008925000000000072,-0.011930000000000024,0.07246699999999999,0.00892499999999996,0.011929999999999996,-0.20255700000000001,0.17817499999999997,-0.189839,0.16289599999999999,0.212685,-0.051595000000000016,-0.11085700000000001,-0.09920499999999999,-0.28344,0.196083,0.011704999999999965,-0.136892
110,-0.008328500000000016,0.43089999999999995,0.37445500000000004,-0.1604085,0.35607,0.169825,-0.1260485,0.4103,-0.061498,0.18888149999999998,0.39139999999999997,0.100385,0.1581125,0.44553,-0.096973,-0.0763685,0.55033,-0.177888,0.1457465,0.36,-0.083552,-0.0741985,-0.008519999999999972,-0.009594999999999992,0.07419849999999999,0.008519999999999972,0.009594999999999992,-0.2002285,0.18209999999999993,-0.186581,0.1611095,0.22068,-0.046005000000000004,-0.1084985,-0.09531,-0.280175,0.19549149999999998,0.013189999999999924,-0.133835
111,-0.0007550000000000057,0.43772500000000003,0.34967499999999996,-0.15557500000000002,0.35875500000000005,0.15967499999999998,-0.143235,0.42390500000000003,-0.06564500000000001,0.198585,0.3948650000000001,0.10043500000000002,0.171649,0.455425,-0.094359,-0.08708500000000001,0.5558750000000001,-0.194741,0.15990100000000002,0.4008050000000001,-0.09990600000000001,-0.07606500000000001,-0.0084749999999999,-0.00858500000000001,0.076065,0.00847500000000001,0.00858500000000001,-0.19872499999999998,0.18506500000000004,-0.183239,0.157308,0.2330350000000001,-0.058505,-0.10698500000000001,-0.09236499999999992,-0.27681500000000003,0.19287500000000002,0.019035000000000024,-0.148858
112,0.008590500000000001,0.4445699999999999,0.31918,-0.1503425,0.36206999999999995,0.14283999999999997,-0.1593525,0.43870999999999993,-0.07988000000000002,0.2044475,0.3966299999999999,0.09883999999999998,0.1841175,0.44110999999999995,-0.10310300000000001,-0.09264249999999999,0.55911,-0.22174000000000002,0.1729575,0.4364799999999999,-0.12492200000000002,-0.0784425,-0.007790000000000075,-0.008320000000000022,0.0784425,0.007789999999999964,0.008319999999999994,-0.1966825,0.1886699999999999,-0.177129,0.1515285,0.24608999999999992,-0.07384000000000002,-0.10493250000000001,-0.08878000000000008,-0.270701,0.1882775,0.025559999999999916,-0.166726
113,0.02033449999999999,0.4505349999999999,0.28824500000000003,-0.1400285,0.3691249999999999,0.12610500000000002,-0.1654385,0.4531349999999999,-0.09505499999999999,0.21536149999999998,0.3961949999999999,0.097275,0.20936149999999998,0.4404149999999999,-0.10352499999999999,-0.09327850000000001,0.554055,-0.241834,0.1955515,0.4635949999999999,-0.148893,-0.08036850000000001,-0.005655000000000077,-0.007144999999999985,0.0803685,0.005654999999999966,0.0071450000000000125,-0.19027850000000002,0.19191499999999995,-0.16829899999999998,0.1538065,0.25585499999999994,-0.08989499999999999,-0.0985385,-0.08556500000000011,-0.26184599999999997,0.1917515,0.028814999999999924,-0.18531399999999998
114,0.03239,0.45896499999999996,0.261015,-0.12304000000000001,0.376195,0.114285,-0.17433,0.466555,-0.10206499999999999,0.22625,0.39702499999999996,0.09770500000000001,0.22858,0.431695,-0.108235,-0.09895999999999999,0.564485,-0.255198,0.21771000000000001,0.49461499999999997,-0.180966,-0.08199999999999999,-0.00307500000000005,-0.0039949999999999986,0.082,0.003074999999999939,0.0039949999999999986,-0.18363,0.19633499999999993,-0.155652,0.15542,0.26551499999999995,-0.109955,-0.09190999999999999,-0.081175,-0.249169,0.194552,0.03192499999999998,-0.20790999999999998
115,0.04467249999999999,0.46779499999999996,0.23524,-0.10637150000000001,0.38052499999999995,0.10461000000000004,-0.1731615,0.48071499999999995,-0.10871999999999998,0.23642849999999999,0.39545499999999995,0.09853,0.2482685,0.42788499999999996,-0.11002999999999999,-0.10368150000000001,0.5791949999999999,-0.26550999999999997,0.23950849999999999,0.5193049999999999,-0.21519799999999997,-0.0831315,0.00013499999999999623,-0.00132999999999997,0.0831315,-0.00013499999999999623,0.0013299999999999979,-0.1772715,0.198125,-0.14388999999999996,0.1585035,0.27073499999999995,-0.13088999999999998,-0.08557150000000002,-0.07941500000000001,-0.236915,0.1988245,0.030614999999999948,-0.231199
116,0.0511075,0.48561,0.20859499999999997,-0.09862449999999999,0.39429000000000003,0.09336499999999998,-0.1689045,0.50312,-0.10865500000000003,0.23798550000000002,0.40332,0.09655499999999995,0.2583955,0.43147,-0.11169500000000004,-0.10294450000000001,0.60371,-0.27546200000000004,0.2592455,0.54498,-0.22867600000000005,-0.0843645,0.002929999999999988,0.0002949999999999897,0.0843645,-0.002929999999999988,-0.0002950000000000452,-0.18430450000000004,0.20923999999999998,-0.13041500000000003,0.1705985,0.2768,-0.14974500000000002,-0.09254450000000002,-0.06833999999999996,-0.22339600000000004,0.21162150000000002,0.030159999999999965,-0.25024900000000005
117,0.0589595,0.507635,0.17177000000000003,-0.0904045,0.412475,0.06983,-0.1623545,0.530005,-0.12088999999999997,0.2397355,0.41612499999999997,0.08171,0.2847155,0.43968499999999994,-0.12997999999999998,-0.10437450000000001,0.637725,-0.29612799999999995,0.2851955,0.570225,-0.25848899999999997,-0.0850445,0.0034449999999999203,0.000260000000000038,0.0850445,-0.0034450000000000314,-0.00025999999999998247,-0.19129449999999998,0.22411499999999995,-0.12469999999999998,0.1846555,0.28002499999999997,-0.18220999999999998,-0.0994745,-0.05349500000000007,-0.21763099999999996,0.22612749999999998,0.03868499999999997,-0.28524599999999994
118,0.07107049999999998,0.527675,0.14029000000000003,-0.08231250000000001,0.430705,0.05177999999999999,-0.15505250000000004,0.544455,-0.14389,0.24272449999999998,0.428615,0.07084000000000001,0.3131275,0.45487500000000003,-0.14908,-0.10642250000000003,0.675397,-0.311751,0.3107775,0.604825,-0.275456,-0.08628250000000001,0.004404999999999992,0.0011499999999999844,0.08628249999999998,-0.004404999999999992,-0.0011499999999999844,-0.18119250000000003,0.23862499999999998,-0.12428,0.20219549999999997,0.282595,-0.19156,-0.08800250000000001,-0.03901500000000002,-0.21319,0.2365715,0.04217499999999996,-0.297752
119,0.07674249999999999,0.5357350000000001,0.11899500000000002,-0.0763655,0.437875,0.04230500000000004,-0.1495255,0.546345,-0.15335499999999996,0.24624649999999998,0.431605,0.06142500000000006,0.3246445,0.47025500000000003,-0.15869499999999995,-0.10382549999999999,0.675347,-0.324466,0.3253445,0.6060650000000001,-0.28513199999999994,-0.08322550000000001,0.005924999999999958,0.0012750000000000261,0.0832255,-0.005924999999999958,-0.0012749999999999706,-0.17524550000000003,0.24258500000000005,-0.13375499999999996,0.2120715,0.28286500000000003,-0.19276499999999996,-0.08189550000000001,-0.03507499999999997,-0.21577599999999997,0.2361935,0.043035000000000045,-0.29967399999999994
120,0.08075699999999998,0.54374,0.09859500000000004,-0.07197500000000001,0.44271,0.038065000000000015,-0.14513500000000001,0.54904,-0.15759499999999999,0.250029,0.43429999999999996,0.057194999999999996,0.333945,0.48568999999999996,-0.16304499999999997,-0.10051500000000002,0.675226,-0.328681,0.33636499999999997,0.60661,-0.28952599999999995,-0.08021500000000001,0.007939999999999947,0.0002550000000000052,0.08021499999999998,-0.007940000000000058,-0.0002550000000000052,-0.17085500000000003,0.25085999999999997,-0.13799499999999998,0.21676099999999998,0.28295,-0.18412499999999998,-0.07740500000000003,-0.028859999999999997,-0.21578399999999998,0.233891,0.043300000000000005,-0.28888899999999995
121,0.082359,0.548925,0.07994000000000001,-0.07045599999999999,0.443635,0.03803000000000001,-0.143616,0.549525,-0.15763,0.251354,0.433105,0.05717,0.340074,0.499745,-0.16318999999999997,-0.09909599999999999,0.672061,-0.330847,0.343684,0.604825,-0.293859,-0.07869599999999999,0.010404999999999998,0.00021999999999999797,0.078696,-0.010404999999999998,-0.00021999999999999797,-0.16933600000000001,0.255115,-0.13802999999999999,0.218247,0.278855,-0.18416,-0.07588600000000001,-0.02617499999999995,-0.21581899999999998,0.230448,0.039205000000000045,-0.288809
122,0.0869035,0.553715,0.05268499999999998,-0.06808950000000003,0.44075499999999995,0.026855000000000018,-0.13973950000000002,0.5471349999999999,-0.174035,0.2509645,0.43125499999999994,0.044625000000000026,0.3400105,0.488745,-0.184925,-0.0962595,0.663759,-0.360027,0.3489105,0.5899749999999999,-0.330437,-0.0781695,0.011844999999999994,0.0011849999999999916,0.07816949999999999,-0.011844999999999994,-0.0011849999999999916,-0.16478950000000003,0.258005,-0.145155,0.2288135,0.272885,-0.206785,-0.06797950000000003,-0.023355000000000015,-0.21209299999999998,0.2293095,0.03379499999999991,-0.310083
123,0.09311499999999999,0.5560550000000001,0.023214999999999986,-0.06387300000000001,0.4360350000000001,0.009425000000000017,-0.134583,0.5458250000000001,-0.192185,0.250449,0.4274850000000001,0.027905000000000013,0.339817,0.4783750000000001,-0.209208,-0.094393,0.656344,-0.388656,0.355027,0.5805850000000001,-0.367247,-0.07805300000000001,0.014885000000000037,0.0007150000000000212,0.07805299999999998,-0.014884999999999926,-0.0007150000000000212,-0.15929300000000002,0.2597350000000001,-0.149965,0.238682,0.2659550000000001,-0.210892,-0.060203000000000007,-0.021994999999999876,-0.20587899999999998,0.22840899999999997,0.03139500000000006,-0.30839099999999997
124,0.09779550000000001,0.5506800000000001,-0.0061450000000000116,-0.06030949999999999,0.42705000000000004,-0.009415000000000007,-0.1301295,0.5400400000000001,-0.2115,0.2483615,0.41881000000000007,0.005454999999999988,0.3404205,0.4678300000000001,-0.230339,-0.0950895,0.6455040000000001,-0.415015,0.3597705,0.5700400000000001,-0.396475,-0.07642950000000001,0.015800000000000036,0.0002650000000000152,0.0764295,-0.015799999999999925,-0.0002650000000000152,-0.1545295,0.2580200000000001,-0.158045,0.2468275,0.25244000000000005,-0.21267999999999998,-0.05380950000000001,-0.021549999999999958,-0.200932,0.2259225,0.023350000000000093,-0.298986
125,0.0952375,0.546395,-0.03993000000000002,-0.057837500000000014,0.417535,-0.031,-0.1326975,0.529625,-0.22928300000000001,0.2393185,0.409925,-0.01852999999999999,0.33337249999999996,0.457415,-0.24311300000000002,-0.10315749999999999,0.635089,-0.44063,0.3579725,0.559625,-0.42544000000000004,-0.0736475,0.014264999999999972,-0.00039000000000000146,0.07364749999999999,-0.014264999999999972,0.00039000000000000146,-0.14270750000000001,0.258945,-0.17208,0.2487925,0.241315,-0.210408,-0.040937500000000016,-0.021375000000000033,-0.200379,0.2156075,0.01664500000000002,-0.286548
126,0.0925875,0.5397550000000001,-0.06931499999999999,-0.06152350000000001,0.40689500000000006,-0.052425,-0.1361035,0.5177750000000001,-0.250385,0.2314095,0.39906500000000006,-0.04105500000000001,0.3302965,0.4450550000000001,-0.253857,-0.1119635,0.6227290000000001,-0.465615,0.3553465,0.5472650000000001,-0.449065,-0.07094349999999999,0.012495000000000034,-0.0014250000000000096,0.0709435,-0.012494999999999923,0.0014250000000000096,-0.13080350000000002,0.25624500000000006,-0.185124,0.24883650000000002,0.22789500000000007,-0.206573,-0.027753499999999987,-0.02483499999999994,-0.1992,0.20238450000000002,0.003675000000000095,-0.271907
127,0.0904815,0.534105,-0.09975499999999998,-0.0639815,0.39543500000000004,-0.07586499999999999,-0.13905150000000002,0.510205,-0.273068,0.2279505,0.3924750000000001,-0.063775,0.3294985,0.45506500000000005,-0.268386,-0.1211515,0.6112690000000001,-0.489925,0.35408850000000003,0.536425,-0.47441500000000003,-0.0682615,0.009515000000000051,-0.0024150000000000005,0.0682615,-0.00951499999999994,0.0024150000000000005,-0.11836149999999998,0.25435500000000005,-0.197745,0.2526485,0.21643500000000004,-0.20824399999999998,-0.013951500000000006,-0.02768499999999996,-0.198369,0.1908215,-0.007814999999999905,-0.258203
128,0.0893355,0.52806,-0.12678499999999998,-0.0645175,0.38357,-0.09772499999999998,-0.14162750000000002,0.5014500000000001,-0.291344,0.2248545,0.38908000000000004,-0.08562499999999998,0.3282625,0.44979,-0.281717,-0.12781750000000003,0.607283,-0.5101249999999999,0.35530249999999997,0.53339,-0.493895,-0.0671775,0.006400000000000072,-0.003114999999999979,0.0671775,-0.006399999999999961,0.0031150000000000067,-0.1044775,0.25193000000000004,-0.209455,0.25268250000000003,0.20457000000000003,-0.20836,0.0014224999999999932,-0.031399999999999983,-0.19452799999999998,0.1805295,-0.020610000000000017,-0.242699
129,0.08764150000000001,0.52233,-0.14896199999999998,-0.06423150000000001,0.37911999999999996,-0.11567399999999999,-0.1414515,0.49989999999999996,-0.308818,0.2222085,0.38399999999999995,-0.10138499999999999,0.3316285,0.45744999999999997,-0.291234,-0.13502149999999996,0.605812,-0.525655,0.3579785,0.53653,-0.500515,-0.0660215,0.0039000000000000146,-0.003914999999999974,0.06602150000000001,-0.0039000000000000146,0.003915000000000002,-0.08749149999999999,0.24095999999999995,-0.22019599999999998,0.2477685,0.19034999999999996,-0.204749,0.017268500000000006,-0.04049999999999998,-0.18805799999999998,0.17104350000000001,-0.035030000000000006,-0.223412
130,0.08577950000000001,0.5168849999999999,-0.170346,-0.0642755,0.3755849999999999,-0.134124,-0.1426155,0.4999349999999999,-0.32598499999999997,0.21825450000000002,0.3797449999999999,-0.11615299999999999,0.3315445,0.4593049999999999,-0.299095,-0.14135549999999997,0.6065539999999999,-0.543855,0.3606345,0.5431349999999999,-0.511575,-0.0649355,0.001214999999999966,-0.005385000000000001,0.06493550000000001,-0.0012150000000000771,0.005385000000000001,-0.08621549999999999,0.22781499999999993,-0.223155,0.24217450000000001,0.1773949999999999,-0.206221,0.015134500000000009,-0.05145500000000014,-0.18451099999999998,0.1615715,-0.049185000000000034,-0.20510599999999998
131,0.0839335,0.509305,-0.19559400000000002,-0.06299750000000001,0.370435,-0.15765700000000002,-0.1437375,0.497985,-0.34663,0.2148525,0.374655,-0.137162,0.3315325,0.46004500000000004,-0.30956,-0.1475175,0.607705,-0.56056,0.36314250000000003,0.547255,-0.52024,-0.0633975,0.0005749999999999922,-0.005990000000000023,0.0633975,-0.0005749999999999922,0.005989999999999995,-0.0836275,0.20932500000000004,-0.23189900000000002,0.2366825,0.16452500000000003,-0.200825,0.010887499999999994,-0.06721500000000002,-0.18363000000000002,0.1545165,-0.06368499999999999,-0.18914
132,0.0821395,0.499,-0.204524,-0.06242850000000001,0.36168,-0.16345600000000002,-0.1469785,0.49196000000000006,-0.352325,0.2114415,0.36538000000000004,-0.143313,0.3326215,0.45731,-0.30274500000000004,-0.1523585,0.6099220000000001,-0.560235,0.3663515,0.5536300000000001,-0.5121450000000001,-0.062228500000000006,0.00021999999999999797,-0.006225000000000008,0.0622285,-0.00021999999999999797,0.0062249999999999805,-0.08024850000000001,0.1855,-0.231905,0.2320315,0.14449,-0.17930200000000002,0.0076465000000000005,-0.08890999999999993,-0.172968,0.1487145,-0.08899000000000001,-0.16759100000000002
133,0.08214750000000001,0.50432,-0.21320699999999998,-0.059640499999999985,0.36822,-0.16819099999999998,-0.14869049999999998,0.50146,-0.35397999999999996,0.2101495,0.36929,-0.14959299999999998,0.3358395,0.46696000000000004,-0.29986,-0.15484050000000002,0.626522,-0.5588599999999999,0.3715695,0.572849,-0.51085,-0.061730499999999994,0.0014800000000000368,-0.006019999999999998,0.06173050000000001,-0.0014799999999999258,0.006019999999999998,-0.07471049999999999,0.17178000000000004,-0.23518699999999998,0.2293995,0.13506,-0.18373,0.0068685,-0.10387999999999997,-0.164046,0.14520450000000001,-0.09945999999999999,-0.15826099999999999
134,0.0829055,0.5094290000000001,-0.216802,-0.0569515,0.3751150000000001,-0.170212,-0.14991150000000003,0.5127650000000001,-0.352965,0.20922849999999998,0.37402500000000005,-0.153766,0.3396985,0.47817500000000007,-0.299715,-0.15700150000000002,0.6422510000000001,-0.549605,0.37556849999999997,0.5966850000000001,-0.506475,-0.0614715,0.0024850000000000705,-0.005485000000000018,0.0614715,-0.0024849999999999595,0.00548499999999999,-0.06876149999999999,0.15819500000000009,-0.238825,0.2264985,0.12693500000000008,-0.1915,0.0049374999999999974,-0.11734499999999992,-0.159906,0.1435975,-0.1100549999999999,-0.15382300000000002
135,0.0836345,0.5162460000000001,-0.221584,-0.054567500000000005,0.38436000000000003,-0.172561,-0.1511075,0.527177,-0.3478,0.2081925,0.38304000000000005,-0.15903499999999998,0.3434325,0.4950530000000001,-0.30339,-0.15941750000000005,0.664037,-0.5395,0.37849249999999995,0.620557,-0.5002,-0.06118749999999999,0.0034800000000000386,-0.004889999999999978,0.0611875,-0.0034799999999999276,0.0048900000000000055,-0.06265749999999999,0.14593000000000006,-0.24491,0.22104249999999998,0.11958000000000008,-0.20337,0.002731499999999998,-0.1301199999999999,-0.156267,0.1415765,-0.12357999999999991,-0.151104
136,0.08544750000000001,0.526714,-0.221895,-0.0508015,0.39565500000000003,-0.169683,-0.1514915,0.541864,-0.337265,0.2083085,0.391925,-0.160908,0.3470085,0.509739,-0.30022499999999996,-0.1615215,0.686525,-0.526455,0.38118850000000004,0.6447,-0.488225,-0.06081149999999999,0.004014999999999991,-0.0038649999999999934,0.060811500000000004,-0.004014999999999991,0.0038650000000000073,-0.05573149999999999,0.12676500000000002,-0.250975,0.2165585,0.10385500000000003,-0.216335,0.0027155000000000096,-0.15095499999999995,-0.14973,0.1400575,-0.14442499999999991,-0.138116
137,0.07992149999999999,0.5373829999999999,-0.2214485,-0.054952500000000015,0.40407,-0.16626249999999998,-0.15969250000000001,0.554954,-0.3260885,0.2015775,0.39443,-0.1597735,0.34250749999999996,0.525896,-0.2971785,-0.17260250000000002,0.70565,-0.5148285,0.37529749999999995,0.67075,-0.4767285,-0.0604025,0.005099999999999993,-0.0033915000000000056,0.06040249999999999,-0.005099999999999993,0.0033915000000000056,-0.05551250000000002,0.09050999999999998,-0.2594985,0.2034475,0.07290000000000002,-0.23197849999999998,-0.004368500000000011,-0.18739000000000006,-0.1455045,0.1310115,-0.17961000000000005,-0.1265455
138,0.07493,0.549139,-0.21804,-0.058966000000000005,0.408698,-0.160731,-0.166916,0.567843,-0.31706,0.196274,0.40013899999999997,-0.157769,0.336524,0.53761,-0.29211,-0.180996,0.72495,-0.50145,0.368404,0.69316,-0.4677,-0.05989599999999999,0.005369999999999986,-0.002614000000000005,0.059896,-0.005370000000000041,0.002614000000000005,-0.057076,0.05309999999999998,-0.26614,0.189964,0.03838999999999998,-0.24315,-0.010857000000000006,-0.22498000000000007,-0.143658,0.123042,-0.21638999999999997,-0.121627
139,0.0690605,0.5626749999999999,-0.2131745,-0.06433049999999998,0.416164,-0.1541345,-0.1742505,0.580645,-0.3079145,0.1905095,0.40780099999999997,-0.15521249999999998,0.3289695,0.554415,-0.2836345,-0.1896705,0.7443649999999999,-0.4850645,0.36042949999999996,0.716585,-0.4557645,-0.05925050000000001,0.005414999999999948,-0.001837499999999992,0.0592505,-0.005415000000000003,0.0018375000000000058,-0.059790499999999996,0.01237499999999997,-0.2696345,0.1749095,0.0020749999999999935,-0.2508045,-0.018059499999999992,-0.2657050000000001,-0.1407655,0.1146495,-0.257115,-0.1208755
140,0.061057499999999994,0.575495,-0.20385699999999998,-0.07221550000000002,0.421784,-0.144758,-0.18300550000000002,0.593845,-0.298517,0.1834945,0.414335,-0.14723599999999998,0.3190545,0.570555,-0.274217,-0.20012549999999998,0.765215,-0.466367,0.35034449999999995,0.7408049999999999,-0.44609699999999997,-0.059145500000000004,0.004794999999999994,-0.0008839999999999959,0.05914549999999999,-0.004794999999999994,0.0008840000000000098,-0.0654255,-0.02923500000000001,-0.26574699999999996,0.1592295,-0.03453499999999998,-0.249987,-0.026976500000000014,-0.30731500000000006,-0.135709,0.10446149999999998,-0.29872499999999996,-0.118144
141,0.052798500000000005,0.58956,-0.193899,-0.08067749999999999,0.42929,-0.134791,-0.19101749999999998,0.61174,-0.281179,0.1771825,0.423313,-0.137519,0.3085925,0.59057,-0.26144900000000004,-0.20997749999999998,0.7861199999999999,-0.44011900000000004,0.3403325,0.76159,-0.42722899999999997,-0.0588975,0.004159999999999997,-0.00019399999999999973,0.058897500000000005,-0.004159999999999997,0.00019399999999999973,-0.07134750000000001,-0.07113999999999998,-0.25844900000000004,0.1442985,-0.07436999999999999,-0.244689,-0.0362775,-0.35192999999999997,-0.12911699999999998,0.0941745,-0.34579000000000004,-0.113165
142,0.0439165,0.59944,-0.18340700000000001,-0.0900455,0.4349,-0.12429599999999999,-0.19893550000000002,0.62253,-0.262407,0.1711645,0.42987000000000003,-0.127101,0.29850449999999995,0.6064,-0.250937,-0.2196255,0.8005,-0.41141700000000003,0.3305445,0.78139,-0.403707,-0.0588255,0.003630000000000022,0.0004870000000000013,0.058825499999999996,-0.0036299999999999666,-0.0004870000000000013,-0.0775955,-0.11420999999999998,-0.248027,0.1302735,-0.11471999999999999,-0.23408700000000002,-0.045242500000000005,-0.39890000000000003,-0.119944,0.0845615,-0.39481999999999995,-0.104795
143,0.03485,0.609635,-0.1715325,-0.09944399999999999,0.43954499999999996,-0.1116345,-0.20702399999999999,0.634105,-0.24106249999999999,0.164966,0.436635,-0.1152855,0.288526,0.6208049999999999,-0.2373525,-0.228694,0.814335,-0.3799625,0.32023599999999997,0.796735,-0.3789625,-0.058754,0.002714999999999995,0.0011685000000000029,0.058754,-0.002714999999999995,-0.001168499999999996,-0.08343400000000001,-0.159425,-0.2362125,0.116814,-0.158245,-0.2221025,-0.054135,-0.450975,-0.1082395,0.075859,-0.44860500000000003,-0.0933295
144,0.0250995,0.62063,-0.156089,-0.10942750000000001,0.44702000000000003,-0.095272,-0.2154975,0.64074,-0.217399,0.1578625,0.44106,-0.10077599999999999,0.2785425,0.63167,-0.219499,-0.2382875,0.82585,-0.343939,0.3093825,0.8130599999999999,-0.348839,-0.0588785,0.0020900000000000085,0.0017430000000000015,0.0588785,-0.0020900000000000085,-0.0017430000000000015,-0.0897575,-0.20394,-0.221729,0.1038355,-0.20178000000000001,-0.207459,-0.0634985,-0.5042500000000001,-0.093678,0.0669395,-0.50406,-0.078778
145,0.015045999999999999,0.62659,-0.1402275,-0.119461,0.44978999999999997,-0.07995949999999999,-0.22374100000000002,0.6459299999999999,-0.1934875,0.150449,0.44683,-0.08664050000000001,0.268409,0.6421999999999999,-0.20264749999999998,-0.24713100000000002,0.83659,-0.31055750000000004,0.298529,0.8242,-0.3205775,-0.05896799999999999,0.0013699999999999962,0.0018565000000000005,0.05896799999999999,-0.00137000000000001,-0.0018565000000000005,-0.095521,-0.24274,-0.20536749999999998,0.091922,-0.24046,-0.1926775,-0.072885,-0.5526,-0.0818845,0.05802299999999999,-0.5543199999999999,-0.0669955
146,0.013330500000000002,0.634071,-0.12415300000000001,-0.1212535,0.456471,-0.06454,-0.2239335,0.658801,-0.171963,0.1501765,0.455121,-0.072345,0.2660065,0.6554009999999999,-0.18463300000000002,-0.24720350000000002,0.8510310000000001,-0.281683,0.29613649999999997,0.836891,-0.293503,-0.0585445,0.00044599999999998807,0.002375,0.0585445,-0.00044600000000000195,-0.002375,-0.09429349999999999,-0.265509,-0.187563,0.0890105,-0.263369,-0.17558300000000002,-0.0746985,-0.586239,-0.070564,0.05742850000000001,-0.5893189999999999,-0.055703
147,0.011815499999999998,0.6378759999999999,-0.108443,-0.1229265,0.460796,-0.048695,-0.2244165,0.6649959999999999,-0.151363,0.1494635,0.460416,-0.056463,0.2631335,0.666876,-0.164753,-0.2468865,0.8596360000000001,-0.25588299999999997,0.2946035,0.8453660000000001,-0.26848299999999997,-0.0581835,0.0009139999999999981,0.002124,0.0581835,-0.0009140000000000051,-0.002124000000000001,-0.0932365,-0.285364,-0.16667300000000002,0.0862035,-0.285834,-0.153793,-0.0764905,-0.619324,-0.056635000000000005,0.0569775,-0.622654,-0.043340000000000004
148,0.010931000000000003,0.6423145,-0.091302,-0.12485199999999999,0.4643745,-0.034453000000000004,-0.224012,0.6712745,-0.136202,0.149098,0.4655045,-0.040971,0.261158,0.6735945,-0.145532,-0.246032,0.8680445,-0.240622,0.29348799999999997,0.8501145,-0.247822,-0.057962,0.0009954999999999999,0.0017599999999999977,0.057962,-0.0009954999999999999,-0.0017600000000000011,-0.091959,-0.3025355,-0.142492,0.08374000000000001,-0.3043255,-0.12776200000000001,-0.077777,-0.6477055,-0.043366,0.057074,-0.6518255000000001,-0.029908000000000004
149,0.009828499999999997,0.6464865,-0.075334,-0.1269375,0.46783650000000004,-0.022008000000000003,-0.2235175,0.6700865,-0.123474,0.14870250000000002,0.46949650000000004,-0.026380999999999998,0.2600725,0.6748265,-0.127594,-0.2432675,0.8700065,-0.22909400000000002,0.29240249999999995,0.8514765,-0.23022399999999998,-0.057763499999999995,0.0011354999999999976,0.001299999999999999,0.057763499999999995,-0.001135500000000001,-0.001299999999999999,-0.0908265,-0.3175535,-0.115394,0.08147650000000001,-0.3195635,-0.097134,-0.0789455,-0.6729435,-0.029009999999999998,0.05727449999999999,-0.6773735,-0.014942
150,0.0084245,0.650303,-0.0627935,-0.1291325,0.47006299999999995,-0.013765500000000007,-0.22441250000000001,0.661963,-0.11661149999999999,0.14783749999999998,0.47316300000000006,-0.015217500000000002,0.2586975,0.6691429999999999,-0.11389149999999999,-0.2406425,0.8637729999999999,-0.2223115,0.2914175,0.846293,-0.22022150000000001,-0.0576735,0.001226999999999999,0.000733499999999998,0.0576735,-0.001226999999999999,-0.000733500000000005,-0.0904055,-0.328377,-0.09174150000000002,0.07984150000000001,-0.33031699999999997,-0.07347150000000001,-0.0803645,-0.690957,-0.016400500000000005,0.0570225,-0.695837,-0.0018915000000000043
151,0.006998500000000002,0.654806,-0.0516485,-0.1308695,0.469826,-0.0076665,-0.2255095,0.654506,-0.1105265,0.1468405,0.477046,-0.005102500000000003,0.25723050000000003,0.661856,-0.1021665,-0.2362195,0.857136,-0.21635649999999998,0.2937605,0.836306,-0.2142165,-0.057758500000000004,0.0010570000000000024,0.0002505000000000007,0.057758500000000004,-0.0010569999999999954,-0.0002505000000000007,-0.0903055,-0.336894,-0.0706865,0.07854950000000001,-0.339864,-0.054277500000000006,-0.0820315,-0.705024,-0.004539500000000002,0.0564115,-0.711204,0.009608499999999999
152,0.0059045,0.65892,-0.0438045,-0.1324015,0.47035000000000005,-0.0033994999999999997,-0.2268715,0.64652,-0.1062595,0.1461585,0.48031,0.0026774999999999993,0.25596850000000004,0.65387,-0.09422950000000002,-0.2315715,0.84915,-0.21222950000000002,0.2971585,0.82832,-0.21006950000000002,-0.0580175,0.001334999999999989,-0.00028450000000000003,0.0580175,-0.0013350000000000029,0.00028450000000000003,-0.0908825,-0.34227,-0.054796500000000005,0.0774425,-0.34621,-0.04168550000000001,-0.0838955,-0.71216,0.005436499999999997,0.0553875,-0.71773,0.016632499999999998
153,0.005588,0.662676,-0.04000050000000001,-0.13381,0.46736600000000006,-0.001964500000000001,-0.22729000000000002,0.641896,-0.10575450000000002,0.14567,0.48246600000000006,0.0068345,0.25948,0.649246,-0.0902045,-0.2246,0.844526,-0.2185045,0.30386,0.823696,-0.20882449999999997,-0.058286,0.001568,-0.0009655000000000011,0.058286,-0.001568,0.0009654999999999941,-0.09154799999999999,-0.34576399999999996,-0.043313500000000005,0.076573,-0.35047399999999995,-0.0354675,-0.085648,-0.7164739999999999,0.0123155,0.054815,-0.721154,0.0184405
154,0.005887500000000003,0.6672485,-0.0375225,-0.1348075,0.46639850000000005,-0.0006984999999999977,-0.2283975,0.6409285,-0.10819350000000001,0.1453825,0.48249850000000005,0.009719499999999999,0.2658325,0.6482785,-0.0859535,-0.21616749999999998,0.8435585,-0.23006350000000003,0.3123925,0.8227285,-0.2089335,-0.0582015,0.002297499999999994,-0.0017075000000000007,0.0582015,-0.002297500000000008,0.0017075000000000007,-0.0921405,-0.3459715,-0.037323499999999996,0.07559850000000001,-0.35108150000000005,-0.0341935,-0.08719249999999999,-0.7171715,0.0174925,0.055762500000000007,-0.7214214999999999,0.019669500000000003
155,0.006622999999999999,0.6700845,-0.0362865,-0.136017,0.4657645,-0.0009374999999999939,-0.228977,0.6358845,-0.1174715,0.144753,0.48225450000000003,0.0121005,0.274383,0.6462945,-0.0816915,-0.20589700000000002,0.8377545,-0.2455715,0.322133,0.8138345,-0.2123115,-0.058096999999999996,0.0029274999999999995,-0.0025594999999999993,0.058096999999999996,-0.0029274999999999995,0.002559500000000006,-0.092831,-0.3462155,-0.03193349999999999,0.075485,-0.3512455,-0.032937499999999995,-0.089101,-0.7178755,0.021629500000000003,0.060246999999999995,-0.7228555,0.020818500000000004
156,0.008054000000000002,0.6700845,-0.03542899999999999,-0.135985,0.4657645,-0.0027349999999999944,-0.229855,0.6262445,-0.128669,0.144765,0.48225450000000003,0.012990000000000008,0.282965,0.6390345,-0.07779900000000001,-0.195165,0.8214645,-0.265599,0.332785,0.7955245,-0.21658899999999998,-0.057867,0.0029274999999999995,-0.0029589999999999964,0.057867,-0.0029274999999999995,0.0029590000000000033,-0.093689,-0.3462155,-0.02885399999999999,0.076832,-0.3512455,-0.032078999999999996,-0.091065,-0.7178755,0.024569000000000007,0.066142,-0.7228555,0.021572000000000008
157,0.011548500000000003,0.6721545,-0.034224500000000005,-0.13313950000000002,0.46448449999999997,-0.005211500000000001,-0.22932950000000002,0.6088345,-0.1432405,0.14683049999999997,0.48225450000000003,0.014227499999999997,0.2939505,0.6234245,-0.0739305,-0.1825695,0.7921345,-0.2875805,0.34661050000000004,0.7715845,-0.2212305,-0.0584615,0.0029274999999999995,-0.0033955000000000027,0.0584615,-0.0029274999999999995,0.0033955000000000027,-0.0942235,-0.3462155,-0.026692499999999994,0.0819955,-0.3512455,-0.0322045,-0.0919555,-0.7176155,0.0274145,0.0774145,-0.7218055,0.0173055
158,0.0159745,0.6722185,-0.033311,-0.1304095,0.4612985,-0.008104999999999994,-0.2285895,0.5821185,-0.158,0.14917049999999998,0.48231850000000004,0.016065000000000003,0.30586050000000004,0.5999985000000001,-0.06981000000000001,-0.1667395,0.7584685,-0.3112,0.3617305,0.7395685000000001,-0.22458000000000003,-0.0593435,0.002991500000000008,-0.003726,0.0593435,-0.002991499999999994,0.003726,-0.09505350000000001,-0.3461515,-0.02478199999999999,0.08869650000000001,-0.3511815,-0.034576,-0.0929015,-0.7172915,0.029832000000000004,0.0911845,-0.7206115,0.009818
159,0.020356500000000003,0.675384,-0.034037500000000005,-0.1284625,0.458704,-0.012556500000000005,-0.2302525,0.549594,-0.1764085,0.1485775,0.48154399999999997,0.0170735,0.31514749999999997,0.570574,-0.0639285,-0.15022249999999998,0.714284,-0.3345885,0.3757875,0.694394,-0.2254585,-0.0593365,0.0023870000000000002,-0.004278499999999998,0.0593365,-0.0023870000000000002,0.004278499999999998,-0.09914949999999999,-0.346076,-0.0211405,0.0956275,-0.349246,-0.040115500000000005,-0.09784749999999999,-0.713926,0.0337885,0.1067975,-0.716186,-0.002322499999999998
160,0.023975999999999997,0.6783855000000001,-0.03574850000000001,-0.124895,0.4550055,-0.018557499999999998,-0.23197500000000001,0.5131755,-0.1896355,0.147915,0.48002550000000005,0.018244499999999997,0.32291499999999995,0.5389455000000001,-0.0567655,-0.13509500000000002,0.6660554999999999,-0.35112550000000003,0.385335,0.6461254999999999,-0.22261550000000002,-0.059422,0.0021575000000000066,-0.004777499999999997,0.059422,-0.0021574999999999997,0.004777499999999997,-0.10430400000000001,-0.3452845,-0.01639050000000001,0.103105,-0.3478245,-0.0471055,-0.10439,-0.7103145,0.038571499999999995,0.12296499999999999,-0.7113944999999999,-0.016253499999999997
161,0.025414,0.6827285000000001,-0.036486000000000005,-0.121587,0.45337849999999996,-0.025841000000000003,-0.23018,0.48216849999999994,-0.197776,0.14661000000000002,0.4801285,0.018906,0.32827,0.5094685,-0.047925999999999996,-0.120368,0.6170185,-0.364286,0.39355,0.5937585000000001,-0.21767600000000004,-0.059491,0.0018185000000000007,-0.005529000000000006,0.059491,-0.0018185000000000007,0.005528999999999999,-0.11122900000000001,-0.34319150000000004,-0.010911000000000004,0.10998000000000001,-0.3463915,-0.056896,-0.113675,-0.7043615,0.045241,0.13783,-0.7062115,-0.032186000000000006
162,0.028575500000000004,0.6862595,-0.04021799999999999,-0.1179435,0.45215950000000005,-0.032608,-0.22885450000000002,0.4497995,-0.19938799999999998,0.1464355,0.4792495,0.018734000000000008,0.3294755,0.4810995,-0.03842799999999999,-0.1122955,0.5685295,-0.36545799999999995,0.3991955,0.5405595,-0.21054799999999999,-0.0597575,0.001743500000000002,-0.0061329999999999996,0.059757500000000005,-0.001743500000000002,0.0061330000000000134,-0.1175225,-0.3408505,-0.005719999999999989,0.1165055,-0.3445305,-0.063388,-0.1236395,-0.6984405,0.05272900000000001,0.1517655,-0.7011805,-0.047687999999999994
163,0.0319565,0.6891025000000001,-0.04411200000000001,-0.1162145,0.4512725,-0.037602,-0.2287555,0.4169125,-0.19868200000000003,0.1466145,0.4773025000000001,0.018927,0.3273145,0.45289250000000003,-0.029312000000000005,-0.1063575,0.5137925,-0.362232,0.4014545,0.4865125,-0.201532,-0.0598845,0.0016235,-0.006610000000000005,0.05988450000000001,-0.0016235,0.006610000000000005,-0.12413249999999999,-0.33862749999999997,7.000000000000062e-05,0.1222645,-0.3436475,-0.06768199999999999,-0.13491350000000002,-0.6926275,0.062051999999999996,0.1627945,-0.6967575,-0.06074199999999999
164,0.03558599999999999,0.6916915,-0.048138000000000014,-0.114402,0.4504215,-0.042098,-0.22931100000000001,0.3859815,-0.19103799999999999,0.14762899999999998,0.47383149999999996,0.01851,0.322059,0.4232115,-0.018077999999999997,-0.105408,0.45785149999999997,-0.351368,0.400659,0.4336015,-0.190398,-0.059869000000000006,0.0015125,-0.007047999999999999,0.05986899999999999,-0.0015125,0.007047999999999999,-0.130342,-0.3371285,0.005583000000000005,0.126059,-0.3434285,-0.069628,-0.147683,-0.6869885,0.072765,0.168159,-0.6924985,-0.07008800000000001
165,0.038646,0.694205,-0.051845,-0.114558,0.450135,-0.04561500000000002,-0.228884,0.358205,-0.178085,0.147966,0.47090499999999996,0.01909799999999999,0.315066,0.393955,-0.004945000000000005,-0.108846,0.400995,-0.33831500000000003,0.39800599999999997,0.379795,-0.17405500000000002,-0.059526,0.0012459999999999971,-0.007825000000000013,0.059525999999999996,-0.001246000000000004,0.007824999999999999,-0.136187,-0.336435,0.010177999999999993,0.127486,-0.343305,-0.069385,-0.161946,-0.681735,0.084198,0.170406,-0.6880250000000001,-0.076815
166,0.04149199999999999,0.6966985,-0.05546000000000001,-0.115753,0.45106850000000004,-0.048970000000000014,-0.231248,0.3328085,-0.16341000000000003,0.147362,0.4680285,0.02058,0.306992,0.3640585,0.00907999999999999,-0.115121,0.3478685,-0.32355999999999996,0.39128199999999996,0.3238885,-0.15427,-0.059102,0.001060499999999999,-0.008629999999999999,0.059102,-0.0010605000000000024,0.008629999999999999,-0.141908,-0.3363715,0.013429999999999997,0.126882,-0.3438115,-0.06787000000000001,-0.177337,-0.6765615,0.095639,0.16681199999999996,-0.6833815000000001,-0.07855000000000001
167,0.0436165,0.699013,-0.05789500000000003,-0.1171665,0.451863,-0.05168500000000001,-0.2331635,0.309693,-0.14659500000000003,0.1468765,0.465493,0.022314999999999988,0.29561649999999995,0.336653,0.024644999999999986,-0.1263825,0.292533,-0.30685500000000004,0.38031649999999995,0.269863,-0.13298500000000002,-0.0585265,0.0012020000000000017,-0.009455000000000019,0.05852650000000001,-0.0012019999999999982,0.009454999999999991,-0.1466945,-0.337537,0.014224999999999988,0.12377650000000001,-0.345167,-0.06452500000000003,-0.19350050000000002,-0.672107,0.10720599999999998,0.15862649999999998,-0.681037,-0.07606500000000002
168,0.04367949999999998,0.7001620000000001,-0.059219999999999995,-0.1197195,0.453092,-0.052299999999999985,-0.2319445,0.294032,-0.13018000000000002,0.14723949999999997,0.46329200000000004,0.02545,0.2830695,0.316182,0.04027,-0.14259650000000001,0.24745199999999998,-0.28214,0.3661795,0.22795200000000002,-0.10903999999999997,-0.05809950000000001,0.001465000000000001,-0.010270000000000001,0.0580995,-0.001465000000000001,0.010270000000000001,-0.1493315,-0.33871799999999996,0.011520000000000002,0.11832949999999998,-0.347348,-0.05962999999999999,-0.20732650000000002,-0.668538,0.11640900000000001,0.1449395,-0.680018,-0.068
