sb224sc-HT22-VT27/4dt907/src/data/kinect_good_vs_bad_not_preprocessed_A13_mediapipe/W13.csv
FrameNo,nose_3d_x,nose_3d_y,nose_3d_z,left_shoulder_3d_x,left_shoulder_3d_y,left_shoulder_3d_z,left_elbow_3d_x,left_elbow_3d_y,left_elbow_3d_z,right_shoulder_3d_x,right_shoulder_3d_y,right_shoulder_3d_z,right_elbow_3d_x,right_elbow_3d_y,right_elbow_3d_z,left_wrist_3d_x,left_wrist_3d_y,left_wrist_3d_z,right_wrist_3d_x,right_wrist_3d_y,right_wrist_3d_z,left_hip_3d_x,left_hip_3d_y,left_hip_3d_z,right_hip_3d_x,right_hip_3d_y,right_hip_3d_z,left_knee_3d_x,left_knee_3d_y,left_knee_3d_z,right_knee_3d_x,right_knee_3d_y,right_knee_3d_z,left_ankle_3d_x,left_ankle_3d_y,left_ankle_3d_z,right_ankle_3d_x,right_ankle_3d_y,right_ankle_3d_z
0,0.027859,0.746238,-0.019087,-0.143475,0.472278,0.035578,-0.169905,0.21612800000000001,0.051481,0.163795,0.46686799999999995,0.027184,0.193315,0.209378,0.049149,-0.195095,0.01012,-0.007906000000000003,0.205655,0.007887,-0.008032999999999998,-0.067396,0.0024590000000000002,-0.0005080000000000015,0.067396,-0.0024590000000000002,0.0005080000000000015,-0.118575,-0.323952,-0.006599000000000001,0.099367,-0.32097200000000004,0.011092999999999999,-0.123545,-0.635022,0.030666,0.100915,-0.6246320000000001,0.033208
1,0.027639,0.746033,-0.019960500000000006,-0.144279,0.472423,0.0358005,-0.169539,0.216193,0.0512505,0.164701,0.46673299999999995,0.026386499999999997,0.19349100000000002,0.209753,0.048217499999999996,-0.211449,0.017021,0.002306499999999996,0.203801,0.008391000000000001,-0.010051500000000005,-0.067271,0.0024690000000000007,-0.0004595000000000016,0.067271,-0.002469,0.00045949999999999463,-0.117879,-0.32361700000000004,-0.006432500000000001,0.100243,-0.32088700000000003,0.010405499999999998,-0.122669,-0.632677,0.030089499999999998,0.101881,-0.624797,0.0325535
2,0.027116,0.7463265,-0.022276499999999998,-0.14448,0.4723165,0.0343335,-0.16968999999999998,0.2152165,0.051396500000000005,0.16522,0.4669865,0.024385500000000004,0.19333,0.2093765,0.0465435,-0.19695,-0.0043525,-0.00020449999999999635,0.20383,0.0080735,-0.011917499999999998,-0.067139,0.0024265000000000003,-0.0006844999999999976,0.067139,-0.0024265,0.0006845000000000045,-0.11654999999999999,-0.3231635,-0.007515499999999994,0.102014,-0.3210035,0.008190500000000007,-0.12101,-0.6359035,0.028971500000000004,0.10164500000000001,-0.6325934999999999,0.030169500000000005
3,0.0266795,0.7460395,-0.026833000000000003,-0.1434025,0.4720395,0.031337,-0.17047250000000003,0.21344950000000001,0.050943,0.16540749999999999,0.46755949999999996,0.020703999999999997,0.1929075,0.2097495,0.042935999999999995,-0.2000825,0.0080165,0.004922999999999997,0.2039975,0.0079925,-0.013484000000000003,-0.0671615,0.0023415,-0.0005810000000000017,0.0671615,-0.0023415,0.0005809999999999982,-0.1144625,-0.32069050000000004,-0.007396,0.1046235,-0.3210905,0.004815999999999997,-0.1178025,-0.6355405000000001,0.02601,0.1051265,-0.6333205000000001,0.026364
4,0.026408499999999998,0.7458330000000001,-0.027809,-0.14307450000000002,0.472223,0.030726,-0.1706145,0.212883,0.050912,0.1657155,0.467343,0.020439,0.19140549999999998,0.21081299999999997,0.0441,-0.1994745,0.01053,0.0047209999999999995,0.2026955,0.009099,-0.012473999999999999,-0.0670625,0.002261,-0.0006880000000000011,0.0670625,-0.002261,0.0006880000000000011,-0.11365449999999999,-0.32021700000000003,-0.0073679999999999995,0.10522150000000001,-0.320707,0.003952999999999998,-0.1168245,-0.634207,0.025684,0.1064365,-0.633247,0.025631
5,0.025385500000000002,0.7452105,-0.028753,-0.1434435,0.4723505,0.029425999999999997,-0.1706635,0.2134905,0.050781999999999994,0.16568650000000001,0.4672905,0.019986999999999998,0.1909565,0.21115050000000002,0.043823,-0.1988635,0.011414500000000001,0.004278999999999998,0.2008065,0.0091955,-0.012042000000000004,-0.0670505,0.0022385,-0.0007550000000000022,0.0670505,-0.0022385,0.0007549999999999987,-0.1138735,-0.3194095,-0.006024000000000002,0.1052975,-0.3198095,0.0035429999999999975,-0.11600350000000001,-0.6313895,0.026528999999999997,0.10755050000000001,-0.6333195,0.025119999999999996
6,0.02457,0.7448095,-0.028982499999999994,-0.14437,0.4725495,0.028621500000000005,-0.17131999999999997,0.2157195,0.051104500000000004,0.1658,0.46696950000000004,0.020214500000000003,0.19069999999999998,0.2118195,0.0434855,-0.19813999999999998,0.013490499999999999,0.004351500000000001,0.20090000000000002,0.0092175,-0.0094085,-0.066888,0.0021355000000000002,-0.001000499999999998,0.066888,-0.0021355,0.0010005000000000014,-0.11377,-0.31849049999999995,-0.0047255000000000005,0.105699,-0.3197405,0.0034265000000000025,-0.11522,-0.6303105,0.026753500000000003,0.108747,-0.6314605,0.025324500000000003
7,0.023959,0.744974,-0.027644500000000002,-0.144299,0.472664,0.0286635,-0.178319,0.221244,0.0418525,0.162971,0.46794399999999997,0.0183835,0.197001,0.218144,0.0333715,-0.211129,0.022656000000000003,-0.0169795,0.210961,0.016423,-0.0258505,-0.066957,0.002076,-0.001067499999999999,0.066957,-0.002076,0.001067499999999999,-0.113389,-0.317856,-0.0043834999999999985,0.105438,-0.319736,0.0035225000000000013,-0.114449,-0.632256,0.0271745,0.109417,-0.630246,0.0254185
8,0.023053499999999998,0.7447425,-0.0274335,-0.1445005,0.4727825,0.028330499999999998,-0.1842805,0.2272625,0.0370355,0.1616295,0.4682225,0.0175565,0.1987595,0.2248425,0.0255035,-0.2204505,0.0328295,-0.0280295,0.2161195,0.0253075,-0.0382705,-0.0669965,0.0020805,-0.0011455000000000007,0.0669965,-0.0020805,0.0011455000000000007,-0.1132205,-0.3174175,-0.0035705000000000008,0.1054615,-0.3191275,0.0034455000000000006,-0.1137505,-0.6321075,0.0275515,0.1103835,-0.6303175,0.0252685
9,0.0220605,0.744503,-0.0269075,-0.1446685,0.473143,0.028032500000000002,-0.19235850000000002,0.235783,0.0301725,0.1599315,0.46862299999999996,0.016556500000000002,0.2022815,0.232873,0.0150405,-0.2315885,0.04678,-0.0447375,0.2245015,0.038312000000000006,-0.056911500000000004,-0.0670615,0.002073,-0.0011884999999999986,0.0670615,-0.002073,0.001188500000000002,-0.11312850000000002,-0.31699700000000003,-0.002745499999999998,0.10539950000000001,-0.318377,0.0034605000000000018,-0.11308850000000001,-0.6319469999999999,0.0280245,0.1112805,-0.6303869999999999,0.0251715
10,0.020983999999999996,0.744163,-0.025862000000000003,-0.144706,0.473583,0.027778,-0.203706,0.247513,0.020229999999999998,0.157914,0.469123,0.015524,0.207834,0.243113,0.0018159999999999982,-0.246706,0.066456,-0.0663,0.235934,0.056668,-0.08119200000000001,-0.067137,0.0020090000000000004,-0.0012029999999999992,0.067137,-0.002009,0.0012029999999999992,-0.11305600000000002,-0.316287,-0.002017999999999999,0.10532499999999999,-0.317637,0.0035700000000000003,-0.11241600000000002,-0.631867,0.028415,0.11214999999999999,-0.629907,0.02509
11,0.019816999999999998,0.743772,-0.0242005,-0.144611,0.474162,0.0274555,-0.216131,0.260982,0.0083475,0.15570900000000001,0.47015199999999996,0.014901500000000002,0.216469,0.25807199999999997,-0.014516500000000002,-0.26500100000000004,0.094246,-0.09355350000000001,0.250179,0.08213699999999999,-0.1105835,-0.067239,0.001875,-0.0010634999999999985,0.067239,-0.001875,0.001063500000000002,-0.11302100000000001,-0.31558800000000004,-0.0013985000000000004,0.105159,-0.316828,0.0037254999999999996,-0.11178099999999999,-0.631768,0.028789500000000003,0.11293600000000001,-0.6296379999999999,0.0249585
12,0.018625000000000003,0.7432975,-0.0220915,-0.14447100000000002,0.4746875,0.027105499999999998,-0.231311,0.2791675,-0.004973500000000002,0.15374900000000002,0.4712575,0.014215499999999997,0.22696899999999998,0.2761675,-0.0316875,-0.284501,0.1299075,-0.1238445,0.264799,0.1173275,-0.14393450000000002,-0.067357,0.0017305,-0.0008305000000000014,0.067357,-0.0017304999999999998,0.0008304999999999979,-0.11293099999999999,-0.3150125,-0.0009135000000000011,0.105084,-0.3161125,0.0038844999999999956,-0.11112100000000001,-0.6316825,0.029141499999999997,0.113803,-0.6294925,0.0247615
13,0.0173785,0.7425565000000001,-0.0195875,-0.1444805,0.4754665,0.0268645,-0.24787050000000002,0.3065065,-0.0201295,0.1518695,0.4727465,0.013505499999999998,0.2380795,0.3062165,-0.049398500000000005,-0.3031605,0.1800665,-0.1540195,0.27785950000000004,0.1701065,-0.1754495,-0.0674875,0.0015645000000000001,-0.0004165000000000002,0.0674875,-0.0015645,0.00041649999999999673,-0.1128305,-0.31464349999999996,-0.0005735000000000011,0.10502249999999999,-0.3157135,0.0039334999999999995,-0.11051050000000001,-0.6318834999999999,0.0293195,0.11464650000000001,-0.6295535,0.0245025
14,0.016066999999999998,0.741132,-0.016620500000000003,-0.14451399999999998,0.476362,0.0263985,-0.263514,0.340732,-0.0342135,0.15040599999999998,0.475472,0.012744499999999999,0.247546,0.344412,-0.06528250000000001,-0.318014,0.245132,-0.1804765,0.289416,0.23927199999999998,-0.2045165,-0.06755,0.0012790000000000002,1.9499999999998685e-05,0.06755,-0.0012790000000000002,-1.9500000000002154e-05,-0.112744,-0.314858,-0.00036450000000000024,0.104952,-0.316058,0.0039314999999999975,-0.109914,-0.6321779999999999,0.029478499999999998,0.11546,-0.6304179999999999,0.0242145
15,0.014769000000000001,0.7393955,-0.013557,-0.14456599999999997,0.4777255,0.026033,-0.274086,0.3776755,-0.045855999999999994,0.149034,0.47812550000000004,0.012319000000000002,0.256404,0.3842455,-0.076641,-0.331176,0.3160855,-0.204801,0.29825399999999996,0.3165255,-0.227881,-0.067568,0.0009735,0.0002940000000000026,0.067568,-0.0009735,-0.0002939999999999991,-0.11270599999999999,-0.3153745,-0.0001319999999999967,0.104843,-0.3167945,0.003890000000000001,-0.109416,-0.6329345,0.029662,0.116112,-0.6316145,0.024089000000000003
16,0.013533,0.7372255,-0.010707000000000001,-0.144742,0.4793055,0.025608,-0.282752,0.41712550000000004,-0.05539,0.148008,0.4812055,0.012126,0.262098,0.4255255,-0.08571599999999999,-0.337182,0.3895055,-0.219556,0.301818,0.3958455,-0.240096,-0.067538,0.0006314999999999997,0.0005380000000000003,0.067538,-0.0006315000000000001,-0.0005380000000000003,-0.112672,-0.3163245,-3.999999999999837e-05,0.104699,-0.3180645,0.0038399999999999997,-0.108982,-0.6330945,0.029878000000000002,0.116625,-0.6332544999999999,0.024056
17,0.012225999999999997,0.7346815,-0.0082975,-0.14493299999999998,0.4810415,0.0253625,-0.287293,0.4555215,-0.061086499999999995,0.146907,0.4843115,0.012197500000000002,0.263407,0.46891150000000004,-0.08797550000000001,-0.338403,0.4652115,-0.2224755,0.30204699999999995,0.47873150000000003,-0.2409055,-0.067468,0.0002724999999999993,0.0006095000000000024,0.067468,-0.00027250000000000017,-0.0006094999999999989,-0.112753,-0.3176385,3.0500000000002747e-05,0.104431,-0.32009849999999995,0.003910500000000001,-0.108803,-0.6336585,0.0303005,0.116854,-0.6353084999999999,0.0242225
18,0.010964499999999999,0.73136,-0.006315500000000002,-0.1450975,0.48308,0.0251585,-0.2887075,0.49912000000000006,-0.0638495,0.1459625,0.48796,0.012362499999999998,0.2635325,0.5151899999999999,-0.08781150000000001,-0.3382775,0.53736,-0.2223115,0.30217249999999996,0.56189,-0.2407415,-0.0673715,-3.300000000000004e-05,0.0007734999999999999,0.0673715,3.299999999999831e-05,-0.0007734999999999999,-0.1128375,-0.3197,0.00019450000000000023,0.10414749999999999,-0.32289999999999996,0.004074499999999998,-0.10874750000000001,-0.6351300000000001,0.0306835,0.1169795,-0.63824,0.0244255
19,0.009799499999999997,0.7277684999999999,-0.004983499999999998,-0.1453875,0.4852285,0.024875500000000002,-0.2887075,0.5398685,-0.06363849999999999,0.1451325,0.49190849999999997,0.012677500000000001,0.2635325,0.5632785,-0.0876005,-0.3382775,0.6170785,-0.2221005,0.30217249999999996,0.6453885,-0.2405305,-0.0673715,-0.0002894999999999998,0.0009845000000000027,0.0673715,0.0002894999999999998,-0.0009844999999999993,-0.1128375,-0.3223315,0.0004055000000000031,0.10378949999999999,-0.32598150000000004,0.004286500000000002,-0.1087975,-0.6369815,0.0309875,0.1170145,-0.6416515,0.024636500000000002
20,0.008637999999999998,0.7232805,-0.004134500000000003,-0.14566700000000002,0.48701050000000007,0.0245925,-0.288707,0.5797605,-0.0632185,0.144273,0.4955605,0.013490499999999999,0.263533,0.6057305,-0.08718050000000001,-0.338277,0.6893604999999999,-0.2216805,0.299753,0.7241605,-0.2401105,-0.067371,-0.0004284999999999983,0.0012124999999999983,0.067371,0.0004285000000000018,-0.0012125000000000018,-0.11283699999999999,-0.32584949999999996,0.000732499999999997,0.103472,-0.32968949999999997,0.004380499999999999,-0.10883700000000002,-0.6400895000000001,0.0314425,0.117084,-0.6462795,0.0250565
21,0.007563499999999999,0.7185039999999999,-0.003526999999999999,-0.14586649999999998,0.488484,0.024544,-0.2887065,0.615204,-0.062612,0.1433135,0.49898400000000004,0.014712000000000001,0.2619135,0.644864,-0.085224,-0.3357465,0.7562439999999999,-0.217164,0.2931035,0.795144,-0.231294,-0.0673705,-0.0005660000000000005,0.0014090000000000005,0.0673705,0.0005660000000000005,-0.0014090000000000005,-0.11283649999999999,-0.329766,0.0011210000000000005,0.1032255,-0.33378599999999997,0.004543999999999999,-0.1087965,-0.6439760000000001,0.032049,0.1171575,-0.651306,0.025663000000000002
22,0.006491,0.713749,-0.002676999999999999,-0.14599299999999998,0.489339,0.024844,-0.28630300000000003,0.6421490000000001,-0.061473,0.142307,0.501719,0.016148000000000003,0.257277,0.6732290000000001,-0.079485,-0.32944300000000004,0.809269,-0.206195,0.282477,0.8496589999999999,-0.214975,-0.067267,-0.0007360000000000005,0.001509,0.067267,0.0007359999999999971,-0.001509,-0.11296299999999998,-0.33337100000000003,0.0013629999999999996,0.10292699999999999,-0.337681,0.004692000000000002,-0.108903,-0.6484209999999999,0.032898,0.11710400000000001,-0.656301,0.02643
23,0.005428499999999999,0.7096414999999999,-0.0017159999999999988,-0.14634149999999999,0.4897415,0.025377,-0.2811615,0.6616715,-0.057367,0.1411085,0.5028815,0.017366,0.2490085,0.6932615,-0.069971,-0.3195115,0.8459715,-0.188894,0.2683385,0.8885814999999999,-0.19252399999999997,-0.0671155,-0.0007225000000000009,0.001412,0.0671155,0.0007225000000000009,-0.001412,-0.1131915,-0.3367285,0.001575,0.1024545,-0.3411385,0.004862999999999999,-0.1091915,-0.6532485,0.033859,0.1168335,-0.6608285,0.027307
24,0.0038915000000000026,0.7054315,-0.0008755000000000013,-0.1470705,0.48912150000000004,0.0259655,-0.2729105,0.6784815,-0.0512185,0.13948950000000002,0.5039815000000001,0.0188395,0.2373295,0.7135715,-0.058243500000000004,-0.30785049999999997,0.8755415,-0.1666015,0.2521495,0.9198215000000001,-0.16333150000000002,-0.0668635,-0.0006634999999999974,0.001125499999999998,0.0668635,0.0006635000000000044,-0.0011255000000000015,-0.11359050000000001,-0.3401185,0.0017835000000000004,0.1016155,-0.3447085,0.005090499999999998,-0.1098305,-0.6581984999999999,0.0349265,0.1161875,-0.6655485000000001,0.028326499999999998
25,0.0019474999999999978,0.7013750000000001,-0.00041000000000000064,-0.1480285,0.48792500000000005,0.026402,-0.2633485,0.6930850000000001,-0.042854,0.1376115,0.504305,0.020441,0.2243115,0.7298950000000001,-0.046249,-0.2967085,0.8987050000000001,-0.14300400000000002,0.2368015,0.945605,-0.13496400000000003,-0.0665775,-0.0005709999999999951,0.000559999999999998,0.0665775,0.0005710000000000021,-0.0005600000000000015,-0.11410849999999999,-0.34335499999999997,0.001965999999999999,0.1004775,-0.348075,0.005377999999999997,-0.1107685,-0.6629849999999999,0.035882,0.1152205,-0.670095,0.029339
26,-0.00014500000000000277,0.6975914999999999,-0.0006005000000000038,-0.14883400000000002,0.48638149999999997,0.0269865,-0.254334,0.7060915000000001,-0.0351755,0.135456,0.5045615000000001,0.022039499999999997,0.212936,0.7415715,-0.0345365,-0.287354,0.9153415,-0.12085549999999999,0.222806,0.9639815,-0.1083155,-0.066361,-0.0004684999999999967,-0.00010650000000000243,0.066361,0.00046850000000000364,0.00010649999999999896,-0.11463400000000001,-0.3462485,0.0019514999999999984,0.099223,-0.3511485,0.005589500000000001,-0.11183400000000002,-0.6674285,0.0366285,0.114118,-0.6743485,0.030186499999999998
27,-0.0022680000000000027,0.6944705,-0.0010910000000000017,-0.14968099999999998,0.48417049999999995,0.027615,-0.249391,0.7111704999999999,-0.028883,0.133249,0.5046505,0.023659,0.20219900000000002,0.7489905,-0.025671,-0.279181,0.9310505,-0.10008899999999998,0.210309,0.9778104999999999,-0.08468900000000001,-0.066141,-0.00038950000000000096,-0.0007479999999999987,0.066141,0.00038950000000000096,0.0007479999999999987,-0.115141,-0.34852950000000005,0.0016219999999999984,0.097971,-0.3537095,0.005697999999999998,-0.112901,-0.6712295,0.037059,0.112986,-0.6778795,0.030711
28,-0.004309500000000001,0.6916985,-0.0014759999999999981,-0.1504115,0.4816885,0.028191,-0.2450015,0.7158485,-0.023092,0.13115849999999998,0.5045685,0.025283,0.19373849999999998,0.7528984999999999,-0.016235,-0.27506149999999996,0.9337185,-0.084333,0.20130849999999997,0.9857585,-0.068483,-0.0659345,-0.00033550000000000246,-0.0013229999999999978,0.0659345,0.00033550000000000246,0.0013229999999999978,-0.1155915,-0.3506015,0.0011750000000000024,0.0968005,-0.3560215,0.005774999999999999,-0.1138715,-0.6754015,0.037229,0.1118915,-0.6809915000000001,0.031024
29,-0.0060815,0.689902,-0.0017044999999999977,-0.1512605,0.479592,0.0284345,-0.24278049999999998,0.7194820000000001,-0.019617500000000003,0.1293995,0.504582,0.0267465,0.1879895,0.758062,-0.010558499999999998,-0.2728505,0.9350620000000001,-0.07654949999999999,0.19479950000000001,0.9914620000000001,-0.058269499999999995,-0.0657295,-0.0004210000000000047,-0.0015664999999999984,0.0657295,0.00042099999999999776,0.0015664999999999984,-0.11592049999999998,-0.351908,0.0006374999999999992,0.0957915,-0.357778,0.0060015,-0.1146605,-0.678208,0.0370815,0.11093650000000001,-0.682858,0.0310505
30,-0.007785000000000004,0.6884345000000001,-0.0017360000000000014,-0.15222100000000002,0.4779045,0.028539000000000002,-0.24108100000000002,0.7195045,-0.016905999999999997,0.127739,0.5048045000000001,0.028206000000000002,0.183229,0.7634345,-0.006023000000000001,-0.27241099999999996,0.9336545,-0.071435,0.18953899999999999,0.9949744999999999,-0.050797999999999996,-0.06553,-0.000503499999999997,-0.0016699999999999979,0.06553,0.0005035000000000039,0.0016699999999999979,-0.11625100000000002,-0.3527855,1.1999999999998123e-05,0.09479099999999999,-0.3591355,0.006106,-0.115451,-0.6804755,0.036822,0.109963,-0.6844455,0.030989
31,-0.009445000000000002,0.687124,-0.001795000000000005,-0.15317000000000003,0.476484,0.028516999999999997,-0.23998000000000003,0.7180840000000001,-0.014790000000000005,0.12612,0.505444,0.029622999999999997,0.17956,0.767724,-0.0025030000000000052,-0.27254,0.932234,-0.067844,0.18527,0.997254,-0.04517,-0.065318,-0.0005500000000000019,-0.0017300000000000024,0.065318,0.0005499999999999949,0.0017299999999999954,-0.11661,-0.353846,-0.0005380000000000038,0.093846,-0.360446,0.006046999999999997,-0.11621,-0.682486,0.036425,0.109053,-0.685846,0.030876999999999998
32,-0.011001,0.6860825,-0.002044999999999998,-0.15401900000000002,0.4751925,0.028588000000000002,-0.24032900000000001,0.7169625000000001,-0.014112,0.124611,0.5065225,0.030966000000000004,0.17666099999999998,0.7720525,0.0003300000000000039,-0.273379,0.9311125,-0.065972,0.181831,0.9986324999999999,-0.040813999999999996,-0.065141,-0.0006885000000000016,-0.0019819999999999977,0.065141,0.0006885000000000016,0.001982000000000001,-0.11688899999999999,-0.3546875,-0.0011339999999999961,0.093056,-0.3614575,0.0057960000000000025,-0.116869,-0.6841575,0.035828000000000006,0.108238,-0.6869375,0.030604000000000003
33,-0.012242,0.685505,-0.0024010000000000004,-0.15463400000000002,0.474175,0.02862,-0.240584,0.716335,-0.013747000000000002,0.12335600000000001,0.507775,0.032147,0.175456,0.773145,0.0022429999999999985,-0.27399399999999996,0.930485,-0.06612900000000001,0.18018599999999999,0.9980049999999999,-0.039304000000000006,-0.065024,-0.0008410000000000015,-0.002339000000000001,0.065024,0.0008409999999999945,0.002339000000000001,-0.11709399999999999,-0.355215,-0.001683000000000004,0.092516,-0.36200499999999997,0.005538999999999999,-0.11739399999999998,-0.684985,0.035175,0.107645,-0.687545,0.030234
34,-0.0132415,0.685222,-0.002810999999999994,-0.1550765,0.473442,0.028511000000000005,-0.24096649999999997,0.714232,-0.013496999999999995,0.1223735,0.5093019999999999,0.033156000000000005,0.17493350000000002,0.774482,0.003312000000000006,-0.27443649999999997,0.929322,-0.066637,0.1793935,0.9976519999999999,-0.03895799999999999,-0.0649495,-0.0010340000000000002,-0.0027459999999999984,0.0649495,0.0010340000000000002,0.0027460000000000054,-0.1172765,-0.35548799999999997,-0.002239999999999992,0.09216650000000001,-0.36235799999999996,0.005356000000000007,-0.11778649999999999,-0.685338,0.034480000000000004,0.1072275,-0.687868,0.029726000000000006
35,-0.014440500000000005,0.685013,-0.003104500000000003,-0.1556115,0.472743,0.028197499999999997,-0.24142149999999998,0.713393,-0.013533500000000004,0.12136849999999999,0.5108130000000001,0.0338025,0.17436849999999998,0.7742330000000001,0.004040499999999999,-0.2750315,0.927953,-0.06744850000000001,0.1786485,0.9974029999999999,-0.0390075,-0.0648855,-0.0012519999999999962,-0.0031015,0.0648855,0.0012520000000000031,0.0031014999999999966,-0.1174915,-0.355647,-0.003075500000000002,0.09182449999999999,-0.36260699999999996,0.005087499999999998,-0.1181915,-0.685587,0.0335275,0.1068025,-0.688087,0.0289145
36,-0.015649499999999997,0.6848000000000001,-0.0031955000000000004,-0.1561415,0.47225999999999996,0.0276915,-0.2424215,0.7127100000000001,-0.0137965,0.12066850000000001,0.51178,0.0339565,0.1738885,0.7740100000000001,0.004507500000000001,-0.2765615,0.9266000000000001,-0.0684555,0.17803850000000002,0.99698,-0.0393705,-0.0648275,-0.0014110000000000025,-0.0033545,0.0648275,0.0014110000000000025,0.0033545,-0.1176315,-0.35591,-0.0041525,0.09159750000000001,-0.36283,0.004720499999999999,-0.11850149999999998,-0.68597,0.0323995,0.1064765,-0.68831,0.0279065
37,-0.016900500000000006,0.6846665,-0.0033735000000000015,-0.15662450000000003,0.47189650000000005,0.0269695,-0.24316450000000003,0.7077365,-0.0141885,0.1201455,0.5125765,0.0337455,0.1733555,0.7738365,0.003839499999999999,-0.27853449999999996,0.9251865,-0.0705225,0.17758549999999998,0.9966065,-0.0400585,-0.0647705,-0.0015664999999999984,-0.003433499999999999,0.0647705,0.0015664999999999984,0.003433499999999999,-0.1177045,-0.3561235,-0.005472499999999998,0.0914755,-0.3630135,0.004289500000000002,-0.1187245,-0.6862835,0.031113500000000002,0.1063035,-0.6883835,0.0268225
38,-0.017972500000000002,0.6844895,-0.0035565000000000006,-0.1569485,0.47171950000000007,0.0262315,-0.24367850000000002,0.7024695,-0.014474499999999998,0.1198215,0.5131095,0.0333115,0.1727415,0.7736095000000001,0.003707499999999999,-0.28032850000000004,0.9236395000000001,-0.0724935,0.1773115,0.9963295,-0.04078949999999999,-0.0647335,-0.0016754999999999964,-0.0034374999999999996,0.0647335,0.0016754999999999964,0.0034374999999999996,-0.11768849999999999,-0.3563705,-0.006784500000000002,0.0914905,-0.3632805,0.003891499999999999,-0.11876850000000001,-0.6864905,0.0297875,0.1062925,-0.6884405,0.025770500000000002
39,-0.018975500000000003,0.684303,-0.0037939999999999988,-0.1573295,0.47154300000000005,0.025884,-0.2441295,0.697263,-0.014732999999999996,0.1189805,0.514053,0.033576,0.1721605,0.770203,0.004019000000000002,-0.2819395,0.922083,-0.074428,0.1771105,0.995953,-0.041699999999999994,-0.0647335,-0.0017580000000000096,-0.0034479999999999997,0.0647335,0.0017579999999999957,0.0034479999999999997,-0.11765950000000001,-0.356547,-0.008115999999999998,0.0914905,-0.363577,0.003372,-0.11868949999999999,-0.687047,0.028210000000000002,0.1063795,-0.688507,0.024713000000000002
40,-0.020105,0.6841735,-0.004008000000000001,-0.157751,0.47144350000000007,0.025703,-0.244621,0.6921235,-0.014939999999999998,0.117799,0.5150334999999999,0.033975,0.171449,0.7673234999999999,0.004343,-0.28358099999999997,0.9208335,-0.07624299999999999,0.176879,0.9957535,-0.042711,-0.064734,-0.001857499999999998,-0.003462,0.064734,0.001857499999999998,0.003462,-0.11766100000000002,-0.3566565,-0.009454,0.09149,-0.3637465,0.0028049999999999985,-0.118611,-0.6875665000000001,0.026597,0.10649399999999999,-0.6884865,0.023684999999999998
41,-0.021332,0.6840535,-0.004213500000000002,-0.158372,0.47146350000000004,0.025756499999999998,-0.24520200000000003,0.6870835,-0.015114500000000003,0.116488,0.5161235,0.0345535,0.17052799999999999,0.7624335,0.004795499999999998,-0.285312,0.9200335,-0.0778565,0.176588,0.9955735,-0.043807500000000006,-0.064734,-0.0019434999999999938,-0.003362500000000001,0.064734,0.0019435000000000008,0.0033624999999999974,-0.11766200000000002,-0.3569165,-0.010930500000000003,0.091489,-0.3639265,0.002131499999999998,-0.118502,-0.6882265,0.024930499999999998,0.1066,-0.6884765,0.022658499999999998
42,-0.02283,0.6839065,-0.0043955,-0.159475,0.4716865,0.0263475,-0.24617500000000003,0.6852765000000001,-0.015569499999999997,0.11504500000000001,0.5171965000000001,0.035305500000000004,0.169005,0.7572465,0.005218500000000001,-0.287535,0.9193865,-0.0794445,0.176155,0.9952165000000001,-0.045104500000000006,-0.06468499999999999,-0.0020515000000000116,-0.003317500000000001,0.06468499999999999,0.0020514999999999978,0.003317500000000001,-0.11752500000000002,-0.35743349999999996,-0.012737500000000002,0.09153800000000001,-0.3641135,0.0013115000000000002,-0.11827500000000002,-0.6888434999999999,0.0229455,0.10680300000000001,-0.6885135,0.0214635
43,-0.024332000000000003,0.683712,-0.004518999999999999,-0.160477,0.471972,0.026954,-0.24700700000000003,0.684462,-0.01608,0.113383,0.5184420000000001,0.036132,0.167703,0.752282,0.005625,-0.289827,0.918772,-0.081023,0.175843,0.9948920000000001,-0.046338000000000004,-0.064667,-0.0022050000000000056,-0.003262000000000001,0.064667,0.0022049999999999986,0.003262000000000001,-0.11715700000000001,-0.35788800000000004,-0.014530999999999999,0.09171399999999999,-0.364308,0.0004369999999999999,-0.117837,-0.6897479999999999,0.021026,0.10719,-0.688588,0.02023
44,-0.025595999999999997,0.6835450000000001,-0.004687,-0.161466,0.47238500000000005,0.027604999999999998,-0.24826600000000001,0.6839350000000001,-0.016492999999999997,0.111794,0.519675,0.03735,0.16653400000000002,0.7467050000000001,0.005996,-0.292206,0.918215,-0.082478,0.175714,0.9945450000000001,-0.047413,-0.064571,-0.0023829999999999962,-0.003280999999999999,0.064571,0.0023829999999999962,0.003280999999999999,-0.11661600000000001,-0.35834499999999997,-0.016286,0.092027,-0.364595,-0.0007670000000000003,-0.11720599999999999,-0.690805,0.019198,0.107804,-0.688715,0.019015
45,-0.026843999999999996,0.68344,-0.004851499999999998,-0.162439,0.47296,0.028289500000000002,-0.250059,0.68394,-0.0177275,0.110301,0.5209600000000001,0.0387005,0.16556099999999999,0.74105,0.006299500000000001,-0.29472899999999996,0.9177200000000001,-0.0839055,0.175791,0.9940499999999999,-0.048508499999999996,-0.064446,-0.0025250000000000064,-0.0033714999999999995,0.064446,0.0025249999999999995,0.0033715000000000012,-0.115899,-0.35883,-0.0181355,0.092442,-0.36488,-0.0020034999999999983,-0.116259,-0.69245,0.0172525,0.108761,-0.6887099999999999,0.0177775
46,-0.0280455,0.6835315,-0.004919,-0.1637595,0.47376149999999995,0.029195,-0.2524995,0.6840015,-0.018779999999999998,0.1085815,0.5223615,0.040334999999999996,0.1648705,0.7355315,0.006754,-0.2975295,0.9172315,-0.08518,0.17590050000000002,0.9936115,-0.049474,-0.06436349999999999,-0.0025864999999999985,-0.0035090000000000017,0.06436349999999999,0.0025865000000000055,0.003509,-0.11517949999999999,-0.35925850000000004,-0.0199,0.0929275,-0.3651785,-0.0031079999999999997,-0.1150995,-0.6941285,0.015434999999999999,0.1099205,-0.6886485,0.016673
47,-0.029103499999999994,0.6836125,-0.004926,-0.16537349999999998,0.47464249999999997,0.030205000000000003,-0.2548035,0.6840625,-0.019603,0.1069785,0.5232325,0.04204,0.16435650000000002,0.7311225,0.006870000000000001,-0.3002135,0.9166924999999999,-0.08637500000000001,0.17609650000000002,0.9926725000000001,-0.05043400000000001,-0.0642535,-0.002647500000000011,-0.0036839999999999998,0.0642535,0.002647499999999997,0.0036840000000000015,-0.11422349999999999,-0.3598475,-0.021716999999999997,0.0934515,-0.36541750000000006,-0.004142,-0.11346350000000001,-0.6961275,0.013698000000000002,0.1112495,-0.6895275000000001,0.015387000000000001
48,-0.030271,0.6837325,-0.0047810000000000005,-0.16722399999999998,0.4754324999999999,0.030815000000000002,-0.259204,0.6844224999999999,-0.020343000000000003,0.105769,0.5236225,0.043047,0.164136,0.7292425,0.006614,-0.303074,0.9161725,-0.087642,0.176556,0.9916425,-0.051303,-0.064164,-0.0026734999999999953,-0.003863000000000002,0.064164,0.002673500000000009,0.003863,-0.11314400000000001,-0.3604075,-0.023423000000000003,0.09402200000000001,-0.36566750000000003,-0.0055639999999999995,-0.111354,-0.6981975,0.012171999999999999,0.112999,-0.6904775,0.014133
49,-0.030973000000000004,0.6836234999999999,-0.004713500000000002,-0.1687,0.47601350000000003,0.0311685,-0.26273,0.6844735,-0.0213895,0.10514,0.5235135,0.0439935,0.16435,0.7286235000000001,0.006371499999999999,-0.30556,0.9153834999999999,-0.0889945,0.17752,0.9903335,-0.052207500000000004,-0.064017,-0.0027824999999999933,-0.0042085000000000004,0.064017,0.002782500000000007,0.004208499999999999,-0.11173000000000001,-0.3612165,-0.024795500000000005,0.094777,-0.3657765,-0.007682500000000002,-0.10856,-0.7005764999999999,0.010631499999999999,0.11509899999999999,-0.6905165,0.012554499999999998
50,-0.031177,0.6834709999999999,-0.004465000000000002,-0.169907,0.476471,0.031511,-0.265417,0.6845709999999999,-0.022483999999999997,0.104617,0.523331,0.044754999999999996,0.165273,0.7296509999999999,0.006277,-0.30746700000000005,0.915211,-0.090503,0.179323,0.988751,-0.052859,-0.064131,-0.0028389999999999943,-0.004607999999999999,0.064131,0.002839000000000008,0.004607999999999999,-0.110407,-0.362059,-0.025762,0.096126,-0.365899,-0.010459000000000001,-0.104857,-0.7027490000000001,0.009163999999999999,0.11781900000000001,-0.690639,0.010537
51,-0.030982499999999996,0.6834155000000001,-0.004239,-0.17012649999999999,0.47689549999999997,0.031156,-0.2672565,0.6849555,-0.023847999999999998,0.10480249999999999,0.5232655,0.045169,0.16702350000000002,0.7295355,0.006371,-0.3087165,0.9151155000000001,-0.092139,0.18076350000000002,0.9846355000000001,-0.052744,-0.06428149999999999,-0.0028294999999999987,-0.005018999999999999,0.06428149999999999,0.0028294999999999987,0.005019,-0.1088365,-0.3621745,-0.026735,0.0972635,-0.3659445,-0.015016999999999999,-0.10082649999999999,-0.7047245,0.007858,0.12078150000000001,-0.6906945,0.007688
52,-0.02913550000000001,0.6834555,-0.004643999999999999,-0.1697875,0.4774155,0.030323,-0.26763750000000003,0.6851655,-0.026558,0.1057495,0.5235854999999999,0.046117,0.1710825,0.7293855,0.0060750000000000005,-0.3074675,0.9149355,-0.095837,0.18536249999999999,0.9801555000000001,-0.053463000000000004,-0.0646395,-0.0028315000000000007,-0.005516,0.06463949999999999,0.0028315000000000007,0.005516000000000001,-0.1049975,-0.3623545,-0.02883,0.1023385,-0.3640945,-0.033131,-0.0939275,-0.7056045000000001,0.005420000000000001,0.1263445,-0.6890745,-0.004777999999999999
53,-0.027595,0.6834485,-0.0049180000000000005,-0.169294,0.47771850000000005,0.029256,-0.267554,0.6852085,-0.029579,0.10672599999999999,0.5233885,0.046839,0.17507599999999998,0.7290585,0.005987999999999999,-0.306114,0.9147485,-0.10075500000000001,0.190126,0.9753284999999999,-0.054019,-0.065084,-0.0028884999999999952,-0.006023000000000001,0.065084,0.002888500000000002,0.006022999999999999,-0.101574,-0.3626815,-0.030733000000000003,0.107239,-0.3592415,-0.055886,-0.08704400000000001,-0.7064215,0.0028729999999999997,0.131983,-0.6802115,-0.020931
54,-0.025840500000000002,0.683568,-0.00506,-0.16860750000000002,0.47788800000000003,0.028231,-0.2674875,0.6848179999999999,-0.032716999999999996,0.1075275,0.5229280000000001,0.047964999999999994,0.1790525,0.7297180000000001,0.006269,-0.3043375,0.9143479999999999,-0.106184,0.1951525,0.970558,-0.054228,-0.0655075,-0.002790000000000001,-0.006425,0.0655075,0.002790000000000001,0.006425,-0.09781749999999999,-0.361442,-0.032165,0.1120045,-0.347682,-0.08174100000000001,-0.0801775,-0.707012,0.0004380000000000009,0.1374535,-0.664482,-0.040368
55,-0.024059499999999998,0.6832705000000001,-0.004666,-0.1675975,0.47774049999999996,0.027621,-0.2665175,0.6841405,-0.035764,0.1087055,0.5227204999999999,0.049800000000000004,0.18325249999999998,0.7300705000000001,0.007457999999999999,-0.30189750000000004,0.9134605,-0.11207800000000001,0.20062249999999998,0.9653805,-0.053588,-0.0660575,-0.002425499999999997,-0.006782,0.06605749999999999,0.002425499999999997,0.006782,-0.09340749999999999,-0.3621295,-0.033602,0.11687049999999999,-0.3243495,-0.114708,-0.0730175,-0.7076994999999999,-0.0012960000000000003,0.1430685,-0.6337295000000001,-0.06749000000000001
56,-0.022341999999999987,0.682737,-0.0035635,-0.166128,0.477537,0.0277645,-0.265578,0.683277,-0.0386215,0.110241,0.522197,0.0524735,0.187882,0.730297,0.009386499999999999,-0.298968,0.912497,-0.1179335,0.206382,0.960447,-0.0519745,-0.066718,-0.0019430000000000003,-0.0062535,0.06671800000000001,0.0019430000000000003,0.0062535,-0.087308,-0.360813,-0.0343515,0.121671,-0.292743,-0.14868350000000002,-0.06586799999999998,-0.708533,-0.0021395,0.148488,-0.595913,-0.0979335
57,-0.019345,0.6821280000000001,-0.0028649999999999995,-0.162852,0.477108,0.027667,-0.260992,0.682428,-0.041624,0.11385500000000001,0.521668,0.054793,0.19334800000000002,0.7303780000000001,0.011371000000000001,-0.293902,0.911348,-0.12498699999999999,0.21354800000000002,0.9554980000000001,-0.050388999999999996,-0.066972,-0.001126000000000002,-0.005568,0.066972,0.001126000000000002,0.005568,-0.07952200000000001,-0.35927200000000004,-0.035216,0.127907,-0.260652,-0.184927,-0.057282,-0.709382,-0.003128999999999999,0.153089,-0.557752,-0.132937
58,-0.014281499999999989,0.681779,-0.0026245,-0.1576415,0.477109,0.0273985,-0.2547815,0.6816989999999999,-0.0448645,0.11973750000000001,0.522439,0.0565955,0.2009085,0.730469,0.0128955,-0.28651150000000003,0.910899,-0.1327025,0.2226685,0.951049,-0.0489215,-0.0668615,-0.0005450000000000038,-0.0047925,0.0668615,0.0005450000000000038,0.0047925,-0.06937149999999999,-0.36052100000000004,-0.0361485,0.13480950000000003,-0.22702100000000003,-0.22127249999999998,-0.04639149999999999,-0.709561,-0.0042625,0.1581535,-0.517621,-0.16840249999999998
59,-0.009273500000000004,0.6805075,-0.0017204999999999994,-0.1521535,0.47595750000000003,0.0278165,-0.24894349999999998,0.6798575,-0.0472705,0.1260275,0.5220875,0.0591735,0.2083265,0.7306175,0.0148665,-0.27901349999999997,0.9095675,-0.1396325,0.2313265,0.9457775,-0.046636500000000004,-0.0665535,2.3500000000009624e-05,-0.004673500000000001,0.06655349999999999,-2.3499999999995747e-05,0.004673500000000001,-0.05902349999999999,-0.3606325,-0.0381975,0.1412045,-0.1937925,-0.2576025,-0.03600350000000001,-0.7103524999999999,-0.0045804999999999995,0.1626715,-0.4773825,-0.2040025
60,-0.004344999999999988,0.6790655000000001,-0.0007775,-0.14712499999999998,0.4745755,0.028465499999999998,-0.243215,0.6768654999999999,-0.0491545,0.13187500000000002,0.5214155,0.0619525,0.215555,0.7307655,0.0167185,-0.27146499999999996,0.9081355,-0.1464645,0.240455,0.9431354999999999,-0.0448675,-0.066325,0.0005684999999999996,-0.0043064999999999996,0.06632500000000001,-0.0005684999999999996,0.0043064999999999996,-0.04910499999999998,-0.3610445,-0.0398615,0.147252,-0.1597035,-0.2921345,-0.025944999999999996,-0.7105645,-0.0046385,0.166767,-0.4363545,-0.2387845
61,-0.0008529999999999927,0.6772619999999999,-0.00045799999999999964,-0.14255299999999999,0.47285199999999994,0.028784999999999998,-0.23861300000000002,0.6735319999999999,-0.051503,0.13750900000000002,0.520212,0.06277200000000001,0.220387,0.729042,0.017727,-0.265863,0.906312,-0.152538,0.24639700000000003,0.940512,-0.043629,-0.066263,0.001005999999999993,-0.003984,0.06626300000000002,-0.0010060000000000069,0.003984,-0.042503,-0.36133800000000005,-0.041136,0.150068,-0.127106,-0.309048,-0.018772999999999998,-0.710878,-0.004697,0.167711,-0.397428,-0.260678
62,0.0003589999999999982,0.6761915000000001,-0.0008990000000000001,-0.14061099999999999,0.4718715,0.028343,-0.236491,0.6708915,-0.054439,0.140586,0.5199115,0.062491,0.22252899999999998,0.7280615,0.017452000000000002,-0.262781,0.9053315000000001,-0.158072,0.24925899999999998,0.9389314999999999,-0.043989,-0.06617100000000001,0.001630499999999993,-0.00412,0.066171,-0.001630500000000007,0.00412,-0.03950100000000001,-0.3593585,-0.042733,0.149983,-0.0950955,-0.323272,-0.014760999999999996,-0.7109084999999999,-0.0053679999999999995,0.167248,-0.36347850000000004,-0.275892
63,0.0013030000000000125,0.6749115000000001,-0.0011850000000000003,-0.13891699999999998,0.4706915,0.028056,-0.23464699999999997,0.6682615000000001,-0.057000999999999996,0.14366,0.5191515,0.062202999999999994,0.22434500000000002,0.7268815,0.017165,-0.260277,0.9039915000000001,-0.16264,0.251373,0.9372514999999999,-0.044275999999999996,-0.066277,0.0019105000000000094,-0.004314,0.066277,-0.0019104999999999955,0.004314,-0.037387000000000004,-0.3576885,-0.044113,0.153219,-0.08810549999999999,-0.32841000000000004,-0.011316999999999994,-0.7107384999999999,-0.005941,0.169852,-0.3516085,-0.27775
64,0.0017135000000000067,0.6735814999999999,-0.0010325,-0.1379065,0.46945149999999997,0.0278695,-0.23363650000000002,0.6658215,-0.058527499999999996,0.1455025,0.5182414999999999,0.0624675,0.2247325,0.7254714999999999,0.0174305,-0.2591365,0.9028915,-0.16499650000000002,0.2522535,0.9355515,-0.044010499999999994,-0.0666765,0.001860500000000001,-0.0050255000000000005,0.0666765,-0.001860500000000001,0.0050255,-0.035626500000000005,-0.35596849999999997,-0.0452205,0.1560865,-0.0892055,-0.3281465,-0.008976499999999998,-0.7108985,-0.0059515,0.1721015,-0.3527085,-0.27748649999999997
65,0.0022635000000000016,0.672451,-0.0005094999999999995,-0.1367965,0.468321,0.028479499999999998,-0.2328365,0.6636610000000001,-0.0587555,0.14715050000000002,0.517391,0.0635045,0.22518749999999998,0.723831,0.0184695,-0.2600465,0.899371,-0.1654895,0.2526735,0.9338210000000001,-0.0429715,-0.0667265,0.0016520000000000007,-0.0052045,0.06672650000000001,-0.0016520000000000007,0.0052045,-0.0332865,-0.35505899999999996,-0.045976500000000003,0.1582555,-0.090136,-0.3271095,-0.006516500000000008,-0.7112189999999999,-0.0051175,0.1744415,-0.353639,-0.27644949999999996
66,0.0018964999999999954,0.672197,1.4999999999999389e-05,-0.1371735,0.467967,0.029178000000000003,-0.23373349999999998,0.662697,-0.058383,0.1468025,0.517197,0.064369,0.2248185,0.723037,0.018831,-0.2630035,0.896897,-0.164377,0.2517065,0.932817,-0.042538,-0.0669035,0.0017370000000000024,-0.005412,0.0669035,-0.0017369999999999886,0.005411999999999999,-0.03253349999999999,-0.354313,-0.046606999999999996,0.1587155,-0.09033999999999999,-0.325907,-0.005563499999999999,-0.7110329999999999,-0.004005,0.1751945,-0.353843,-0.27524699999999996
67,0.0009905000000000053,0.672197,0.00049,-0.13800949999999998,0.46786700000000003,0.029989000000000002,-0.23534950000000002,0.6621670000000001,-0.057786,0.1458565,0.517197,0.064949,0.22387250000000003,0.7225170000000001,0.018698,-0.26719950000000003,0.894057,-0.16317399999999999,0.2502605,0.9318170000000001,-0.042842000000000005,-0.0668195,0.0017370000000000024,-0.005753,0.0668195,-0.0017369999999999886,0.005752999999999999,-0.03244949999999999,-0.35469300000000004,-0.046508,0.1584575,-0.09648699999999999,-0.320334,-0.005189499999999986,-0.7110329999999999,-0.002802,0.1752865,-0.359313,-0.265344
68,7.050000000000112e-05,0.6721935,0.0009399999999999999,-0.13882949999999997,0.4678635,0.030755,-0.23712949999999997,0.6618634999999999,-0.057012999999999994,0.14481650000000001,0.5171935,0.065464,0.2230085,0.7221035,0.018341,-0.2715995,0.8916634999999999,-0.162053,0.2490005,0.9308135,-0.04375,-0.0668195,0.001733499999999999,-0.006334,0.0668195,-0.001733499999999999,0.006334,-0.03279949999999998,-0.3558565,-0.045385999999999996,0.1580765,-0.11780650000000001,-0.30899299999999996,-0.004949499999999996,-0.7111165,-0.0016420000000000002,0.1760565,-0.37990650000000004,-0.248443
69,-0.0006940000000000002,0.671816,0.0013619999999999995,-0.13955399999999998,0.467486,0.031543,-0.239024,0.6614059999999999,-0.056094000000000005,0.14378,0.5168159999999999,0.066002,0.222514,0.721536,0.017562,-0.276134,0.888906,-0.16093400000000002,0.248086,0.929336,-0.045066,-0.066824,0.0010020000000000029,-0.0068520000000000005,0.066824,-0.0010020000000000029,0.006852,-0.03339400000000001,-0.357544,-0.044277,0.158372,-0.139403,-0.294364,-0.0047639999999999905,-0.7114940000000001,-0.0005330000000000005,0.179197,-0.404744,-0.22400399999999998
70,-0.0032505000000000173,0.671989,0.0019830000000000004,-0.1422705,0.467549,0.032425,-0.24304050000000002,0.661469,-0.05498499999999999,0.14051349999999999,0.515749,0.066764,0.2201965,0.721499,0.017001,-0.2828505,0.886359,-0.15923900000000002,0.24554949999999998,0.928299,-0.046568,-0.06761050000000002,-1.2000000000012001e-05,-0.007297,0.06761049999999999,1.1999999999998123e-05,0.007297,-0.03663050000000001,-0.357481,-0.043081,0.1581595,-0.16373900000000002,-0.276909,-0.006920499999999996,-0.7114510000000001,0.0006619999999999994,0.1820125,-0.431571,-0.19784900000000002
71,-0.006366499999999997,0.6723079999999999,0.0013985000000000004,-0.1458765,0.46765799999999996,0.0318075,-0.2477965,0.661548,-0.0549805,0.1363985,0.5147679999999999,0.0662105,0.21726850000000003,0.721508,0.0153435,-0.29012649999999995,0.883858,-0.1583075,0.2426235,0.9268779999999999,-0.0495925,-0.0682865,-0.0008120000000000072,-0.0082955,0.06828650000000001,0.0008119999999999933,0.008295499999999999,-0.0423665,-0.359402,-0.041723500000000004,0.15787050000000002,-0.19552200000000003,-0.2558575,-0.00984649999999998,-0.712712,0.0010174999999999993,0.1844935,-0.466742,-0.1697375
72,-0.009767999999999999,0.673121,0.0006260000000000016,-0.14992799999999998,0.46814100000000003,0.031113000000000002,-0.252768,0.661921,-0.055029999999999996,0.13192,0.513991,0.065532,0.213866,0.721821,0.013318000000000002,-0.297438,0.882021,-0.157296,0.239222,0.9258510000000001,-0.052929000000000004,-0.068798,-0.0012439999999999951,-0.009389,0.06879800000000001,0.0012439999999999951,0.009389000000000002,-0.04868799999999998,-0.361249,-0.040443,0.156899,-0.225849,-0.233296,-0.013247999999999982,-0.713999,0.0013310000000000006,0.18630600000000003,-0.503219,-0.140536
73,-0.013641500000000015,0.673887,9.850000000000136e-05,-0.15423149999999997,0.468317,0.0300775,-0.2579915,0.662057,-0.054719500000000004,0.1276395,0.5129670000000001,0.0652165,0.2099905,0.721757,0.011579500000000001,-0.3045315,0.880417,-0.1559585,0.2353385,0.924497,-0.055847499999999994,-0.0687415,-0.0012799999999999895,-0.0101665,0.06874149999999998,0.0012800000000000034,0.0101665,-0.0553115,-0.361213,-0.0391695,0.15591649999999999,-0.258513,-0.2118185,-0.01752150000000001,-0.715013,0.0020315000000000003,0.18782749999999998,-0.5420929999999999,-0.11467849999999999
74,-0.015217000000000008,0.6752515,-0.0008135,-0.15612700000000002,0.4692815,0.0285555,-0.260387,0.6631615,-0.05489250000000001,0.125909,0.5130215,0.0644015,0.208587,0.7222715,0.0093715,-0.307257,0.8806014999999999,-0.1551475,0.233823,0.9240515,-0.0588225,-0.06859699999999999,-0.0019244999999999957,-0.010356500000000001,0.06859699999999999,0.0019244999999999957,0.0103565,-0.059017000000000014,-0.3609685,-0.0386315,0.156928,-0.2943385,-0.1887675,-0.019467000000000012,-0.7154985,0.0025065,0.190025,-0.5861385,-0.0918375
75,-0.0170545,0.6767805,-0.0018550000000000007,-0.1580245,0.4705005,0.027132999999999997,-0.2624845,0.6643305,-0.055077,0.1240105,0.5134605,0.063663,0.2071595,0.7229405,0.007769999999999999,-0.3096845,0.8807705,-0.15445599999999998,0.23243550000000002,0.9239705,-0.061312000000000005,-0.06830449999999999,-0.002512500000000001,-0.010607,0.0683045,0.002512500000000001,0.010607,-0.0626745,-0.3605595,-0.038102000000000004,0.1550475,-0.3121895,-0.168226,-0.021674499999999985,-0.7160095,0.003051999999999999,0.1884915,-0.6151195,-0.078071
76,-0.01870849999999999,0.67844,-0.003155999999999999,-0.15999850000000002,0.47202,0.025516999999999998,-0.26445850000000004,0.66555,-0.055471000000000006,0.1220355,0.51404,0.062459,0.2066875,0.72428,0.005888000000000001,-0.31165849999999995,0.8810600000000001,-0.154219,0.2316415,0.9241,-0.063911,-0.0678485,-0.0029710000000000014,-0.010842,0.0678485,0.0029710000000000014,0.010842000000000001,-0.06613849999999999,-0.35995999999999995,-0.037636,0.1530925,-0.32803000000000004,-0.146269,-0.0239085,-0.7145,0.0035780000000000005,0.18652849999999999,-0.64076,-0.064915
77,-0.02028450000000001,0.6795869999999999,-0.003739000000000001,-0.16227450000000002,0.472967,0.024898,-0.2667345,0.6663669999999999,-0.055023999999999997,0.1197585,0.514307,0.062321,0.2061105,0.725097,0.004858,-0.3139345,0.881317,-0.152918,0.2312755,0.923987,-0.065419,-0.0673745,-0.003715999999999997,-0.011128,0.0673745,0.003715999999999997,0.011128,-0.06957450000000001,-0.36018300000000003,-0.036127,0.1508335,-0.338793,-0.125548,-0.026464500000000002,-0.712983,0.005084000000000001,0.1842625,-0.660603,-0.052797000000000004
78,-0.02190599999999998,0.680761,-0.004350499999999997,-0.164566,0.47414100000000003,0.023877500000000003,-0.269386,0.6675409999999999,-0.05473549999999999,0.11774100000000001,0.514921,0.0617365,0.205549,0.726271,0.0035365000000000014,-0.31657599999999997,0.881921,-0.1514825,0.23082400000000003,0.9242009999999999,-0.0669385,-0.066796,-0.004052,-0.0113335,0.06679600000000001,0.004052,0.011333500000000002,-0.073126,-0.360249,-0.034430499999999996,0.147508,-0.349329,-0.10380249999999999,-0.02929599999999999,-0.711709,0.006750500000000001,0.181628,-0.674899,-0.0431395
79,-0.023375500000000007,0.6823184999999999,-0.004928999999999999,-0.16671550000000002,0.4756985,0.022791,-0.27180550000000003,0.6690984999999999,-0.054666000000000006,0.1158925,0.5157984999999999,0.06082,0.2051445,0.7278285,0.002220999999999999,-0.3188655,0.8828385,-0.150152,0.23058450000000003,0.9247584999999999,-0.06846000000000001,-0.0660855,-0.004026500000000002,-0.011313,0.06608549999999999,0.004026500000000002,0.011313,-0.0762055,-0.3599115,-0.032436,0.14395449999999999,-0.3563815,-0.082973,-0.03250550000000001,-0.7101215000000001,0.008715,0.1786935,-0.6861815,-0.033845
80,-0.025044999999999984,0.6840625,-0.0057374999999999995,-0.16879499999999997,0.47744250000000005,0.0212035,-0.274275,0.6708025,-0.055137500000000006,0.11382800000000001,0.5168025,0.0597095,0.204545,0.7295324999999999,0.0005505000000000024,-0.32104499999999997,0.8836325,-0.1494435,0.230105,0.9257525,-0.0701575,-0.065725,-0.003912499999999999,-0.0112925,0.065725,0.003912499999999999,0.0112925,-0.079405,-0.3586275,-0.030402500000000002,0.13981500000000002,-0.3600675,-0.0646205,-0.03636500000000001,-0.7084874999999999,0.010686500000000002,0.17466500000000001,-0.6930875000000001,-0.025484499999999997
81,-0.02634900000000001,0.6857555,-0.006729499999999999,-0.170529,0.4791255,0.019366500000000002,-0.276309,0.6724355,-0.056036499999999996,0.11211299999999999,0.5176855,0.0583585,0.204141,0.7309055,-0.0010655000000000005,-0.322819,0.8844255,-0.14920049999999999,0.22980099999999998,0.9267055,-0.07190650000000001,-0.065469,-0.0036635,-0.011192500000000001,0.065469,0.0036635,0.011192500000000001,-0.08252900000000002,-0.3570445,-0.028257499999999998,0.135824,-0.3628045,-0.047792499999999995,-0.040049,-0.7068345,0.0127145,0.170397,-0.6962645,-0.0179915
82,-0.027232000000000006,0.6872995,-0.007863000000000002,-0.17196200000000003,0.4807395,0.01808,-0.277992,0.6739995,-0.057242999999999995,0.110805,0.5184495,0.056788,0.204008,0.7321095,-0.0027100000000000006,-0.32428199999999996,0.8851494999999999,-0.149287,0.22966799999999998,0.9276295,-0.073774,-0.065332,-0.003339500000000002,-0.011045,0.065332,0.0033394999999999953,0.011045,-0.08563200000000001,-0.3553005,-0.025729000000000002,0.131934,-0.36425050000000003,-0.033428,-0.043151999999999996,-0.7060705,0.014469,0.16588799999999998,-0.6983705,-0.010901000000000001
83,-0.027864499999999987,0.6887735,-0.009023,-0.1729245,0.4822635,0.016842,-0.2792645,0.6754935000000001,-0.058510999999999994,0.11002450000000001,0.5191535,0.055139999999999995,0.2039255,0.7328435,-0.004027000000000003,-0.3253045,0.8851835,-0.14959,0.2297055,0.9286635000000001,-0.075479,-0.0652845,-0.0030215000000000033,-0.010873,0.06528450000000001,0.0030214999999999964,0.010872999999999999,-0.0887145,-0.3534565,-0.023263000000000002,0.1284035,-0.36442650000000004,-0.021974000000000004,-0.046234499999999984,-0.7044765,0.016463,0.16144150000000002,-0.6972165,-0.0047220000000000005
84,-0.028111999999999998,0.6899865,-0.010187499999999999,-0.173082,0.48351650000000007,0.015388500000000003,-0.280082,0.6767565,-0.059827500000000006,0.109652,0.5196765,0.0532985,0.204158,0.7331165,-0.005345499999999996,-0.32597200000000004,0.8849165,-0.1499265,0.23008800000000001,0.9295464999999999,-0.0770525,-0.065312,-0.002735499999999995,-0.0106885,0.06531200000000001,0.002735500000000002,0.010688500000000002,-0.09147200000000001,-0.35155349999999996,-0.0208515,0.125373,-0.3639135,-0.012897499999999996,-0.04918199999999999,-0.7024835,0.018490500000000003,0.157277,-0.6959135000000001,0.0010315000000000012
85,-0.027838,0.690916,-0.011465999999999997,-0.172958,0.484626,0.013921,-0.280458,0.677836,-0.06117500000000001,0.109806,0.520056,0.051309999999999995,0.20434200000000002,0.733356,-0.006333000000000002,-0.32634799999999997,0.884716,-0.15034599999999998,0.23037200000000002,0.930446,-0.078126,-0.065338,-0.002468999999999999,-0.010565999999999999,0.06533800000000001,0.002468999999999999,0.010565999999999999,-0.09377799999999999,-0.34928400000000004,-0.018529999999999998,0.122522,-0.36310400000000004,-0.006940999999999999,-0.051638,-0.7005640000000001,0.020469,0.153833,-0.694684,0.005430999999999998
86,-0.027300500000000005,0.6917745,-0.012669499999999997,-0.17248049999999998,0.48537450000000004,0.012356500000000001,-0.28032050000000003,0.6785645,-0.0625305,0.11023649999999999,0.5202745,0.0491015,0.2049395,0.7334745,-0.0074275,-0.3264805,0.8843445,-0.1508385,0.2307395,0.9311745,-0.0791085,-0.0654005,-0.0022374999999999964,-0.010384500000000001,0.0654005,0.0022375000000000034,0.010384500000000001,-0.0957605,-0.3472155,-0.0162605,0.1196825,-0.3620955,-0.002663499999999999,-0.0539905,-0.6987855,0.0225105,0.1506795,-0.6933954999999999,0.0094645
87,-0.026509500000000005,0.6925764999999999,-0.013800999999999997,-0.17178949999999998,0.4860365,0.011166,-0.2796695,0.6790465,-0.063602,0.1108855,0.5203065,0.047078,0.2056405,0.7346665,-0.008343,-0.3262095,0.8837364999999999,-0.151629,0.2313405,0.9322465,-0.080029,-0.06551950000000001,-0.002058499999999998,-0.010094000000000002,0.0655195,0.0020585000000000048,0.010094,-0.09743950000000001,-0.3450535,-0.013924000000000002,0.1164445,-0.3609435,7.800000000000168e-05,-0.056709499999999996,-0.6970835000000001,0.024693,0.1473275,-0.6922035,0.01321
88,-0.0254895,0.6932325,-0.0148445,-0.1707595,0.48648250000000004,0.0101245,-0.27902950000000004,0.6794825,-0.0644845,0.11184050000000001,0.5201725,0.0452405,0.2067305,0.7356825,-0.009490500000000002,-0.32591950000000003,0.8835324999999999,-0.1523445,0.2322905,0.9331925,-0.0810845,-0.06563949999999999,-0.0019214999999999996,-0.009732500000000002,0.0656395,0.0019214999999999996,0.0097325,-0.09885949999999999,-0.3431075,-0.011744500000000001,0.1134905,-0.3601275,0.0017504999999999986,-0.05944949999999999,-0.6957275,0.0268095,0.1440295,-0.6911875,0.016455499999999998
89,-0.02407050000000001,0.693653,-0.015799,-0.1695245,0.48690300000000003,0.009579999999999998,-0.27810450000000003,0.680253,-0.06520500000000001,0.1129935,0.519683,0.043399999999999994,0.2082355,0.735263,-0.010637,-0.3254145,0.883493,-0.153151,0.2335055,0.9336829999999999,-0.08224100000000001,-0.0657945,-0.0017860000000000029,-0.009337999999999999,0.06579449999999999,0.001785999999999996,0.009337999999999999,-0.0999845,-0.341507,-0.009938000000000002,0.1111085,-0.359577,0.0030629999999999998,-0.062174499999999994,-0.694547,0.028686999999999997,0.1407455,-0.690327,0.019157
90,-0.022497000000000003,0.6941499999999999,-0.016685999999999996,-0.16818100000000002,0.48736,0.009088000000000002,-0.277221,0.68036,-0.065927,0.11416199999999999,0.5192399999999999,0.041512,0.210849,0.73474,-0.012833,-0.324701,0.8833,-0.154131,0.23534899999999997,0.93391,-0.08432100000000001,-0.06589099999999999,-0.0017140000000000002,-0.009002,0.06589099999999999,0.0017140000000000002,0.009002,-0.101041,-0.34058,-0.008271999999999998,0.108883,-0.35892999999999997,0.004372000000000001,-0.065071,-0.69389,0.030538,0.13728,-0.6894100000000001,0.021251
91,-0.02094499999999999,0.6946085000000001,-0.017573000000000002,-0.16732999999999998,0.48778850000000007,0.008732,-0.27651000000000003,0.6804085000000001,-0.066702,0.11468300000000001,0.5187885,0.039952,0.21341,0.7341385,-0.01549,-0.32353,0.8827985,-0.155579,0.23767,0.9337385,-0.08700899999999999,-0.06591999999999999,-0.0017274999999999999,-0.008608000000000001,0.06592,0.0017274999999999999,0.008608000000000001,-0.10217,-0.33998150000000005,-0.006772999999999998,0.10689200000000001,-0.3584815,0.0056830000000000006,-0.06781,-0.6942115,0.032277,0.13362600000000002,-0.6884414999999999,0.022712000000000003
92,-0.019246999999999986,0.6949369999999999,-0.0185795,-0.16574099999999997,0.48797700000000005,0.008154500000000002,-0.276371,0.6803969999999999,-0.0682555,0.11575400000000001,0.518427,0.038408500000000005,0.21653899999999998,0.7336069999999999,-0.0183455,-0.322091,0.882047,-0.1580175,0.240539,0.932447,-0.09011749999999999,-0.065931,-0.0016610000000000028,-0.008164499999999998,0.065931,0.0016609999999999958,0.008164500000000002,-0.10332099999999998,-0.339663,-0.005472499999999998,0.10505800000000001,-0.357983,0.006638500000000002,-0.070621,-0.695103,0.033842500000000005,0.129781,-0.687233,0.0239935
93,-0.017582000000000007,0.6954805000000001,-0.019540499999999995,-0.16467500000000002,0.48835049999999997,0.007662500000000003,-0.276945,0.6807205000000001,-0.0703015,0.117016,0.5181805,0.036589500000000004,0.22153499999999998,0.7331505,-0.022296499999999997,-0.32065499999999997,0.8814705,-0.1612615,0.243855,0.9309705,-0.0946715,-0.065865,-0.0015874999999999986,-0.007725499999999996,0.06586499999999999,0.0015874999999999986,0.0077255,-0.10444500000000001,-0.3393695,-0.004179499999999996,0.103198,-0.3572595,0.007008500000000001,-0.07366500000000001,-0.6956694999999999,0.0357035,0.12570399999999998,-0.6861794999999999,0.025288500000000002
94,-0.016095999999999992,0.6962005,-0.020511,-0.163382,0.4887505,0.006794000000000001,-0.27833199999999997,0.6798705,-0.073086,0.118583,0.5180805,0.035043,0.22845800000000002,0.7296805,-0.026076999999999996,-0.318612,0.8807005,-0.16775600000000002,0.247928,0.9288805,-0.10080599999999999,-0.06571199999999999,-0.0015625000000000014,-0.007300000000000001,0.065712,0.0015625000000000014,0.007300000000000001,-0.10581199999999999,-0.3390295,-0.003029999999999998,0.10143100000000001,-0.3562995,0.006805000000000002,-0.07796199999999998,-0.6955995,0.037697,0.121526,-0.6852195,0.026634
95,-0.014519999999999991,0.6972785,-0.021301999999999995,-0.162561,0.4894185,0.006213000000000003,-0.280651,0.6769085,-0.076961,0.11965200000000001,0.5182985,0.033782,0.23655900000000002,0.7243284999999999,-0.029348999999999993,-0.31621099999999996,0.8799184999999999,-0.176101,0.253839,0.9210785,-0.10786100000000001,-0.065581,-0.001509500000000004,-0.0068039999999999975,0.065581,0.001509499999999997,0.006804000000000001,-0.107391,-0.3388715,-0.0016609999999999958,0.099939,-0.3553415,0.005774000000000001,-0.081941,-0.6959315,0.040233000000000005,0.117298,-0.6838615,0.027721000000000003
96,-0.012587500000000001,0.699038,-0.0220345,-0.1611995,0.48987800000000004,0.005531499999999998,-0.2841495,0.670988,-0.0814655,0.1218765,0.517988,0.0324325,0.24747049999999998,0.7153280000000001,-0.0326565,-0.3131095,0.873768,-0.1858555,0.2595005,0.911458,-0.1148255,-0.0654795,-0.0014399999999999968,-0.006335500000000001,0.0654795,0.0014400000000000038,0.006335500000000001,-0.1091895,-0.339082,-0.0003254999999999994,0.0986175,-0.354782,0.004434500000000001,-0.0856095,-0.695392,0.0423265,0.11320350000000001,-0.681912,0.0283085
97,-0.0102345,0.701186,-0.022831500000000005,-0.1597465,0.490406,0.004758499999999999,-0.28808649999999997,0.6622159999999999,-0.0868145,0.1243555,0.5175759999999999,0.031376499999999995,0.2594535,0.702276,-0.0351085,-0.3094465,0.8626159999999999,-0.1967345,0.2659435,0.895496,-0.12178449999999999,-0.0653065,-0.001351000000000005,-0.005976500000000003,0.0653065,0.001350999999999998,0.005976499999999996,-0.11122649999999999,-0.339604,0.0009274999999999978,0.09728049999999999,-0.35462400000000005,0.002842499999999998,-0.08959650000000001,-0.693744,0.0441055,0.1089305,-0.6795340000000001,0.028632499999999998
98,-0.007516999999999996,0.7035885,-0.023415499999999992,-0.15787,0.49039849999999996,0.004182500000000006,-0.29258,0.6481885,-0.0923255,0.127398,0.5172384999999999,0.030835500000000002,0.27715,0.6867084999999999,-0.03694449999999999,-0.30611,0.8440385,-0.2071555,0.27251000000000003,0.8753485,-0.1290755,-0.065149,-0.001183499999999997,-0.005511499999999996,0.065149,0.001183500000000004,0.0055115000000000025,-0.11334,-0.3409215,0.0022425000000000014,0.095849,-0.3546915,0.001176500000000004,-0.09394,-0.6919315,0.046303500000000004,0.10438,-0.6770615,0.028989500000000005
99,-0.004699999999999999,0.7063240000000001,-0.023666999999999994,-0.156232,0.490554,0.004117999999999997,-0.297832,0.630594,-0.097088,0.130598,0.516414,0.030455,0.292738,0.666964,-0.034276,-0.301612,0.8210540000000001,-0.218868,0.278918,0.8500540000000001,-0.135338,-0.065067,-0.0009240000000000012,-0.004912,0.065067,0.0009240000000000012,0.004912,-0.11559199999999999,-0.34201600000000004,0.0035279999999999964,0.094277,-0.355096,-0.0003579999999999972,-0.09858199999999999,-0.6894659999999999,0.04899,0.09946500000000001,-0.674156,0.029670000000000002
100,-0.0016069999999999939,0.7095665,-0.0235755,-0.153412,0.4903565,0.0041905,-0.303872,0.6080965,-0.09667849999999999,0.134608,0.5155265,0.030700500000000002,0.305088,0.6417665,-0.0307235,-0.296602,0.7925665000000001,-0.23020850000000004,0.28510800000000003,0.8196865,-0.1406385,-0.06503400000000001,-0.0006514999999999993,-0.0043785000000000004,0.06503400000000001,0.0006514999999999993,0.0043785000000000004,-0.117762,-0.3437535,0.004560500000000002,0.09273300000000001,-0.35554349999999996,-0.0016114999999999949,-0.10378199999999999,-0.6856835,0.052401500000000004,0.093915,-0.6711235,0.031201500000000004
101,0.001621499999999998,0.713018,-0.023400500000000005,-0.1518565,0.490478,0.005274500000000001,-0.30774650000000003,0.580438,-0.09394350000000001,0.13778349999999998,0.514318,0.0315745,0.3142735,0.609978,-0.026342500000000005,-0.29186650000000003,0.7565080000000001,-0.24064349999999998,0.2901835,0.7825880000000001,-0.1447835,-0.0651455,-0.0004600000000000021,-0.0037365000000000037,0.0651455,0.0004599999999999986,0.0037364999999999968,-0.1190265,-0.346142,0.004240500000000001,0.0908315,-0.355432,-0.0022505000000000025,-0.1094265,-0.681082,0.0558155,0.0877255,-0.6675519999999999,0.0335135
102,0.00427,0.716778,-0.022873000000000004,-0.149095,0.489378,0.005547999999999997,-0.310065,0.5481779999999999,-0.091593,0.140065,0.512458,0.033291,0.318485,0.572568,-0.020672999999999997,-0.28684499999999996,0.713738,-0.249423,0.29442500000000005,0.7379479999999999,-0.146563,-0.065052,-0.00044700000000000295,-0.003478000000000002,0.065052,0.0004469999999999995,0.003478000000000002,-0.120055,-0.348012,0.0015319999999999986,0.088036,-0.35466200000000003,-0.0020589999999999983,-0.115755,-0.676072,0.058514,0.08029900000000001,-0.663202,0.036661
103,0.008009500000000003,0.7207319999999999,-0.023251000000000008,-0.1461975,0.487712,0.005050999999999993,-0.3095175,0.509802,-0.08433600000000001,0.14159249999999998,0.5088619999999999,0.03565299999999999,0.31374250000000004,0.531582,-0.009082000000000007,-0.2832975,0.6560119999999999,-0.242176,0.2951125,0.6779219999999999,-0.140976,-0.0653205,-0.0002589999999999988,-0.0035540000000000016,0.0653205,0.0002590000000000023,0.0035539999999999947,-0.12011749999999999,-0.34493799999999997,-0.006981000000000001,0.0831485,-0.351128,-0.0003650000000000042,-0.1213775,-0.670308,0.05797499999999999,0.0689285,-0.6591480000000001,0.041664999999999994
104,0.011151000000000001,0.7246165,-0.023474999999999996,-0.14369300000000002,0.4860165,0.004542000000000004,-0.30624300000000004,0.47077650000000004,-0.07667500000000001,0.142577,0.5051565,0.038524,0.30836699999999995,0.49177650000000006,-0.0020540000000000003,-0.279933,0.5897965000000001,-0.23451499999999997,0.292937,0.6178765,-0.137415,-0.065388,7.550000000000091e-05,-0.0038730000000000014,0.065388,-7.549999999999918e-05,0.0038730000000000014,-0.118603,-0.34117349999999996,-0.018019999999999994,0.078067,-0.34795349999999997,0.0019689999999999985,-0.125183,-0.6652735,0.054305000000000006,0.057747999999999994,-0.6540135,0.046935000000000004
105,0.0141615,0.7278100000000001,-0.024086499999999997,-0.1420575,0.4839,0.0037745,-0.30113749999999995,0.43032,-0.0690965,0.1425725,0.5015000000000001,0.0414355,0.2992625,0.44965,0.006211499999999995,-0.27496750000000003,0.5236200000000001,-0.2260965,0.2900425,0.5524300000000001,-0.1335965,-0.0654425,0.00039900000000000005,-0.004433500000000007,0.0654425,-0.00039900000000000005,0.004433499999999993,-0.1151665,-0.33676,-0.0326765,0.0738925,-0.34465,0.005114499999999994,-0.12619750000000002,-0.6615099999999999,0.0466515,0.0457795,-0.64903,0.0531605
106,0.018069999999999996,0.7293459999999999,-0.0277265,-0.141248,0.480636,0.00032450000000000534,-0.290638,0.392546,-0.0581565,0.141342,0.496506,0.043346499999999996,0.285462,0.410906,0.0189685,-0.269978,0.445646,-0.2094765,0.28074200000000005,0.479826,-0.12449650000000001,-0.065602,0.0007089999999999996,-0.005913500000000002,0.065602,-0.0007090000000000004,0.005913500000000002,-0.10586999999999999,-0.332384,-0.05561650000000001,0.06793199999999999,-0.342024,0.0090335,-0.11507,-0.657654,0.019986500000000004,0.028349000000000006,-0.6446540000000001,0.0640155
107,0.021364999999999995,0.7304255000000001,-0.031725,-0.141469,0.4778755,-0.002955000000000013,-0.279202,0.35856550000000004,-0.047155,0.139228,0.49122550000000004,0.04474099999999999,0.272978,0.37399550000000004,0.032221,-0.263362,0.3733755,-0.189475,0.270578,0.4087655,-0.114925,-0.065978,0.0009825,-0.0069150000000000045,0.06597800000000001,-0.0009824999999999999,0.006914999999999991,-0.096697,-0.3284045,-0.07839500000000002,0.061838000000000004,-0.3400745,0.005624999999999991,-0.09875400000000001,-0.6519845,-0.012355000000000005,0.010944999999999996,-0.6406745,0.074542
108,0.024434999999999985,0.7310615,-0.036860000000000004,-0.14168000000000003,0.4751115,-0.007360000000000005,-0.267145,0.3280315,-0.03505,0.13666499999999998,0.4866315,0.046264,0.260795,0.3420915,0.045836,-0.259215,0.3050415,-0.16623999999999997,0.258385,0.3436515,-0.10355999999999999,-0.06613500000000001,0.0010685,-0.008050000000000002,0.066135,-0.0010685,0.008050000000000002,-0.08776300000000001,-0.3244985,-0.10147999999999999,0.055334999999999995,-0.3370185,0.002920000000000006,-0.07885800000000001,-0.6469185,-0.04807,-0.007098000000000007,-0.6364785,0.086024
109,0.027565999999999993,0.7309145,-0.042724999999999985,-0.142292,0.4727445,-0.012594999999999967,-0.253984,0.3013845,-0.021004999999999968,0.134386,0.4818345,0.046358000000000024,0.24840599999999996,0.3152045,0.05917500000000002,-0.254524,0.2381445,-0.14026499999999997,0.245736,0.2832245,-0.09121499999999999,-0.06636600000000001,0.0013074999999999996,-0.009094999999999992,0.066366,-0.0013074999999999996,0.00909500000000002,-0.078579,-0.3203055,-0.12431499999999995,0.048556,-0.3337055,-0.0003849999999999687,-0.055303,-0.6414755,-0.08579499999999998,-0.024694999999999995,-0.6312755,0.09778900000000001
110,0.030544500000000002,0.7299885,-0.04874500000000001,-0.14201049999999998,0.4692185,-0.01897500000000002,-0.2430955,0.2792485,-0.005835000000000007,0.1320045,0.4770785,0.046014999999999986,0.2320845,0.2953285,0.07409399999999998,-0.2516755,0.18030849999999998,-0.11371500000000001,0.2346445,0.2316985,-0.07826500000000003,-0.06651449999999999,0.0016474999999999997,-0.010025000000000006,0.0665145,-0.0016475000000000014,0.010024999999999978,-0.07030449999999999,-0.3150715,-0.145675,0.04248450000000001,-0.3301015,-0.004335000000000033,-0.028885499999999995,-0.6374114999999999,-0.12410500000000002,-0.04210449999999999,-0.6251215,0.11015199999999997
111,0.03389349999999999,0.7283069999999999,-0.05487500000000001,-0.14317249999999998,0.466557,-0.023955000000000004,-0.2332935,0.261557,0.011224999999999985,0.13043349999999998,0.472287,0.04499500000000001,0.2151135,0.281387,0.087671,-0.25028649999999997,0.129357,-0.08619500000000002,0.22490350000000003,0.186857,-0.06648499999999999,-0.0668835,0.0021449999999999993,-0.010794999999999999,0.06688350000000001,-0.002145000000000001,0.010794999999999999,-0.061981499999999995,-0.310843,-0.16552499999999998,0.03772349999999999,-0.32765299999999997,-0.008424999999999988,-0.0020165000000000044,-0.6350830000000001,-0.160095,-0.0583215,-0.6189830000000001,0.1226
112,0.035745,0.7270525,-0.05901500000000001,-0.144254,0.4648525,-0.027324999999999988,-0.22636299999999998,0.2525225,0.02934500000000001,0.12913500000000003,0.47081249999999997,0.045265,0.202155,0.2748025,0.09873300000000002,-0.24864599999999998,0.0947195,-0.06417500000000001,0.218975,0.1584625,-0.05458499999999997,-0.06694499999999999,0.0029295,-0.011435,0.066945,-0.0029295,0.011435,-0.054605,-0.3066575,-0.177995,0.035485000000000017,-0.32725750000000003,-0.013004999999999989,0.022694999999999993,-0.6343475000000001,-0.18929499999999996,-0.071535,-0.6122975,0.13496000000000002
113,0.038275,0.7257775,-0.06296000000000002,-0.144683,0.4635975,-0.03011999999999998,-0.22108899999999998,0.2463475,0.04525000000000001,0.128975,0.46927749999999996,0.04372000000000001,0.185305,0.2696075,0.10947000000000001,-0.24745,0.0687555,-0.041190000000000004,0.214725,0.1383175,-0.04531000000000002,-0.06734499999999999,0.0034544999999999992,-0.011910000000000004,0.06734499999999999,-0.0034544999999999992,0.011910000000000004,-0.047455,-0.3029325,-0.18814999999999998,0.033845000000000014,-0.3277025,-0.017509999999999998,0.044875,-0.6338425,-0.21334999999999998,-0.08403499999999998,-0.6044625,0.147822
114,0.040425000000000016,0.724528,-0.06542999999999999,-0.14539299999999997,0.463158,-0.03143999999999997,-0.21726499999999999,0.24609799999999998,0.060100000000000015,0.12845500000000004,0.468388,0.043570000000000025,0.17197500000000004,0.26974800000000004,0.11622000000000002,-0.24899399999999997,0.049697,-0.01544000000000001,0.21116500000000005,0.126308,-0.034629999999999994,-0.06785499999999997,0.0035949999999999992,-0.012309999999999988,0.067855,-0.0035949999999999992,0.012310000000000015,-0.04076499999999997,-0.300322,-0.19412999999999997,0.02975500000000003,-0.327862,-0.02248,0.06354500000000002,-0.634352,-0.23106,-0.09511499999999998,-0.595202,0.16108
115,0.041210000000000024,0.7245335,-0.06443500000000002,-0.14542,0.4633435,-0.030055,-0.21881499999999998,0.2455535,0.06456499999999998,0.12895,0.46841350000000004,0.044235,0.17002,0.26993350000000005,0.112955,-0.252074,0.0470095,0.01006499999999999,0.21204,0.1248835,-0.030785000000000007,-0.068,0.004042499999999999,-0.011375000000000024,0.068,-0.004042500000000001,0.011374999999999968,-0.039720000000000005,-0.30013650000000003,-0.190465,0.023820000000000008,-0.32732649999999996,-0.042025000000000035,0.06735000000000002,-0.6361565,-0.22580500000000003,-0.10050999999999999,-0.5892864999999999,0.161875
116,0.042615000000000014,0.7241765,-0.06311500000000003,-0.144609,0.4632765,-0.029345000000000065,-0.219994,0.2454865,0.06776499999999996,0.129585,0.4681365,0.04546499999999998,0.170645,0.2698665,0.11366499999999996,-0.256995,0.046942500000000005,0.03547499999999998,0.215555,0.1248165,-0.028615000000000057,-0.067685,0.0041095,-0.011545000000000027,0.067685,-0.0041095,0.011544999999999972,-0.03867499999999999,-0.3002035,-0.18531500000000006,0.017884999999999984,-0.32598350000000004,-0.05214500000000005,0.06540499999999999,-0.6387535,-0.213445,-0.104435,-0.5871335,0.16481499999999996
117,0.04279000000000005,0.7239395,-0.060865,-0.14548999999999998,0.4632495,-0.02758499999999997,-0.22171499999999997,0.24785949999999998,0.06832500000000002,0.12919000000000003,0.4678695,0.04653499999999999,0.17309000000000002,0.2686195,0.112795,-0.26184599999999997,0.0469155,0.058695,0.21984000000000004,0.1247895,-0.030754999999999977,-0.06766999999999998,0.003983499999999999,-0.011454999999999993,0.06767000000000001,-0.003983500000000001,0.011454999999999993,-0.038579999999999975,-0.3002305,-0.17807500000000004,0.010300000000000031,-0.32601050000000004,-0.061035000000000006,0.05738000000000004,-0.6413905,-0.19559500000000002,-0.10671999999999998,-0.5819805,0.167285
118,0.04247000000000001,0.7238795,-0.058699999999999974,-0.14637,0.4645795,-0.025650000000000006,-0.225597,0.2482595,0.06859000000000004,0.12817,0.4678695,0.04851,0.17461,0.2684895,0.11231000000000002,-0.269148,0.0473155,0.06164000000000003,0.22494000000000003,0.1259695,-0.037349999999999994,-0.06721000000000002,0.0035835,-0.011839999999999962,0.06720999999999999,-0.0035835,0.011840000000000017,-0.03892000000000001,-0.3020205,-0.16900000000000004,0.007550000000000001,-0.3269605,-0.06775999999999999,0.04469000000000001,-0.6431305,-0.17420999999999998,-0.10662000000000002,-0.5815805000000001,0.16798000000000002
119,0.04211499999999996,0.7237325,-0.05590500000000004,-0.14775500000000003,0.46726249999999997,-0.02293500000000004,-0.22847700000000004,0.2505925,0.065915,0.12738499999999997,0.4677225,0.05106499999999997,0.17496499999999998,0.26988249999999997,0.11339499999999997,-0.27484600000000003,0.049545500000000006,0.05868499999999999,0.22802499999999992,0.1313925,-0.04255500000000001,-0.06679500000000002,0.003773499999999999,-0.012765000000000026,0.066795,-0.003773499999999999,0.01276499999999997,-0.03772500000000001,-0.3044775,-0.15812500000000007,0.008674999999999988,-0.3256675,-0.072465,0.02831499999999998,-0.6441475,-0.14990500000000007,-0.10232500000000003,-0.5802875,0.16340499999999997
120,0.04305500000000001,0.722992,-0.053059999999999996,-0.148235,0.47018200000000004,-0.020179999999999976,-0.231482,0.254282,0.06391000000000002,0.12705500000000003,0.467312,0.05364000000000002,0.17640499999999998,0.270202,0.11310000000000003,-0.278905,0.053558999999999996,0.05081000000000002,0.23096500000000003,0.137172,-0.04652999999999996,-0.06644499999999998,0.004117999999999998,-0.013529999999999986,0.06644499999999998,-0.004118,0.013530000000000042,-0.03787499999999999,-0.30829799999999996,-0.14468999999999999,0.013805000000000012,-0.325968,-0.07613999999999999,0.011535000000000017,-0.644278,-0.12507000000000001,-0.08929499999999999,-0.579518,0.14819000000000004
121,0.04497000000000001,0.7226225000000001,-0.05094499999999996,-0.14909,0.4730925,-0.01769499999999996,-0.23303000000000001,0.2613725,0.05980500000000005,0.12712999999999997,0.4670925,0.05359500000000006,0.17759000000000003,0.27045250000000004,0.11243500000000001,-0.281828,0.0629825,0.03509500000000004,0.23387999999999998,0.14395249999999998,-0.052474999999999994,-0.06601000000000001,0.004253499999999999,-0.014164999999999983,0.06601000000000001,-0.0042535,0.014165000000000039,-0.03871000000000002,-0.3143475,-0.13183499999999992,0.01911999999999997,-0.3259775,-0.08038499999999993,-0.0030300000000000327,-0.6458375,-0.10200500000000001,-0.07225000000000004,-0.5795275,0.13273500000000005
122,0.048655000000000004,0.722301,-0.049980000000000024,-0.14807499999999998,0.47664100000000004,-0.016369999999999996,-0.23474499999999998,0.270671,0.054900000000000004,0.128035,0.466851,0.05337999999999998,0.181985,0.27049100000000004,0.10646,-0.283548,0.074405,0.016849999999999976,0.24047500000000005,0.150011,-0.06120000000000003,-0.06548500000000002,0.004291999999999999,-0.014690000000000036,0.06548500000000002,-0.004292000000000001,0.01468999999999998,-0.04340499999999997,-0.320299,-0.11748000000000003,0.029205000000000036,-0.325549,-0.08833999999999997,-0.020114999999999994,-0.647819,-0.07645999999999997,-0.045935000000000004,-0.580739,0.1059
123,0.05287000000000003,0.7221124999999999,-0.05056499999999997,-0.14615999999999998,0.47943250000000004,-0.016204999999999914,-0.23640999999999998,0.2794725,0.04915500000000006,0.12973999999999997,0.4668725,0.05125500000000005,0.18567999999999996,0.2702625,0.10044500000000006,-0.28443799999999997,0.0853165,-0.0034949999999999704,0.25007,0.15474249999999998,-0.07443499999999992,-0.06503999999999999,0.0043135,-0.014774999999999983,0.06503999999999999,-0.004313500000000001,0.014775000000000038,-0.049719999999999986,-0.3260975,-0.10338499999999995,0.04246,-0.3258775,-0.09718499999999997,-0.036709999999999965,-0.6494475000000001,-0.05324499999999999,-0.013899999999999968,-0.5832175,0.07221500000000003
124,0.05846000000000001,0.7220485,-0.052525000000000044,-0.14307999999999998,0.48090849999999996,-0.016775000000000095,-0.23690999999999998,0.2866685,0.04383499999999996,0.13206999999999997,0.4671685,0.04824499999999993,0.19021000000000005,0.2687885,0.09509499999999993,-0.28376999999999997,0.0949285,-0.023985000000000034,0.26023999999999997,0.1583585,-0.0860550000000001,-0.06509999999999999,0.004609500000000001,-0.014805000000000068,0.06509999999999999,-0.004609499999999999,0.014804999999999957,-0.05729000000000001,-0.33282150000000005,-0.08964500000000009,0.0595,-0.32648150000000004,-0.09166500000000011,-0.05162,-0.6502215,-0.032505000000000006,0.021840000000000026,-0.5875615,0.04276499999999994
125,0.06475500000000001,0.7215135,-0.05517000000000005,-0.139795,0.4820335,-0.01660000000000006,-0.23654499999999998,0.2945235,0.03954999999999992,0.13543499999999997,0.46756349999999997,0.04460999999999993,0.19588499999999998,0.2676135,0.08840999999999993,-0.28302499999999997,0.1053845,-0.042180000000000106,0.272215,0.1593735,-0.09762000000000004,-0.065355,0.0051725,-0.014210000000000056,0.065355,-0.0051725,0.014209999999999945,-0.06467499999999998,-0.3378365,-0.07678000000000007,0.07755500000000004,-0.3276565,-0.08777000000000013,-0.06655499999999998,-0.6502765,-0.012170000000000125,0.059365,-0.5929265,0.008949999999999902
126,0.073465,0.720527,-0.05818499999999993,-0.13359499999999996,0.483867,-0.016904999999999948,-0.23474499999999998,0.30233699999999997,0.03811500000000012,0.14075499999999996,0.468307,0.04057500000000003,0.20371499999999998,0.266377,0.08170500000000008,-0.281585,0.115055,-0.05549499999999996,0.28752500000000003,0.16120700000000002,-0.11099499999999995,-0.06544499999999998,0.005817000000000001,-0.013764999999999916,0.06544500000000003,-0.005816999999999999,0.013765000000000027,-0.071075,-0.340863,-0.06459499999999996,0.09880500000000003,-0.326303,-0.08552499999999996,-0.07971499999999998,-0.648463,0.008015000000000105,0.09764499999999998,-0.599953,-0.026474999999999915
127,0.08444999999999991,0.7175615000000001,-0.06143500000000002,-0.12554000000000004,0.48747149999999995,-0.01709499999999997,-0.22975000000000004,0.31107149999999995,0.037615000000000065,0.14744999999999997,0.4668215,0.034904999999999964,0.21450999999999998,0.26547149999999997,0.07155500000000004,-0.27784000000000003,0.1260615,-0.063365,0.3004899999999999,0.1667815,-0.11822500000000002,-0.06584000000000001,0.006141500000000001,-0.012695000000000012,0.06584000000000001,-0.006141499999999998,0.012695000000000012,-0.08065000000000005,-0.34031849999999997,-0.05217499999999997,0.11556,-0.32251850000000004,-0.084835,-0.09467000000000003,-0.6449285,0.03132500000000005,0.13230999999999993,-0.6032784999999999,-0.05927499999999997
128,0.09615999999999997,0.7141149999999999,-0.06584000000000001,-0.11625999999999997,0.491475,-0.018430000000000057,-0.22418999999999997,0.31840500000000005,0.03917999999999999,0.15481000000000006,0.465165,0.027309999999999945,0.22727000000000003,0.263675,0.05835000000000001,-0.27447,0.135055,-0.06797000000000009,0.31556,0.170565,-0.12841000000000002,-0.06636999999999998,0.006588,-0.011050000000000004,0.06636999999999998,-0.006587999999999997,0.011050000000000004,-0.09144999999999998,-0.337385,-0.041730000000000045,0.12791000000000002,-0.317385,-0.08622000000000007,-0.10826999999999998,-0.640565,0.05287999999999993,0.16337000000000007,-0.606155,-0.08834000000000009
129,0.10889499999999996,0.7096415,-0.07254000000000005,-0.10577500000000001,0.49604149999999997,-0.021970000000000045,-0.21698499999999998,0.3258915,0.03988999999999998,0.162725,0.4623715,0.017270000000000008,0.24012500000000003,0.2634715,0.04268000000000005,-0.270215,0.1435715,-0.06757999999999997,0.33042499999999997,0.1731415,-0.13088999999999995,-0.06705499999999998,0.0079105,-0.008619999999999961,0.06705499999999998,-0.0079105,0.008619999999999961,-0.10084500000000002,-0.3332585,-0.03232999999999997,0.13565499999999997,-0.3130385,-0.09043999999999996,-0.12198500000000001,-0.6359885,0.07504999999999995,0.18388499999999997,-0.6059685,-0.10592999999999997
130,0.123135,0.70444,-0.08061499999999999,-0.09331500000000004,0.49996,-0.026964999999999906,-0.20912500000000006,0.33148,0.04139500000000007,0.1713349999999999,0.45861,0.0067350000000000465,0.254285,0.26261,0.025745000000000018,-0.26593500000000003,0.15078,-0.06391499999999994,0.34450499999999995,0.17363,-0.1353749999999999,-0.06797500000000006,0.009322999999999998,-0.005804999999999949,0.06797500000000001,-0.009323000000000005,0.00580500000000006,-0.10766500000000007,-0.32959,-0.0241849999999999,0.14268499999999995,-0.30890999999999996,-0.09467499999999995,-0.13514500000000002,-0.6318100000000001,0.09619500000000003,0.20026499999999992,-0.6047600000000001,-0.12377499999999997
131,0.13621499999999997,0.6995210000000001,-0.08855000000000002,-0.081795,0.502911,-0.032299999999999995,-0.20131500000000002,0.33503099999999997,0.042930000000000024,0.17894500000000002,0.45553099999999996,-0.003449999999999953,0.265015,0.260801,0.012939999999999952,-0.263035,0.15419100000000002,-0.05837999999999999,0.35609499999999994,0.17062100000000002,-0.13175000000000003,-0.06881500000000002,0.010726000000000003,-0.003090000000000037,0.06881499999999996,-0.010726,0.003090000000000037,-0.11245500000000003,-0.326699,-0.016490000000000005,0.14354500000000003,-0.306019,-0.09435000000000004,-0.144405,-0.627849,0.11346999999999996,0.206225,-0.6043489999999999,-0.12977000000000005
132,0.1499450000000001,0.6944830000000001,-0.09666500000000011,-0.06985499999999994,0.505703,-0.03825500000000004,-0.19263499999999995,0.337893,0.044054999999999955,0.18698500000000007,0.451693,-0.014165000000000094,0.277065,0.25960300000000003,-0.0013850000000000806,-0.25984499999999994,0.156843,-0.05239500000000008,0.3704550000000001,0.159433,-0.12526500000000007,-0.06948499999999996,0.012045000000000004,-0.0005350000000000632,0.06948500000000002,-0.012045,0.0005349999999999522,-0.11813499999999993,-0.324147,-0.008795000000000108,0.14269500000000002,-0.302827,-0.09260500000000005,-0.15175499999999992,-0.623367,0.13036499999999995,0.2057150000000001,-0.604007,-0.12932500000000013
133,0.162655,0.6896774999999999,-0.10383500000000001,-0.059404999999999986,0.5078075,-0.043055000000000065,-0.183985,0.3403675,0.045154999999999945,0.19389500000000004,0.4475475,-0.023845000000000005,0.28878499999999996,0.2589675,-0.016515000000000057,-0.257405,0.1591975,-0.04312499999999997,0.385945,0.1476275,-0.11839500000000003,-0.07006499999999999,0.013090499999999998,0.002014999999999989,0.07006500000000004,-0.013090500000000005,-0.002014999999999989,-0.12293499999999996,-0.3195425,-0.001755000000000062,0.14159500000000003,-0.2999025,-0.09060500000000005,-0.15663499999999997,-0.6188425,0.14554500000000004,0.20123500000000005,-0.6019025,-0.12442500000000001
134,0.1768400000000001,0.6850575,-0.11374499999999999,-0.04782999999999993,0.5097875000000001,-0.049815000000000054,-0.17569999999999997,0.3429075,0.04538500000000001,0.20037000000000005,0.4426575,-0.036555000000000004,0.29983000000000004,0.2583975,-0.030505000000000004,-0.25403999999999993,0.1623775,-0.03510500000000005,0.39960000000000007,0.1360565,-0.11063500000000004,-0.07061999999999996,0.013836500000000002,0.004574999999999996,0.07062000000000002,-0.013836500000000002,-0.004574999999999996,-0.12332999999999994,-0.31468250000000003,0.00464500000000001,0.13941000000000003,-0.29859250000000004,-0.08833500000000005,-0.15980999999999995,-0.6139025,0.158875,0.1932600000000001,-0.6016425,-0.11641500000000005
135,0.18997999999999993,0.6804485,-0.12331999999999999,-0.038020000000000054,0.5115585,-0.05610999999999999,-0.16809000000000002,0.3457785,0.04502000000000006,0.20579999999999998,0.4375385,-0.048799999999999955,0.30984,0.2577685,-0.04377999999999993,-0.25041,0.16498849999999998,-0.027619999999999978,0.4112199999999999,0.1249275,-0.10155000000000003,-0.07118000000000002,0.014359500000000004,0.007299999999999973,0.07118000000000002,-0.014359499999999997,-0.007299999999999973,-0.12264000000000003,-0.3099515,0.00990000000000002,0.13623999999999992,-0.2968815,-0.08597999999999995,-0.16106000000000004,-0.6081915,0.17023,0.18413000000000002,-0.6003115000000001,-0.10702
136,0.20097999999999994,0.677327,-0.13263500000000006,-0.030750000000000055,0.512727,-0.06190499999999999,-0.16199000000000002,0.347837,0.043054999999999954,0.21006999999999998,0.432747,-0.060195,0.31765999999999994,0.256587,-0.053405000000000036,-0.24837000000000004,0.167037,-0.021924999999999972,0.4248799999999999,0.11337799999999999,-0.09551500000000002,-0.07174000000000003,0.014459999999999994,0.009865000000000013,0.07174000000000003,-0.01446,-0.009865000000000013,-0.12086000000000002,-0.30630300000000005,0.013275000000000037,0.13288,-0.296233,-0.08343500000000004,-0.15829000000000004,-0.6029829999999999,0.17666499999999996,0.17599999999999993,-0.601363,-0.09891499999999998
137,0.21247000000000005,0.6744625,-0.14278500000000005,-0.024469999999999992,0.5141425,-0.06744500000000009,-0.15585,0.3501325,0.0401149999999999,0.21416000000000002,0.4282725,-0.07153500000000002,0.32876000000000005,0.2555725,-0.062195,-0.24542999999999998,0.1683625,-0.017015000000000002,0.41391999999999995,0.1114105,-0.08431500000000003,-0.07208999999999999,0.014620500000000002,0.012405,0.07208999999999999,-0.014620499999999995,-0.012405,-0.11929000000000001,-0.3029675,0.017324999999999924,0.12954,-0.2959175,-0.0800050000000001,-0.15499999999999997,-0.5974875,0.1828249999999999,0.16720999999999997,-0.6018575,-0.08959500000000009
138,0.22146999999999994,0.673218,-0.15045000000000008,-0.020280000000000076,0.515858,-0.07079000000000002,-0.15103,0.35220799999999997,0.03693999999999997,0.21489000000000003,0.426258,-0.0795300000000001,0.33392,0.256658,-0.06805000000000005,-0.24385,0.17010799999999998,-0.014610000000000012,0.4122699999999999,0.102279,-0.07659000000000005,-0.07228999999999997,0.014720999999999998,0.01432,0.07228999999999997,-0.014720999999999998,-0.01432,-0.11588000000000004,-0.299762,0.019999999999999907,0.12666,-0.296052,-0.07494,-0.15061000000000002,-0.5927520000000001,0.1863999999999999,0.16030999999999995,-0.601552,-0.08139000000000007
139,0.22829500000000003,0.6721695,-0.15857,-0.018524999999999903,0.5171595,-0.07251999999999992,-0.15029499999999996,0.3518895,0.03402000000000005,0.21418500000000007,0.4235795,-0.08616999999999997,0.3380850000000001,0.25752949999999997,-0.07255999999999996,-0.24295499999999998,0.1695495,-0.012399999999999967,0.404925,0.0946805,-0.06894999999999996,-0.07233499999999993,0.014962499999999997,0.01590999999999998,0.07233500000000004,-0.014962500000000004,-0.01590999999999998,-0.11435499999999998,-0.2970005,0.023230000000000084,0.12361500000000003,-0.2953305,-0.06963999999999992,-0.14716499999999993,-0.5888205,0.18943,0.15368500000000007,-0.6012505,-0.07362999999999997
140,0.23395999999999995,0.6726295,-0.164995,-0.018199999999999994,0.5194395,-0.07270499999999991,-0.14806000000000002,0.3527395,0.031225000000000058,0.21253999999999995,0.42132949999999997,-0.09109499999999993,0.34087,0.2591295,-0.076295,-0.24169000000000002,0.17067949999999998,-0.012185000000000001,0.4026900000000001,0.0887705,-0.05869499999999994,-0.07225999999999999,0.015296499999999998,0.017345000000000055,0.07225999999999999,-0.015296500000000005,-0.017344999999999944,-0.11248999999999998,-0.29437050000000003,0.02603500000000003,0.12126999999999999,-0.2937305,-0.06484499999999993,-0.14442,-0.5841605,0.19201500000000005,0.14742999999999995,-0.6001205,-0.0660949999999999
141,0.23794499999999996,0.6739404999999999,-0.17032500000000006,-0.01898500000000003,0.5211605,-0.07202500000000012,-0.146455,0.3547905,0.0286249999999999,0.20630499999999996,0.42284049999999995,-0.09768500000000013,0.337715,0.2615905,-0.07849500000000009,-0.241765,0.1729305,-0.012155000000000138,0.4024350000000001,0.08889549999999999,-0.0488050000000001,-0.07213499999999995,0.015613499999999995,0.01868499999999995,0.07213500000000006,-0.015613500000000002,-0.018685000000000063,-0.11091499999999999,-0.29253949999999995,0.028414999999999968,0.11888500000000002,-0.29341950000000006,-0.06027500000000008,-0.14309499999999997,-0.5803195,0.1944649999999999,0.14134500000000005,-0.5990095000000001,-0.059005000000000085
142,0.24134499999999992,0.6761895,-0.17705000000000004,-0.019765000000000033,0.5234095,-0.07173000000000007,-0.14840500000000006,0.3565695,0.024789999999999868,0.2001449999999999,0.4250895,-0.10419000000000012,0.333565,0.2658395,-0.07947000000000004,-0.24190500000000004,0.17453950000000001,-0.01568000000000014,0.40207499999999985,0.09114449999999999,-0.039690000000000114,-0.071905,0.0157775,0.019649999999999945,0.071905,-0.0157775,-0.019650000000000056,-0.109765,-0.2902905,0.030549999999999966,0.11657499999999998,-0.2934405,-0.05610000000000004,-0.14264500000000002,-0.5763805,0.1966699999999999,0.135455,-0.5972305,-0.05245000000000011
143,0.2417999999999999,0.6789204999999999,-0.18039499999999997,-0.022320000000000007,0.5261605,-0.07016499999999992,-0.15110000000000007,0.3593005,0.021015000000000006,0.19457999999999998,0.4278205,-0.10745499999999997,0.3281099999999999,0.27066049999999997,-0.0801949999999999,-0.24237000000000003,0.1772705,-0.019194999999999962,0.39932999999999996,0.0938755,-0.033094999999999986,-0.07163000000000008,0.015821499999999995,0.02051500000000006,0.07162999999999997,-0.015821500000000002,-0.02051499999999995,-0.10880000000000001,-0.28755949999999997,0.03228500000000001,0.11461999999999994,-0.2933495,-0.05251499999999998,-0.14243000000000006,-0.5722395,0.19869500000000007,0.13000999999999996,-0.5949495,-0.04654499999999995
144,0.24156500000000003,0.682053,-0.18366500000000008,-0.02442499999999992,0.529293,-0.06922499999999998,-0.15384499999999995,0.357253,0.017384999999999984,0.19013500000000005,0.430863,-0.112595,0.322925,0.276603,-0.079735,-0.24317499999999997,0.173813,-0.024735000000000062,0.39125500000000013,0.09956399999999999,-0.028795000000000015,-0.07125499999999996,0.015613999999999989,0.021094999999999975,0.07125500000000007,-0.015614000000000003,-0.021094999999999975,-0.10829499999999992,-0.284427,0.03406500000000001,0.11253500000000005,-0.292977,-0.04929499999999998,-0.142845,-0.568597,0.20065500000000003,0.12463500000000005,-0.5922670000000001,-0.04116500000000001
145,0.24131000000000002,0.686598,-0.18669500000000006,-0.026389999999999914,0.532338,-0.068025,-0.15647,0.354408,0.01336499999999996,0.18622000000000005,0.433818,-0.11655500000000008,0.31803000000000003,0.282138,-0.07856500000000011,-0.24387999999999999,0.170458,-0.031115000000000004,0.38097000000000003,0.10491600000000001,-0.023825000000000096,-0.07090999999999992,0.015108000000000003,0.021624999999999894,0.07091000000000003,-0.015107999999999996,-0.021625000000000005,-0.10798999999999992,-0.281602,0.035804999999999976,0.11064000000000007,-0.292662,-0.0465850000000001,-0.1431,-0.565092,0.20204499999999992,0.11965000000000003,-0.589402,-0.03628500000000001
146,0.24039999999999995,0.6925215,-0.18947000000000003,-0.029040000000000066,0.5347515,-0.06581999999999999,-0.15818,0.3509215,0.011220000000000008,0.1820799999999999,0.43732150000000003,-0.11866999999999994,0.31389,0.2867515,-0.07557999999999998,-0.24518000000000006,0.1666025,-0.03725999999999996,0.37607,0.11212649999999999,-0.019299999999999984,-0.07055,0.014442499999999997,0.02196000000000009,0.07055,-0.014442499999999997,-0.02195999999999998,-0.10749000000000009,-0.2798085,0.036740000000000106,0.10897000000000001,-0.29209850000000004,-0.04465999999999992,-0.14317000000000002,-0.5621685000000001,0.20271000000000006,0.11541000000000001,-0.5867885,-0.0323699999999999
147,0.23961999999999994,0.6995345,-0.192515,-0.03160000000000007,0.5366145,-0.06378499999999998,-0.15944999999999998,0.3505445,0.010595000000000021,0.17798999999999998,0.4410745,-0.12099500000000007,0.30947,0.2895945,-0.07152500000000006,-0.2464,0.1665215,-0.041525000000000034,0.36814,0.1179445,-0.015234999999999999,-0.07025000000000003,0.013767499999999988,0.022294999999999954,0.07025000000000003,-0.013767500000000002,-0.022295000000000065,-0.10916999999999999,-0.2781755,0.03813500000000003,0.10738000000000003,-0.2915455,-0.04323500000000002,-0.14182000000000006,-0.5592355,0.20094499999999993,0.11143999999999998,-0.5839555000000001,-0.02886500000000003
148,0.233205,0.7026245,-0.1902299999999999,-0.028974999999999973,0.5398345,-0.06925999999999988,-0.14499499999999999,0.3795045,0.004910000000000081,0.151115,0.46292449999999996,-0.14776999999999996,0.28417499999999996,0.3274045,-0.0867699999999999,-0.24521500000000002,0.1991645,-0.042809999999999904,0.341865,0.14573550000000002,-0.018449999999999855,-0.06915499999999997,0.012774499999999994,0.022310000000000052,0.06915499999999997,-0.012774500000000008,-0.02230999999999994,-0.110815,-0.2752555,0.03970000000000007,0.10550499999999996,-0.2904955,-0.04074999999999995,-0.14536499999999997,-0.5528854999999999,0.2063600000000001,0.10702500000000004,-0.5788355,-0.025429999999999953
149,0.22953500000000004,0.7129815,-0.19361499999999998,-0.03430500000000003,0.5406815,-0.06530499999999995,-0.17965499999999995,0.3173615,-0.0034250000000000114,0.147965,0.4648915,-0.14509499999999997,0.28071500000000005,0.3287715,-0.08449499999999999,-0.25138499999999997,0.1277935,-0.06498499999999996,0.3397850000000001,0.1481305,-0.015044999999999975,-0.06865500000000002,0.011750499999999997,0.022355000000000014,0.06865500000000002,-0.011750499999999997,-0.022355000000000014,-0.11354500000000001,-0.2745785,0.04135500000000003,0.103985,-0.2896085,-0.04023500000000002,-0.14249499999999993,-0.5494685,0.20203499999999996,0.10413499999999998,-0.5774585,-0.02312499999999995
150,0.24492500000000006,0.7317435,-0.20736500000000002,-0.030895000000000006,0.5408535,-0.06939499999999998,-0.18179499999999998,0.3171135,-0.001515000000000044,0.146165,0.4669535,-0.143405,0.276695,0.32860350000000005,-0.08241500000000002,-0.253865,0.1276715,-0.06309500000000001,0.3366549999999999,0.1484815,-0.012554999999999983,-0.06898499999999996,0.011578500000000005,0.02330500000000002,0.06898499999999996,-0.011578499999999992,-0.02330500000000002,-0.113155,-0.2768665,0.04086499999999993,0.10250499999999996,-0.2896765,-0.03956500000000007,-0.14009499999999997,-0.5492465,0.19945499999999994,0.10153500000000004,-0.5775665,-0.021295000000000064
151,0.2414550000000001,0.7342529999999999,-0.20414500000000002,-0.03656499999999996,0.541323,-0.06185499999999999,-0.18103499999999995,0.319373,0.0026649999999999174,0.15252500000000002,0.463703,-0.13032500000000002,0.27634500000000006,0.312183,-0.06284500000000004,-0.25069499999999995,0.131784,-0.06757500000000005,0.341345,0.129997,-0.002995000000000081,-0.06977499999999992,0.011692999999999995,0.024564999999999948,0.06977500000000003,-0.011692999999999995,-0.02456500000000006,-0.115375,-0.274347,0.03903499999999993,0.102325,-0.289877,-0.04052500000000003,-0.12848499999999996,-0.5510470000000001,0.18054499999999996,0.09855500000000006,-0.574957,-0.018325000000000036
152,0.23794499999999996,0.737801,-0.19967999999999986,-0.04183500000000007,0.540561,-0.05524999999999991,-0.17795499999999997,0.321051,0.007500000000000062,0.15279500000000001,0.461601,-0.12410999999999994,0.274385,0.311181,-0.05589999999999995,-0.253525,0.135907,-0.06329999999999991,0.3356450000000001,0.127662,0.0041999999999999815,-0.06978499999999999,0.011129,0.024540000000000006,0.06978499999999999,-0.011129,-0.024540000000000006,-0.11641500000000005,-0.272019,0.03592000000000006,0.10136499999999993,-0.289409,-0.03983999999999999,-0.12333499999999997,-0.550219,0.1723800000000001,0.09604499999999994,-0.573159,-0.01534000000000002
153,0.23248999999999997,0.7384745,-0.19603000000000015,-0.04737000000000002,0.5407545,-0.04864000000000013,-0.1749400000000001,0.31816449999999996,0.01733999999999991,0.15225999999999995,0.4608645,-0.11762000000000006,0.27115999999999996,0.3030345,-0.04151000000000005,-0.25549000000000005,0.1358205,-0.05541000000000007,0.3921199999999999,0.1494355,0.038959999999999884,-0.06989000000000001,0.010814500000000005,0.02464999999999995,0.06989000000000001,-0.010814500000000005,-0.02465000000000006,-0.11318000000000006,-0.2713255,0.025249999999999884,0.09912999999999994,-0.2894455,-0.03909000000000007,-0.11058000000000001,-0.5566854999999999,0.14642999999999995,0.09253,-0.5724254999999999,-0.011860000000000093
154,0.23218500000000009,0.7380285,-0.19516,-0.048634999999999984,0.5411885000000001,-0.047519999999999896,-0.14914499999999997,0.3507585,0.02742000000000011,0.152115,0.4605885,-0.11519999999999997,0.2692650000000001,0.28814850000000003,-0.02617999999999998,-0.23957499999999993,0.16955749999999997,-0.035479999999999956,0.3736950000000001,0.1395735,0.05496000000000001,-0.06967499999999993,0.010750499999999996,0.02406000000000008,0.06967500000000004,-0.01075050000000001,-0.02405999999999997,-0.11171500000000001,-0.2732915,0.02365000000000006,0.09840500000000008,-0.2895515,-0.039549999999999974,-0.10223499999999996,-0.5603815000000001,0.1334700000000001,0.09114500000000003,-0.5724115000000001,-0.011039999999999939
