sb224sc-HT22-VT27/4dt907/src/data/kinect_good_vs_bad_not_preprocessed_A13_mediapipe/W20.csv
FrameNo,nose_3d_x,nose_3d_y,nose_3d_z,left_shoulder_3d_x,left_shoulder_3d_y,left_shoulder_3d_z,left_elbow_3d_x,left_elbow_3d_y,left_elbow_3d_z,right_shoulder_3d_x,right_shoulder_3d_y,right_shoulder_3d_z,right_elbow_3d_x,right_elbow_3d_y,right_elbow_3d_z,left_wrist_3d_x,left_wrist_3d_y,left_wrist_3d_z,right_wrist_3d_x,right_wrist_3d_y,right_wrist_3d_z,left_hip_3d_x,left_hip_3d_y,left_hip_3d_z,right_hip_3d_x,right_hip_3d_y,right_hip_3d_z,left_knee_3d_x,left_knee_3d_y,left_knee_3d_z,right_knee_3d_x,right_knee_3d_y,right_knee_3d_z,left_ankle_3d_x,left_ankle_3d_y,left_ankle_3d_z,right_ankle_3d_x,right_ankle_3d_y,right_ankle_3d_z
0,0.0157745,0.7489095,-0.016488499999999996,-0.1512645,0.4659795,0.028895500000000005,-0.1799845,0.2169195,0.051513500000000004,0.1551655,0.4665395,0.020976500000000002,0.1804155,0.2141995,0.027954500000000004,-0.2027045,0.0363715,0.0002425000000000066,0.1925655,0.0231005,-0.032007499999999994,-0.0675945,0.0013694999999999996,-0.0017254999999999979,0.0675945,-0.0013695,0.0017255000000000048,-0.12256449999999999,-0.3415305,-0.021957499999999998,0.1038555,-0.32573050000000003,0.003438500000000004,-0.1395245,-0.6494004999999999,0.023201500000000003,0.10613550000000001,-0.6288104999999999,0.017524500000000002
1,0.016970500000000003,0.749143,-0.014987,-0.1489535,0.466393,0.031121,-0.1784535,0.217053,0.051823,0.1569065,0.466243,0.020721,0.1832565,0.214573,0.02852,-0.2038635,0.036869,0.0005519999999999969,0.1937065,0.018834,-0.030973999999999995,-0.0675495,0.0012590000000000001,-0.0009860000000000008,0.0675495,-0.0012589999999999997,0.0009860000000000008,-0.1220435,-0.344337,-0.026880999999999995,0.10323650000000001,-0.326067,0.0037970000000000018,-0.1401735,-0.651297,0.0213,0.1049365,-0.628217,0.017773
2,0.018202,0.749736,-0.0122245,-0.146331,0.467036,0.0334015,-0.177471,0.216186,0.051867500000000004,0.156289,0.467556,0.022307500000000004,0.186259,0.215136,0.027436500000000003,-0.16457100000000002,0.045137000000000004,-0.03138149999999999,0.19960899999999998,-0.0087,-0.024859499999999993,-0.067951,0.0013169999999999996,-0.0005564999999999945,0.067951,-0.0013169999999999996,0.0005565000000000014,-0.123471,-0.344184,-0.02735549999999999,0.101859,-0.326614,0.004781500000000001,-0.14203100000000002,-0.6509640000000001,0.020545500000000005,0.103019,-0.627784,0.019380500000000002
3,0.021856499999999997,0.7503555000000001,-0.005853499999999998,-0.14678750000000002,0.4678355,0.037435500000000003,-0.1851475,0.2280055,0.0429345,0.1580125,0.4677155,0.0249155,0.1962725,0.2271455,0.0121115,-0.2071375,0.0564105,-0.03694649999999999,0.2142425,-0.0005564999999999997,-0.050324499999999994,-0.0675815,0.0015075000000000002,0.0005555000000000004,0.0675815,-0.0015075000000000002,-0.0005555000000000004,-0.1252875,-0.3426845,-0.0236585,0.1010625,-0.3253645,0.007386500000000004,-0.1435875,-0.6503645,0.0228725,0.10187249999999999,-0.6268945,0.0221995
4,0.023301499999999996,0.7500545,-0.004081499999999995,-0.1449615,0.4685745,0.0387465,-0.1944115,0.2468345,0.0296555,0.15841850000000002,0.4678245,0.025098500000000003,0.2059185,0.24946449999999998,-2.4999999999955613e-06,-0.2249015,0.0764985,-0.0643035,0.2202185,0.0669395,-0.0767935,-0.0675025,0.0015605000000000003,0.0006715000000000054,0.0675025,-0.0015605000000000003,-0.0006714999999999985,-0.1261215,-0.34179550000000003,-0.02159749999999999,0.1013085,-0.32536550000000003,0.007781500000000004,-0.1433915,-0.6503655,0.023222500000000004,0.1021485,-0.6269555,0.022568500000000002
5,0.024640500000000006,0.750246,-0.0017604999999999982,-0.1401645,0.468976,0.0376525,-0.2032945,0.262166,0.0194115,0.1584055,0.468316,0.0244515,0.2125455,0.266526,-0.016794499999999997,-0.2487245,0.113356,-0.0931485,0.2316455,0.09020199999999999,-0.1104985,-0.0675105,0.0016449999999999998,0.0008524999999999991,0.0675105,-0.0016450000000000006,-0.0008524999999999991,-0.1276445,-0.331084,-0.017350499999999998,0.10133550000000001,-0.323884,0.007927499999999997,-0.1430445,-0.650134,0.0236815,0.1026655,-0.6268239999999999,0.0228665
6,0.025557499999999997,0.7495275,0.0008259999999999934,-0.1396215,0.4701275,0.038485,-0.2240115,0.2999475,0.002443999999999995,0.1574585,0.4688175,0.023087999999999997,0.2153485,0.2765675,-0.04119400000000001,-0.2710015,0.1580375,-0.11874100000000001,0.2461785,0.1261275,-0.156271,-0.0675925,0.0016584999999999994,0.0010389999999999983,0.0675925,-0.0016585000000000003,-0.0010390000000000052,-0.12822150000000002,-0.3299125,-0.014523000000000001,0.1011485,-0.3216825,0.007760999999999997,-0.1431315,-0.6494625,0.024331999999999996,0.10335849999999999,-0.6263625,0.023133999999999995
7,0.024919,0.7472095000000001,0.0026844999999999994,-0.140226,0.4712995,0.037226499999999996,-0.245036,0.32735949999999997,-0.0214515,0.15365399999999999,0.4720995,0.020260499999999997,0.231524,0.3233895,-0.06861450000000001,-0.29130599999999995,0.2182995,-0.1633745,0.265444,0.2010295,-0.2050445,-0.0678,0.0015225,0.0020125000000000004,0.0678,-0.0015224999999999995,-0.0020125000000000004,-0.127446,-0.3284505,-0.0134885,0.10137399999999999,-0.3229105,0.006721499999999998,-0.14216600000000001,-0.6501205,0.0244315,0.105314,-0.6276204999999999,0.021945499999999996
8,0.025085,0.746437,0.004355000000000005,-0.14018899999999998,0.47253700000000004,0.037152000000000004,-0.25738900000000003,0.35973700000000003,-0.03317099999999999,0.152971,0.474327,0.018999000000000005,0.238321,0.356957,-0.082189,-0.30618900000000004,0.275397,-0.182699,0.27192099999999997,0.262097,-0.22652899999999998,-0.067823,0.001542,0.002265000000000003,0.067823,-0.001542,-0.002264999999999996,-0.128029,-0.325883,-0.012026999999999996,0.101111,-0.32287299999999997,0.006540000000000004,-0.142339,-0.6505529999999999,0.024373000000000006,0.10545099999999999,-0.628043,0.021960000000000007
9,0.025509499999999997,0.7452765,0.005740499999999996,-0.13986549999999998,0.4742965,0.037170499999999995,-0.26735549999999997,0.39533650000000004,-0.0422575,0.1520845,0.4769765,0.017876499999999997,0.24279450000000002,0.39323650000000004,-0.0921205,-0.3180055,0.3395765,-0.19541050000000001,0.2769245,0.32733650000000003,-0.2394905,-0.0678795,0.0015064999999999996,0.0023935,0.0678795,-0.0015065,-0.0023935000000000067,-0.12854549999999998,-0.32341349999999996,-0.009827500000000003,0.1009145,-0.3231435,0.006470499999999997,-0.1423255,-0.6511835,0.024866499999999996,0.10588449999999999,-0.6289335,0.022040499999999998
10,0.026213499999999997,0.7431909999999999,0.006519000000000004,-0.1393265,0.476531,0.037086,-0.27556650000000005,0.436541,-0.049751000000000004,0.1514835,0.480721,0.016814000000000003,0.2454235,0.435611,-0.098227,-0.32567650000000004,0.413991,-0.20237699999999997,0.28000349999999996,0.405831,-0.246087,-0.0677745,0.00136,0.002461000000000005,0.0677745,-0.00136,-0.002460999999999998,-0.1285765,-0.322769,-0.007678999999999998,0.1009035,-0.32398899999999997,0.006416000000000005,-0.1419165,-0.652429,0.025774000000000002,0.10670349999999999,-0.630769,0.022064000000000004
11,0.0258385,0.7401525,0.006642500000000003,-0.1389655,0.4785825,0.0366735,-0.28029550000000003,0.4777925,-0.054174499999999993,0.1506845,0.48486250000000003,0.0158965,0.2463945,0.4819525,-0.10044449999999999,-0.32922549999999995,0.4926825,-0.2028345,0.28086449999999996,0.4907625,-0.2460545,-0.0676775,0.0011215,0.0025714999999999974,0.0676775,-0.0011215,-0.0025714999999999974,-0.1285055,-0.3227975,-0.005874499999999998,0.1009105,-0.3257575,0.006365500000000003,-0.1414555,-0.6545675,0.0267235,0.1075745,-0.6335975,0.0221205
12,0.0251005,0.7367085000000001,0.006846499999999998,-0.1388405,0.4803285,0.036129499999999995,-0.2810105,0.5201585000000001,-0.054044499999999995,0.1498995,0.48868849999999997,0.015148499999999999,0.2472295,0.5272585000000001,-0.1003565,-0.32933049999999997,0.5716785000000001,-0.20267649999999998,0.2816995,0.5737785000000001,-0.24596650000000003,-0.0675605,0.0009034999999999998,0.0027124999999999996,0.0675605,-0.0009034999999999998,-0.0027124999999999996,-0.1283005,-0.32376150000000004,-0.004445500000000005,0.1009205,-0.3278215,0.006226499999999996,-0.1409705,-0.6572015,0.027693499999999996,0.1084195,-0.6368315,0.022207499999999998
13,0.023775499999999998,0.7326625,0.007149999999999997,-0.1394165,0.4830125,0.035332999999999996,-0.28048649999999997,0.5630025,-0.053877999999999995,0.1487235,0.49299250000000006,0.015097999999999997,0.2477535,0.5716925,-0.10019,-0.3288065,0.6509425,-0.20251,0.28222349999999996,0.6502125,-0.24580000000000002,-0.0673125,0.0006784999999999985,0.002898999999999999,0.0673125,-0.0006785000000000003,-0.002898999999999999,-0.1282765,-0.3255575,-0.0034370000000000026,0.10048649999999999,-0.33001749999999996,0.005866999999999997,-0.1407565,-0.6605274999999999,0.028643999999999996,0.1089435,-0.6409675,0.022373999999999998
14,0.0220265,0.7283259999999999,0.007510999999999997,-0.1399455,0.48521600000000004,0.034290999999999995,-0.2801455,0.599066,-0.053656999999999996,0.1474145,0.497376,0.015228999999999996,0.2480945,0.615336,-0.099969,-0.32846549999999997,0.719776,-0.202289,0.2816945,0.728266,-0.243349,-0.06697149999999999,0.00046400000000000087,0.0031199999999999978,0.06697149999999999,-0.00046399999999999914,-0.0031200000000000047,-0.1284155,-0.327854,-0.0026709999999999998,0.0997245,-0.332464,0.005407999999999996,-0.14070549999999998,-0.664464,0.029577,0.10926449999999999,-0.6456540000000001,0.022596999999999996
15,0.020044000000000003,0.7240065,0.007360500000000006,-0.140593,0.48687649999999993,0.033168500000000004,-0.279923,0.6280465,-0.05335849999999999,0.146347,0.5006165,0.015622500000000004,0.246867,0.6479865,-0.09780049999999998,-0.32769299999999996,0.7742365,-0.1945305,0.278357,0.7877665,-0.2331005,-0.066759,0.0002735000000000029,0.0032895000000000008,0.066759,-0.00027349999999999944,-0.003289499999999994,-0.128523,-0.3304635,-0.0023474999999999954,0.09897,-0.3350735,0.005028500000000005,-0.14061300000000002,-0.6683835,0.030367500000000006,0.109417,-0.6504935000000001,0.022889500000000004
16,0.017542,0.718438,0.006343000000000001,-0.141386,0.487178,0.032475000000000004,-0.276616,0.651518,-0.046782,0.145284,0.503968,0.016331000000000002,0.24207399999999998,0.677548,-0.09051500000000001,-0.322916,0.823018,-0.177845,0.268884,0.843338,-0.212715,-0.066607,-5.199999999999996e-05,0.0032949999999999993,0.066607,5.199999999999996e-05,-0.0032949999999999993,-0.128576,-0.334552,-0.0017140000000000002,0.098206,-0.338832,0.004847000000000004,-0.140546,-0.673352,0.031321,0.109474,-0.656402,0.023469
17,0.014947999999999998,0.7126859999999999,0.005101499999999995,-0.142103,0.487156,0.03203349999999999,-0.27079299999999995,0.6717059999999999,-0.04198650000000001,0.14374699999999999,0.506956,0.017097499999999995,0.234157,0.7024859999999999,-0.07650950000000001,-0.31581299999999995,0.863656,-0.1525095,0.25666700000000003,0.890076,-0.1841295,-0.06647,-0.00035400000000000015,0.0032514999999999974,0.06647,0.00035400000000000015,-0.0032515000000000044,-0.128613,-0.33882399999999996,-0.000961500000000004,0.097494,-0.342684,0.004703499999999992,-0.140403,-0.678334,0.03224049999999999,0.109487,-0.662474,0.024120499999999996
18,0.012139999999999998,0.7070209999999999,0.0038580000000000073,-0.14264600000000002,0.486021,0.032148,-0.262916,0.6861409999999999,-0.034102999999999994,0.142144,0.508731,0.018343000000000005,0.224134,0.721311,-0.063027,-0.30386599999999997,0.894911,-0.130237,0.241504,0.927001,-0.149067,-0.066312,-0.0005790000000000031,0.002908000000000001,0.066312,0.0005789999999999962,-0.002907999999999994,-0.12870600000000001,-0.342879,0.00013900000000000717,0.096737,-0.346489,0.004851000000000001,-0.140326,-0.682979,0.033443,0.109404,-0.6685989999999999,0.025146000000000005
19,0.0093705,0.7023524999999999,0.002569999999999996,-0.1428775,0.48437250000000004,0.032884,-0.25397749999999997,0.6933925000000001,-0.024451,0.1406025,0.5092025,0.019798,0.2152525,0.7304325,-0.049467,-0.2914175,0.9119524999999999,-0.10683400000000001,0.2286525,0.9463325,-0.12077399999999999,-0.0661385,-0.0007114999999999969,0.0025060000000000013,0.0661385,0.0007115000000000038,-0.0025060000000000013,-0.1286275,-0.3462675,0.0010789999999999966,0.0962085,-0.3499375,0.005149000000000001,-0.1402175,-0.6868974999999999,0.034755999999999995,0.1094325,-0.6738875,0.026274
20,0.006933,0.6983590000000001,0.0017689999999999997,-0.14296399999999998,0.48270900000000005,0.03391,-0.24654399999999999,0.696539,-0.016689000000000002,0.139216,0.509129,0.021421000000000003,0.20719600000000002,0.734189,-0.038514,-0.281354,0.919779,-0.089786,0.219276,0.954889,-0.100826,-0.065945,-0.0007689999999999989,0.0021790000000000004,0.065945,0.0007689999999999989,-0.0021790000000000004,-0.12850399999999998,-0.34924099999999997,0.0018439999999999984,0.09579399999999999,-0.35284099999999996,0.005389999999999999,-0.14005399999999998,-0.690111,0.036084000000000005,0.109556,-0.678271,0.027334
21,0.004444500000000002,0.694841,0.000960500000000003,-0.1430255,0.48126100000000005,0.0348635,-0.2402355,0.698621,-0.010392499999999999,0.1379645,0.509231,0.0229525,0.2007945,0.736301,-0.0299945,-0.2723655,0.925151,-0.0769175,0.2111045,0.9618509999999999,-0.08692750000000002,-0.0657645,-0.0008760000000000018,0.0019245000000000026,0.0657645,0.0008760000000000018,-0.0019245000000000026,-0.1283855,-0.352659,0.0022295000000000023,0.0954125,-0.355629,0.0052885000000000015,-0.1399055,-0.693549,0.0369795,0.1096945,-0.682129,0.0281525
22,0.001930000000000003,0.6921005,0.0003150000000000028,-0.142977,0.4789505,0.035804,-0.234197,0.6989705,-0.005184999999999995,0.13714300000000001,0.5087805000000001,0.024121,0.196033,0.7365305000000001,-0.023945,-0.264267,0.9294405,-0.067579,0.20412300000000003,0.9682205,-0.07649900000000001,-0.065696,-0.0010215000000000016,0.0018180000000000002,0.065696,0.0010215000000000016,-0.0018180000000000002,-0.12833699999999998,-0.3554895,0.0017269999999999994,0.094887,-0.3582995,0.004771000000000004,-0.13979699999999998,-0.6963794999999999,0.03737,0.109683,-0.6853994999999999,0.028531
23,-0.0003004999999999987,0.6903104999999999,-0.0002500000000000002,-0.1427595,0.47727049999999993,0.036368000000000004,-0.2292495,0.6989605,-0.0022039999999999976,0.13654049999999998,0.5085005,0.025072000000000004,0.1928105,0.7356705,-0.020021999999999998,-0.2576095,0.9323604999999999,-0.063059,0.19876049999999998,0.9722305,-0.071049,-0.0656915,-0.0012244999999999964,0.0018630000000000035,0.0656915,0.0012245000000000034,-0.0018629999999999966,-0.1281895,-0.35727949999999997,0.0007360000000000005,0.09453650000000001,-0.36008949999999995,0.0036349999999999993,-0.13959950000000002,-0.6981695,0.037409000000000005,0.1096105,-0.6877595000000001,0.028426000000000003
24,-0.002312500000000001,0.6895095,-0.0009984999999999994,-0.14257150000000002,0.4764695,0.0364405,-0.22561150000000002,0.6981595,-0.0013645000000000046,0.13598849999999998,0.5090295,0.025494499999999996,0.19051849999999998,0.7348695000000001,-0.018219500000000007,-0.25187149999999997,0.9341195,-0.0620075,0.1946185,0.9745294999999999,-0.0693075,-0.06566749999999999,-0.0014674999999999966,0.0020605,0.06566749999999999,0.0014675000000000035,-0.0020605,-0.12800150000000002,-0.3580805,-0.0010995000000000033,0.09406149999999999,-0.3608905,0.0016035000000000008,-0.1392815,-0.6989704999999999,0.036914499999999996,0.10950850000000001,-0.6895205,0.027624499999999996
25,-0.0037345000000000017,0.6895095,-0.0012415000000000065,-0.1423525,0.4764695,0.0362075,-0.22391250000000001,0.6981595,-0.0014655000000000015,0.13573749999999998,0.5090295,0.025537499999999998,0.19057749999999998,0.7348695000000001,-0.018199500000000007,-0.2481525,0.9341195,-0.06225750000000001,0.1946275,0.9745294999999999,-0.0692875,-0.0656085,-0.0014674999999999966,0.002080499999999999,0.0656085,0.0014675000000000035,-0.002080500000000006,-0.1276025,-0.3581305,-0.0034875000000000045,0.09336549999999999,-0.3608905,-0.0015805000000000055,-0.1389025,-0.7001105,0.035948499999999994,0.1094975,-0.6911305,0.026012499999999997
26,-0.004754000000000005,0.6893195000000001,-0.0017844999999999944,-0.142044,0.4764695,0.0361295,-0.22328399999999998,0.6981595,-0.0015125,0.135846,0.5090295,0.025529500000000004,0.190686,0.7348695000000001,-0.0182075,-0.24469399999999997,0.9341195,-0.0625155,0.194636,0.9745294999999999,-0.0692855,-0.0655,-0.0014674999999999966,0.002072500000000005,0.0655,0.0014675000000000035,-0.002072499999999998,-0.127124,-0.35880049999999997,-0.006455499999999996,0.09311199999999999,-0.3615705,-0.005851499999999996,-0.138454,-0.7013305,0.034619500000000004,0.109386,-0.6936804999999999,0.023735500000000003
27,-0.0055695000000000015,0.6886395000000001,-0.0024355,-0.14173049999999998,0.4764695,0.035958500000000004,-0.2223305,0.6979195,-0.0015825000000000006,0.1359495,0.5090295,0.025521500000000003,0.1907895,0.7346295,-0.018215500000000003,-0.2417605,0.9341195,-0.0627335,0.1947395,0.9745294999999999,-0.06929350000000001,-0.0656235,-0.0014674999999999966,0.0020815,0.0656235,0.0014675000000000035,-0.0020815,-0.12701050000000003,-0.3604505,-0.0100675,0.0927955,-0.3627705,-0.011546500000000001,-0.1379105,-0.7030905,0.0330095,0.1092295,-0.6965705,0.021000500000000002
28,-0.0058810000000000025,0.6880225,-0.004108999999999995,-0.14139400000000002,0.47731250000000003,0.035762,-0.22140400000000002,0.6974925000000001,-0.004261999999999995,0.136036,0.5096625,0.024973000000000002,0.19166599999999998,0.7316725000000001,-0.020789999999999996,-0.23872400000000002,0.9339825,-0.068412,0.19466599999999998,0.9711125,-0.07531199999999999,-0.065812,-0.001514500000000002,0.002582000000000001,0.065812,0.001514500000000002,-0.002582000000000001,-0.12724400000000002,-0.36175749999999995,-0.015137999999999992,0.092398,-0.36365749999999997,-0.018720999999999995,-0.13728400000000002,-0.7036175,0.030639000000000003,0.109086,-0.6982375,0.017452000000000002
29,-0.006510999999999998,0.6877139999999999,-0.005244000000000006,-0.141404,0.477004,0.035797999999999996,-0.220354,0.697184,-0.01007700000000001,0.135996,0.508294,0.024444999999999995,0.192426,0.7292839999999999,-0.024595000000000006,-0.236834,0.930874,-0.078156,0.19442600000000002,0.9658039999999999,-0.082376,-0.06581000000000001,-0.001568,0.0026399999999999965,0.06581000000000001,0.001568,-0.0026400000000000035,-0.127874,-0.36221600000000004,-0.022285000000000013,0.091786,-0.36376600000000003,-0.02573800000000001,-0.137614,-0.703536,0.027425999999999992,0.108786,-0.6983360000000001,0.013279999999999993
30,-0.0070795000000000025,0.6877139999999999,-0.006603500000000005,-0.1414015,0.477004,0.0354315,-0.2199415,0.697184,-0.017384499999999997,0.13589849999999998,0.508294,0.023118499999999997,0.1939485,0.7292839999999999,-0.029428499999999996,-0.2360515,0.930564,-0.08831050000000001,0.19484849999999998,0.964904,-0.08995049999999999,-0.0657955,-0.001568,0.0028364999999999987,0.0657955,0.001568,-0.0028365000000000057,-0.12831150000000002,-0.36221600000000004,-0.027894500000000003,0.09166250000000001,-0.36376600000000003,-0.031172500000000006,-0.1378315,-0.703536,0.024366499999999996,0.10864850000000001,-0.698156,0.009605499999999996
31,-0.0076335,0.6877139999999999,-0.008745999999999997,-0.14128549999999998,0.477004,0.032313,-0.2197855,0.697494,-0.025074,0.1356745,0.508294,0.020464000000000003,0.1950045,0.7292839999999999,-0.034818,-0.2366555,0.9306639999999999,-0.09819900000000001,0.19505450000000002,0.964904,-0.097329,-0.06589249999999999,-0.001568,0.0029770000000000005,0.06589249999999999,0.001568,-0.0029769999999999935,-0.12893549999999998,-0.362176,-0.032622,0.09297749999999999,-0.36376600000000003,-0.034709000000000004,-0.1380755,-0.703496,0.021142000000000005,0.1085545,-0.698156,0.006590000000000006
32,-0.008513999999999999,0.688464,-0.011786500000000005,-0.141636,0.479394,0.028398499999999997,-0.220386,0.6986939999999999,-0.0335275,0.135184,0.508294,0.0170045,0.19630399999999998,0.7292839999999999,-0.04055450000000001,-0.237546,0.9306639999999999,-0.1071265,0.19600399999999998,0.964904,-0.1040965,-0.066095,-0.001568,0.0033874999999999947,0.066095,0.001568,-0.0033875000000000016,-0.130496,-0.36216600000000004,-0.03557350000000001,0.094639,-0.36248600000000003,-0.0359245,-0.139526,-0.7033360000000001,0.019095499999999994,0.10895400000000001,-0.698156,0.005858499999999996
33,-0.0094095,0.688788,-0.014913499999999996,-0.1420585,0.48257799999999995,0.024678500000000003,-0.2212885,0.698548,-0.0413245,0.1344215,0.509578,0.0128705,0.19780150000000002,0.727748,-0.0463635,-0.23847849999999998,0.927078,-0.11540349999999999,0.1975615,0.961318,-0.11010349999999999,-0.0662925,-0.0017250000000000043,0.003983500000000001,0.0662925,0.0017249999999999974,-0.003983500000000001,-0.1334785,-0.362482,-0.0367445,0.0964345,-0.362592,-0.036458500000000005,-0.1445185,-0.703062,0.017862500000000003,0.1109115,-0.699602,0.0058404999999999985
34,-0.0106985,0.688113,-0.0198285,-0.1429685,0.485143,0.019402500000000003,-0.2224485,0.6981930000000001,-0.0500225,0.1332415,0.509653,0.0074235000000000065,0.1990715,0.727133,-0.053572499999999995,-0.2397285,0.920053,-0.1253725,0.1994115,0.954873,-0.1171925,-0.0665535,-0.001906000000000005,0.004395500000000004,0.0665535,0.001905999999999991,-0.004395499999999997,-0.1374685,-0.36166699999999996,-0.0381465,0.0989465,-0.361657,-0.03827449999999999,-0.1524185,-0.701657,0.016162500000000003,0.1141115,-0.699877,0.0029505000000000017
35,-0.012577999999999999,0.6868565,-0.025853999999999995,-0.143978,0.4868965,0.013520000000000004,-0.223698,0.6984765,-0.059037,0.131662,0.5084765,0.0010609999999999994,0.200132,0.7256865,-0.061107,-0.24199800000000002,0.9157464999999999,-0.135017,0.201462,0.9492565000000001,-0.12431699999999998,-0.066862,-0.0019295000000000007,0.004654999999999999,0.066862,0.0019295000000000007,-0.004654999999999999,-0.142758,-0.3559735,-0.040069,0.10287199999999999,-0.3570735,-0.040122,-0.16406800000000002,-0.6930835000000001,0.014327,0.12135199999999999,-0.6947335,-0.00027499999999999747
36,-0.014536999999999994,0.6868084999999999,-0.033016000000000004,-0.14518699999999998,0.4892785,0.0067959999999999965,-0.22511699999999998,0.6973685,-0.068013,0.129713,0.5096385,-0.006038000000000002,0.20103300000000002,0.7240485,-0.068993,-0.244717,0.9143285,-0.144273,0.20300300000000002,0.9465385000000001,-0.131493,-0.067164,-0.0019135000000000055,0.004854999999999998,0.067164,0.0019134999999999985,-0.004854999999999998,-0.149447,-0.3505515,-0.04363500000000001,0.10955300000000001,-0.3516915,-0.043109999999999996,-0.179817,-0.6850715,0.011761,0.130293,-0.6882115000000001,-0.003390999999999998
37,-0.0164905,0.6861365,-0.042808,-0.14689449999999998,0.4906865,-0.002234,-0.2284545,0.6961065,-0.079134,0.1276855,0.5101465000000001,-0.015214000000000005,0.2016455,0.7218365,-0.080244,-0.2499445,0.9128665,-0.155144,0.2043155,0.9438964999999999,-0.14313399999999998,-0.06771250000000001,-0.0017994999999999955,0.004871,0.06771250000000001,0.0017995000000000025,-0.004871,-0.1594245,-0.3475735,-0.046644000000000005,0.1230955,-0.3487435,-0.047684000000000004,-0.2040545,-0.6768535,0.008107000000000003,0.1515455,-0.6810435,-0.007716000000000001
38,-0.0176455,0.6851405,-0.052707500000000004,-0.1479685,0.4916705,-0.010336499999999998,-0.23175849999999998,0.6948005,-0.08747750000000001,0.1264515,0.5103905,-0.0247705,0.20231149999999998,0.7196205,-0.09066750000000001,-0.2556485,0.9114305,-0.1627375,0.20641150000000003,0.9414605,-0.1547975,-0.0683805,-0.0016305,0.004797499999999996,0.0683805,0.0016305,-0.004797500000000003,-0.1699485,-0.34633949999999997,-0.0490675,0.13741150000000002,-0.3479295,-0.0533275,-0.22836849999999997,-0.6694795,0.006547499999999998,0.17589149999999998,-0.6750794999999999,-0.011385500000000007
39,-0.018702999999999997,0.6838155,-0.0635985,-0.14893900000000002,0.49374550000000006,-0.0196495,-0.235559,0.6939955,-0.0965885,0.125281,0.5104855,-0.0349285,0.202951,0.7180055000000001,-0.10237850000000001,-0.26220899999999997,0.9096255000000001,-0.1735385,0.208651,0.9383855,-0.1680885,-0.06859599999999999,-0.0018084999999999976,0.004976499999999995,0.06859599999999999,0.0018085000000000045,-0.004976500000000002,-0.181509,-0.3439445,-0.052388500000000005,0.151151,-0.3459945,-0.05913850000000001,-0.253239,-0.6610245,0.0026964999999999975,0.200241,-0.6678145,-0.015516500000000003
40,-0.0194575,0.681198,-0.07373099999999999,-0.1496865,0.493898,-0.026741,-0.23959650000000002,0.6938979999999999,-0.105431,0.12405350000000001,0.5070779999999999,-0.043688000000000005,0.2035735,0.7162280000000001,-0.113481,-0.26948649999999996,0.908498,-0.183991,0.2110135,0.935838,-0.180721,-0.0685975,-0.0016760000000000039,0.004956000000000002,0.0685975,0.001675999999999997,-0.004956000000000002,-0.19310650000000001,-0.331522,-0.055460999999999996,0.1633635,-0.335332,-0.063461,-0.27720649999999997,-0.6468720000000001,-0.0010760000000000006,0.2231235,-0.655132,-0.019379999999999994
41,-0.020096500000000003,0.6837880000000001,-0.0824045,-0.1509835,0.49650800000000006,-0.0333025,-0.2441635,0.695558,-0.1135645,0.1225965,0.507698,-0.051154500000000006,0.2041065,0.718688,-0.1228645,-0.2784635,0.901628,-0.19501449999999998,0.2125165,0.935498,-0.1922045,-0.0686305,-0.0018819999999999948,0.004649500000000001,0.0686305,0.0018820000000000017,-0.004649500000000001,-0.2005435,-0.32740199999999997,-0.0566145,0.16851649999999999,-0.330912,-0.0653945,-0.2903335,-0.6456719999999999,-0.005538500000000002,0.2349965,-0.6558919999999999,-0.023822499999999996
42,-0.020606500000000003,0.6847314999999999,-0.09071749999999999,-0.1522525,0.4975715,-0.0398975,-0.2482625,0.6948114999999999,-0.12151750000000001,0.12164749999999999,0.5085215,-0.05774750000000001,0.2035675,0.7214115,-0.1322275,-0.2862825,0.8917314999999999,-0.2051675,0.2134275,0.9328715,-0.2038975,-0.0687845,-0.002292500000000003,0.004638499999999997,0.0687845,0.002292499999999996,-0.004638500000000004,-0.20321250000000002,-0.3253085,-0.0584875,0.1708075,-0.3289185,-0.0679175,-0.2947925,-0.6466685000000001,-0.011210499999999998,0.2390275,-0.6578685000000001,-0.027854500000000004
43,-0.021200999999999998,0.6855585,-0.09896749999999999,-0.15344599999999997,0.4983385,-0.046637500000000005,-0.250656,0.6945785,-0.1295075,0.12098400000000001,0.5093785,-0.0646475,0.203364,0.7236185,-0.1415875,-0.290126,0.8852385,-0.21338749999999998,0.214304,0.9301985,-0.21615749999999997,-0.069163,-0.002554500000000001,0.004115500000000001,0.069163,0.002554500000000001,-0.004115500000000001,-0.20294600000000002,-0.3244315,-0.0615075,0.171014,-0.3282015,-0.07179749999999999,-0.294806,-0.6471715,-0.018161500000000004,0.239184,-0.6597215,-0.0324075
44,-0.0207975,0.6847695,-0.11080899999999999,-0.1531555,0.4988595,-0.055899000000000004,-0.2508655,0.6925695,-0.138999,0.12114449999999999,0.5096695,-0.073569,0.2043845,0.7227494999999999,-0.153639,-0.2913555,0.8787395,-0.223679,0.2151645,0.9249895,-0.23025900000000002,-0.0694455,-0.0026095000000000007,0.003811000000000002,0.0694455,0.0026095000000000007,-0.003811000000000002,-0.20159549999999998,-0.3163405,-0.069059,0.1722745,-0.3223505,-0.08046900000000001,-0.2936055,-0.6415005,-0.027616,0.24056450000000001,-0.6551505,-0.039445999999999995
45,-0.0197055,0.6866055,-0.1187585,-0.15213949999999998,0.5002355,-0.06168849999999999,-0.24953949999999997,0.6927355,-0.1448685,0.12209049999999999,0.5098855,-0.0791785,0.2059205,0.7230255000000001,-0.16254849999999998,-0.2894395,0.8761855000000001,-0.2302185,0.2167905,0.9242055,-0.24084849999999997,-0.0695015,-0.0034934999999999966,0.0035685000000000022,0.0695015,0.0034935000000000105,-0.0035684999999999953,-0.1994395,-0.3181945,-0.07235849999999999,0.17410050000000002,-0.3113745,-0.0882485,-0.2914495,-0.6438245,-0.030919500000000003,0.24254050000000002,-0.6443745000000001,-0.04517449999999999
46,-0.019047,0.688316,-0.12228450000000002,-0.151505,0.501106,-0.06463450000000001,-0.248235,0.6953360000000001,-0.14748450000000002,0.12170500000000001,0.5137160000000001,-0.0832145,0.206535,0.7239760000000001,-0.1673645,-0.288195,0.877846,-0.2337445,0.217885,0.922366,-0.24565450000000003,-0.069031,-0.00427000000000001,0.003529499999999998,0.069031,0.004269999999999996,-0.003529500000000005,-0.195665,-0.31998400000000005,-0.0768645,0.170235,-0.301914,-0.09630450000000002,-0.281485,-0.646134,-0.0316505,0.235845,-0.634944,-0.0520245
47,-0.017695500000000003,0.688145,-0.124085,-0.1504625,0.498845,-0.067485,-0.24669249999999998,0.697105,-0.148795,0.1216275,0.517355,-0.085705,0.2048975,0.723105,-0.170555,-0.2867825,0.882235,-0.236885,0.2180175,0.924085,-0.24811499999999997,-0.0684825,-0.004310000000000008,0.003488999999999999,0.0684825,0.004309999999999994,-0.003488999999999999,-0.1892525,-0.32150500000000004,-0.08244499999999999,0.1642475,-0.293435,-0.10550499999999999,-0.2640625,-0.648765,-0.032936999999999994,0.2221175,-0.6259750000000001,-0.056275000000000006
48,-0.015629,0.6823815,-0.1242,-0.148618,0.4965815,-0.07001,-0.24435800000000002,0.6997715,-0.15091000000000002,0.12244200000000001,0.5127415000000001,-0.08799000000000001,0.204042,0.7206015,-0.17342000000000002,-0.283578,0.8863415,-0.23708,0.215752,0.9206015000000001,-0.24897000000000002,-0.068211,-0.0031085,0.0034309999999999966,0.068211,0.0031085,-0.0034310000000000035,-0.176298,-0.3252085,-0.0884,0.155752,-0.2970685,-0.11384,-0.237968,-0.6517585,-0.03482600000000001,0.208582,-0.6264084999999999,-0.05810000000000001
49,-0.0131695,0.6787115,-0.1177455,-0.1459345,0.4960715,-0.06563550000000001,-0.24040449999999997,0.7025415,-0.1459955,0.12358550000000001,0.5099215,-0.0836055,0.20240550000000002,0.7194115,-0.1692855,-0.2767945,0.8908915000000001,-0.23094550000000003,0.2120555,0.9180615,-0.24276550000000002,-0.0676995,-0.0027224999999999958,0.0035815000000000013,0.0676995,0.0027225000000000027,-0.0035815000000000013,-0.1596645,-0.3287585,-0.08742550000000002,0.1382655,-0.3008185,-0.11409550000000002,-0.20242449999999998,-0.6571085,-0.030583500000000007,0.1829055,-0.6295185,-0.056725500000000005
50,-0.011692499999999998,0.680289,-0.111003,-0.1434045,0.496629,-0.058802999999999994,-0.23528449999999998,0.700839,-0.139013,0.1244155,0.5106890000000001,-0.077283,0.19966550000000002,0.7217790000000001,-0.161723,-0.26800450000000003,0.893509,-0.22423299999999996,0.20726550000000002,0.925339,-0.23505299999999996,-0.0668495,-0.0025179999999999994,0.003909000000000003,0.0668495,0.0025180000000000063,-0.003908999999999996,-0.14444449999999998,-0.335661,-0.08470299999999999,0.1211255,-0.305981,-0.10948299999999998,-0.16709449999999998,-0.667481,-0.024252999999999997,0.15347550000000001,-0.634141,-0.05051299999999999
51,-0.0105835,0.6824675,-0.10379899999999999,-0.14126249999999999,0.4974375,-0.051189,-0.23242249999999998,0.7022675,-0.131359,0.1251775,0.5108275,-0.07015899999999999,0.1987675,0.7239075,-0.153789,-0.2639725,0.8908175,-0.215169,0.2084175,0.9250375,-0.227269,-0.0663485,-0.0021665000000000018,0.004271999999999998,0.0663485,0.0021665000000000018,-0.004271999999999998,-0.1294725,-0.3437525,-0.079669,0.1066985,-0.3138425,-0.10257899999999999,-0.1356625,-0.6774625,-0.018596,0.1251775,-0.6436025,-0.043589
52,-0.009299499999999999,0.6876165000000001,-0.09648549999999999,-0.1389435,0.5002865000000001,-0.0436555,-0.23010350000000002,0.7024665,-0.12345550000000001,0.1260365,0.5151565,-0.06295550000000001,0.1999165,0.7266665,-0.14580549999999998,-0.2631635,0.8862865000000001,-0.20470550000000004,0.21253650000000002,0.9237164999999999,-0.21807550000000003,-0.0659075,-0.0032714999999999966,0.004740499999999995,0.0659075,0.0032714999999999966,-0.004740499999999995,-0.1158535,-0.35056350000000003,-0.07358550000000001,0.0940115,-0.3209735,-0.0943655,-0.1090335,-0.6871434999999999,-0.012014499999999997,0.1016145,-0.6547235,-0.036865499999999995
53,-0.009435999999999996,0.6925479999999999,-0.08960549999999999,-0.138203,0.5010279999999999,-0.0363855,-0.22920300000000002,0.7022079999999999,-0.1126255,0.126277,0.519438,-0.056055499999999994,0.201267,0.726938,-0.13669550000000003,-0.261453,0.8850079999999999,-0.19064550000000002,0.216207,0.9270579999999999,-0.20680550000000003,-0.065502,-0.0037780000000000036,0.005125500000000005,0.065502,0.0037780000000000036,-0.005125500000000005,-0.107543,-0.348942,-0.0661355,0.088882,-0.319282,-0.08585549999999999,-0.094033,-0.687392,-0.002974500000000005,0.092961,-0.655412,-0.030815499999999996
54,-0.008832999999999994,0.69662,-0.081101,-0.13722199999999998,0.5015299999999999,-0.02655100000000002,-0.228922,0.69604,-0.09934100000000001,0.12756800000000001,0.52399,-0.046851000000000004,0.202948,0.72599,-0.124451,-0.26005199999999995,0.8787699999999999,-0.17461100000000002,0.220488,0.9285,-0.190181,-0.065916,-0.0047699999999999965,0.005320999999999992,0.065916,0.0047699999999999965,-0.005321000000000006,-0.10594200000000001,-0.34603,-0.05499100000000001,0.090462,-0.31639,-0.07506100000000002,-0.092292,-0.68562,0.010053999999999993,0.094389,-0.65332,-0.02206100000000001
55,-0.008314000000000002,0.7001999999999999,-0.07442,-0.1371,0.50234,-0.017799999999999996,-0.22995,0.69265,-0.08685,0.12821,0.52703,-0.03851,0.20406,0.7226,-0.11284999999999999,-0.26049,0.8753799999999999,-0.16010999999999997,0.22419999999999998,0.92511,-0.17439,-0.06593399999999999,-0.004830000000000001,0.005419999999999994,0.06593399999999999,0.004830000000000001,-0.005419999999999994,-0.10503000000000001,-0.34473,-0.04301000000000001,0.091341,-0.31444,-0.06349999999999999,-0.09135000000000001,-0.68523,0.022470000000000004,0.094949,-0.65257,-0.014839999999999992
56,-0.0081555,0.69889,-0.06660000000000002,-0.1370905,0.50021,-0.009840000000000002,-0.2314705,0.69455,-0.07518,0.1283395,0.5229400000000001,-0.031060000000000004,0.20459950000000002,0.72074,-0.09981000000000001,-0.26607050000000004,0.87827,-0.14448,0.2312495,0.9192000000000001,-0.15500999999999998,-0.0663575,-0.004500000000000004,0.00535999999999999,0.0663575,0.004500000000000004,-0.005360000000000004,-0.1048005,-0.35292,-0.034290000000000015,0.0915105,-0.32245,-0.055529999999999996,-0.09093050000000001,-0.69224,0.033771999999999996,0.09511249999999999,-0.65914,-0.006950000000000012
57,-0.009242499999999997,0.6975585,-0.06237999999999999,-0.1388375,0.49986849999999994,-0.006269999999999998,-0.2400275,0.6951685,-0.06509999999999999,0.1272425,0.5205385,-0.02693000000000001,0.2127025,0.7179685,-0.08741000000000002,-0.2864975,0.8835284999999999,-0.12892,0.2509425,0.9154585,-0.13718999999999998,-0.0663175,-0.003668500000000005,0.0053399999999999975,0.0663175,0.003668500000000005,-0.0053399999999999975,-0.1066475,-0.35883149999999997,-0.02754999999999999,0.0931135,-0.33429149999999996,-0.05162,-0.0953475,-0.6959315,0.040624999999999994,0.1012455,-0.6686715,-0.0029800000000000104
58,-0.009843499999999995,0.693815,-0.062325000000000005,-0.1401255,0.49965499999999996,-0.008345000000000005,-0.2503155,0.691045,-0.05694500000000001,0.12827449999999999,0.516335,-0.027085000000000012,0.2229545,0.7167749999999999,-0.07781500000000001,-0.3124655,0.878185,-0.11517500000000001,0.2768345,0.9107549999999999,-0.121215,-0.0656895,-0.0026230000000000003,0.005294999999999994,0.0656895,0.0026230000000000003,-0.005294999999999994,-0.11495549999999999,-0.359915,-0.025435,0.1049495,-0.33940499999999996,-0.053904999999999995,-0.11489549999999998,-0.693365,0.042702000000000004,0.12491150000000001,-0.671855,-0.0026550000000000046
59,-0.010487,0.6900845,-0.061960000000000015,-0.14217400000000002,0.49881450000000005,-0.010050000000000003,-0.26217399999999996,0.6829045,-0.04941999999999999,0.128996,0.5132445,-0.026889999999999997,0.236206,0.7109045,-0.06841,-0.339894,0.8648545,-0.10021,0.30481600000000003,0.8989245,-0.10411000000000001,-0.065507,-0.002301499999999998,0.005279999999999993,0.065507,0.002301499999999998,-0.005280000000000007,-0.12624400000000002,-0.3594755,-0.023630000000000012,0.117923,-0.3428455,-0.05768999999999999,-0.13961400000000002,-0.6895255,0.044528,0.15412599999999999,-0.6745355,-0.003049999999999997
60,-0.0114405,0.68949,-0.06123000000000001,-0.1448335,0.496,-0.01047999999999999,-0.27529349999999997,0.67559,-0.042940000000000006,0.1306765,0.51247,-0.02665999999999999,0.25001650000000003,0.70375,-0.058370000000000005,-0.3735535,0.85083,-0.08685999999999999,0.3360765,0.88406,-0.08851999999999999,-0.0653675,-0.0014300000000000007,0.005269999999999997,0.0653675,0.0014300000000000007,-0.005269999999999997,-0.1446035,-0.34741,-0.02468999999999999,0.1321565,-0.33866,-0.059219999999999995,-0.1707035,-0.6741199999999999,0.04711799999999999,0.1833765,-0.66826,-0.0038600000000000023
61,-0.010954999999999993,0.6906650000000001,-0.06198500000000001,-0.146032,0.494335,-0.011385000000000006,-0.288272,0.666695,-0.03775500000000001,0.133358,0.510185,-0.027334999999999998,0.26546800000000004,0.6979150000000001,-0.05018500000000001,-0.406962,0.834275,-0.07592500000000002,0.371808,0.877255,-0.075185,-0.06586700000000001,-0.0005269999999999997,0.005324999999999996,0.06586700000000001,0.0005269999999999997,-0.00532500000000001,-0.161492,-0.34132500000000005,-0.024834999999999996,0.149248,-0.34010500000000005,-0.060175000000000006,-0.201102,-0.660775,0.048817999999999986,0.21201799999999998,-0.666075,-0.005485000000000004
62,-0.010409000000000002,0.6930325,-0.06346000000000002,-0.147486,0.4963225,-0.011929999999999996,-0.300066,0.6575425,-0.03371000000000002,0.136024,0.5083425,-0.027630000000000016,0.28173400000000004,0.6957425,-0.045660000000000006,-0.438396,0.8179825000000001,-0.06753,0.40306400000000003,0.8669325,-0.06686,-0.066493,-0.00031649999999999734,0.0052299999999999985,0.066493,0.0003165000000000043,-0.005230000000000012,-0.174596,-0.3381875,-0.022559999999999997,0.164374,-0.3427475,-0.058130000000000015,-0.23012600000000002,-0.6546575,0.050296999999999994,0.23935399999999998,-0.6665375,-0.007989999999999997
63,-0.010505999999999998,0.6974155,-0.06551,-0.149948,0.4962055,-0.012260000000000007,-0.308868,0.6515755,-0.031140000000000015,0.138342,0.5115155,-0.02747999999999999,0.292292,0.6954055,-0.04243999999999999,-0.459468,0.8112054999999999,-0.06205000000000001,0.423852,0.8712955,-0.0634,-0.066664,-0.0003814999999999999,0.004900000000000002,0.066664,0.0003814999999999999,-0.004900000000000002,-0.183248,-0.3376245,-0.018450000000000008,0.173512,-0.3425745,-0.05563,-0.249938,-0.6561245,0.051843,0.25890199999999997,-0.6672345000000001,-0.009840000000000002
64,-0.010790999999999999,0.702581,-0.06703,-0.15245699999999998,0.498351,-0.012750000000000011,-0.313877,0.6455609999999999,-0.03028,0.140183,0.516111,-0.027609999999999996,0.298763,0.696321,-0.04049,-0.469447,0.805591,-0.05889,0.434803,0.876341,-0.06203,-0.066881,-0.00028500000000000747,0.004609999999999989,0.066881,0.0002849999999999936,-0.004610000000000003,-0.188377,-0.336219,-0.014750000000000013,0.17963300000000001,-0.341189,-0.05154,-0.260237,-0.657179,0.053187999999999985,0.27070299999999997,-0.667479,-0.009420000000000012
65,-0.011246500000000003,0.702935,-0.06884499999999999,-0.1546945,0.499105,-0.014284999999999992,-0.31638449999999996,0.645725,-0.030904999999999988,0.1407555,0.517545,-0.02860499999999999,0.2961855,0.694325,-0.04214499999999999,-0.47200450000000005,0.799955,-0.060305,0.43222550000000004,0.873315,-0.06368499999999999,-0.0668815,-0.0003969999999999946,0.004455000000000001,0.0668815,0.0003969999999999946,-0.004455000000000001,-0.1906745,-0.335755,-0.01253499999999999,0.1773355,-0.340835,-0.049405000000000004,-0.26271449999999996,-0.659405,0.052850999999999995,0.2682755,-0.668485,-0.009124999999999994
66,-0.012257,0.6982105000000001,-0.070995,-0.15657000000000001,0.4935405,-0.01636499999999999,-0.31915,0.6444805,-0.03292499999999998,0.14042,0.5175905000000001,-0.029234999999999983,0.29342,0.6939804999999999,-0.04416499999999998,-0.47477,0.7940605000000001,-0.06232499999999999,0.42946,0.8707005000000001,-0.06570499999999999,-0.066844,-0.00038050000000000583,0.004695000000000005,0.066844,0.00038049999999999196,-0.004694999999999991,-0.19316,-0.3357695,-0.010774999999999993,0.17493999999999998,-0.3400295,-0.046375,-0.26535000000000003,-0.6598394999999999,0.052589000000000004,0.26569,-0.6755095,-0.008674999999999988
67,-0.012839499999999997,0.691501,-0.072545,-0.1571715,0.490911,-0.017375,-0.32107149999999995,0.647011,-0.03437499999999999,0.1413085,0.518321,-0.029065000000000007,0.2914985,0.6957110000000001,-0.04561499999999999,-0.47669150000000005,0.801041,-0.063775,0.42753850000000004,0.872151,-0.06715499999999999,-0.0668735,-0.0005160000000000026,0.0050150000000000056,0.0668735,0.0005160000000000026,-0.0050150000000000056,-0.1948015,-0.336039,-0.008495000000000003,0.1733685,-0.339819,-0.04314499999999999,-0.26713149999999997,-0.660439,0.053003,0.2640085,-0.677129,-0.0067949999999999955
68,-0.013432,0.6891360000000001,-0.072385,-0.156139,0.49084599999999995,-0.016454999999999997,-0.314329,0.651456,-0.036355,0.141291,0.517646,-0.027774999999999994,0.288761,0.696936,-0.043855000000000005,-0.459339,0.808466,-0.06654499999999999,0.413701,0.870796,-0.070105,-0.066678,-0.00038799999999999946,0.005055000000000004,0.066678,0.00038799999999999946,-0.00505499999999999,-0.18847899999999998,-0.336264,-0.009354999999999988,0.170541,-0.340214,-0.04153499999999999,-0.25600900000000004,-0.659454,0.05275600000000001,0.258461,-0.677724,-0.0011249999999999871
69,-0.013649499999999995,0.6916335,-0.06989999999999999,-0.1545995,0.49465349999999997,-0.014089999999999991,-0.30326949999999997,0.6564735,-0.03608999999999998,0.1403405,0.5189135,-0.026249999999999996,0.2803105,0.7037035,-0.04419999999999999,-0.4342295,0.8157635,-0.07149,0.3904605,0.8819535000000001,-0.07493,-0.0667935,-0.0005415000000000003,0.00520000000000001,0.0667935,0.0005415000000000003,-0.005199999999999996,-0.1793995,-0.33687649999999997,-0.010759999999999992,0.1629305,-0.3408565,-0.03986999999999999,-0.2373295,-0.6600965,0.051550000000000006,0.2410905,-0.6778664999999999,0.004420000000000007
70,-0.0132625,0.6884604999999999,-0.06531999999999999,-0.1535805,0.49277050000000006,-0.011360000000000009,-0.29797049999999997,0.6661904999999999,-0.0393,0.1396095,0.5177805,-0.02556,0.2734495,0.7107905000000001,-0.04532,-0.4152705,0.8270005,-0.07836000000000001,0.37249950000000004,0.8914305,-0.07922000000000001,-0.06668550000000001,-0.0005194999999999922,0.005470000000000003,0.06668550000000001,0.0005195000000000061,-0.005470000000000003,-0.17210050000000002,-0.3399995,-0.013670000000000002,0.1547095,-0.3434695,-0.03978999999999999,-0.2205905,-0.6642094999999999,0.050339999999999996,0.2253695,-0.6812795,0.009718999999999992
71,-0.012689500000000001,0.6861815,-0.060737999999999986,-0.1529555,0.4923315,-0.008987999999999996,-0.29327549999999997,0.6757614999999999,-0.04239799999999999,0.1390345,0.5177115000000001,-0.024197999999999997,0.2671945,0.7177815000000001,-0.047037999999999996,-0.4025555,0.8436414999999999,-0.08488799999999999,0.36075450000000003,0.9070514999999999,-0.08410799999999999,-0.0666455,-0.0005144999999999872,0.0054479999999999945,0.0666455,0.0005145000000000011,-0.0054479999999999945,-0.1650055,-0.3460185,-0.015497999999999998,0.14720450000000002,-0.3485385,-0.04003799999999999,-0.20872549999999998,-0.6708585,0.050026,0.2077945,-0.6882485,0.014817999999999998
72,-0.012422000000000004,0.684715,-0.056256500000000015,-0.15174200000000002,0.49314499999999994,-0.0059565000000000035,-0.28981199999999996,0.681615,-0.044896500000000006,0.138568,0.517245,-0.020786500000000013,0.262128,0.723595,-0.04890650000000002,-0.39142200000000005,0.858155,-0.0881565,0.349838,0.920165,-0.0855465,-0.06669,-0.00027499999999999747,0.005406499999999995,0.06669,0.00027499999999999747,-0.0054065000000000085,-0.157512,-0.356385,-0.014546500000000004,0.140078,-0.357515,-0.03738650000000002,-0.199692,-0.684045,0.05021849999999999,0.19486799999999999,-0.701115,0.018683499999999992
73,-0.012131999999999997,0.6839999999999999,-0.051676500000000014,-0.15061999999999998,0.49234000000000006,-0.003226500000000007,-0.28656000000000004,0.6829099999999999,-0.04693650000000002,0.1377,0.51721,-0.017096500000000014,0.25828999999999996,0.72577,-0.050346500000000016,-0.38222,0.8659000000000001,-0.0908565,0.34304999999999997,0.92119,-0.08705650000000001,-0.066817,-0.00036999999999999533,0.005316499999999988,0.066817,0.0003700000000000092,-0.005316500000000002,-0.15226,-0.35965,-0.012746500000000008,0.13515,-0.36085999999999996,-0.0325665,-0.19345,-0.6916500000000001,0.05156349999999999,0.18434,-0.7068300000000001,0.023878499999999997
74,-0.011633999999999999,0.689715,-0.04667,-0.150008,0.492595,-2.3000000000009124e-05,-0.285798,0.6826749999999999,-0.047409999999999994,0.137542,0.516645,-0.013120000000000007,0.256192,0.7236549999999999,-0.05034000000000001,-0.382398,0.8677349999999999,-0.09236000000000001,0.34265199999999996,0.9236749999999999,-0.08855,-0.06695899999999999,-0.0002449999999999952,0.005110000000000003,0.06695899999999999,0.0002449999999999952,-0.005110000000000003,-0.152398,-0.356885,-0.010650000000000007,0.134862,-0.359545,-0.029160000000000005,-0.193578,-0.688025,0.053732999999999996,0.182792,-0.702585,0.029681
75,-0.011284,0.689975,-0.04243250000000001,-0.149495,0.492595,0.0023304999999999992,-0.28614500000000004,0.6826749999999999,-0.04634250000000001,0.13709500000000002,0.516645,-0.010662500000000005,0.255845,0.7236549999999999,-0.04943249999999999,-0.382975,0.8677349999999999,-0.09452250000000001,0.342105,0.9236749999999999,-0.0903825,-0.067008,-0.0002449999999999952,0.004872500000000002,0.067008,0.0002449999999999952,-0.004872500000000002,-0.15274500000000002,-0.35629500000000003,-0.009752499999999997,0.134565,-0.359495,-0.027562500000000004,-0.19388499999999997,-0.683615,0.0551455,0.18273499999999998,-0.698825,0.0346215
76,-0.010762500000000005,0.689975,-0.038875999999999994,-0.14924150000000003,0.492595,0.00381200000000001,-0.2861015,0.6826749999999999,-0.043126,0.1370185,0.516645,-0.008936,0.2558285,0.7236549999999999,-0.04696600000000001,-0.3831215,0.8677349999999999,-0.093806,0.3419585,0.9236749999999999,-0.089556,-0.0668315,-0.0002449999999999952,0.004542000000000004,0.0668315,0.0002449999999999952,-0.0045419999999999905,-0.15296150000000003,-0.35629500000000003,-0.010015999999999997,0.13416849999999997,-0.359495,-0.03022599999999999,-0.19393149999999998,-0.683615,0.05727000000000001,0.18278850000000002,-0.698825,0.038102000000000004
77,-0.010098999999999999,0.688275,-0.03613250000000001,-0.14925,0.492595,0.0037134999999999946,-0.28574,0.6826749999999999,-0.0382325,0.13718,0.516645,-0.007051500000000002,0.25632,0.723455,-0.0401725,-0.38280000000000003,0.8677349999999999,-0.08939250000000001,0.34370999999999996,0.9236749999999999,-0.0817725,-0.066841,-0.0002449999999999952,0.004413500000000001,0.066841,0.0002449999999999952,-0.004413500000000001,-0.15308,-0.35629500000000003,-0.010192500000000007,0.13398,-0.359495,-0.03267250000000001,-0.19392,-0.6848850000000001,0.060704499999999995,0.18285,-0.702735,0.0388315
78,-0.009900500000000005,0.68792,-0.03452000000000001,-0.1490675,0.49276,0.0033009999999999845,-0.2877775,0.6794,-0.03338000000000001,0.1370425,0.51691,-0.005432000000000006,0.25983249999999997,0.72049,-0.03387000000000001,-0.3869675,0.86065,-0.08404,0.3474425,0.9180100000000001,-0.07271000000000002,-0.0666715,-0.0001799999999999996,0.003809999999999994,0.0666715,0.0001799999999999996,-0.003810000000000008,-0.1579575,-0.35233,-0.010261000000000006,0.1358225,-0.35538,-0.03409000000000001,-0.2017575,-0.68045,0.06493499999999999,0.1897125,-0.7005,0.038582999999999985
79,-0.009770999999999998,0.690197,-0.0362715,-0.148864,0.493597,0.0018075000000000035,-0.29049400000000003,0.675997,-0.029731499999999994,0.137416,0.517817,-0.004862500000000006,0.26491600000000004,0.717457,-0.0286415,-0.39658400000000005,0.857947,-0.08000149999999999,0.352386,0.907907,-0.06434150000000001,-0.066366,-0.0003030000000000116,0.0037385000000000057,0.066366,0.0003029999999999977,-0.0037385000000000057,-0.165094,-0.350653,-0.009918499999999997,0.138966,-0.353343,-0.034671499999999994,-0.216464,-0.6763730000000001,0.0691705,0.200926,-0.6958230000000001,0.037768499999999997
80,-0.008895000000000002,0.692074,-0.0378585,-0.14933400000000002,0.495564,0.0007784999999999875,-0.300574,0.674894,-0.026038500000000006,0.13924599999999998,0.517514,-0.004688500000000012,0.277156,0.714774,-0.025358500000000006,-0.423244,0.855384,-0.07423850000000001,0.379436,0.906124,-0.05688850000000001,-0.066119,0.00014399999999999136,0.0035594999999999932,0.066119,-0.00014400000000000523,-0.003559500000000007,-0.17898399999999998,-0.348306,-0.0050635000000000124,0.14950599999999997,-0.35222600000000004,-0.03390850000000001,-0.24746400000000002,-0.672436,0.07491849999999999,0.22454600000000002,-0.692296,0.03651649999999999
81,-0.007268499999999999,0.6975325,-0.03945149999999999,-0.14930749999999998,0.5005425,-0.0006784999999999985,-0.3068575,0.6769325,-0.02623149999999999,0.1412525,0.5170525,-0.006309499999999996,0.2859925,0.7142325,-0.023681499999999994,-0.43865750000000003,0.8564925,-0.07046149999999998,0.39909249999999996,0.9068225,-0.05117149999999998,-0.0663345,0.00014849999999999586,0.003446500000000005,0.0663345,-0.00014850000000000974,-0.0034464999999999912,-0.18852750000000001,-0.3459475,-0.0004904999999999909,0.15804249999999997,-0.3513075,-0.03279149999999999,-0.2689375,-0.6689775,0.0792635,0.2429425,-0.6825475,0.034591500000000004
82,-0.005040000000000001,0.7055849999999999,-0.040572999999999984,-0.148016,0.500965,-0.0017259999999999914,-0.304566,0.6728949999999999,-0.02735299999999999,0.14254399999999998,0.517015,-0.0073569999999999885,0.288284,0.711375,-0.02480299999999999,-0.436286,0.850505,-0.07047299999999998,0.40138399999999996,0.9006149999999999,-0.05229299999999998,-0.066476,5.1999999999996493e-05,0.0034190000000000054,0.066476,-5.1999999999996493e-05,-0.0034189999999999915,-0.186776,-0.344865,0.0008450000000000124,0.16047399999999998,-0.350925,-0.031952999999999995,-0.266646,-0.668155,0.078142,0.245054,-0.679675,0.03100400000000001
83,-0.0023274999999999997,0.7075484999999999,-0.04193899999999999,-0.14676850000000002,0.5006085,-0.002565999999999999,-0.3024185,0.6680185000000001,-0.028258999999999992,0.14459149999999998,0.5174185,-0.008256,0.2904315,0.7097884999999999,-0.025708999999999996,-0.4341385,0.8440684999999999,-0.07137899999999998,0.4035315,0.8992484999999999,-0.05319899999999998,-0.0667845,4.949999999999399e-05,0.0033450000000000008,0.0667845,-4.950000000000787e-05,-0.0033450000000000008,-0.1845385,-0.34473149999999997,0.0011369999999999991,0.1626915,-0.35101150000000003,-0.03191899999999999,-0.26449849999999997,-0.6697015,0.077236,0.2471915,-0.6853115000000001,0.029995000000000008
84,-0.0004009999999999986,0.700975,-0.042741500000000016,-0.145869,0.502095,-0.0036325000000000107,-0.30046900000000004,0.669875,-0.028821500000000014,0.146521,0.518685,-0.009093500000000004,0.292411,0.709855,-0.025781500000000013,-0.432159,0.8466549999999999,-0.0714515,0.40551099999999995,0.8968349999999999,-0.0532715,-0.06639400000000001,0.0004150000000000126,0.0032424999999999954,0.06639400000000001,-0.0004149999999999987,-0.0032425000000000093,-0.182559,-0.344515,0.0010644999999999821,0.164671,-0.35148500000000005,-0.031991500000000006,-0.262519,-0.673805,0.07713849999999998,0.249171,-0.6913750000000001,0.02992249999999999
85,0.0005779999999999987,0.6958375,-0.044392000000000015,-0.14472,0.4985075,-0.004905000000000007,-0.29355,0.6704975,-0.029562000000000005,0.14767,0.5241375,-0.010425000000000004,0.28884,0.7116175,-0.029562000000000005,-0.42144000000000004,0.8542375,-0.072302,0.39579,0.9051175,-0.05690200000000001,-0.065595,-0.00016349999999999698,0.0034249999999999975,0.065595,0.00016349999999999698,-0.0034250000000000114,-0.18132,-0.3457425,0.0009139999999999843,0.16105,-0.35121250000000004,-0.032352000000000006,-0.25953000000000004,-0.6751225,0.076859,0.24215,-0.6944425,0.02917099999999999
86,0.0019654999999999985,0.6886395,-0.04617500000000002,-0.1428995,0.4962495,-0.00619500000000002,-0.2841295,0.6727195,-0.03160500000000001,0.1487705,0.5252195,-0.013112000000000013,0.2817505,0.7144895,-0.03608500000000002,-0.4013695,0.8580895000000001,-0.07439500000000002,0.3777705,0.9047695,-0.06253500000000001,-0.0648725,-2.7499999999999747e-05,0.0037669999999999926,0.0648725,2.7499999999999747e-05,-0.0037670000000000065,-0.17614950000000001,-0.3463205,0.0005169999999999897,0.1546705,-0.3516605,-0.03392500000000001,-0.24659950000000003,-0.6746505,0.07493999999999999,0.23318049999999999,-0.6955205,0.028410999999999985
87,0.0035639999999999995,0.6842955000000001,-0.04770600000000001,-0.140751,0.4959555,-0.008222999999999994,-0.271161,0.6769755000000001,-0.036696000000000006,0.150069,0.5211655000000001,-0.015567999999999999,0.269919,0.7137555,-0.04556600000000001,-0.372081,0.8628355,-0.08039600000000001,0.34980900000000004,0.9052555,-0.07293599999999999,-0.064654,0.0004095000000000071,0.004156999999999994,0.064654,-0.0004094999999999932,-0.004156999999999994,-0.167971,-0.34627450000000004,-0.00032899999999999596,0.146019,-0.3520445,-0.035615999999999995,-0.229241,-0.6745545,0.072283,0.217559,-0.6957745,0.027312999999999997
88,0.004325999999999998,0.6805235,-0.0492455,-0.138412,0.49454349999999997,-0.010066499999999992,-0.258852,0.6836635,-0.04460549999999999,0.150918,0.5155734999999999,-0.019505499999999995,0.257308,0.7121635,-0.0564655,-0.34295200000000003,0.8682234999999999,-0.08930549999999998,0.321158,0.9094034999999999,-0.0863755,-0.06496299999999999,0.0004674999999999957,0.004654500000000006,0.06496299999999999,-0.0004674999999999957,-0.004654499999999992,-0.158662,-0.3471365,-0.002760499999999999,0.135818,-0.3527365,-0.03812549999999999,-0.207222,-0.6793365,0.06765550000000001,0.199348,-0.6962065000000001,0.025818500000000008
89,0.004509500000000001,0.676484,-0.05187900000000001,-0.13648949999999999,0.49557399999999996,-0.012140999999999999,-0.24775950000000002,0.688094,-0.05504899999999999,0.1502905,0.513324,-0.024178999999999992,0.2434805,0.717734,-0.07130899999999998,-0.3101295,0.879544,-0.102549,0.2905105,0.917704,-0.105579,-0.0652065,0.00045200000000000795,0.005088000000000009,0.0652065,-0.0004519999999999941,-0.005087999999999995,-0.1463495,-0.352056,-0.01096599999999999,0.1211805,-0.356156,-0.04332899999999999,-0.18008949999999999,-0.6873859999999999,0.060395000000000004,0.1729205,-0.700546,0.023781000000000004
90,0.0046535,0.673381,-0.054293499999999995,-0.1354685,0.49746099999999993,-0.013540499999999997,-0.2391785,0.693311,-0.06383349999999999,0.14821150000000002,0.510041,-0.027603500000000003,0.2321415,0.719571,-0.0839635,-0.2832585,0.889421,-0.11409349999999999,0.2676015,0.920871,-0.12336349999999999,-0.06561550000000001,0.0004809999999999953,0.005609500000000003,0.06561550000000001,-0.0004809999999999953,-0.005609500000000003,-0.1324685,-0.359179,-0.017563499999999996,0.1072835,-0.36268900000000004,-0.04645350000000001,-0.15249849999999998,-0.700569,0.0535075,0.1440915,-0.709469,0.022267500000000003
91,0.005105499999999999,0.6764764999999999,-0.053644499999999984,-0.1342385,0.4983464999999999,-0.012402499999999997,-0.23412850000000002,0.6953564999999999,-0.0694245,0.1462315,0.5105065,-0.02853449999999999,0.2242215,0.7194564999999999,-0.09416449999999998,-0.2593685,0.8914464999999999,-0.1252345,0.2496415,0.9252765,-0.1394645,-0.0660045,0.0007054999999999978,0.005820500000000006,0.0660045,-0.0007055000000000117,-0.005820499999999992,-0.11733850000000001,-0.35961350000000003,-0.01858449999999999,0.09433849999999999,-0.36312350000000004,-0.04495449999999998,-0.1234385,-0.7078535,0.049544500000000005,0.1156655,-0.7120035,0.02233850000000001
92,0.005242499999999999,0.6803865,-0.052425500000000014,-0.1332955,0.4983464999999999,-0.0107545,-0.23329550000000002,0.6953564999999999,-0.0740555,0.14447449999999998,0.5114065,-0.029215500000000005,0.2235845,0.7194564999999999,-0.10335550000000002,-0.2417255,0.8914464999999999,-0.1349355,0.2397745,0.9252765,-0.1563755,-0.0660365,0.0007054999999999978,0.006019499999999997,0.0660365,-0.0007055000000000117,-0.006019500000000011,-0.1043055,-0.35961350000000003,-0.0184555,0.0833425,-0.36312350000000004,-0.045015500000000014,-0.0968755,-0.7130335,0.046308499999999996,0.0899065,-0.7140935,0.022586499999999995
93,0.005520500000000003,0.6838965,-0.05120699999999999,-0.1325055,0.4983464999999999,-0.008827000000000002,-0.2337055,0.6953564999999999,-0.07795699999999998,0.14337450000000002,0.5120264999999999,-0.028896999999999992,0.22286450000000002,0.7194564999999999,-0.11161700000000001,-0.2298555,0.8914464999999999,-0.148947,0.2362245,0.9252765,-0.174137,-0.0659225,0.0007054999999999978,0.006026000000000004,0.0659225,-0.0007055000000000117,-0.006026000000000004,-0.0925755,-0.35961350000000003,-0.018597000000000002,0.0756395,-0.36312350000000004,-0.04576699999999999,-0.0744165,-0.7181835000000001,0.043656,0.06951550000000001,-0.7163035,0.02303100000000001
94,0.005525500000000001,0.6823764999999999,-0.049606,-0.1318835,0.4983464999999999,-0.006886000000000003,-0.23471350000000002,0.6953564999999999,-0.08342600000000001,0.1428065,0.5093065,-0.028286000000000006,0.2219965,0.7194564999999999,-0.11508600000000001,-0.2315735,0.8914464999999999,-0.163906,0.2347465,0.9252765,-0.185776,-0.0655475,0.0007054999999999978,0.005825999999999998,0.0655475,-0.0007055000000000117,-0.005825999999999998,-0.08788349999999999,-0.36251350000000004,-0.018706,0.07485750000000001,-0.36566350000000003,-0.04806600000000001,-0.0695465,-0.7236935,0.046301999999999996,0.0689935,-0.7209935000000001,0.024252999999999997
95,0.005562000000000001,0.6826490000000001,-0.048482499999999984,-0.13145199999999999,0.496649,-0.007832499999999992,-0.236382,0.689079,-0.0917625,0.141928,0.507909,-0.026022500000000004,0.221648,0.714009,-0.11656249999999999,-0.23417200000000002,0.885339,-0.1849925,0.232648,0.915789,-0.2000425,-0.065247,0.00021799999999999597,0.0055125000000000035,0.065247,-0.00021800000000000291,-0.00551249999999999,-0.086242,-0.365641,-0.017842499999999997,0.07369300000000001,-0.364141,-0.04967249999999998,-0.068599,-0.728681,0.0502915,0.068007,-0.716781,0.025065500000000004
96,0.0057319999999999975,0.6889435,-0.04879450000000002,-0.13111,0.4947935,-0.0089645,-0.23982,0.6757835,-0.1014545,0.14081,0.5068535,-0.02484449999999999,0.22497,0.7021235,-0.11603450000000001,-0.23712000000000003,0.8713135,-0.20851450000000002,0.23054,0.8978535,-0.2123245,-0.065067,0.00010849999999999749,0.004614499999999994,0.065067,-0.00010850000000000443,-0.0046145000000000075,-0.08554,-0.3668765,-0.017034500000000008,0.07216,-0.36140649999999996,-0.0541345,-0.067802,-0.7221164999999999,0.053536499999999994,0.066835,-0.7087865,0.0254895
97,0.006135499999999997,0.6963435,-0.049045000000000005,-0.1317085,0.49724349999999995,-0.010635000000000006,-0.2495985,0.6582534999999999,-0.11177500000000001,0.13985150000000002,0.5008735,-0.022215000000000013,0.2389115,0.6826935,-0.11322499999999999,-0.24319850000000004,0.8445235,-0.233555,0.2474115,0.8665735,-0.22457500000000002,-0.0650955,0.0003814999999999999,0.003474999999999992,0.0650955,-0.0003814999999999999,-0.003475000000000006,-0.0851985,-0.3633365,-0.016505000000000006,0.07269049999999999,-0.3575565,-0.05910499999999999,-0.0684875,-0.7144265,0.056826999999999996,0.06660849999999999,-0.7010965,0.024939000000000003
98,0.006012,0.7023294999999999,-0.050125,-0.132801,0.4978995,-0.012554999999999997,-0.256301,0.6346895,-0.120055,0.139799,0.49976950000000003,-0.019474999999999992,0.253589,0.6564595,-0.110125,-0.25168100000000004,0.8111094999999999,-0.26032500000000003,0.270049,0.8349995,-0.234685,-0.065318,-0.00019349999999999923,0.002465000000000009,0.065318,0.00019349999999999923,-0.002464999999999995,-0.085244,-0.35963049999999996,-0.014965000000000006,0.07653499999999999,-0.3521705,-0.063965,-0.06958600000000001,-0.7080105,0.060695000000000006,0.069604,-0.6946805,0.02096400000000001
99,0.006844000000000004,0.706237,-0.05184999999999998,-0.13460599999999998,0.49604699999999996,-0.013889999999999986,-0.261176,0.6028969999999999,-0.12417,0.139654,0.502147,-0.016460000000000002,0.26967399999999997,0.628667,-0.10579,-0.261786,0.7680669999999999,-0.28559999999999997,0.299934,0.7915169999999999,-0.23581,-0.06574,-0.0009120000000000031,0.001590000000000008,0.06574,0.0009119999999999961,-0.0015899999999999942,-0.087426,-0.35579299999999997,-0.012219999999999981,0.082799,-0.347613,-0.06914999999999999,-0.071467,-0.703453,0.065961,0.077991,-0.686983,0.013450000000000004
100,0.0091365,0.707851,-0.05508000000000002,-0.1360585,0.49276099999999995,-0.017380000000000007,-0.2643085,0.565771,-0.12648,0.1397515,0.5027109999999999,-0.013280000000000014,0.2814315,0.594401,-0.10042000000000001,-0.2657085,0.717671,-0.29846000000000006,0.3232915,0.7371509999999999,-0.23196000000000003,-0.0665705,-0.0015210000000000015,0.0007399999999999907,0.0665705,0.001520999999999998,-0.0007400000000000045,-0.0890165,-0.352829,-0.009810000000000013,0.0914225,-0.344239,-0.07571,-0.0736555,-0.6966889999999999,0.071044,0.0899725,-0.6798789999999999,0.001899999999999999
101,0.010617,0.7118635,-0.05856999999999998,-0.13763799999999998,0.4885735,-0.02262,-0.269278,0.5293635,-0.12829,0.13895200000000002,0.5020935,-0.011709999999999998,0.290192,0.5545335,-0.091,-0.270978,0.6575935,-0.30440999999999996,0.338802,0.6738835,-0.22652999999999998,-0.067245,-0.001917499999999999,0.0003599999999999992,0.067245,0.001917499999999999,-0.0003599999999999992,-0.09084800000000001,-0.3501565,-0.004269999999999996,0.100186,-0.3408565,-0.08232999999999999,-0.077769,-0.6890965,0.07800800000000002,0.10464200000000001,-0.6726565,-0.012779999999999986
102,0.011457499999999997,0.7156564999999999,-0.06295500000000001,-0.13969350000000003,0.48424649999999997,-0.028865000000000002,-0.27563350000000003,0.49029649999999997,-0.128985,0.1387965,0.5016164999999999,-0.011035000000000017,0.2923465,0.5120165000000001,-0.079265,-0.27685350000000003,0.5921665,-0.29857500000000003,0.3426065,0.6038365000000001,-0.21972500000000003,-0.0672765,-0.002374499999999998,-0.00022500000000000298,0.0672765,0.0023745000000000016,0.00022500000000000298,-0.09409050000000001,-0.3474235,0.0028549999999999964,0.10911649999999999,-0.3374035,-0.09024499999999999,-0.0835245,-0.6811235,0.085513,0.1206965,-0.6653335,-0.029815000000000008
103,0.013183500000000004,0.72075,-0.06911,-0.1414315,0.4798,-0.036869999999999986,-0.2814215,0.44987999999999995,-0.12603999999999999,0.1387585,0.50007,-0.010330000000000006,0.2904085,0.46864000000000006,-0.06301999999999999,-0.2848815,0.51449,-0.28782,0.3422985,0.52247,-0.20092,-0.06727949999999999,-0.0026939999999999985,-0.0007199999999999984,0.06727949999999999,0.002694000000000002,0.0007199999999999984,-0.09826950000000001,-0.34214999999999995,0.01285,0.11911850000000002,-0.33203000000000005,-0.09814999999999999,-0.0915765,-0.6719299999999999,0.09627,0.13926850000000002,-0.65814,-0.05115
104,0.015561999999999996,0.7259905,-0.07597999999999999,-0.142536,0.4778805,-0.042179999999999995,-0.28592599999999996,0.4111705,-0.11916000000000002,0.138844,0.49735050000000003,-0.009800000000000003,0.287464,0.42836050000000003,-0.05129,-0.291326,0.4364005,-0.27564,0.340834,0.4443305,-0.17722000000000002,-0.067077,-0.0028684999999999995,-0.0017399999999999916,0.067077,0.0028684999999999995,0.0017399999999999916,-0.103019,-0.3376195,0.02346999999999999,0.128114,-0.3251995,-0.10633000000000001,-0.10092200000000001,-0.6634495,0.10897200000000001,0.157224,-0.6520994999999999,-0.07533000000000001
105,0.019588,0.7283065,-0.083345,-0.141994,0.4756865,-0.048705,-0.28405400000000003,0.3763065,-0.10940500000000003,0.138696,0.4937365,-0.011135000000000006,0.28084600000000004,0.39355650000000003,-0.036245,-0.292304,0.3634565,-0.260425,0.337236,0.37119650000000004,-0.148615,-0.067006,-0.0030134999999999997,-0.002615000000000006,0.067006,0.0030135000000000006,0.002615000000000006,-0.109246,-0.33290349999999996,0.033745,0.134786,-0.3176735,-0.11051500000000003,-0.113451,-0.6542335,0.125859,0.171526,-0.6461135,-0.09830500000000003
106,0.024375999999999995,0.7294425,-0.09087,-0.140254,0.4742925,-0.054930000000000034,-0.277313,0.3443625,-0.09824,0.13832699999999998,0.4909925,-0.012320000000000025,0.272387,0.3636325,-0.018490000000000034,-0.290493,0.2963425,-0.24748000000000003,0.333967,0.30786250000000004,-0.12001,-0.06676699999999999,-0.0027065,-0.00359000000000001,0.06676699999999999,0.0027065,0.003589999999999982,-0.1152,-0.3302575,0.04234999999999997,0.14038699999999998,-0.31220749999999997,-0.11328000000000005,-0.12648199999999998,-0.6448475,0.14239599999999997,0.18193700000000002,-0.6418975,-0.11823
107,0.0296555,0.7302974999999999,-0.09808,-0.1382825,0.4732675,-0.06119999999999998,-0.2657115,0.31737750000000003,-0.08344999999999997,0.13805849999999997,0.48845750000000004,-0.013799999999999979,0.2594085,0.3398475,0.004430000000000017,-0.28651150000000003,0.2350075,-0.22626999999999997,0.3236885,0.2503675,-0.08231,-0.06658850000000001,-0.0023135,-0.004509999999999986,0.06658850000000001,0.0023135,0.004510000000000014,-0.12264050000000001,-0.32749249999999996,0.050220000000000015,0.1419785,-0.30850249999999996,-0.11286999999999997,-0.1431785,-0.6359725,0.16077300000000003,0.18606849999999997,-0.6381925,-0.13067999999999996
108,0.03503600000000001,0.7305445,-0.104385,-0.135948,0.47248450000000003,-0.06694499999999998,-0.25253400000000004,0.29742450000000004,-0.06815499999999997,0.137576,0.48642450000000004,-0.014685000000000004,0.24394600000000002,0.32045450000000003,0.028535000000000033,-0.28094399999999997,0.1819545,-0.20310499999999998,0.310816,0.2020545,-0.04634499999999997,-0.06622600000000001,-0.0016084999999999997,-0.005964999999999998,0.06622600000000001,0.0016084999999999997,0.005965000000000026,-0.129659,-0.3252855,0.05446500000000001,0.141496,-0.30565549999999997,-0.11073499999999997,-0.159796,-0.6266355,0.17685500000000004,0.184766,-0.6353455,-0.13637499999999997
109,0.039424,0.7303499999999999,-0.10779,-0.135031,0.47199,-0.06988,-0.24198599999999998,0.28262000000000004,-0.0499,0.136384,0.48476,-0.013539999999999996,0.225624,0.30561,0.05789,-0.275746,0.14121,-0.17622,0.29294400000000004,0.16278,-0.01319999999999999,-0.065594,-0.0008970000000000002,-0.007900000000000018,0.065594,0.0008969999999999994,0.007900000000000018,-0.13649,-0.32303,0.0529,0.13629400000000003,-0.30337,-0.10374,-0.17527500000000001,-0.6216,0.18901400000000002,0.175024,-0.63305,-0.13266
110,0.044024499999999994,0.729279,-0.11069499999999999,-0.1349345,0.471789,-0.070805,-0.23368350000000002,0.271949,-0.03057500000000002,0.1351345,0.483789,-0.011525000000000007,0.20594449999999997,0.295709,0.08549500000000002,-0.2697955,0.11118900000000001,-0.14802500000000002,0.2728445,0.133489,0.018884999999999985,-0.06539450000000001,-0.00020899999999999912,-0.009205000000000019,0.0653945,0.00020900000000000085,0.009205000000000019,-0.1405095,-0.32109099999999996,0.04599500000000001,0.1299245,-0.30639099999999997,-0.09548499999999999,-0.1881045,-0.6186010000000001,0.195585,0.15998449999999997,-0.633441,-0.12387500000000001
111,0.047595000000000026,0.7268275,-0.11136499999999999,-0.13515999999999997,0.47098749999999995,-0.07053500000000001,-0.22853099999999998,0.2648175,-0.011525000000000007,0.133295,0.4826875,-0.008074999999999999,0.19112500000000004,0.2892875,0.108735,-0.26644599999999996,0.0863235,-0.116095,0.252545,0.11623750000000001,0.05255499999999996,-0.06486499999999998,-8.249999999999924e-05,-0.01070500000000002,0.064865,8.249999999999924e-05,0.010704999999999965,-0.14216399999999998,-0.3203325,0.035495,0.12087500000000001,-0.3119525,-0.083955,-0.19805299999999998,-0.6179925000000001,0.19766499999999998,0.14027500000000004,-0.6304425,-0.108435
112,0.048914999999999986,0.7246284999999999,-0.10947999999999997,-0.136854,0.4707185,-0.06752999999999998,-0.226659,0.2612985,0.0020600000000000618,0.130025,0.4823485,-0.004109999999999947,0.17938500000000002,0.2869485,0.12527000000000005,-0.265682,0.0764455,-0.08512999999999993,0.236375,0.11450850000000001,0.08477000000000007,-0.06493499999999999,-0.00014349999999999953,-0.01156999999999997,0.06493500000000002,0.00014349999999999953,0.011570000000000025,-0.14030399999999998,-0.3208315,0.020760000000000056,0.10895499999999997,-0.3183215,-0.07115999999999995,-0.204091,-0.6179315000000001,0.19207000000000005,0.11118499999999998,-0.6323415,-0.08623999999999993
113,0.049375,0.7233275,-0.10639500000000002,-0.138935,0.4699175,-0.06419499999999995,-0.224994,0.2613175,0.010035000000000016,0.125695,0.4815975,0.0003050000000000552,0.170865,0.2864375,0.13556500000000005,-0.265985,0.0754555,-0.05458499999999994,0.223065,0.1147475,0.11231500000000005,-0.064995,-0.0003565000000000009,-0.012094999999999967,0.06499499999999997,0.0003564999999999992,0.012095000000000022,-0.136135,-0.3212825,0.00011500000000003174,0.094335,-0.3223425,-0.05477499999999996,-0.205738,-0.6176925,0.17708500000000005,0.08199499999999998,-0.6352625,-0.060964999999999936
114,0.04836499999999999,0.7223965,-0.10164499999999999,-0.142295,0.4690765,-0.05887500000000001,-0.22676799999999997,0.26194649999999997,0.011415000000000008,0.121915,0.4809865,0.0071550000000000225,0.16779500000000003,0.2860465,0.138185,-0.267653,0.0760845,-0.032775,0.216785,0.1139665,0.12344500000000003,-0.06484499999999999,-0.0005454999999999991,-0.012994999999999979,0.06484499999999999,0.0005455000000000008,0.012995000000000034,-0.12803499999999998,-0.3214535,-0.02547499999999997,0.08088500000000004,-0.3251735,-0.03944500000000001,-0.195983,-0.6180534999999999,0.152175,0.05809500000000001,-0.6340935,-0.03624499999999997
115,0.04653999999999997,0.7208939999999999,-0.09529999999999994,-0.14604,0.467384,-0.05287999999999993,-0.229845,0.261454,0.011950000000000016,0.11771999999999999,0.479934,0.014990000000000003,0.17041,0.28485400000000005,0.13696000000000003,-0.27062,0.075505,-0.022669999999999968,0.21924000000000005,0.114074,0.11776000000000003,-0.06511,-0.0005499999999999984,-0.013319999999999999,0.06511,0.0005500000000000001,0.013319999999999999,-0.11752000000000001,-0.32262599999999997,-0.05326999999999993,0.06744,-0.328636,-0.022809999999999997,-0.18256,-0.6191260000000001,0.11923,0.03386,-0.633986,-0.009589999999999987
116,0.04396,0.718831,-0.08853500000000003,-0.14964,0.465841,-0.04715499999999995,-0.23435799999999998,0.263401,0.011375000000000024,0.11336000000000002,0.47952100000000003,0.022834999999999994,0.17324,0.284221,0.13566500000000004,-0.273382,0.07533100000000001,-0.025455000000000005,0.22721999999999998,0.116791,0.103605,-0.06513999999999998,-0.0005490000000000009,-0.014054999999999929,0.06514000000000003,0.0005489999999999991,0.01405500000000004,-0.10357,-0.32337899999999997,-0.08383499999999999,0.05427000000000004,-0.332009,-0.0060949999999999616,-0.16065,-0.621479,0.07567499999999999,0.011330000000000007,-0.6384989999999999,0.01500499999999999
117,0.040334999999999954,0.7167600000000001,-0.08181499999999997,-0.15468500000000002,0.46504999999999996,-0.041364999999999985,-0.24008100000000004,0.26161,0.010325000000000029,0.10830499999999998,0.47885,0.03061500000000006,0.176195,0.28315,0.13290500000000005,-0.27825200000000005,0.07466,-0.035165,0.23743499999999995,0.12249,0.08137500000000003,-0.06548500000000002,-0.00035299999999999915,-0.014634999999999954,0.06548499999999996,0.0003530000000000009,0.014635000000000065,-0.08931500000000003,-0.32503,-0.11322499999999991,0.040344999999999964,-0.33799,0.010925000000000074,-0.13432500000000003,-0.62561,0.026835000000000053,-0.010065000000000046,-0.63679,0.03780500000000003
118,0.03888999999999998,0.71477,-0.07708999999999999,-0.15708,0.4647,-0.03778999999999999,-0.24398,0.26167999999999997,0.005940000000000056,0.10596,0.47885,0.03626000000000007,0.18131000000000003,0.28186,0.12643000000000004,-0.281335,0.075293,-0.0478599999999999,0.24733,0.12863,0.05809000000000003,-0.06614999999999999,-0.00035299999999999915,-0.014499999999999957,0.06614999999999999,0.0003530000000000009,0.014500000000000068,-0.07355,-0.3261,-0.13737,0.030480000000000007,-0.34328000000000003,0.025000000000000022,-0.10348000000000002,-0.63105,-0.02389999999999992,-0.027260000000000006,-0.63294,0.05588000000000004
119,0.037945000000000007,0.71206,-0.07074499999999995,-0.15826500000000002,0.46437,-0.033555,-0.24735500000000002,0.26287,0.003195000000000059,0.10428500000000002,0.47886999999999996,0.043035000000000045,0.18881499999999996,0.27953,0.119205,-0.284633,0.078012,-0.057945000000000024,0.259645,0.13535,0.032174999999999954,-0.06627500000000003,-0.00035299999999999915,-0.01515500000000003,0.06627499999999997,0.0003530000000000009,0.01515500000000003,-0.06028500000000003,-0.3271,-0.15413500000000002,0.020525000000000015,-0.34683,0.041464999999999974,-0.07160500000000003,-0.63694,-0.07139499999999999,-0.04406500000000002,-0.6270199999999999,0.075685
120,0.03871999999999998,0.7084900000000001,-0.065465,-0.15805000000000002,0.46314,-0.029774999999999996,-0.25016000000000005,0.26287,4.999999999921734e-06,0.10381999999999997,0.47945,0.04889500000000002,0.19587999999999994,0.27674,0.11195499999999997,-0.28654,0.080721,-0.06858500000000001,0.27222999999999997,0.14384000000000002,0.005734999999999935,-0.06683,-0.00035299999999999915,-0.015654999999999974,0.06683,0.0003530000000000009,0.015654999999999974,-0.04620000000000002,-0.32812,-0.16893500000000006,0.011270000000000002,-0.35033000000000003,0.034034999999999926,-0.04053000000000001,-0.64445,-0.11335499999999998,-0.05879000000000001,-0.62051,0.09129500000000002
121,0.03830500000000003,0.704486,-0.05937999999999999,-0.15853499999999998,0.46233599999999997,-0.025880000000000014,-0.253795,0.263316,-0.0016199999999999548,0.10222500000000001,0.479956,0.05540999999999996,0.20076499999999997,0.275596,0.10646,-0.29028499999999996,0.083138,-0.07535000000000003,0.27981500000000004,0.151686,-0.013889999999999958,-0.06681499999999996,-0.0006499999999999995,-0.01678999999999997,0.06681500000000001,0.0006499999999999995,0.01678999999999997,-0.036995,-0.327374,-0.17945999999999995,0.0016850000000000476,-0.35310400000000003,0.02690999999999999,-0.014264999999999972,-0.649684,-0.14756000000000002,-0.07355499999999998,-0.613114,0.10736000000000001
122,0.038634999999999975,0.7006795,-0.05390000000000006,-0.15812500000000002,0.4617795,-0.022190000000000043,-0.256825,0.2641095,-0.0023499999999999632,0.10192499999999993,0.4807095,0.060899999999999954,0.20540499999999995,0.2753195,0.09999999999999998,-0.29220500000000005,0.0856225,-0.08205000000000007,0.286725,0.15954949999999998,-0.03314000000000006,-0.06672500000000003,-0.0009855000000000003,-0.01795000000000002,0.06672499999999998,0.0009855000000000003,0.01795000000000002,-0.027455000000000007,-0.3269805,-0.18588000000000005,-0.004865000000000008,-0.3554405,0.017959999999999976,0.008624999999999994,-0.6541205,-0.17327000000000004,-0.08585500000000001,-0.6051605,0.12158999999999998
123,0.039034999999999986,0.698001,-0.04864999999999997,-0.157165,0.46210100000000004,-0.01861999999999997,-0.259765,0.266591,-0.0017399999999999638,0.10130499999999998,0.482171,0.06594999999999995,0.20821499999999993,0.275231,0.09442000000000006,-0.294715,0.088583,-0.08467999999999998,0.290635,0.166241,-0.05056000000000005,-0.06620500000000001,-0.001646,-0.019020000000000037,0.06620499999999996,0.001646,0.019020000000000037,-0.02046500000000001,-0.32657899999999995,-0.18755999999999995,-0.011535000000000017,-0.356049,0.00761999999999996,0.021424999999999972,-0.655729,-0.18911999999999995,-0.09559500000000004,-0.5956790000000001,0.13565000000000005
124,0.04049999999999998,0.6978660000000001,-0.04444999999999999,-0.15594999999999998,0.465006,-0.01538000000000006,-0.26305,0.270976,2.999999999997449e-05,0.10094999999999998,0.485556,0.07064999999999999,0.20892,0.277646,0.09179999999999999,-0.29701999999999995,0.093553,-0.0868500000000001,0.28988,0.174786,-0.06037999999999999,-0.06559999999999999,-0.0006499999999999978,-0.01863999999999999,0.06559999999999999,0.0006500000000000013,0.01863999999999999,-0.018439999999999956,-0.323194,-0.18254000000000004,-0.016119999999999968,-0.356584,-0.006350000000000078,0.029220000000000024,-0.655234,-0.19299,-0.10146,-0.5936539999999999,0.14933999999999992
125,0.04282499999999989,0.698266,-0.04068000000000005,-0.15429500000000007,0.468396,-0.01200000000000001,-0.26510500000000004,0.275016,0.0017499999999999183,0.10110499999999989,0.488196,0.07485999999999993,0.2095149999999999,0.279076,0.0900399999999999,-0.29816500000000007,0.09882,-0.08835000000000004,0.2881349999999999,0.178176,-0.06778000000000006,-0.06434500000000004,0.0004449999999999975,-0.019240000000000035,0.06434499999999999,-0.00044500000000000095,0.019239999999999924,-0.018965000000000065,-0.321294,-0.17374,-0.019785000000000053,-0.350134,-0.02302000000000004,0.031094999999999984,-0.653324,-0.18734000000000006,-0.10205500000000006,-0.589704,0.15888999999999998
126,0.0482149999999999,0.6998665000000001,-0.03825499999999993,-0.15076500000000004,0.4726165,-0.009135000000000004,-0.26463500000000006,0.2793665,0.004545000000000021,0.1038849999999999,0.4919365,0.07782500000000003,0.210665,0.28021650000000003,0.08872500000000005,-0.29724500000000004,0.1053355,-0.08777499999999994,0.284755,0.18239650000000002,-0.06773499999999999,-0.06363500000000005,0.002128500000000002,-0.018124999999999947,0.063635,-0.0021284999999999984,0.018125000000000058,-0.022415000000000074,-0.32147349999999997,-0.16003499999999993,-0.025255000000000027,-0.3443835,-0.038675000000000015,0.02646499999999996,-0.6500334999999999,-0.171215,-0.10115500000000005,-0.5917635,0.16636499999999999
127,0.05384500000000003,0.7028075,-0.03721500000000011,-0.14824500000000002,0.4772475,-0.0063750000000000195,-0.264255,0.2858975,0.00853499999999996,0.106545,0.4955275,0.07950499999999994,0.20884499999999995,0.28224750000000004,0.08837499999999998,-0.29700499999999996,0.11123549999999999,-0.08477500000000004,0.28129499999999996,0.1858475,-0.06948500000000002,-0.062475,0.0030874999999999965,-0.017185000000000006,0.06247499999999995,-0.0030875,0.017184999999999895,-0.028685000000000016,-0.3244225,-0.14397500000000008,-0.023804999999999965,-0.3383925,-0.0574650000000001,0.01676500000000003,-0.6456025,-0.14827500000000005,-0.09478500000000001,-0.5869025,0.17200499999999996
128,0.061819999999999986,0.705258,-0.04086500000000004,-0.14388,0.481858,-0.0070350000000001245,-0.26310000000000006,0.291588,0.009824999999999973,0.11156999999999995,0.498638,0.0770249999999999,0.20731999999999995,0.28411800000000004,0.08435499999999996,-0.29461000000000004,0.11771000000000001,-0.08503500000000008,0.27786999999999995,0.187168,-0.07243500000000003,-0.06171000000000004,0.0037240000000000016,-0.015755000000000075,0.06170999999999993,-0.003723999999999998,0.015754999999999963,-0.03573000000000004,-0.32912199999999997,-0.13044500000000003,-0.007410000000000028,-0.334522,-0.08026500000000003,0.0025100000000000122,-0.641512,-0.12214500000000006,-0.06201000000000001,-0.582422,0.13767499999999988
129,0.06843500000000002,0.7081695,-0.04405999999999999,-0.14104500000000003,0.4873595,-0.007339999999999902,-0.26227500000000004,0.2953395,0.012560000000000016,0.11548499999999995,0.5021395,0.07479000000000002,0.20462499999999995,0.2860895,0.08071000000000006,-0.293145,0.1228895,-0.08314999999999995,0.27403500000000003,0.1914595,-0.07263999999999993,-0.061024999999999996,0.004386499999999995,-0.013679999999999914,0.061024999999999996,-0.0043865000000000015,0.013680000000000025,-0.04547500000000004,-0.33350050000000003,-0.11530999999999991,0.006904999999999939,-0.3298805,-0.08035999999999999,-0.013815000000000022,-0.6368905,-0.09706999999999999,-0.03010500000000005,-0.5866705,0.10602000000000011
130,0.07851999999999992,0.7111594999999999,-0.04960500000000001,-0.13475000000000004,0.4939295,-0.007675000000000098,-0.25752,0.3000795,0.015184999999999893,0.12335999999999991,0.5080994999999999,0.07100499999999998,0.20565999999999995,0.2888095,0.07608499999999996,-0.28774000000000005,0.1282895,-0.08072500000000005,0.27218999999999993,0.1922795,-0.06296500000000005,-0.0605,0.004818499999999996,-0.011275000000000035,0.0605,-0.004818500000000003,0.011274999999999924,-0.05388000000000004,-0.3368405,-0.09985500000000003,0.023150000000000004,-0.3244805,-0.08087500000000003,-0.028689999999999993,-0.6312804999999999,-0.07192500000000002,0.0026800000000000157,-0.5903805,0.07673499999999989
131,0.07811499999999993,0.7141835000000001,-0.0509949999999999,-0.13065500000000008,0.4992135,-0.0064549999999998775,-0.25229500000000005,0.3051435,0.01886500000000002,0.12433499999999997,0.5135835,0.06802500000000011,0.20655499999999993,0.2924735,0.07381500000000007,-0.28155500000000006,0.1339835,-0.07654499999999997,0.27005499999999993,0.1955335,-0.03947499999999993,-0.06038500000000002,0.005185500000000003,-0.008194999999999952,0.06038499999999991,-0.005185499999999996,0.008195000000000063,-0.06435500000000005,-0.33964649999999996,-0.0834649999999999,0.03769499999999992,-0.3242665,-0.07986499999999985,-0.04371500000000006,-0.6255864999999999,-0.04689499999999991,0.0355049999999999,-0.5851664999999999,0.05220500000000006
132,0.07455999999999996,0.7164535,-0.05156000000000005,-0.12652999999999998,0.5048535,-0.005450000000000066,-0.24508999999999997,0.3109835,0.021609999999999907,0.12392000000000003,0.5194234999999999,0.06398999999999999,0.20909,0.2966535,0.07099999999999995,-0.27374,0.1399535,-0.07247000000000003,0.26739999999999997,0.1963935,-0.02155000000000007,-0.06113000000000002,0.0055105000000000015,-0.004670000000000063,0.06113000000000002,-0.0055105000000000015,0.004669999999999952,-0.07471000000000005,-0.3414665,-0.06896999999999998,0.05227000000000004,-0.3220365,-0.07847000000000004,-0.05664999999999998,-0.6196165,-0.02534000000000003,0.06757999999999997,-0.5878865000000001,0.02857999999999994
133,0.06968999999999992,0.7166605,-0.05112500000000009,-0.1231000000000001,0.5094505,-0.003945000000000087,-0.23705000000000004,0.3154305,0.02503499999999992,0.12275999999999998,0.5241005,0.06031500000000001,0.21244999999999992,0.2996205,0.06572499999999992,-0.26494000000000006,0.1437215,-0.06792500000000001,0.26764,0.19649049999999998,-0.003715000000000024,-0.06172,0.004249499999999996,-0.002234999999999987,0.06172,-0.004249499999999996,0.002234999999999987,-0.08209,-0.3441695,-0.05822499999999997,0.06498999999999999,-0.3211895,-0.07382500000000003,-0.06733,-0.6149095,-0.00743500000000008,0.09650999999999998,-0.5927595,0.00462499999999999
134,0.06292500000000001,0.7116995,-0.04739999999999989,-0.11953499999999995,0.5126595,-0.00023999999999990695,-0.22835499999999997,0.3196695,0.030550000000000077,0.12045499999999998,0.5216695,0.04688000000000003,0.21660500000000005,0.30898950000000003,0.062120000000000064,-0.254115,0.1494155,-0.06359999999999988,0.278965,0.19918950000000002,0.011820000000000053,-0.062755,0.002745499999999998,0.0017000000000000348,0.062755,-0.002745499999999998,-0.0016999999999999238,-0.08790500000000001,-0.34011050000000004,-0.04719999999999991,0.08104500000000003,-0.3140005,-0.06579999999999986,-0.075685,-0.6032504999999999,0.01051000000000002,0.126255,-0.5970004999999999,-0.013339999999999907
135,0.055339999999999945,0.7077935,-0.043890000000000096,-0.11536999999999997,0.5158235,0.003189999999999915,-0.21754,0.32308349999999997,0.03256999999999999,0.11661999999999995,0.5188634999999999,0.0321499999999999,0.20963999999999994,0.3181635,0.056829999999999936,-0.24386000000000002,0.1534015,-0.06189000000000011,0.27030999999999994,0.2024335,0.00867999999999991,-0.06316,0.0013905000000000028,0.00488999999999995,0.06316,-0.0013905000000000028,-0.00488999999999995,-0.09081000000000006,-0.3332565,-0.03939000000000015,0.10017999999999994,-0.3063365,-0.05898999999999999,-0.08118999999999998,-0.5906165000000001,0.02468999999999999,0.16022000000000003,-0.6024065000000001,-0.029490000000000127
136,0.04907499999999998,0.7033075,-0.0391999999999999,-0.111935,0.5176475,0.007200000000000095,-0.207185,0.3259075,0.035190000000000055,0.11123499999999997,0.5142975000000001,0.019160000000000066,0.202955,0.32509750000000004,0.05174000000000001,-0.23325500000000005,0.15661550000000002,-0.06020000000000003,0.262825,0.20545750000000002,0.0048000000000001375,-0.06406500000000004,0.0005865000000000037,0.008099999999999996,0.06406499999999993,-0.0005864999999999898,-0.008099999999999996,-0.09199500000000005,-0.3249825,-0.03259999999999996,0.11196499999999998,-0.2971625,-0.048699999999999966,-0.08657500000000007,-0.5790125,0.0382300000000001,0.18843500000000002,-0.6012325,-0.043199999999999905
137,0.04467999999999994,0.70172,-0.03090000000000015,-0.11102000000000001,0.52073,0.013399999999999856,-0.19795000000000001,0.33065,0.03894999999999982,0.10597999999999996,0.50537,0.006799999999999917,0.19853999999999994,0.33053,0.04994999999999983,-0.22435,0.16187,-0.05700000000000016,0.25747999999999993,0.20973000000000003,9.999999999976694e-05,-0.06451000000000007,0.0005900000000000072,0.011199999999999877,0.06450999999999996,-0.0005899999999999933,-0.011200000000000099,-0.09121999999999997,-0.31499999999999995,-0.026100000000000234,0.11356,-0.28639000000000003,-0.038100000000000245,-0.08974000000000004,-0.56467,0.049859999999999904,0.19421999999999995,-0.5978399999999999,-0.03220000000000023
138,0.04227000000000003,0.700705,-0.024149999999999894,-0.10973999999999995,0.522575,0.019050000000000233,-0.18794,0.32682500000000003,0.0355000000000002,0.10136999999999996,0.496715,-0.006249999999999867,0.19430000000000003,0.319975,0.04200000000000015,-0.21503,0.156673,-0.05664999999999987,0.25099000000000005,0.19492199999999998,-0.010649999999999826,-0.06469999999999998,0.00044500000000000095,0.014150000000000107,0.06469999999999998,-0.00044500000000000095,-0.014149999999999885,-0.09497999999999995,-0.305145,-0.02014999999999989,0.11782000000000004,-0.28049500000000005,-0.028249999999999886,-0.09180999999999995,-0.5496650000000001,0.0603100000000002,0.20123999999999997,-0.593145,-0.02244999999999986
139,0.03944499999999995,0.70063,-0.019300000000000095,-0.10858500000000004,0.52309,0.023600000000000065,-0.17956500000000003,0.32157,0.02959999999999985,0.09841500000000003,0.48906000000000005,-0.019500000000000073,0.191585,0.31129,0.033399999999999874,-0.19461500000000004,0.147015,-0.059900000000000064,0.24479499999999998,0.189042,-0.02100000000000013,-0.06471499999999997,-0.0004099999999999937,0.016999999999999904,0.06471499999999997,0.0004099999999999937,-0.017000000000000126,-0.09697500000000003,-0.29735999999999996,-0.01649999999999996,0.122915,-0.27154999999999996,-0.02200000000000002,-0.09264499999999998,-0.5388200000000001,0.06699,0.21030499999999996,-0.58735,-0.01649999999999996
140,0.03210499999999994,0.7011400000000001,-0.014950000000000019,-0.10767499999999997,0.5223800000000001,0.026049999999999907,-0.17189500000000002,0.31650999999999996,0.022549999999999848,0.09368500000000002,0.48072,-0.03354999999999997,0.18615499999999996,0.30206,0.024349999999999872,-0.17495500000000003,0.137348,-0.06435000000000013,0.23491499999999998,0.19649899999999998,-0.031749999999999945,-0.06460500000000002,-0.0010400000000000131,0.019449999999999967,0.06460500000000002,0.0010399999999999854,-0.019449999999999967,-0.09336500000000003,-0.28947,-0.01385000000000014,0.12863499999999994,-0.27155,-0.017449999999999966,-0.09210499999999999,-0.5283599999999999,0.07219999999999993,0.22107500000000002,-0.5804100000000001,0.00024999999999986144
141,0.024675000000000002,0.70228,-0.012149999999999883,-0.1064449999999999,0.5214,0.027449999999999974,-0.16535499999999992,0.31328,0.014650000000000052,0.088345,0.47248999999999997,-0.04754999999999998,0.179925,0.29306,0.014450000000000074,-0.1560149999999999,0.129454,-0.06964999999999999,0.22377500000000006,0.203929,-0.04515000000000002,-0.06422499999999998,-0.0015999999999999903,0.021549999999999958,0.06422500000000009,0.0015999999999999903,-0.021549999999999958,-0.09009499999999993,-0.28196,-0.011749999999999927,0.13448500000000008,-0.27158000000000004,-0.014650000000000052,-0.09113499999999997,-0.5181,0.07595000000000007,0.23192500000000005,-0.57294,0.015449999999999964
142,0.01456500000000005,0.70345,-0.009649999999999936,-0.10468499999999992,0.51951,0.027150000000000007,-0.1594049999999999,0.31011,0.0019500000000001183,0.07950500000000005,0.46409,-0.06274999999999986,0.1709250000000001,0.283603,0.004350000000000076,-0.13805499999999993,0.12038700000000001,-0.0765499999999999,0.18581500000000006,0.211839,-0.05384999999999995,-0.06400499999999998,-0.0020499999999999963,0.022950000000000026,0.06400500000000009,0.0020499999999999963,-0.022949999999999804,-0.08743499999999993,-0.27505,-0.010749999999999815,0.14163500000000007,-0.27181,-0.010950000000000015,-0.09088499999999988,-0.50821,0.07811000000000012,0.24449500000000002,-0.56276,0.029249999999999998
143,0.013399999999999967,0.709325,-0.00934999999999997,-0.10218000000000005,0.520265,0.025050000000000017,-0.15395000000000003,0.306875,-0.011849999999999916,0.07692999999999994,0.46228500000000006,-0.06764999999999999,0.16086,0.267265,-0.006750000000000034,-0.12214000000000003,0.109211,-0.08104999999999984,0.14527999999999996,0.21529,-0.06305000000000005,-0.06384000000000001,-0.002024999999999999,0.023150000000000004,0.06384000000000001,0.002024999999999999,-0.023150000000000004,-0.08572000000000002,-0.274695,-0.010750000000000037,0.14764999999999995,-0.27337500000000003,-0.007449999999999957,-0.09179000000000004,-0.504865,0.07927000000000006,0.24332999999999994,-0.552965,0.029549999999999965
144,0.012349999999999972,0.71414,-0.009299999999999864,-0.10104999999999997,0.52028,0.022900000000000142,-0.15054,0.302707,-0.029699999999999838,0.07525000000000004,0.45928,-0.07119999999999993,0.14998999999999996,0.250258,-0.015099999999999891,-0.09506000000000003,0.10001999999999998,-0.08569999999999989,0.1049,0.219691,-0.07229999999999981,-0.06369000000000002,-0.0020799999999999985,0.02320000000000011,0.06369000000000002,0.0020799999999999985,-0.023199999999999887,-0.08582000000000001,-0.27447,-0.011099999999999888,0.15400999999999998,-0.27421000000000006,-0.0031999999999998696,-0.09277000000000002,-0.5029399999999999,0.08026000000000022,0.24227999999999994,-0.54352,0.02960000000000007
145,0.01049,0.7193400000000001,-0.00924999999999998,-0.10136,0.51667,0.018950000000000022,-0.14830999999999994,0.296531,-0.047250000000000014,0.07279000000000002,0.45716,-0.07474999999999987,0.13754,0.233871,-0.022850000000000037,-0.06940000000000002,0.09189,-0.08914999999999984,0.06296999999999997,0.23024,-0.09424999999999994,-0.06406,-0.0022899999999999865,0.023349999999999982,0.06406,0.0022900000000000142,-0.023349999999999982,-0.08768999999999993,-0.27436,-0.011149999999999993,0.16105999999999998,-0.27471999999999996,0.0020500000000001073,-0.09455999999999998,-0.50156,0.08130000000000004,0.24041999999999997,-0.53348,0.029649999999999954
146,0.008709999999999996,0.72384,-0.011199999999999877,-0.10114000000000001,0.5099,0.013000000000000123,-0.14643000000000006,0.288409,-0.06589999999999985,0.07008999999999999,0.4588,-0.07719999999999994,0.12441999999999998,0.22068100000000002,-0.030399999999999983,-0.044540000000000024,0.08184000000000002,-0.0927,0.009469999999999978,0.233523,-0.12139999999999995,-0.06470000000000009,-0.0030599999999999794,0.024499999999999966,0.06469999999999998,0.003060000000000007,-0.024499999999999966,-0.08998000000000006,-0.27478,-0.012199999999999989,0.16667999999999994,-0.27681,0.006099999999999994,-0.09674000000000005,-0.49363,0.08172000000000001,0.21819,-0.5212399999999999,0.024900000000000144
147,0.009935000000000027,0.72656,-0.01364999999999994,-0.10077499999999995,0.50288,0.006250000000000089,-0.144065,0.287415,-0.07874999999999988,0.06750500000000004,0.46006,-0.07994999999999997,0.12187500000000007,0.226493,-0.033050000000000024,-0.01988499999999993,0.08223,-0.09604999999999997,-0.02277499999999999,0.24059299999999997,-0.12644999999999995,-0.06533499999999992,-0.0038600000000000023,0.025550000000000184,0.06533500000000003,0.0038599999999999746,-0.02554999999999996,-0.09214499999999992,-0.27420000000000005,-0.01364999999999994,0.170095,-0.27440000000000003,0.008550000000000058,-0.10062499999999996,-0.48627000000000004,0.0817000000000001,0.193585,-0.50844,0.018850000000000033
148,0.012055000000000038,0.72757,-0.01650000000000018,-0.10021499999999994,0.49422,-0.0015000000000000568,-0.1414049999999999,0.28519100000000003,-0.0907,0.06523500000000004,0.45953,-0.08289999999999997,0.11946500000000004,0.22792,-0.035800000000000054,-0.007444999999999924,0.08573000000000003,-0.0988,-0.05386499999999994,0.245617,-0.12940000000000018,-0.06659499999999996,-0.0035099999999999854,0.02629999999999999,0.06659500000000007,0.003510000000000013,-0.02629999999999999,-0.09506499999999996,-0.27213999999999994,-0.015200000000000102,0.17483500000000007,-0.27347999999999995,0.010299999999999976,-0.10674499999999987,-0.489,0.08109999999999995,0.16861500000000007,-0.49710999999999994,0.012499999999999956
149,0.014550000000000063,0.72851,-0.020200000000000218,-0.10127999999999993,0.4861,-0.010200000000000209,-0.13998,0.282578,-0.10350000000000015,0.0625,0.45933,-0.08650000000000024,0.11614000000000002,0.22938899999999998,-0.03990000000000027,0.0033600000000000296,0.08856,-0.10280000000000022,-0.08628000000000002,0.24980699999999997,-0.13300000000000023,-0.06879999999999997,-0.0032400000000000206,0.026999999999999913,0.06880000000000008,0.003239999999999993,-0.027000000000000135,-0.10221999999999998,-0.26994999999999997,-0.017500000000000293,0.17841000000000007,-0.27276000000000006,0.01069999999999971,-0.11498999999999993,-0.49221,0.07910999999999979,0.13898,-0.48318,0.0027999999999999137
150,0.016730000000000023,0.729255,-0.023800000000000043,-0.10238999999999998,0.47806499999999996,-0.01869999999999994,-0.13917000000000002,0.280003,-0.11580000000000013,0.06008000000000002,0.45865500000000003,-0.09020000000000006,0.11373,0.230069,-0.04420000000000002,0.014369999999999994,0.09204500000000002,-0.10560000000000014,-0.1179,0.27416,-0.13450000000000006,-0.07086999999999999,-0.0027550000000000074,0.02729999999999988,0.07086999999999999,0.0027550000000000074,-0.027300000000000102,-0.11087999999999998,-0.267595,-0.01990000000000003,0.18237000000000003,-0.271135,0.010599999999999943,-0.12454999999999994,-0.489525,0.07724999999999993,0.14109000000000005,-0.480325,0.0037000000000000366
151,0.01831000000000005,0.730405,-0.027799999999999825,-0.10383999999999993,0.470735,-0.02729999999999988,-0.13863999999999999,0.27813299999999996,-0.12519999999999976,0.05765000000000009,0.457775,-0.09439999999999982,0.11136000000000001,0.230441,-0.048599999999999755,0.02489000000000008,0.09650499999999998,-0.10879999999999979,-0.12316999999999989,0.290427,-0.13839999999999986,-0.07269999999999999,-0.002354999999999996,0.027700000000000058,0.0727000000000001,0.002354999999999996,-0.027699999999999836,-0.12129999999999996,-0.26521500000000003,-0.022599999999999953,0.18557,-0.269005,0.009400000000000075,-0.13947999999999994,-0.486515,0.07596000000000014,0.1448100000000001,-0.476215,0.0032000000000000917
152,0.01979999999999993,0.7319899999999999,-0.03159999999999985,-0.10597000000000012,0.46476,-0.0351999999999999,-0.13812000000000013,0.27559,-0.13369999999999993,0.05497999999999992,0.45691,-0.09829999999999983,0.10845999999999989,0.230366,-0.05269999999999997,0.03537999999999997,0.10014,-0.11149999999999993,-0.12567000000000006,0.294445,-0.14149999999999996,-0.07442000000000004,-0.0021100000000000008,0.028100000000000014,0.07441999999999993,0.0021100000000000008,-0.028100000000000014,-0.1329800000000001,-0.26285,-0.02499999999999991,0.1896199999999999,-0.26688000000000006,0.008199999999999985,-0.1560600000000001,-0.4836,0.0748700000000001,0.1542699999999999,-0.47151000000000004,0.0026000000000001577
153,0.02068000000000003,0.73342,-0.035050000000000026,-0.10782000000000003,0.45855,-0.04255000000000009,-0.13860000000000006,0.27485,-0.1371500000000001,0.05259999999999998,0.4562,-0.10175000000000001,0.10597999999999996,0.22968599999999997,-0.05625000000000013,0.035270000000000024,0.10196,-0.11285000000000012,-0.12758000000000003,0.297342,-0.14465000000000017,-0.07632000000000005,-0.0019200000000000328,0.028649999999999953,0.07631999999999994,0.0019199999999999773,-0.028650000000000064,-0.14500000000000002,-0.26126000000000005,-0.027150000000000007,0.19306,-0.26582000000000006,0.008349999999999858,-0.17273000000000005,-0.48161,0.07429999999999992,0.16415000000000002,-0.46820000000000006,0.005349999999999966
154,0.02216499999999999,0.73411,-0.037385,-0.10850499999999996,0.45557000000000003,-0.046885000000000066,-0.138085,0.27562000000000003,-0.13988500000000004,0.051315,0.45475000000000004,-0.10438499999999995,0.10460500000000006,0.22871500000000003,-0.05918500000000004,0.036044999999999994,0.10401000000000002,-0.11328500000000008,-0.12849500000000003,0.29811200000000004,-0.1472850000000001,-0.077295,-0.0016199999999999548,0.029084999999999916,0.077295,0.0016200000000000103,-0.029085000000000027,-0.154845,-0.26088,-0.02878500000000006,0.19430500000000006,-0.2662899999999999,0.009814999999999907,-0.18483499999999997,-0.48122,0.07389499999999993,0.16968499999999997,-0.46763,0.010114999999999874
155,0.021645000000000025,0.73415,-0.03948499999999999,-0.10988500000000001,0.45560999999999996,-0.04928500000000002,-0.138185,0.27565999999999996,-0.14238499999999998,0.050024999999999986,0.45377999999999996,-0.10678499999999991,0.10295500000000002,0.22713499999999995,-0.06178499999999998,0.03518500000000002,0.10564999999999997,-0.11338500000000007,-0.12951500000000005,0.298152,-0.14968500000000007,-0.07748500000000003,-0.0015800000000000258,0.029584999999999972,0.07748500000000003,0.0015799999999999703,-0.029584999999999972,-0.16014499999999998,-0.2610800000000001,-0.031384999999999996,0.19432499999999997,-0.2672300000000001,0.011814999999999909,-0.18926500000000002,-0.48181000000000007,0.071905,0.17267500000000002,-0.46769000000000005,0.016015000000000112
156,0.021625000000000005,0.73415,-0.039369999999999905,-0.11030499999999999,0.45560999999999996,-0.05027000000000004,-0.14007499999999995,0.27565999999999996,-0.14556999999999998,0.049695000000000045,0.45377999999999996,-0.10776999999999992,0.10230499999999998,0.22713499999999995,-0.06267,0.03623500000000002,0.10564999999999997,-0.11487000000000003,-0.129475,0.29923599999999995,-0.15127000000000002,-0.07738500000000004,-0.0015800000000000258,0.030569999999999986,0.07738500000000004,0.0015799999999999703,-0.030569999999999986,-0.16022499999999995,-0.26085,-0.03207000000000004,0.19430500000000006,-0.2672300000000001,0.011929999999999996,-0.18938500000000003,-0.4801500000000001,0.07069000000000003,0.17106500000000002,-0.46445000000000003,0.023680000000000034
157,0.022434999999999983,0.7344200000000001,-0.039244999999999974,-0.10958500000000004,0.45588,-0.05144499999999996,-0.13958500000000007,0.276805,-0.14764500000000003,0.050144999999999995,0.45405,-0.10894499999999985,0.1023949999999999,0.227405,-0.06384499999999993,0.03695499999999996,0.10726,-0.11604499999999995,-0.1284550000000001,0.300654,-0.15314499999999986,-0.07810500000000009,-0.0014399999999999968,0.03174500000000002,0.07810499999999998,0.0014399999999999968,-0.03174499999999991,-0.15947500000000003,-0.26021999999999995,-0.03284500000000001,0.19193499999999997,-0.26696000000000003,0.013554999999999984,-0.18866500000000008,-0.4805,0.06950500000000004,0.16656499999999996,-0.46441000000000004,0.030345000000000066
158,0.02322000000000002,0.7348399999999999,-0.03770000000000007,-0.10888999999999993,0.45774,-0.05109999999999992,-0.1372199999999999,0.281132,-0.14890000000000003,0.05060000000000009,0.45381,-0.10949999999999993,0.10243000000000002,0.22571899999999998,-0.06430000000000002,0.03863000000000005,0.11018999999999998,-0.11670000000000003,-0.12718999999999991,0.30183899999999997,-0.15369999999999995,-0.07872999999999997,-0.0012100000000000444,0.032299999999999995,0.07873000000000008,0.0012099999999999889,-0.032299999999999995,-0.1588099999999999,-0.25886,-0.03289999999999993,0.1926500000000001,-0.26525,0.01429999999999998,-0.18803999999999998,-0.4807,0.06886000000000003,0.20101000000000002,-0.4727100000000001,0.05176000000000003
