sb224sc-HT22-VT27/4dt907/src/data/kinect_good_vs_bad_not_preprocessed_A13_mediapipe/W23.csv
FrameNo,nose_3d_x,nose_3d_y,nose_3d_z,left_shoulder_3d_x,left_shoulder_3d_y,left_shoulder_3d_z,left_elbow_3d_x,left_elbow_3d_y,left_elbow_3d_z,right_shoulder_3d_x,right_shoulder_3d_y,right_shoulder_3d_z,right_elbow_3d_x,right_elbow_3d_y,right_elbow_3d_z,left_wrist_3d_x,left_wrist_3d_y,left_wrist_3d_z,right_wrist_3d_x,right_wrist_3d_y,right_wrist_3d_z,left_hip_3d_x,left_hip_3d_y,left_hip_3d_z,right_hip_3d_x,right_hip_3d_y,right_hip_3d_z,left_knee_3d_x,left_knee_3d_y,left_knee_3d_z,right_knee_3d_x,right_knee_3d_y,right_knee_3d_z,left_ankle_3d_x,left_ankle_3d_y,left_ankle_3d_z,right_ankle_3d_x,right_ankle_3d_y,right_ankle_3d_z
0,0.0141805,0.7387815000000001,-0.027139000000000003,-0.1330255,0.4625515,0.015759,-0.17170549999999998,0.2195715,0.05345,0.1535145,0.4632515,0.016225999999999997,0.1878145,0.2200115,0.050997,-0.1948455,0.014478499999999998,0.0012869999999999965,0.2091345,0.014933499999999999,-0.002350999999999999,-0.0656775,0.0018464999999999996,-4.300000000000137e-05,0.0656775,-0.0018465,4.300000000000137e-05,-0.11681549999999999,-0.3135885,0.007480999999999998,0.11007449999999999,-0.3244185,0.015614,-0.1208855,-0.6435584999999999,0.056982,0.12730450000000001,-0.6350085,0.048733
1,0.014229000000000006,0.7387885000000001,-0.027237000000000004,-0.133408,0.4622285,0.016194999999999994,-0.171898,0.2190185,0.053232999999999996,0.153502,0.4635085,0.016092999999999993,0.18774200000000002,0.2198285,0.051175,-0.196628,0.013676500000000001,0.003240999999999994,0.20931200000000003,0.014905499999999999,-0.0027770000000000086,-0.06567100000000001,0.0018484999999999999,9.499999999999786e-05,0.06567100000000001,-0.0018485000000000003,-9.50000000000048e-05,-0.11677799999999999,-0.3137315,0.007425999999999995,0.11011200000000002,-0.32442150000000003,0.015563999999999995,-0.12092800000000001,-0.6438815,0.05698299999999999,0.12735200000000002,-0.6350615,0.04869799999999999
2,0.014409500000000004,0.7388975,-0.027194000000000003,-0.13569550000000002,0.4632475,0.018133999999999997,-0.1716355,0.2180775,0.053209,0.15333449999999998,0.4632675,0.015752,0.18761450000000002,0.2198775,0.052372,-0.19870549999999998,0.011886500000000001,0.009530999999999998,0.2096945,0.015386500000000001,-0.003248000000000001,-0.0656085,0.0017905,0.0003049999999999997,0.0656085,-0.0017904999999999996,-0.0003049999999999997,-0.1165155,-0.3138325,0.007533999999999999,0.1104145,-0.3246125,0.015650999999999998,-0.1210255,-0.6442525,0.056526999999999994,0.1269945,-0.6391625,0.049379
3,0.014446,0.7385605,-0.027431500000000004,-0.13624899999999998,0.4635505,0.018514499999999996,-0.17174899999999999,0.2175805,0.0531125,0.153371,0.46336049999999995,0.0155445,0.187641,0.2198505,0.052379499999999996,-0.19841899999999998,0.0116335,0.007662499999999999,0.209591,0.0154205,-0.0035945000000000005,-0.065634,0.0017795000000000003,0.0003044999999999992,0.065634,-0.0017794999999999998,-0.0003044999999999992,-0.116419,-0.3137395,0.007374499999999999,0.11044100000000001,-0.3248495,0.015543499999999998,-0.121169,-0.6446795000000001,0.0564805,0.126921,-0.6398895,0.049269499999999994
4,0.014436000000000001,0.738537,-0.027399,-0.136522,0.463827,0.018833999999999997,-0.171792,0.217557,0.053177,0.153398,0.463327,0.015586,0.187528,0.21974700000000003,0.052595,-0.20131200000000002,0.011408000000000001,0.011379999999999998,0.20951799999999998,0.015279000000000001,-0.0032329999999999998,-0.06562399999999999,0.0017640000000000004,0.00038900000000000046,0.06562399999999999,-0.001764,-0.00038900000000000046,-0.116512,-0.314423,0.0071319999999999995,0.11055799999999999,-0.325393,0.015773,-0.121342,-0.644773,0.056922,0.126908,-0.6404430000000001,0.049324999999999994
5,0.014452,0.7384015,-0.027336,-0.13886199999999999,0.4632815,0.020452000000000005,-0.17169199999999998,0.2174815,0.053263000000000005,0.153498,0.46326150000000005,0.015450000000000002,0.18773800000000002,0.2194915,0.052663,-0.200262,0.011397500000000001,0.010146000000000002,0.209038,0.0150665,-0.0036780000000000007,-0.065607,0.0017675000000000004,0.00043500000000000483,0.065607,-0.0017675,-0.0004349999999999979,-0.11644199999999999,-0.3144085,0.007088000000000004,0.11058799999999999,-0.32542849999999995,0.015624000000000002,-0.120832,-0.6467585,0.056793,0.126978,-0.6406585,0.049332
6,0.014449499999999997,0.738375,-0.0277035,-0.13918650000000002,0.463815,0.0213455,-0.1716165,0.217195,0.0530885,0.1534235,0.463005,0.0148965,0.1877235,0.219105,0.052268499999999996,-0.2011965,0.011446999999999999,0.0087805,0.20917349999999998,0.014809,-0.004597499999999997,-0.0656175,0.0018189999999999999,0.0007744999999999974,0.0656175,-0.0018190000000000003,-0.0007744999999999974,-0.1164165,-0.314255,0.0068275,0.1106635,-0.325785,0.0156865,-0.1205665,-0.647155,0.0567245,0.12702349999999998,-0.640735,0.048980499999999996
7,0.014391999999999995,0.7383050000000001,-0.027701999999999997,-0.13742100000000002,0.463685,0.019722000000000003,-0.17159100000000002,0.217185,0.053294,0.153999,0.463265,0.016261,0.18781899999999999,0.21945499999999998,0.052314,-0.19798100000000002,0.011479,0.004749000000000003,0.209449,0.01482,-0.0031749999999999973,-0.06560099999999999,0.001846,0.0004180000000000017,0.06560099999999999,-0.0018459999999999996,-0.00041799999999999476,-0.116341,-0.313845,0.007215000000000003,0.110459,-0.325755,0.015521000000000004,-0.120951,-0.645115,0.056437,0.12713899999999997,-0.6408649999999999,0.048797
8,0.014397499999999997,0.7382715000000001,-0.027766000000000006,-0.1375885,0.4637915,0.019804999999999996,-0.1716085,0.2170915,0.053371999999999996,0.1541215,0.4632815,0.016403999999999995,0.1878215,0.2193815,0.052355,-0.19809849999999998,0.0113385,0.004697999999999997,0.2095215,0.014784499999999999,-0.003018000000000007,-0.06560450000000001,0.0018704999999999998,0.0004269999999999968,0.06560450000000001,-0.0018705000000000006,-0.00042700000000000377,-0.11628849999999999,-0.31388849999999996,0.007190999999999996,0.1104715,-0.3258385,0.015515999999999995,-0.1209585,-0.6453785,0.056395,0.1271415,-0.6409785,0.04878199999999999
9,0.014404,0.738212,-0.027838999999999996,-0.137716,0.463912,0.019974000000000002,-0.171576,0.217002,0.053494,0.154244,0.46328199999999997,0.016562,0.187854,0.219352,0.052403000000000005,-0.19806600000000002,0.010945,0.004432000000000002,0.209624,0.014774,-0.0028329999999999952,-0.065606,0.0018840000000000003,0.0004170000000000007,0.065606,-0.0018839999999999994,-0.0004170000000000007,-0.11624599999999999,-0.313938,0.007164,0.11049400000000001,-0.325888,0.015502000000000002,-0.12104599999999999,-0.645388,0.05635,0.12714399999999998,-0.6410480000000001,0.048757
10,0.014410999999999998,0.738187,-0.0279895,-0.137735,0.46402699999999997,0.020007499999999998,-0.171545,0.216977,0.0536055,0.15437499999999998,0.463297,0.0167175,0.187905,0.21931699999999998,0.0524175,-0.19788499999999998,0.010924,0.004060499999999998,0.20975500000000002,0.014714999999999999,-0.0027254999999999988,-0.065606,0.0018959999999999997,0.00033149999999999846,0.065606,-0.0018960000000000001,-0.00033149999999999846,-0.116195,-0.313913,0.007091500000000001,0.11050499999999999,-0.325913,0.015449499999999998,-0.121105,-0.645303,0.0563825,0.127185,-0.641073,0.0486295
11,0.0144095,0.7381585,-0.028173500000000004,-0.13805650000000003,0.4641585,0.0202185,-0.1715065,0.2169385,0.0536665,0.15451350000000003,0.4633485,0.0168725,0.1879635,0.2193285,0.0523905,-0.19799650000000002,0.010970500000000001,0.0041005,0.2099435,0.014676499999999999,-0.0025645000000000043,-0.0656045,0.0018985000000000004,0.0002715000000000009,0.0656045,-0.0018985,-0.0002715000000000009,-0.1161965,-0.3139815,0.0070294999999999976,0.1105135,-0.3259515,0.0153575,-0.1211465,-0.6453515,0.0564055,0.12719350000000001,-0.6411315,0.0484725
12,0.014405500000000003,0.738148,-0.0283445,-0.1383275,0.46429800000000004,0.020565499999999997,-0.1714675,0.21695799999999998,0.053739499999999996,0.1546225,0.463388,0.017050499999999996,0.1880325,0.219358,0.0523745,-0.1978975,0.011058,0.003993499999999997,0.2101625,0.014645,-0.002325500000000001,-0.0656055,0.0018949999999999995,0.00020249999999999435,0.0656055,-0.001895,-0.0002025000000000013,-0.11620749999999999,-0.314002,0.007007499999999996,0.1105025,-0.325962,0.015286499999999998,-0.1211675,-0.645382,0.0563965,0.12719250000000001,-0.641272,0.0483345
13,0.014391999999999995,0.738139,-0.028524,-0.138156,0.46442900000000004,0.020450999999999997,-0.171436,0.217009,0.053843,0.15465399999999999,0.46343900000000005,0.017084,0.188104,0.219399,0.052358,-0.19756600000000002,0.01108,0.0034029999999999998,0.210424,0.01464,-0.002043000000000003,-0.065602,0.0018869999999999998,0.00012899999999999717,0.065602,-0.0018869999999999998,-0.0001290000000000041,-0.116236,-0.314021,0.006940999999999999,0.11049400000000001,-0.32597099999999996,0.015198,-0.121276,-0.645191,0.056445999999999996,0.127154,-0.641421,0.048183
14,0.014364,0.738109,-0.028675500000000007,-0.138033,0.464539,0.020290499999999996,-0.171423,0.217029,0.053955499999999997,0.154707,0.463469,0.0171645,0.188227,0.21942899999999999,0.052391499999999994,-0.197153,0.011113999999999999,0.0031754999999999978,0.210757,0.014652000000000002,-0.001745500000000004,-0.06559499999999999,0.0018670000000000002,4.349999999999493e-05,0.06559499999999999,-0.0018669999999999997,-4.350000000000187e-05,-0.11627299999999999,-0.314091,0.0069024999999999954,0.11046700000000001,-0.325931,0.015149499999999996,-0.121423,-0.6451009999999999,0.0564895,0.12715700000000002,-0.641621,0.0480555
15,0.014335500000000006,0.738102,-0.028820499999999992,-0.1380115,0.464662,0.02026850000000001,-0.17139149999999997,0.21710200000000002,0.05402850000000001,0.1546785,0.463492,0.01709050000000001,0.18838850000000001,0.21946200000000002,0.052396500000000006,-0.19680150000000002,0.011511,0.0036085000000000075,0.21114850000000002,0.014655999999999999,-0.0014224999999999932,-0.0655945,0.00186,-3.4999999999965614e-06,0.0655945,-0.00186,3.5000000000035003e-06,-0.1162715,-0.314118,0.006908500000000005,0.1104585,-0.325878,0.015136500000000008,-0.1215815,-0.645008,0.05659750000000001,0.12718849999999998,-0.641798,0.047956500000000006
16,0.014273000000000001,0.738095,-0.029006499999999998,-0.137985,0.46481500000000003,0.020168500000000006,-0.171365,0.217165,0.054053500000000004,0.154595,0.463495,0.016977500000000006,0.188525,0.21942499999999998,0.05239250000000001,-0.196605,0.011601,0.004044500000000003,0.211655,0.014576,-0.001176499999999997,-0.06559300000000001,0.001853,-4.749999999999893e-05,0.06559300000000001,-0.0018529999999999996,4.750000000000587e-05,-0.11626500000000001,-0.314185,0.0068655000000000035,0.110455,-0.325825,0.015116500000000005,-0.12179499999999999,-0.6449750000000001,0.056636500000000006,0.127175,-0.6419950000000001,0.047789500000000006
17,0.014179500000000003,0.7380855000000001,-0.029187499999999998,-0.13807350000000002,0.4649255,0.0202265,-0.1713735,0.2172155,0.054096500000000006,0.1545265,0.46346550000000003,0.016849500000000003,0.1886465,0.2193855,0.0523285,-0.19643349999999998,0.0115045,0.004420500000000001,0.2120865,0.014510499999999999,-0.0010135000000000005,-0.0655985,0.0018464999999999996,-6.350000000000106e-05,0.0655985,-0.0018465,6.350000000000106e-05,-0.1163035,-0.31433449999999996,0.006814500000000001,0.11046650000000001,-0.3256845,0.015183500000000003,-0.12195349999999999,-0.6449945,0.0567635,0.12713649999999999,-0.6421745,0.0476525
18,0.0140405,0.7380855000000001,-0.029331500000000003,-0.1382025,0.4649955,0.0201875,-0.1714325,0.21725550000000002,0.0540735,0.1544775,0.4634755,0.0168265,0.1886975,0.21930550000000001,0.0523025,-0.1966325,0.0114755,0.004955499999999998,0.2124175,0.0143985,-0.0008905000000000024,-0.0655935,0.0018464999999999996,-3.949999999999787e-05,0.0655935,-0.0018465,3.949999999999787e-05,-0.1164025,-0.3144645,0.006753499999999999,0.1104375,-0.3255145,0.0152845,-0.1221125,-0.6452344999999999,0.0568115,0.1270375,-0.6420445,0.0475605
19,0.013858499999999996,0.7381019999999999,-0.029478500000000005,-0.1383825,0.46496200000000004,0.0198425,-0.1715325,0.217352,0.0540355,0.1543775,0.463482,0.0167795,0.18874749999999998,0.219222,0.0522625,-0.1968125,0.011523,0.005369499999999999,0.2126875,0.014281000000000002,-0.0008145000000000027,-0.0655815,0.0018430000000000005,-5.000000000005e-07,0.0655815,-0.001843,5.000000000005e-07,-0.11657250000000001,-0.31457799999999997,0.0066844999999999995,0.11044749999999999,-0.32533799999999996,0.015383499999999998,-0.1223525,-0.645478,0.056776499999999994,0.1268875,-0.641928,0.047536499999999995
20,0.013625999999999997,0.7380435,-0.029730499999999993,-0.138961,0.46507350000000003,0.019950500000000003,-0.171631,0.2174135,0.054011500000000004,0.15423900000000001,0.4634235,0.016529500000000003,0.188799,0.2191635,0.0522305,-0.196731,0.0115415,0.005604500000000005,0.212879,0.0141095,-0.0007204999999999989,-0.06557099999999999,0.0018245000000000002,2.5500000000004686e-05,0.06557099999999999,-0.0018244999999999997,-2.5499999999997747e-05,-0.116761,-0.3147465,0.006632500000000003,0.110489,-0.3251965,0.015378500000000003,-0.122641,-0.6457065,0.0567565,0.126729,-0.6418665,0.04753550000000001
21,0.013144500000000005,0.737985,-0.0301045,-0.1390595,0.46493500000000004,0.019758500000000002,-0.1718495,0.21748499999999998,0.0540455,0.15399050000000003,0.46354500000000004,0.0163055,0.1887605,0.219155,0.0520595,-0.1971095,0.01156,0.005881500000000001,0.21287050000000002,0.014137,-0.0008205000000000018,-0.0656075,0.0017840000000000004,9.25000000000023e-05,0.0656075,-0.001784,-9.249999999999536e-05,-0.11699949999999999,-0.31492499999999995,0.006438500000000003,0.11052050000000001,-0.32509499999999997,0.015443500000000002,-0.1231395,-0.645895,0.0567975,0.12650050000000002,-0.641945,0.047579500000000004
22,0.012557500000000001,0.737883,-0.030528,-0.1395005,0.464953,0.019885000000000003,-0.17210050000000002,0.217373,0.054125000000000006,0.1537295,0.463693,0.016119000000000005,0.1886695,0.219113,0.051918000000000006,-0.1977605,0.011487999999999998,0.0064680000000000015,0.2128495,0.014113,-0.000785999999999995,-0.0656535,0.0017399999999999998,0.00019700000000000273,0.0656535,-0.0017400000000000002,-0.0001969999999999958,-0.11725050000000001,-0.315177,0.006095000000000003,0.1105795,-0.325057,0.015560000000000004,-0.1237105,-0.6460670000000001,0.056673,0.1262595,-0.642007,0.047702
23,0.011868000000000002,0.7377155,-0.030927499999999997,-0.140041,0.4647955,0.0200605,-0.172351,0.2171755,0.054225499999999996,0.153389,0.4637855,0.015885499999999997,0.188489,0.2190155,0.051700499999999996,-0.198511,0.011301499999999999,0.006991499999999998,0.212719,0.014058500000000002,-0.0008265000000000008,-0.065726,0.0016605,0.0003625000000000017,0.065726,-0.0016604999999999996,-0.0003625000000000017,-0.11746100000000001,-0.3155845,0.005068499999999997,0.11060900000000001,-0.3251545,0.015723499999999998,-0.12440100000000001,-0.6461545,0.0562615,0.125989,-0.6421245,0.0478715
24,0.010976,0.737531,-0.0315855,-0.14052,0.464661,0.019935500000000002,-0.1727,0.216951,0.054414500000000005,0.15299,0.463871,0.015591500000000005,0.18832,0.218971,0.051305500000000004,-0.19956,0.011091,0.007646500000000004,0.2125,0.013868,-0.0006304999999999991,-0.065833,0.0015459999999999998,0.000621500000000004,0.065833,-0.001546,-0.0006214999999999971,-0.11776,-0.31649900000000003,0.0035905000000000034,0.11056,-0.32527900000000004,0.016021500000000004,-0.12531,-0.646459,0.05573550000000001,0.12573,-0.642249,0.04817350000000001
25,0.009911,0.737344,-0.032242,-0.14137899999999998,0.464524,0.019840000000000003,-0.173149,0.21666400000000002,0.054505,0.152511,0.46394399999999997,0.015146000000000003,0.188041,0.218954,0.05087800000000001,-0.200679,0.010766999999999999,0.008219,0.211951,0.013734,-0.0005770000000000011,-0.065924,0.001426,0.0009440000000000004,0.065924,-0.0014259999999999998,-0.0009440000000000004,-0.118179,-0.317396,0.0021280000000000014,0.110391,-0.325436,0.016337,-0.126389,-0.646776,0.055077,0.125341,-0.6424559999999999,0.048545000000000005
26,0.008798499999999996,0.737128,-0.03284100000000001,-0.14182850000000002,0.464328,0.019266999999999996,-0.1736185,0.21631799999999998,0.054646999999999994,0.1518715,0.463998,0.014429999999999995,0.18774149999999998,0.218918,0.05025199999999999,-0.2016785,0.010492000000000001,0.008549999999999995,0.2113415,0.01356,-0.0006180000000000074,-0.0660435,0.0013320000000000003,0.0012089999999999948,0.0660435,-0.0013319999999999999,-0.0012090000000000017,-0.1185485,-0.318142,0.0006869999999999932,0.1101615,-0.32567199999999996,0.016638999999999998,-0.12749850000000001,-0.647112,0.054458999999999994,0.12493149999999999,-0.642632,0.04892
27,0.0076720000000000035,0.7368939999999999,-0.03351150000000001,-0.142201,0.464154,0.018681499999999997,-0.174121,0.216004,0.054746500000000003,0.151269,0.46401400000000004,0.0138035,0.187439,0.21891400000000003,0.049576499999999996,-0.202711,0.010276,0.0088945,0.21059899999999998,0.013441999999999999,-0.0007675000000000043,-0.066164,0.001231,0.001409500000000001,0.066164,-0.0012309999999999999,-0.001409500000000001,-0.118931,-0.318896,-0.000737500000000002,0.109919,-0.325906,0.016884499999999997,-0.128621,-0.647406,0.05382049999999999,0.124379,-0.642846,0.049306499999999996
28,0.006569999999999998,0.736687,-0.034282999999999994,-0.142605,0.464017,0.018112000000000003,-0.174625,0.215757,0.054813,0.15065499999999998,0.46404700000000004,0.013124000000000004,0.187105,0.218937,0.048823000000000005,-0.204285,0.010116,0.009474000000000003,0.20979499999999998,0.013317,-0.0010279999999999942,-0.066285,0.0011390000000000003,0.0015410000000000007,0.066285,-0.0011389999999999998,-0.0015409999999999938,-0.119275,-0.319663,-0.0021869999999999945,0.109635,-0.32614299999999996,0.017068000000000003,-0.129635,-0.647763,0.053143,0.12379499999999999,-0.643083,0.049575
29,0.005476499999999999,0.7364554999999999,-0.0350895,-0.1430205,0.4638755,0.0173415,-0.1751705,0.2155855,0.0548595,0.1500395,0.4641155,0.0124095,0.1867495,0.21894550000000002,0.0481115,-0.2059705,0.0099195,0.0098005,0.2089695,0.0131805,-0.0013195000000000012,-0.0664155,0.0010304999999999997,0.001638500000000001,0.0664155,-0.0010305000000000002,-0.001638500000000001,-0.1196405,-0.3204745,-0.003644500000000002,0.1092595,-0.3263945,0.0170935,-0.1306805,-0.6481545000000001,0.0524465,0.1231595,-0.6433545,0.0497645
30,0.004581500000000002,0.7363005,-0.0359485,-0.1431915,0.4637205,0.0160595,-0.1756415,0.2154305,0.0547715,0.14947850000000001,0.46403049999999996,0.0114175,0.1864785,0.2191805,0.0474665,-0.2076115,0.0097595,0.0098795,0.2082585,0.013225500000000001,-0.0015425000000000022,-0.0665145,0.0009514999999999999,0.0016554999999999973,0.0665145,-0.0009515000000000001,-0.0016554999999999973,-0.11991149999999999,-0.32125950000000003,-0.0050644999999999996,0.1088185,-0.3266695,0.0168845,-0.1315215,-0.6484894999999999,0.0514975,0.12252850000000001,-0.6435795,0.0497585
31,0.003695500000000001,0.7361635000000001,-0.03666,-0.1435005,0.4636435,0.014887999999999995,-0.1761705,0.2153335,0.054778999999999994,0.1487995,0.46395349999999996,0.010452999999999997,0.1861795,0.2195235,0.046965999999999994,-0.2093405,0.0096725,0.009973999999999997,0.2077195,0.0133805,-0.0015310000000000046,-0.06661249999999999,0.0008695000000000002,0.0016579999999999998,0.06661249999999999,-0.0008695,-0.0016580000000000067,-0.1202105,-0.3219965,-0.006208000000000005,0.1082495,-0.3269965,0.016544999999999997,-0.1323505,-0.6488265,0.050886999999999995,0.12182949999999998,-0.6437765,0.049769999999999995
32,0.002864000000000002,0.736096,-0.037385,-0.143917,0.46366599999999997,0.014209999999999997,-0.17679699999999998,0.215316,0.054791999999999993,0.148063,0.463976,0.009600999999999998,0.18582300000000002,0.219886,0.04688199999999999,-0.210947,0.009784000000000001,0.010084999999999997,0.20731300000000003,0.013634,-0.0015230000000000035,-0.066684,0.0007859999999999999,0.0016590000000000008,0.066684,-0.000786,-0.0016590000000000008,-0.120527,-0.32263400000000003,-0.006494,0.107643,-0.32737400000000005,0.016145999999999997,-0.133077,-0.648954,0.050573999999999994,0.121103,-0.643934,0.049693999999999995
33,0.0021665,0.7360680000000001,-0.037821999999999995,-0.1445535,0.463748,0.013896000000000006,-0.17742349999999998,0.215338,0.054785,0.14742650000000002,0.46399799999999997,0.008876000000000005,0.18536650000000002,0.220118,0.046871,-0.21236349999999998,0.00994,0.010440000000000005,0.2069765,0.013800999999999999,-0.0015359999999999957,-0.0667265,0.0006879999999999999,0.0016400000000000026,0.0667265,-0.000688,-0.0016399999999999956,-0.1207935,-0.322882,-0.006507999999999993,0.10703649999999999,-0.32780200000000004,0.015624000000000006,-0.1337035,-0.6491119999999999,0.050417000000000003,0.12049649999999999,-0.644272,0.049503000000000005
34,0.0015910000000000039,0.7360545,-0.038773499999999995,-0.14493999999999999,0.4639145,0.012923500000000004,-0.17794,0.2153645,0.054443500000000006,0.14689000000000002,0.46421450000000003,0.007872500000000004,0.18498,0.2203345,0.046526500000000005,-0.21359,0.0101275,0.010466500000000004,0.20661000000000002,0.0137075,-0.0014354999999999993,-0.06679,0.0005945000000000001,0.0015265,0.06679,-0.0005945,-0.0015265,-0.121,-0.3231455,-0.0068614999999999995,0.10650000000000001,-0.3283055,0.014495500000000001,-0.13422,-0.6495255000000001,0.0499785,0.12005000000000002,-0.6446855,0.0488065
35,0.0011725,0.7360475,-0.040723,-0.1451935,0.4641075,0.011286999999999998,-0.1782735,0.2153775,0.053464,0.14651650000000002,0.4645875,0.006203,0.1847365,0.2205175,0.045383,-0.2145335,0.0102285,0.009696,0.20648650000000002,0.0137005,-0.0016400000000000026,-0.0669115,0.0005865,0.0014899999999999983,0.0669115,-0.0005865,-0.0014899999999999983,-0.1210835,-0.3244225,-0.008076,0.1061865,-0.3288825,0.012340999999999998,-0.13443349999999998,-0.6500225000000001,0.04874,0.11971649999999999,-0.6451125,0.04696
36,0.0009540000000000017,0.7359925,-0.043284500000000004,-0.145717,0.46411250000000004,0.009621500000000002,-0.17841700000000002,0.2152125,0.0520515,0.146253,0.4645825,0.0042635,0.184693,0.22052249999999998,0.0439945,-0.21526700000000001,0.0101195,0.0083855,0.206533,0.013705499999999999,-0.0020434999999999967,-0.067023,0.0005815000000000001,0.0012934999999999995,0.067023,-0.0005815,-0.001293499999999996,-0.12117699999999999,-0.3256575,-0.009863499999999997,0.106103,-0.3289375,0.009461500000000001,-0.13436700000000001,-0.6504774999999999,0.0469015,0.119513,-0.6458075,0.0443095
37,0.0008244999999999971,0.735964,-0.046367500000000006,-0.14593450000000002,0.464144,0.0073715,-0.1785845,0.215154,0.0503565,0.1460455,0.464524,0.0019955000000000007,0.1847555,0.220554,0.0423695,-0.21595450000000002,0.010113,0.006780499999999998,0.20667549999999998,0.013689999999999999,-0.001586500000000001,-0.0670275,0.0005629999999999999,0.0010795000000000006,0.0670275,-0.0005630000000000001,-0.0010795000000000006,-0.1212245,-0.326996,-0.012116499999999999,0.1061055,-0.329176,0.006014499999999999,-0.1341145,-0.651016,0.0445595,0.11924549999999999,-0.6465460000000001,0.0410185
38,0.0006604999999999979,0.7360105,-0.050018499999999994,-0.1461825,0.4642605,0.004281500000000001,-0.17884250000000002,0.21525049999999998,0.0481995,0.14578750000000001,0.4645005,-0.0008104999999999987,0.1848075,0.2206705,0.040598499999999996,-0.2165625,0.0102265,0.005129499999999999,0.2067275,0.013662500000000001,-0.0014895000000000012,-0.0670275,0.00044649999999999996,0.0010685,0.0670275,-0.00044650000000000007,-0.0010685,-0.1212825,-0.3284095,-0.014912499999999999,0.1060575,-0.3296495,0.0018705000000000006,-0.1338925,-0.6515494999999999,0.041652499999999995,0.11898750000000001,-0.6471794999999999,0.0369125
39,0.0004340000000000021,0.7350835,-0.0552855,-0.146593,0.4648535,-0.00017750000000000057,-0.179363,0.2158035,0.045233499999999996,0.145527,0.4649235,-0.0047785000000000015,0.184887,0.2210235,0.0385345,-0.217163,0.0107855,0.002635499999999999,0.206847,0.0137065,-0.0016355000000000015,-0.067055,0.0004135,0.0008274999999999984,0.067055,-0.0004134999999999998,-0.0008274999999999984,-0.12134299999999999,-0.3295365,-0.0190045,0.106047,-0.3294865,-0.0044995,-0.133593,-0.6514665,0.0370805,0.118737,-0.6470365,0.0313805
40,0.00024649999999999846,0.7333025000000001,-0.0611295,-0.1467515,0.4658125,-0.005216499999999999,-0.1800815,0.2166425,0.0419575,0.1453285,0.4649525,-0.0093115,0.1850685,0.2207225,0.0364765,-0.21790150000000003,0.011540499999999999,-1.4999999999980307e-06,0.20722849999999998,0.013114500000000001,-0.0014174999999999986,-0.06721150000000001,0.00038449999999999986,0.0006225000000000015,0.06721150000000001,-0.0003845000000000003,-0.0006224999999999981,-0.1217015,-0.33019750000000003,-0.024614499999999997,0.1061385,-0.3288575,-0.0119795,-0.1333215,-0.6508075,0.0315975,0.1185285,-0.6464274999999999,0.0245505
41,1.8999999999998185e-05,0.731422,-0.067527,-0.147055,0.46551200000000004,-0.010643000000000001,-0.180925,0.218252,0.038439,0.145115,0.464712,-0.014375,0.185305,0.221102,0.034245,-0.218905,0.013053,-0.002805,0.207655,0.013219999999999999,-0.0015060000000000004,-0.06734000000000001,0.00035099999999999975,0.0003969999999999998,0.06734000000000001,-0.00035099999999999975,-0.0003969999999999998,-0.12246499999999999,-0.330818,-0.031627,0.10647499999999999,-0.327018,-0.020896000000000005,-0.133155,-0.648768,0.025576,0.118235,-0.644628,0.016926
42,-0.00023500000000000083,0.729303,-0.074546,-0.147604,0.464603,-0.01616,-0.182284,0.216463,0.035797,0.144866,0.464653,-0.019635,0.18564599999999998,0.221023,0.031761,-0.220694,0.011585000000000002,-0.00598,0.20834599999999998,0.012883000000000002,-0.0018230000000000008,-0.06751,0.00027000000000000114,0.00023499999999999997,0.06751,-0.0002699999999999994,-0.00023499999999999997,-0.123524,-0.330867,-0.039920000000000004,0.106946,-0.324797,-0.031207,-0.133184,-0.6454869999999999,0.018237,0.11786599999999998,-0.642237,0.008568
43,-0.000390999999999999,0.7269859999999999,-0.0816935,-0.147993,0.463646,-0.0215565,-0.183893,0.214996,0.032820499999999996,0.144647,0.463876,-0.0255505,0.186377,0.219696,0.0295575,-0.222583,0.010283,-0.0095345,0.209137,0.010959,-0.0017974999999999998,-0.067619,0.00010899999999999972,0.00016050000000000005,0.067619,-0.00010900000000000146,-0.00016050000000000005,-0.124673,-0.329524,-0.049169500000000005,0.10757699999999999,-0.320944,-0.042120500000000005,-0.133183,-0.640614,0.0103365,0.117397,-0.6386240000000001,-0.00038750000000000004
44,-0.00042650000000000153,0.724486,-0.088962,-0.14832849999999997,0.46117600000000003,-0.027086,-0.1853785,0.214616,0.029834000000000003,0.14462150000000001,0.462356,-0.031793,0.18727149999999998,0.219336,0.026947000000000002,-0.2244485,0.009954000000000001,-0.012059,0.2102115,0.010312000000000002,-0.0022890000000000002,-0.0677635,-5.2999999999997494e-05,0.00015200000000000023,0.0677635,5.300000000000096e-05,-0.00015200000000000023,-0.1261385,-0.326294,-0.060741,0.1090215,-0.31713399999999997,-0.055099,-0.1330685,-0.632514,0.0008929999999999997,0.1169515,-0.632124,-0.00958
45,-0.0003855000000000004,0.7211785,-0.0962125,-0.14864549999999999,0.4593585,-0.032641500000000004,-0.1868155,0.2145785,0.027005499999999998,0.14462450000000002,0.4605885,-0.0377455,0.1882645,0.2181185,0.0242875,-0.2263055,0.009846499999999998,-0.0133575,0.2112445,0.008866499999999996,-0.0023914999999999995,-0.06788949999999999,-1.3499999999999623e-05,7.950000000000144e-05,0.06788949999999999,1.3499999999999623e-05,-7.949999999999971e-05,-0.1276855,-0.3181615,-0.0726445,0.11062449999999999,-0.3093615,-0.0684385,-0.1326255,-0.6229115,-0.008660499999999998,0.1164945,-0.6241215,-0.0188155
46,-0.00038799999999999946,0.717705,-0.10359399999999999,-0.14890899999999999,0.457705,-0.038316,-0.188329,0.213945,0.024368,0.144411,0.45914499999999997,-0.043599,0.189421,0.21731499999999998,0.021203,-0.227989,0.009064000000000003,-0.013963999999999997,0.212431,0.008056,-0.0039869999999999975,-0.067978,0.0002500000000000002,0.00036500000000000074,0.067978,-0.0002500000000000002,-0.00036499999999999727,-0.129519,-0.306255,-0.08577599999999999,0.11246099999999999,-0.297835,-0.08316799999999999,-0.13205899999999998,-0.609285,-0.018928999999999998,0.11598099999999999,-0.6125349999999999,-0.028638999999999998
47,-0.0006115000000000009,0.7149525,-0.11528050000000001,-0.1493135,0.45649249999999997,-0.0491205,-0.1900435,0.2135125,0.0173265,0.1438365,0.45811250000000003,-0.0539735,0.1905765,0.2182425,0.013441500000000002,-0.2301935,0.008671500000000006,-0.0195325,0.21328650000000002,0.008983500000000005,-0.010392500000000002,-0.06819449999999999,0.00026450000000000085,0.0005884999999999987,0.06819449999999999,-0.00026450000000000085,-0.0005885000000000022,-0.1316535,-0.29198749999999996,-0.1042125,0.11422650000000001,-0.28422749999999997,-0.1032295,-0.1316735,-0.5933575,-0.0335245,0.11517650000000001,-0.5982974999999999,-0.0429415
48,-0.0008065000000000034,0.7115665,-0.125721,-0.1497875,0.45423650000000004,-0.059465000000000004,-0.1919375,0.21023650000000002,0.011042999999999997,0.1432525,0.45481649999999996,-0.063939,0.1917225,0.2146865,0.005539999999999996,-0.2323275,0.0052895000000000025,-0.023551000000000002,0.2143225,0.005364500000000008,-0.017042,-0.0683855,0.00016250000000000986,0.0009429999999999994,0.0683855,-0.00016249999999999598,-0.0009429999999999994,-0.1341175,-0.2779735,-0.124479,0.11631249999999999,-0.27088349999999994,-0.124666,-0.1312375,-0.5773735,-0.047046000000000004,0.1141725,-0.5839035,-0.056494
49,-0.0010485000000000008,0.70881,-0.1358815,-0.1502375,0.45025000000000004,-0.0693435,-0.19354749999999998,0.20748,0.004521500000000005,0.1425825,0.45247000000000004,-0.0736865,0.1928625,0.21334,-0.0032704999999999956,-0.2342275,0.0025309999999999916,-0.0277065,0.2155025,0.00401,-0.0245085,-0.0686495,-3.0000000000002247e-05,0.0013165000000000052,0.0686495,3.0000000000002247e-05,-0.0013164999999999982,-0.1363675,-0.26381,-0.1439745,0.1181825,-0.25688,-0.1458215,-0.13063750000000002,-0.5602199999999999,-0.0600585,0.1131925,-0.56816,-0.0691055
50,-0.0015429999999999992,0.70557,-0.146142,-0.15072,0.44845,-0.079349,-0.19542,0.202215,-0.0020649999999999974,0.14174,0.44997,-0.083609,0.19396,0.211852,-0.012304999999999996,-0.23600000000000002,-0.002799999999999983,-0.032171,0.21665,0.002380000000000007,-0.032183,-0.069088,-0.00011999999999999511,0.0017040000000000041,0.069088,0.00012000000000000899,-0.0017039999999999972,-0.1385,-0.24793,-0.163048,0.11973,-0.24255000000000002,-0.166458,-0.12963,-0.54338,-0.073108,0.11216999999999999,-0.5516399999999999,-0.081701
51,-0.002070500000000001,0.702135,-0.1560045,-0.1510805,0.446295,-0.0896385,-0.19674049999999998,0.200988,-0.010037499999999991,0.1409295,0.446845,-0.09391549999999999,0.1950695,0.21000399999999997,-0.021758499999999993,-0.2377105,-0.008495000000000003,-0.03670449999999999,0.21777950000000001,0.0005449999999999899,-0.04004749999999999,-0.0694295,-0.000135000000000024,0.00198050000000001,0.0694295,0.00013499999999999623,-0.001980499999999996,-0.1403205,-0.231315,-0.1815345,0.1211795,-0.22712500000000002,-0.1860545,-0.1286005,-0.525955,-0.08506949999999999,0.1112995,-0.534035,-0.09379749999999999
52,-0.0029234999999999973,0.6987800000000001,-0.16569699999999998,-0.15149149999999997,0.44355999999999995,-0.099819,-0.19812149999999998,0.19970300000000002,-0.017719,0.1400885,0.44401999999999997,-0.104271,0.1956485,0.208282,-0.031155000000000002,-0.23942149999999998,-0.01174,-0.040985,0.21864850000000002,-0.001459999999999989,-0.048712000000000005,-0.0698775,-0.00017000000000000348,0.002138000000000001,0.0698775,0.00017000000000000348,-0.002138000000000001,-0.14209149999999998,-0.21394,-0.199855,0.1223585,-0.21073,-0.20525500000000002,-0.1275915,-0.50803,-0.096738,0.1105085,-0.5150399999999999,-0.105413
53,-0.004004500000000004,0.69425,-0.174836,-0.1518755,0.44159000000000004,-0.10866699999999999,-0.1995655,0.19624600000000003,-0.025612999999999997,0.1391045,0.44148000000000004,-0.114214,0.1961745,0.20534700000000003,-0.039911999999999996,-0.2411055,-0.01530999999999999,-0.04549399999999999,0.2194645,-0.004289999999999988,-0.057192999999999994,-0.07034950000000001,-0.00025999999999998247,0.0021740000000000093,0.07034950000000001,0.0002600000000000102,-0.0021739999999999954,-0.1435155,-0.19816,-0.21584399999999998,0.12305450000000001,-0.19578,-0.222154,-0.1266055,-0.49118,-0.106307,0.10968449999999999,-0.4973,-0.11596999999999999
54,-0.005003999999999996,0.691245,-0.1837785,-0.152083,0.439515,-0.1175175,-0.201033,0.19308099999999997,-0.0337855,0.138307,0.439295,-0.1241545,0.196837,0.20359199999999997,-0.048351500000000006,-0.24265299999999998,-0.018435000000000035,-0.0509295,0.220447,-0.005935000000000024,-0.0656395,-0.070821,-0.00023500000000001298,0.0024814999999999976,0.070821,0.00023499999999998522,-0.0024814999999999976,-0.144563,-0.181365,-0.23179650000000002,0.123707,-0.17930500000000005,-0.2387865,-0.125393,-0.473605,-0.1154805,0.108907,-0.47868499999999997,-0.1261025
55,-0.005520499999999995,0.687005,-0.19244650000000002,-0.1518465,0.437585,-0.12661050000000001,-0.20195649999999998,0.190105,-0.0419345,0.1382335,0.436165,-0.1337845,0.1979135,0.200935,-0.0571635,-0.2437765,-0.021275000000000016,-0.0574765,0.2218435,-0.008525000000000005,-0.0738375,-0.0712575,-0.00044500000000000095,0.002399499999999999,0.0712575,0.00044500000000000095,-0.002399499999999999,-0.1444365,-0.166915,-0.2468905,0.12433350000000001,-0.164295,-0.2541005,-0.1237665,-0.4577650000000001,-0.12400649999999999,0.1086835,-0.46150500000000005,-0.1355105
56,-0.0061505,0.68228,-0.197368,-0.15153149999999999,0.4334,-0.131497,-0.2027515,0.185725,-0.045122,0.1383985,0.43198000000000003,-0.13961099999999999,0.1988785,0.19603900000000002,-0.062154,-0.2442615,-0.02559,-0.05998,0.2232585,-0.013319999999999999,-0.077071,-0.0715675,-0.0007500000000000007,0.0022100000000000036,0.0715675,0.0007500000000000007,-0.0022100000000000036,-0.1443215,-0.14853,-0.25715,0.12494849999999999,-0.14667000000000002,-0.26514,-0.1217515,-0.43938999999999995,-0.127585,0.1085685,-0.44203000000000003,-0.139883
57,-0.006712999999999994,0.67784,-0.20175900000000002,-0.151083,0.42943,-0.136653,-0.203353,0.18334599999999995,-0.047791,0.138327,0.42876,-0.145426,0.199577,0.19541199999999997,-0.066913,-0.245203,-0.027770000000000017,-0.062641,0.224307,-0.014190000000000036,-0.081378,-0.07180500000000001,-0.0007200000000000539,0.002015000000000003,0.07180500000000001,0.0007199999999999984,-0.002015000000000003,-0.143873,-0.12954000000000004,-0.264445,0.125527,-0.12778,-0.272575,-0.11974299999999999,-0.41996,-0.130765,0.10844700000000002,-0.42106,-0.14366400000000001
58,-0.007099999999999996,0.6737299999999999,-0.206553,-0.15059499999999998,0.42649000000000004,-0.14242,-0.203985,0.18102000000000001,-0.051171999999999995,0.13825500000000002,0.42472,-0.15140199999999998,0.20023500000000002,0.193299,-0.0716,-0.24590499999999998,-0.029980000000000007,-0.06475299999999999,0.22515500000000002,-0.016129999999999978,-0.08517599999999999,-0.07197100000000001,-0.0006700000000000039,0.0017250000000000043,0.07197100000000001,0.0006700000000000039,-0.0017249999999999904,-0.14343499999999998,-0.10930999999999996,-0.271155,0.12612500000000001,-0.10775999999999997,-0.278945,-0.11787500000000001,-0.39959,-0.13336499999999998,0.10839499999999999,-0.39939,-0.14687999999999998
59,-0.007250999999999999,0.669765,-0.21121499999999999,-0.149894,0.422895,-0.148013,-0.204394,0.18071500000000004,-0.05478899999999999,0.138326,0.42163500000000004,-0.156634,0.20086600000000002,0.19084500000000004,-0.07600499999999999,-0.246804,-0.030154999999999932,-0.06619,0.226076,-0.01828499999999994,-0.088112,-0.07201199999999999,-0.0006649999999999712,0.0014450000000000018,0.07201199999999999,0.0006650000000000267,-0.001444999999999988,-0.143004,-0.08944499999999994,-0.276815,0.12687600000000002,-0.08834499999999995,-0.284145,-0.116424,-0.37907499999999994,-0.13526,0.108486,-0.37873499999999993,-0.149114
60,-0.007070500000000006,0.665645,-0.216215,-0.1491515,0.42012700000000003,-0.15353899999999998,-0.20457150000000002,0.17897500000000002,-0.059343999999999994,0.13871850000000002,0.41850200000000004,-0.161905,0.2015285,0.18972500000000003,-0.080424,-0.24661149999999998,-0.028014999999999957,-0.06845899999999999,0.22748849999999998,-0.019234999999999947,-0.090623,-0.0720345,-0.0007049999999999557,0.0012650000000000022,0.0720345,0.0007050000000000112,-0.0012649999999999884,-0.1425115,-0.07478499999999999,-0.28190499999999996,0.12733850000000002,-0.07332499999999997,-0.288705,-0.11467150000000001,-0.358935,-0.13652799999999998,0.1088285,-0.358615,-0.15074099999999999
61,-0.0066884999999999965,0.661725,-0.22111999999999998,-0.1483755,0.417692,-0.158592,-0.2043855,0.17719500000000002,-0.063586,0.13912449999999998,0.415741,-0.166454,0.20222450000000003,0.188815,-0.084064,-0.2462455,-0.027994999999999992,-0.070888,0.2286045,-0.01930499999999996,-0.092512,-0.0721155,-0.0006450000000000067,0.0012000000000000066,0.0721155,0.0006450000000000067,-0.0011999999999999927,-0.1418955,-0.062525,-0.28595000000000004,0.1277545,-0.06078499999999998,-0.29225,-0.1129355,-0.34204499999999993,-0.137147,0.1093345,-0.34206499999999995,-0.151642
62,-0.006333500000000003,0.6591400000000001,-0.2258,-0.1478485,0.416038,-0.16346699999999997,-0.2043785,0.17605000000000004,-0.06769399999999999,0.1394515,0.413457,-0.170763,0.2029115,0.18804000000000004,-0.08762499999999998,-0.2461285,-0.029049999999999965,-0.07413499999999998,0.22932149999999998,-0.019969999999999988,-0.09437099999999998,-0.0721555,-0.0005299999999999749,0.0012000000000000066,0.0721555,0.0005300000000000304,-0.0011999999999999927,-0.1413185,-0.05305999999999994,-0.28947,0.1282415,-0.05118999999999996,-0.29513,-0.11140850000000001,-0.32846999999999993,-0.13774399999999998,0.1097615,-0.32877999999999996,-0.15234499999999998
63,-0.006122499999999997,0.656115,-0.23079,-0.1475675,0.414334,-0.168228,-0.20436749999999998,0.17436500000000002,-0.071878,0.13957250000000002,0.41134000000000004,-0.174958,0.20360250000000002,0.186815,-0.091262,-0.24605749999999998,-0.03125499999999998,-0.077752,0.2300025,-0.021984999999999977,-0.096479,-0.07212450000000001,-0.0006450000000000067,0.0012000000000000066,0.07212450000000001,0.0006450000000000067,-0.0011999999999999927,-0.14095749999999999,-0.050655000000000006,-0.29172,0.1287425,-0.047424999999999995,-0.29738,-0.11017749999999998,-0.323065,-0.138297,0.1101625,-0.32339500000000004,-0.152952
64,-0.005873999999999996,0.655915,-0.23612,-0.147285,0.41289200000000004,-0.17316700000000002,-0.20414500000000002,0.17294500000000002,-0.07642600000000001,0.13981500000000002,0.41027600000000003,-0.179492,0.204025,0.186815,-0.09504900000000001,-0.24605500000000002,-0.032684999999999964,-0.081476,0.23035499999999998,-0.021974999999999967,-0.09877200000000001,-0.07212,-0.0006450000000000067,0.0011999999999999927,0.07212,0.0006450000000000067,-0.0012000000000000066,-0.140835,-0.052315,-0.29359,0.12922499999999998,-0.048765,-0.29942,-0.109115,-0.32367499999999993,-0.13884200000000002,0.11053500000000001,-0.32398499999999997,-0.15356
65,-0.005799499999999996,0.655915,-0.24036000000000002,-0.1471455,0.41289200000000004,-0.177153,-0.2039255,0.17294500000000002,-0.080368,0.1397245,0.41027600000000003,-0.183201,0.2042645,0.186815,-0.09777,-0.2459655,-0.032684999999999964,-0.085385,0.23065449999999998,-0.021974999999999967,-0.101106,-0.07197049999999999,-0.0006450000000000067,0.001009999999999997,0.07197049999999999,0.0006450000000000067,-0.001009999999999997,-0.1409155,-0.052705,-0.29449,0.1295545,-0.04956499999999997,-0.29923,-0.1085555,-0.324585,-0.139101,0.1107545,-0.325055,-0.153808
66,-0.005674499999999996,0.655915,-0.24361000000000002,-0.1468735,0.41289200000000004,-0.179348,-0.2036035,0.17294500000000002,-0.08303100000000001,0.1400565,0.41027600000000003,-0.185714,0.2047865,0.186815,-0.10033900000000001,-0.2456835,-0.032684999999999964,-0.088356,0.2310065,-0.021974999999999967,-0.10226400000000001,-0.0718875,-0.0006450000000000067,0.0007299999999999945,0.0718875,0.0006450000000000067,-0.0007300000000000084,-0.1406835,-0.052705,-0.29373000000000005,0.12997650000000002,-0.04956499999999997,-0.29817000000000005,-0.1081635,-0.324585,-0.138332,0.1110565,-0.32557499999999995,-0.152957
67,-0.005890500000000002,0.655915,-0.24414,-0.14695450000000002,0.41289200000000004,-0.17932,-0.2036645,0.17294500000000002,-0.083344,0.1401155,0.41027600000000003,-0.185898,0.20520549999999999,0.186815,-0.101074,-0.2454645,-0.032684999999999964,-0.089657,0.2313055,-0.021974999999999967,-0.102426,-0.0717525,-0.0006450000000000067,0.0007500000000000007,0.0717525,0.0006450000000000067,-0.0007500000000000007,-0.1407745,-0.052705,-0.29108,0.1301755,-0.04956499999999997,-0.29554,-0.1080545,-0.324585,-0.135992,0.1111655,-0.32557499999999995,-0.150515
68,-0.005741500000000004,0.65645,-0.243985,-0.1468445,0.413534,-0.178315,-0.2035545,0.17521000000000003,-0.08245500000000001,0.1402155,0.41033100000000006,-0.18555500000000003,0.2055855,0.18740000000000004,-0.10143500000000001,-0.2450745,-0.03048999999999996,-0.09013000000000002,0.2316455,-0.022689999999999988,-0.102692,-0.0716655,-0.00036999999999998145,0.0005349999999999938,0.0716655,0.00037000000000003697,-0.0005350000000000077,-0.1409045,-0.059599999999999986,-0.288245,0.1302055,-0.056459999999999955,-0.29257500000000003,-0.10790450000000001,-0.33148,-0.133384,0.11139550000000001,-0.33246999999999993,-0.147854
69,-0.005641999999999997,0.65863,-0.241865,-0.146782,0.414915,-0.1755,-0.203112,0.17550999999999997,-0.07950499999999999,0.140388,0.411916,-0.183268,0.20591800000000002,0.18913999999999997,-0.10003699999999999,-0.24460199999999999,-0.03027000000000002,-0.089045,0.232238,-0.024440000000000017,-0.102069,-0.07161200000000001,-0.00032999999999999696,0.0004050000000000026,0.07161200000000001,0.00032999999999999696,-0.0004049999999999887,-0.14110199999999998,-0.07071,-0.28456499999999996,0.130368,-0.06802000000000002,-0.288335,-0.107852,-0.34441000000000005,-0.129943,0.11171800000000001,-0.3454,-0.14435599999999998
70,-0.005481500000000003,0.661365,-0.2378645,-0.14662150000000002,0.417597,-0.1714995,-0.2027015,0.176165,-0.07626250000000001,0.14036849999999998,0.41418,-0.1804635,0.20633849999999998,0.19056499999999998,-0.0983275,-0.24473150000000002,-0.029705000000000037,-0.08681950000000001,0.23272849999999998,-0.023045000000000038,-0.1016715,-0.0714565,-0.0003150000000000097,0.00037550000000000083,0.0714565,0.0003149999999999542,-0.00037550000000000083,-0.14104150000000001,-0.08438500000000004,-0.2800245,0.13095849999999998,-0.08185500000000001,-0.2836145,-0.1078615,-0.36180500000000004,-0.1261795,0.11206849999999999,-0.362955,-0.1406425
71,-0.005385499999999997,0.6661699999999999,-0.2332685,-0.14642850000000002,0.419644,-0.16690349999999998,-0.20217849999999998,0.17667,-0.0724345,0.1403915,0.416444,-0.1763785,0.2066715,0.19160999999999997,-0.0958135,-0.2445485,-0.029270000000000018,-0.0829505,0.23338150000000002,-0.02212000000000003,-0.1006065,-0.0713265,-0.00043999999999999595,0.0004154999999999992,0.0713265,0.00043999999999999595,-0.0004154999999999992,-0.14082850000000002,-0.09983000000000003,-0.2744785,0.1311815,-0.09766000000000002,-0.2777885,-0.10790849999999999,-0.38303,-0.1217285,0.1124015,-0.38439999999999996,-0.1363095
72,-0.005501999999999997,0.67161,-0.228188,-0.14661799999999997,0.42279,-0.161825,-0.201648,0.17778999999999998,-0.06811400000000001,0.14045200000000002,0.41997999999999996,-0.171614,0.20683200000000002,0.19168999999999997,-0.092784,-0.244168,-0.028990000000000016,-0.07866500000000001,0.233952,-0.02213000000000004,-0.09903100000000001,-0.071267,-0.00043999999999999595,0.0003389999999999921,0.071267,0.00043999999999999595,-0.00033900000000000596,-0.14061800000000002,-0.11725000000000002,-0.267648,0.131392,-0.11500000000000005,-0.271058,-0.108528,-0.40659000000000006,-0.11726500000000001,0.112732,-0.40917,-0.131494
73,-0.005948999999999998,0.679065,-0.2215185,-0.147105,0.426655,-0.15519349999999998,-0.201035,0.17922899999999997,-0.0625855,0.140445,0.424645,-0.16516150000000002,0.206915,0.19310899999999998,-0.0881285,-0.243795,-0.027585000000000026,-0.0730705,0.234485,-0.02512500000000001,-0.0973325,-0.071153,-0.0004149999999999987,0.0006115000000000009,0.071153,0.0004149999999999987,-0.0006115000000000009,-0.140345,-0.137805,-0.2563285,0.131665,-0.135895,-0.2601285,-0.109735,-0.43799499999999997,-0.1121325,0.11383499999999999,-0.44082499999999997,-0.12505149999999998
74,-0.006150499999999997,0.68668,-0.2129925,-0.14750749999999999,0.43003,-0.1473345,-0.19998749999999998,0.181385,-0.05589050000000001,0.1402225,0.42972,-0.1576515,0.2072925,0.194407,-0.08196950000000001,-0.2429275,-0.025630000000000014,-0.0668775,0.2353825,-0.02386000000000002,-0.0943485,-0.0708695,-0.0004200000000000037,0.0006884999999999947,0.0708695,0.00041999999999997595,-0.0006885000000000085,-0.1396375,-0.15906000000000003,-0.2425525,0.1319625,-0.15683000000000002,-0.2466825,-0.1109375,-0.47029,-0.1056465,0.1149925,-0.47284000000000004,-0.11755950000000001
75,-0.0066584999999999995,0.694675,-0.2034645,-0.1480525,0.434605,-0.1383505,-0.1990625,0.183893,-0.049389499999999996,0.1398375,0.434155,-0.1498775,0.2076075,0.198359,-0.0746135,-0.2423425,-0.022744999999999987,-0.06182549999999999,0.2363075,-0.019144999999999995,-0.09028349999999999,-0.0702575,-0.0004649999999999932,0.0008765000000000023,0.0702575,0.00046500000000002095,-0.0008764999999999884,-0.1386325,-0.17662499999999998,-0.2278745,0.1315575,-0.175375,-0.2304945,-0.11292250000000001,-0.499155,-0.0978405,0.11606749999999999,-0.5016349999999999,-0.1097875
76,-0.0073049999999999955,0.70149,-0.1938515,-0.14862899999999998,0.43928,-0.12918849999999998,-0.19827899999999998,0.19051599999999996,-0.0435945,0.139231,0.43933999999999995,-0.1425505,0.207701,0.20252499999999998,-0.0678695,-0.242139,-0.017880000000000007,-0.057197500000000005,0.237091,-0.015500000000000014,-0.0855875,-0.069742,-0.0006300000000000194,0.0010975000000000013,0.069742,0.0006299999999999917,-0.0010975000000000013,-0.137209,-0.19765000000000005,-0.21301150000000002,0.13076100000000002,-0.19611,-0.21390150000000002,-0.11374899999999999,-0.52479,-0.0907355,0.11625100000000001,-0.5273,-0.1021125
77,-0.007853,0.7081299999999999,-0.18351649999999997,-0.14920999999999998,0.44328999999999996,-0.1199905,-0.19745,0.19398299999999996,-0.037808499999999995,0.13866,0.4442,-0.1342295,0.20773,0.20628199999999997,-0.060905499999999994,-0.24183,-0.01605000000000001,-0.05310549999999999,0.23786000000000002,-0.011050000000000032,-0.08044749999999999,-0.06917799999999999,-0.0006800000000000139,0.0013915000000000038,0.06917799999999999,0.0006799999999999862,-0.001391499999999997,-0.1356,-0.21739000000000003,-0.1968765,0.1297,-0.21589000000000003,-0.19677650000000002,-0.11434,-0.54877,-0.0836425,0.11649000000000001,-0.55124,-0.0936305
78,-0.0081755,0.714,-0.1690305,-0.1497045,0.4462,-0.1067705,-0.1966145,0.198712,-0.027397500000000005,0.1382255,0.44837,-0.1215345,0.2074755,0.20847,-0.049786500000000004,-0.2413145,-0.012770000000000004,-0.044709500000000006,0.2384255,-0.0061400000000000066,-0.07061250000000001,-0.0687055,-0.0008500000000000035,0.0015864999999999976,0.0687055,0.0008500000000000035,-0.0015865000000000046,-0.1338845,-0.23529,-0.1743005,0.1284355,-0.23463,-0.1736505,-0.1146245,-0.57075,-0.0715205,0.1169455,-0.57329,-0.0796815
79,-0.008572499999999999,0.7196440000000001,-0.15479500000000002,-0.1500915,0.448704,-0.093707,-0.1959815,0.20190400000000003,-0.017210000000000003,0.1374185,0.453044,-0.108713,0.20673850000000002,0.21382400000000001,-0.038377,-0.2409115,-0.009467000000000003,-0.036559,0.2388085,-0.0021049999999999958,-0.059985000000000004,-0.06813250000000001,-0.0009539999999999965,0.0018390000000000004,0.06813250000000001,0.0009539999999999965,-0.0018390000000000004,-0.1306515,-0.253426,-0.148785,0.1264385,-0.253506,-0.147235,-0.1155815,-0.591746,-0.056921,0.1173585,-0.594366,-0.064551
80,-0.008813999999999999,0.7236125,-0.1413045,-0.15045199999999997,0.4515725,-0.0812765,-0.19535200000000003,0.20506249999999998,-0.0077855000000000025,0.13672800000000002,0.4570825,-0.0964895,0.205868,0.2191125,-0.0278655,-0.240512,-0.0061814999999999926,-0.0289115,0.23908800000000002,0.002196500000000004,-0.0495425,-0.067653,-0.0009354999999999988,0.0020244999999999985,0.067653,0.0009355000000000058,-0.002024500000000002,-0.127552,-0.2704675,-0.1235345,0.124518,-0.2711775,-0.1210745,-0.116592,-0.6099875,-0.042292500000000004,0.117828,-0.6125675,-0.0497575
81,-0.008994000000000004,0.727607,-0.1288445,-0.15065599999999998,0.453647,-0.0701345,-0.195206,0.208417,0.0008485000000000003,0.13653400000000002,0.46070700000000003,-0.0849055,0.205034,0.223217,-0.0173545,-0.240426,-0.0017639999999999982,-0.0215915,0.239104,0.006350999999999999,-0.0396485,-0.06740299999999999,-0.0010280000000000011,0.002318500000000001,0.06740299999999999,0.0010280000000000011,-0.0023184999999999994,-0.12487599999999999,-0.286143,-0.0987405,0.122564,-0.287913,-0.0946375,-0.11796600000000002,-0.627063,-0.0283035,0.118174,-0.6285430000000001,-0.0354055
82,-0.009084499999999995,0.729453,-0.1202265,-0.15075149999999998,0.45542299999999997,-0.0617765,-0.1947315,0.21080300000000002,0.0079395,0.1364685,0.463163,-0.0749605,0.2049185,0.22613299999999997,-0.0081515,-0.2401915,0.00038599999999999746,-0.0157455,0.23906850000000002,0.013619999999999998,-0.0312915,-0.0671785,-0.0011500000000000017,0.0023075,0.0671785,0.0011499999999999982,-0.0023075,-0.1222915,-0.296587,-0.0777635,0.1219485,-0.298997,-0.0724115,-0.1190015,-0.6338969999999999,-0.015093500000000001,0.11891850000000001,-0.636497,-0.022033499999999998
83,-0.009179,0.7311755,-0.1129415,-0.150606,0.4575055,-0.054496499999999996,-0.194236,0.21287550000000002,0.0144215,0.136584,0.4650155,-0.0664825,0.204844,0.22899550000000002,-0.00019050000000000056,-0.240336,0.0022795000000000003,-0.010535500000000001,0.23930400000000002,0.0164575,-0.0240135,-0.06692600000000001,-0.0012025000000000004,0.0026084999999999993,0.06692600000000001,0.0012024999999999987,-0.0026084999999999997,-0.11988599999999999,-0.3033145,-0.058754499999999994,0.12209400000000001,-0.3062145,-0.053552499999999996,-0.119916,-0.6382245000000001,-0.0027875,0.11979400000000001,-0.6424445000000001,-0.009598500000000001
84,-0.009026000000000001,0.731936,-0.1060975,-0.150767,0.45784600000000003,-0.0476435,-0.193237,0.21418600000000002,0.0206865,0.136013,0.467036,-0.0580855,0.203663,0.229166,0.007974499999999999,-0.238857,0.003391,-0.004740500000000002,0.238763,0.016739,-0.0164885,-0.06628,-0.001156,0.0024414999999999992,0.06628,0.001156,-0.002441500000000001,-0.118647,-0.307624,-0.0418195,0.121063,-0.310724,-0.0386315,-0.121687,-0.639734,0.010189499999999999,0.119593,-0.6461939999999999,0.0024005
85,-0.008103499999999996,0.7325710000000001,-0.09908700000000001,-0.15066549999999998,0.45775099999999996,-0.04137,-0.1926755,0.211441,0.026465000000000002,0.1354845,0.467481,-0.049382,0.2004245,0.228511,0.016755000000000003,-0.2372355,0.0020080000000000002,0.0008930000000000014,0.2355645,0.016661,-0.006756999999999999,-0.0658205,-0.001032,0.001983000000000002,0.0658205,0.001032,-0.0019829999999999987,-0.1198255,-0.311159,-0.026658999999999995,0.1179145,-0.314709,-0.025342999999999997,-0.1251055,-0.6405489999999999,0.02425,0.11639450000000001,-0.6487489999999999,0.013536000000000003
86,-0.007256500000000003,0.7321154999999999,-0.092672,-0.1511365,0.4586655,-0.035385,-0.19252650000000002,0.20981550000000002,0.031756,0.1352335,0.4679755,-0.041926000000000005,0.1962235,0.2283755,0.025623999999999997,-0.2360465,0.0017065,0.0062959999999999995,0.2318335,0.0156515,0.003415999999999999,-0.0654445,-0.0010875,0.0012770000000000004,0.0654445,0.0010875,-0.0012770000000000004,-0.1220865,-0.3158845,-0.016912000000000003,0.1134535,-0.3200345,-0.014332000000000004,-0.12916650000000002,-0.6413545,0.036753,0.1117235,-0.6506345,0.023583
87,-0.005885999999999997,0.7320435,-0.09150900000000001,-0.15198099999999998,0.4602235,-0.034972,-0.192641,0.2097435,0.032145,0.134509,0.4686935,-0.039188,0.19160900000000003,0.2288935,0.029022999999999997,-0.23445100000000002,0.0022744999999999996,0.006747999999999997,0.228169,0.0155795,0.008406999999999998,-0.065107,-0.0010155,0.0006439999999999987,0.065107,0.0010155,-0.0006440000000000022,-0.124501,-0.3206165,-0.014139000000000006,0.109319,-0.3246065,-0.010262,-0.13370100000000001,-0.6405765,0.039569999999999994,0.10610900000000001,-0.6507065,0.027685999999999995
88,-0.003880500000000002,0.731991,-0.0910515,-0.1507115,0.460171,-0.0367435,-0.1928115,0.20969100000000002,0.0318205,0.1345385,0.468651,-0.0359555,0.1874485,0.228911,0.032343500000000004,-0.2331615,0.002274,0.007127500000000002,0.2241685,0.015527,0.012100500000000004,-0.0647805,-0.0009630000000000001,-0.0002564999999999998,0.0647805,0.0009630000000000001,0.0002564999999999998,-0.1284215,-0.32193900000000003,-0.0108245,0.1050385,-0.32537900000000003,-0.006939499999999994,-0.13957150000000001,-0.6394690000000001,0.042925500000000005,0.0996085,-0.650779,0.031054500000000002
89,-0.002173999999999999,0.7318545,-0.09113249999999999,-0.15047,0.4600345,-0.038596500000000006,-0.1935,0.21036449999999998,0.0303705,0.13349,0.4685145,-0.0313465,0.18175999999999998,0.2287745,0.0370485,-0.23286,0.0032935,0.0075835,0.21952,0.015724500000000002,0.0167845,-0.064446,-0.0008685,-0.0014295000000000002,0.064446,0.0008685000000000001,0.0014295000000000002,-0.13147,-0.3256155,-0.006173499999999998,0.09987,-0.3280655,-0.0022444999999999965,-0.14792,-0.6388155,0.0476865,0.09018,-0.6501455,0.0358375
90,-0.0005820000000000061,0.7318045,-0.0916065,-0.15041300000000002,0.4600345,-0.040986499999999995,-0.19520300000000002,0.21036449999999998,0.028310500000000006,0.131897,0.4685145,-0.02560549999999999,0.175317,0.2287745,0.04353950000000001,-0.233153,0.0032935,0.007508500000000008,0.21301699999999996,0.015724500000000002,0.023307500000000005,-0.06420700000000001,-0.0008685,-0.0028204999999999966,0.064207,0.0008685000000000001,0.0028205000000000036,-0.132633,-0.3265355,-0.006828499999999994,0.092487,-0.3280655,0.004296500000000009,-0.154613,-0.6388155,0.051931500000000005,0.077817,-0.6492955,0.042482500000000006
91,0.0011484999999999967,0.7311504999999999,-0.09262299999999998,-0.1505095,0.4604605,-0.044034,-0.1973835,0.2103305,0.026177,0.1302665,0.4683505,-0.020827000000000005,0.1687865,0.22636050000000002,0.050964,-0.2333235,0.0027895000000000003,0.0066910000000000025,0.2062865,0.012838500000000001,0.030776,-0.0639965,-0.0006965000000000001,-0.004187000000000003,0.06399650000000001,0.0006965000000000001,0.004187000000000003,-0.1325675,-0.3261595,-0.013417000000000005,0.08506650000000002,-0.3269295,0.009120000000000003,-0.1597735,-0.6375995000000001,0.052126,0.06496650000000001,-0.6478895,0.049962
92,0.0030899999999999955,0.730242,-0.0939295,-0.150903,0.460732,-0.046849499999999995,-0.199453,0.210202,0.024434499999999998,0.128467,0.468012,-0.016720500000000006,0.16206700000000002,0.224262,0.0582305,-0.23358299999999999,0.002268,0.006198499999999996,0.199407,0.009862,0.0397585,-0.063847,-0.0005499999999999997,-0.005347499999999998,0.063847,0.0005500000000000001,0.005347499999999998,-0.128764,-0.324258,-0.027047499999999995,0.07801699999999999,-0.325258,0.014040499999999997,-0.157473,-0.634388,0.0477555,0.050406999999999993,-0.645518,0.0589045
93,0.005362999999999993,0.728056,-0.09482249999999999,-0.151991,0.460266,-0.047952499999999995,-0.202847,0.210656,0.024344499999999998,0.126463,0.466756,-0.011135500000000007,0.156583,0.222636,0.06582350000000001,-0.236147,0.0022750000000000005,0.008059499999999997,0.194613,0.007945,0.0456225,-0.064043,0.00014700000000000043,-0.005921499999999996,0.06404299999999999,-0.00014699999999999956,0.005921499999999996,-0.123325,-0.321794,-0.0423125,0.07652300000000001,-0.318704,0.0201005,-0.142983,-0.630554,0.0217925,0.034913,-0.640684,0.0746185
94,0.007508999999999988,0.7250075,-0.09642450000000002,-0.152809,0.4593075,-0.04879450000000002,-0.205581,0.2115175,0.023319499999999993,0.124879,0.46515749999999995,-0.0069845000000000185,0.15320899999999998,0.2215675,0.07119649999999998,-0.23872100000000002,0.0023274999999999997,0.009128499999999984,0.19166899999999998,0.006742499999999999,0.050246499999999986,-0.06415900000000001,0.0006734999999999996,-0.006514500000000006,0.06415900000000001,-0.0006735000000000005,0.0065144999999999925,-0.116874,-0.3190625,-0.057654500000000025,0.076219,-0.31163250000000003,0.026372499999999993,-0.123021,-0.6286425,-0.010144500000000015,0.021549,-0.6353225,0.09014849999999999
95,0.009452000000000016,0.7215685,-0.097915,-0.152801,0.4579685,-0.049905000000000005,-0.20912199999999997,0.2128185,0.02301900000000001,0.12276200000000004,0.4628585,-0.0027549999999999936,0.150712,0.2207085,0.076089,-0.241788,0.0026144999999999996,0.010345000000000007,0.190172,0.006219499999999999,0.052765000000000006,-0.06420199999999998,0.0004814999999999993,-0.007454999999999989,0.06420200000000001,-0.000481500000000001,0.007455000000000003,-0.108122,-0.31741149999999996,-0.07497499999999999,0.07700200000000001,-0.3038315,0.036054,-0.102932,-0.6269115000000001,-0.04586499999999999,0.009152000000000021,-0.6287315,0.108143
96,0.010814500000000005,0.7181965,-0.09941,-0.1532825,0.4568665,-0.05023999999999998,-0.2129665,0.2157265,0.022700000000000012,0.12066450000000004,0.4614265,0.00019000000000002348,0.14823450000000002,0.2207165,0.07954200000000002,-0.2455705,0.004774499999999999,0.01212000000000002,0.1882345,0.0068585,0.05473800000000001,-0.06465449999999999,0.0010434999999999993,-0.007489999999999997,0.0646545,-0.0010434999999999993,0.007489999999999997,-0.10088449999999999,-0.3156835,-0.09190999999999999,0.0775545,-0.2993035,0.04850600000000001,-0.08244049999999999,-0.6259634999999999,-0.08088999999999999,-0.0033554999999999835,-0.6199935,0.127756
97,0.011314999999999992,0.7153879999999999,-0.100935,-0.156036,0.455728,-0.04990499999999998,-0.216861,0.217918,0.023075000000000012,0.11768500000000001,0.460148,0.0022150000000000225,0.14572500000000002,0.220758,0.08150100000000003,-0.24940299999999999,0.006965999999999998,0.013075000000000031,0.187265,0.0077329999999999986,0.053075000000000025,-0.065005,0.0016509999999999997,-0.008284999999999987,0.06500500000000001,-0.0016509999999999997,0.008285000000000015,-0.094559,-0.31741199999999997,-0.10623499999999997,0.07289500000000002,-0.300382,0.06290500000000003,-0.06074499999999999,-0.626622,-0.118305,-0.015875,-0.610512,0.14929400000000004
98,0.011724999999999985,0.712931,-0.10225499999999998,-0.158259,0.454501,-0.049095,-0.220381,0.219411,0.02465500000000001,0.11584499999999998,0.45930099999999996,0.0046750000000000125,0.144775,0.221171,0.082385,-0.252839,0.008459,0.015844999999999998,0.186705,0.009226,0.049705,-0.06564500000000001,0.0021150000000000006,-0.008575,0.06564500000000001,-0.002114999999999999,0.008575,-0.083175,-0.32066900000000004,-0.125635,0.070855,-0.30028900000000003,0.077265,-0.037415000000000004,-0.628919,-0.152395,-0.027164999999999995,-0.601329,0.173692
99,0.012780000000000014,0.7108545,-0.10095500000000002,-0.159671,0.4539945,-0.04542499999999999,-0.221993,0.2209045,0.028054999999999997,0.11545,0.4586245,0.00844499999999998,0.14568000000000003,0.22244450000000002,0.08423499999999998,-0.25398899999999996,0.009363500000000002,0.02005499999999999,0.18855,0.010549500000000002,0.04719499999999999,-0.06549999999999997,0.0021185000000000023,-0.008855000000000002,0.0655,-0.002118499999999999,0.008855000000000002,-0.07363,-0.3239055,-0.135965,0.06885000000000002,-0.3023355,0.07682499999999998,-0.017749999999999988,-0.6310355000000001,-0.175435,-0.03714999999999999,-0.6000155,0.191888
100,0.013609999999999983,0.709001,-0.09876499999999999,-0.161725,0.454261,-0.04105500000000001,-0.223213,0.22318100000000002,0.029685000000000017,0.11467000000000002,0.458251,0.012934999999999974,0.14703000000000002,0.22354100000000002,0.08554499999999998,-0.254133,0.009889000000000002,0.022934999999999983,0.19122000000000003,0.011646000000000002,0.044444999999999985,-0.06523999999999999,0.0020240000000000015,-0.009385000000000032,0.06523999999999999,-0.002023999999999998,0.009384999999999977,-0.06694999999999998,-0.326879,-0.142175,0.06498000000000001,-0.304429,0.06359499999999998,-0.0038799999999999946,-0.6331289999999999,-0.190855,-0.04963999999999999,-0.598909,0.202448
101,0.014639999999999986,0.707308,-0.09692,-0.16248,0.454778,-0.038929999999999965,-0.22443600000000002,0.225288,0.02944000000000002,0.11376999999999998,0.457748,0.017280000000000018,0.14862999999999998,0.224338,0.08612000000000003,-0.253657,0.01105,0.023290000000000033,0.19504,0.014299000000000001,0.038270000000000026,-0.06512000000000001,0.0018410000000000024,-0.00986999999999999,0.06512000000000001,-0.0018409999999999989,0.00986999999999999,-0.06465000000000001,-0.327082,-0.14071,0.06207999999999997,-0.305182,0.05166000000000004,0.0011700000000000044,-0.6351519999999999,-0.20040000000000002,-0.05759,-0.598112,0.21253
102,0.01510499999999998,0.706216,-0.09508499999999998,-0.163525,0.455176,-0.03736499999999998,-0.224457,0.22888599999999998,0.027164999999999995,0.11301499999999998,0.457646,0.020845000000000002,0.14981500000000003,0.225976,0.085895,-0.251427,0.013825,0.01848500000000003,0.19783499999999998,0.019187000000000003,0.034355000000000024,-0.06465499999999999,0.0017110000000000007,-0.010915000000000008,0.06465500000000002,-0.0017109999999999972,0.010915000000000008,-0.062344999999999984,-0.326244,-0.13669499999999996,0.05710500000000002,-0.30169399999999996,0.038775000000000004,-0.0063549999999999995,-0.636364,-0.18610500000000002,-0.061494999999999994,-0.5953440000000001,0.21083500000000002
103,0.016579999999999984,0.7049245000000001,-0.09200499999999995,-0.16394,0.4550945,-0.03563500000000003,-0.224158,0.23253449999999998,0.026185000000000014,0.11252000000000001,0.4568145,0.025305000000000022,0.15076,0.2275045,0.087895,-0.247838,0.0167475,0.012085000000000012,0.20124000000000003,0.0250245,0.030515000000000014,-0.06405,0.0014935000000000018,-0.012334999999999985,0.06405,-0.0014934999999999983,0.012334999999999985,-0.05889,-0.32574549999999997,-0.13132499999999997,0.05737000000000003,-0.2980955,0.02513500000000002,-0.01802999999999999,-0.6384655,-0.164225,-0.05519000000000002,-0.5930854999999999,0.196805
104,0.018789999999999973,0.703749,-0.08883999999999992,-0.16350000000000003,0.455349,-0.03374999999999995,-0.22206000000000004,0.235489,0.024280000000000024,0.11307999999999996,0.456109,0.029610000000000025,0.15210999999999997,0.229549,0.08997000000000005,-0.24311700000000003,0.019108,0.0030400000000000427,0.20453,0.031404,0.027040000000000064,-0.06363000000000002,0.0014279999999999987,-0.012899999999999967,0.06362999999999996,-0.0014280000000000022,0.012900000000000023,-0.05837000000000003,-0.326781,-0.12303999999999993,0.060659999999999936,-0.294011,0.00931000000000004,-0.029290000000000038,-0.6401110000000001,-0.13662999999999992,-0.04849000000000003,-0.5922510000000001,0.17241000000000006
105,0.021855000000000013,0.702988,-0.08476500000000009,-0.162485,0.455708,-0.031645000000000034,-0.222215,0.241218,0.023194999999999966,0.11471500000000001,0.455428,0.03508499999999992,0.156125,0.232998,0.09225499999999992,-0.23849499999999998,0.027023,-0.009805000000000064,0.21174500000000002,0.042554999999999996,0.01948499999999992,-0.062415,0.0012299999999999985,-0.015005000000000046,0.062415,-0.0012299999999999985,0.015004999999999935,-0.06379499999999999,-0.330322,-0.11077500000000007,0.070185,-0.298962,-0.015355000000000008,-0.04833499999999996,-0.641072,-0.1007650000000001,-0.021965000000000012,-0.593372,0.13647499999999996
106,0.02646000000000004,0.7017405000000001,-0.08108500000000007,-0.16052999999999998,0.4569805,-0.028695000000000026,-0.22225999999999996,0.24711049999999998,0.021274999999999933,0.11719000000000002,0.4545805,0.039734999999999965,0.16282000000000008,0.2368005,0.09273499999999996,-0.23394999999999996,0.0352795,-0.022355000000000014,0.22174000000000005,0.05379249999999999,0.011454999999999993,-0.06186999999999998,0.001302499999999998,-0.014844999999999997,0.061870000000000036,-0.0013025000000000016,0.014844999999999997,-0.06891999999999998,-0.3334795,-0.10026500000000005,0.08109000000000005,-0.3047495,-0.041975000000000096,-0.06904999999999994,-0.6422395,-0.06135500000000005,0.010010000000000019,-0.5948994999999999,0.09483499999999995
107,0.03214499999999998,0.7002980000000001,-0.07788499999999998,-0.15730500000000003,0.45899799999999996,-0.026304999999999912,-0.22226500000000002,0.251398,0.018575000000000008,0.121085,0.454828,0.04269500000000004,0.17144499999999996,0.24194800000000002,0.0923250000000001,-0.228495,0.042547,-0.03701499999999991,0.23467499999999997,0.066209,0.0013350000000000861,-0.06070500000000001,0.001288000000000001,-0.015394999999999937,0.06070500000000001,-0.001288000000000001,0.015395000000000048,-0.08065500000000003,-0.336882,-0.08155499999999993,0.09430499999999997,-0.311062,-0.06803499999999996,-0.09084500000000001,-0.6411319999999999,-0.023704999999999976,0.04763499999999998,-0.597722,0.047145000000000103
108,0.04007000000000005,0.6982915000000001,-0.07847499999999996,-0.15227999999999997,0.46079149999999997,-0.026865000000000028,-0.22100999999999998,0.2544615,0.014924999999999966,0.12635999999999997,0.4552315,0.040815000000000046,0.18075999999999998,0.24665150000000002,0.08751500000000001,-0.22433999999999998,0.0482765,-0.052224999999999966,0.25166000000000005,0.0799865,-0.014674999999999994,-0.06087999999999999,0.001393499999999999,-0.014445000000000041,0.06087999999999999,-0.001393499999999999,0.014445000000000041,-0.09445999999999999,-0.3393785,-0.06443500000000002,0.10970000000000008,-0.3138985,-0.079345,-0.11407999999999996,-0.6393384999999999,0.010955000000000048,0.08772000000000008,-0.6022084999999999,0.004695000000000005
109,0.04950500000000002,0.696623,-0.08040000000000003,-0.145685,0.46303300000000003,-0.027700000000000058,-0.21909499999999998,0.257313,0.013440000000000007,0.133015,0.456933,0.03727999999999998,0.19181499999999996,0.251463,0.08095999999999992,-0.222275,0.05373,-0.06390000000000007,0.27153499999999997,0.093139,-0.03486,-0.06133500000000003,0.002196,-0.012850000000000028,0.06133500000000003,-0.0021959999999999966,0.012849999999999917,-0.10756500000000002,-0.337737,-0.04783000000000004,0.12758499999999995,-0.313597,-0.07811000000000001,-0.135585,-0.637257,0.04108999999999996,0.13021499999999997,-0.608117,-0.02972000000000008
110,0.05991999999999997,0.695177,-0.08326500000000003,-0.13773999999999997,0.46631700000000004,-0.027994999999999992,-0.21592999999999996,0.260627,0.013554999999999984,0.14137,0.458017,0.03241499999999997,0.20684000000000002,0.256297,0.07087500000000002,-0.22191,0.059098,-0.07300499999999999,0.29083000000000003,0.10547999999999999,-0.05445500000000003,-0.06157999999999997,0.003601,-0.011375000000000024,0.06157999999999997,-0.003601,0.011375000000000024,-0.12095,-0.334883,-0.031174999999999953,0.14297000000000004,-0.311793,-0.07821500000000003,-0.15769,-0.6344029999999999,0.071245,0.16741000000000006,-0.613583,-0.06344499999999997
111,0.07123999999999997,0.691615,-0.08783000000000007,-0.12723999999999996,0.469625,-0.030180000000000096,-0.21262999999999999,0.263755,0.01417999999999997,0.14983999999999997,0.457685,0.0247099999999999,0.22323000000000004,0.260295,0.05846999999999991,-0.22252,0.063954,-0.07829000000000008,0.31143,0.11167099999999999,-0.06896000000000002,-0.062049999999999994,0.004004000000000001,-0.009580000000000033,0.06205000000000005,-0.004004000000000001,0.009579999999999922,-0.13471,-0.332335,-0.015790000000000082,0.15541000000000005,-0.310225,-0.08002000000000009,-0.17945,-0.631315,0.09994999999999998,0.20057999999999998,-0.612645,-0.09125000000000005
112,0.08311500000000005,0.6868405,-0.09453,-0.11672499999999991,0.4725205,-0.032850000000000046,-0.20795499999999995,0.2671505,0.013610000000000011,0.1589750000000001,0.4569205,0.01471,0.24083500000000002,0.2647505,0.04243999999999992,-0.22237499999999993,0.0683565,-0.08190000000000008,0.3328850000000001,0.1195945,-0.08723999999999998,-0.06293499999999996,0.004845500000000003,-0.006870000000000043,0.06293500000000007,-0.004845499999999996,0.006869999999999932,-0.14904499999999993,-0.3295195,-0.0021300000000000763,0.1619950000000001,-0.3062495,-0.08218999999999999,-0.20113499999999995,-0.6273195,0.12702000000000002,0.22135500000000008,-0.6112895,-0.10631000000000002
113,0.0956300000000001,0.6810425,-0.1018699999999999,-0.10597999999999991,0.4754525,-0.03649999999999998,-0.20336999999999994,0.2709525,0.01377000000000006,0.1677200000000001,0.45532249999999996,0.00273000000000001,0.25892000000000004,0.2691325,0.02438000000000007,-0.22368999999999994,0.0736665,-0.08179999999999998,0.35459000000000007,0.1267835,-0.1041899999999999,-0.06392999999999993,0.0060735000000000025,-0.004129999999999967,0.06393000000000004,-0.0060735000000000025,0.004130000000000078,-0.16196999999999995,-0.3268575,0.010190000000000032,0.16661000000000004,-0.3045875,-0.08555999999999997,-0.22210999999999992,-0.6223375,0.15216000000000007,0.24047000000000007,-0.6096975,-0.11303999999999992
114,0.10901500000000008,0.6758645,-0.11201000000000005,-0.09444499999999989,0.47709450000000003,-0.041790000000000105,-0.19544499999999992,0.2741545,0.012989999999999946,0.1765850000000001,0.4537645,-0.012010000000000076,0.27590500000000007,0.2724745,0.0041399999999999215,-0.22385499999999992,0.07731350000000001,-0.07767000000000013,0.37512500000000004,0.1293995,-0.12031000000000003,-0.06532499999999997,0.007442499999999998,-0.000500000000000056,0.06532500000000008,-0.007442500000000005,0.0004999999999999449,-0.1675549999999999,-0.3239255,0.01851999999999987,0.16369500000000003,-0.3021355,-0.08209000000000011,-0.23458499999999993,-0.6176055,0.16793999999999987,0.23966500000000013,-0.6087155,-0.10959000000000008
115,0.12121500000000007,0.6704925,-0.12134999999999996,-0.08397500000000002,0.4781325,-0.04691999999999996,-0.186685,0.27675249999999996,0.012620000000000076,0.184265,0.4523925,-0.025980000000000003,0.29086500000000004,0.27544250000000003,-0.015880000000000005,-0.222045,0.07835149999999999,-0.07238,0.38673500000000005,0.1328395,-0.13529000000000002,-0.06622499999999998,0.008480499999999995,0.0020999999999999908,0.06622499999999998,-0.008480500000000002,-0.0020999999999999908,-0.17266499999999996,-0.3208975,0.02681,0.15925500000000004,-0.3003575,-0.07802999999999993,-0.24517499999999998,-0.6130375,0.18194,0.23316500000000007,-0.6083475,-0.10221999999999998
116,0.13536000000000004,0.6659475,-0.132575,-0.07213999999999998,0.4791475,-0.05382500000000001,-0.17730999999999997,0.2789075,0.012665000000000037,0.19163000000000008,0.45157749999999997,-0.04357499999999992,0.3044800000000001,0.2781375,-0.03546499999999997,-0.22094999999999998,0.0793665,-0.06611499999999992,0.39364,0.1340695,-0.15273500000000007,-0.06753999999999993,0.009079499999999997,0.005425000000000013,0.06754000000000004,-0.009079500000000004,-0.005425000000000013,-0.17676999999999993,-0.31707250000000003,0.03526499999999999,0.15434000000000003,-0.2981625,-0.07426499999999991,-0.25383999999999995,-0.6082025,0.19450500000000004,0.22192,-0.6073325,-0.09196499999999996
117,0.14787000000000006,0.661188,-0.14327,-0.06279000000000001,0.480468,-0.060270000000000046,-0.16918,0.27917800000000004,0.012289999999999912,0.19616,0.45030800000000004,-0.05884,0.31732000000000005,0.280378,-0.05391000000000001,-0.21958,0.077517,-0.059880000000000044,0.39491999999999994,0.13505,-0.16647000000000012,-0.06828999999999996,0.008898000000000003,0.007699999999999929,0.06828999999999996,-0.008897999999999996,-0.00770000000000004,-0.17848999999999998,-0.312882,0.041569999999999996,0.14900999999999998,-0.297732,-0.07166000000000006,-0.25784999999999997,-0.602182,0.20224999999999993,0.20914,-0.606792,-0.08194000000000001
118,0.16100499999999995,0.653871,-0.154045,-0.053625000000000034,0.483071,-0.06763500000000011,-0.16162500000000002,0.279041,0.0116949999999999,0.1960949999999999,0.448571,-0.07567500000000005,0.32750499999999994,0.28358099999999997,-0.07166500000000009,-0.21655500000000005,0.075885,-0.05555500000000002,0.39541499999999996,0.13702399999999998,-0.1791450000000001,-0.06875500000000001,0.008462999999999998,0.009944999999999982,0.06875500000000001,-0.008463000000000005,-0.009945000000000093,-0.17712500000000003,-0.30784900000000004,0.046924999999999883,0.143165,-0.297109,-0.06881500000000007,-0.25960500000000003,-0.596129,0.2087849999999999,0.196175,-0.606739,-0.07210500000000009
119,0.17274500000000004,0.6466540000000001,-0.16311999999999993,-0.04708499999999993,0.485554,-0.0737199999999999,-0.155215,0.278414,0.010600000000000054,0.19379500000000005,0.446924,-0.09066999999999992,0.33309500000000014,0.287834,-0.08611999999999997,-0.21309499999999992,0.073911,-0.05126999999999993,0.39319499999999996,0.137798,-0.19331999999999994,-0.06912499999999999,0.008517999999999998,0.012190000000000034,0.0691250000000001,-0.008518000000000005,-0.012189999999999923,-0.17430499999999993,-0.30321600000000004,0.050960000000000116,0.13847500000000001,-0.296896,-0.06674999999999998,-0.2591049999999999,-0.590986,0.2135100000000001,0.18484500000000004,-0.607316,-0.06381999999999988
120,0.181585,0.6395345,-0.17005499999999996,-0.044235000000000024,0.4883545,-0.07778499999999999,-0.14929500000000007,0.2778045,0.009255000000000013,0.189515,0.4445245,-0.10348500000000005,0.336295,0.29286449999999997,-0.10029500000000002,-0.21014500000000008,0.07257849999999999,-0.047265,0.38619499999999984,0.1368265,-0.2048549999999999,-0.06936500000000001,0.009080499999999998,0.014704999999999968,0.0693649999999999,-0.009080500000000005,-0.014704999999999968,-0.1730950000000001,-0.2991655,0.055174999999999974,0.13372499999999998,-0.2966255,-0.06434499999999999,-0.25728500000000004,-0.5865855,0.21784499999999996,0.17362499999999992,-0.6077755,-0.056034999999999946
121,0.19047999999999987,0.629896,-0.17830500000000005,-0.04153000000000007,0.49093600000000004,-0.081905,-0.14567000000000008,0.277256,0.008955000000000046,0.18247999999999986,0.44180600000000003,-0.11640499999999998,0.3364099999999999,0.29909600000000003,-0.11180500000000004,-0.2098100000000001,0.07123,-0.04237500000000005,0.3754099999999998,0.136056,-0.21560499999999994,-0.06922000000000006,0.009771000000000002,0.017024999999999957,0.06921999999999995,-0.009771000000000002,-0.017024999999999957,-0.17212000000000005,-0.29548399999999997,0.05910499999999996,0.1286799999999999,-0.29593400000000003,-0.06138500000000002,-0.25418000000000013,-0.582594,0.22134500000000001,0.1626899999999999,-0.608174,-0.048614999999999964
122,0.19741999999999993,0.620907,-0.1839900000000001,-0.04083999999999999,0.493337,-0.08440000000000003,-0.14304000000000006,0.278077,0.008349999999999969,0.17457,0.43880699999999995,-0.12739000000000011,0.3350399999999999,0.304677,-0.12199000000000004,-0.2092400000000001,0.070133,-0.038550000000000084,0.3631399999999999,0.135365,-0.22659000000000007,-0.06884000000000001,0.010379,0.019079999999999986,0.06884000000000001,-0.010379,-0.019080000000000097,-0.17129000000000005,-0.29263300000000003,0.06272,0.12365999999999999,-0.29504300000000006,-0.05788000000000004,-0.25103000000000003,-0.579703,0.2245999999999999,0.15239999999999998,-0.608573,-0.04168000000000005
123,0.19489999999999996,0.6129420000000001,-0.18899500000000002,-0.041019999999999945,0.495832,-0.08479499999999995,-0.14110999999999996,0.279302,0.007724999999999982,0.16341000000000006,0.440032,-0.13549499999999992,0.3247000000000001,0.310972,-0.13029500000000005,-0.20889000000000002,0.069435,-0.035824999999999996,0.35740000000000005,0.13659,-0.23379499999999998,-0.06838999999999995,0.010832000000000001,0.02104499999999998,0.06838999999999995,-0.010831999999999994,-0.02104499999999998,-0.17017000000000004,-0.290458,0.06581499999999996,0.11928000000000005,-0.293718,-0.05455500000000002,-0.24769999999999998,-0.5771280000000001,0.227275,0.14286,-0.6085780000000001,-0.035194999999999976
124,0.18503999999999998,0.60536,-0.18483499999999986,-0.04294999999999993,0.49805999999999995,-0.08443500000000004,-0.13963000000000003,0.27905,0.00694500000000009,0.15326000000000006,0.4415,-0.14493500000000004,0.31838999999999995,0.31710000000000005,-0.13643499999999986,-0.21002999999999994,0.06904199999999999,-0.0340649999999999,0.3528899999999999,0.13805800000000001,-0.23783500000000002,-0.06784999999999997,0.011021999999999997,0.022865000000000024,0.06784999999999997,-0.011022000000000004,-0.022864999999999913,-0.16879,-0.28898999999999997,0.06827500000000009,0.11573,-0.29230999999999996,-0.051694999999999935,-0.24435999999999997,-0.5748800000000001,0.22940500000000008,0.13426000000000005,-0.60829,-0.02927499999999994
125,0.175805,0.593569,-0.178315,-0.04769499999999993,0.5002690000000001,-0.08171499999999998,-0.13853499999999996,0.279109,0.006284999999999874,0.14631499999999997,0.439429,-0.150215,0.31515499999999996,0.321589,-0.13971500000000003,-0.210175,0.06936,-0.034375000000000044,0.3498549999999999,0.138356,-0.23661500000000002,-0.06709500000000002,0.010699000000000007,0.024544999999999928,0.06709500000000002,-0.010699,-0.02454500000000004,-0.16744499999999995,-0.286891,0.07013499999999995,0.11260500000000007,-0.290931,-0.04892500000000011,-0.241325,-0.572281,0.23129499999999992,0.12626500000000007,-0.6075710000000001,-0.023845000000000116
126,0.17106999999999994,0.5837694999999999,-0.174265,-0.05740999999999996,0.5030095,-0.07456499999999988,-0.13926000000000005,0.2796695,0.006404999999999994,0.13641000000000003,0.43808949999999997,-0.152165,0.30743999999999994,0.3268995,-0.14076499999999992,-0.21160999999999996,0.0703335,-0.03422499999999995,0.3401399999999999,0.1426295,-0.22946499999999992,-0.06511999999999996,0.010034499999999995,0.025704999999999978,0.06511999999999996,-0.010034500000000002,-0.025704999999999978,-0.16737000000000002,-0.28415050000000003,0.07252500000000006,0.10848000000000002,-0.2891105,-0.04555500000000001,-0.24041,-0.5694905,0.23472500000000007,0.11758999999999997,-0.6059905,-0.017815000000000025
127,0.16334499999999996,0.57747,-0.17043999999999992,-0.06572500000000003,0.50651,-0.06813999999999987,-0.13991500000000012,0.28041,0.006269999999999998,0.12358499999999994,0.43799,-0.15083999999999986,0.299925,0.33256,-0.13973999999999998,-0.21347500000000008,0.07237,-0.03381999999999996,0.3318249999999998,0.147285,-0.2230399999999999,-0.06372500000000003,0.009453999999999997,0.026739999999999986,0.06372499999999992,-0.009454000000000004,-0.026739999999999986,-0.16810500000000006,-0.28065,0.07282,0.10511499999999996,-0.28714,-0.04259000000000002,-0.23990500000000003,-0.56598,0.23762000000000005,0.10981499999999988,-0.60347,-0.012409999999999921
128,0.15593,0.5711745,-0.16560000000000008,-0.07316999999999996,0.5102645,-0.06219999999999992,-0.14065000000000005,0.2805145,0.006340000000000012,0.10429,0.4413445,-0.1492000000000001,0.2924800000000001,0.3366645,-0.13570000000000004,-0.2147,0.07461749999999999,-0.03387000000000007,0.3263799999999999,0.1518585,-0.21719999999999995,-0.06245999999999996,0.008313499999999995,0.027639999999999998,0.06245999999999996,-0.008313500000000001,-0.027639999999999998,-0.16918999999999995,-0.2775355,0.07299999999999995,0.10211999999999999,-0.2851755,-0.03969,-0.23961,-0.5622255,0.24027999999999994,0.10284000000000004,-0.6003955,-0.007530000000000037
129,0.14881499999999992,0.5661015,-0.1608400000000001,-0.08712500000000012,0.5102215,-0.05684,-0.14092500000000008,0.2811015,0.006599999999999939,0.08759499999999998,0.4455015,-0.14924000000000004,0.2855749999999999,0.34252150000000003,-0.13114000000000003,-0.21514500000000003,0.0775875,-0.034619999999999984,0.3239749999999999,0.15772049999999999,-0.20643999999999996,-0.06125500000000006,0.0067445000000000005,0.028100000000000014,0.06125499999999995,-0.0067445000000000005,-0.028100000000000014,-0.16868500000000008,-0.2742785,0.07218999999999998,0.09996499999999997,-0.28353849999999997,-0.03720000000000001,-0.23933500000000008,-0.5580685000000001,0.24181999999999992,0.09750499999999995,-0.5968485,-0.003730000000000011
130,0.139115,0.5628725,-0.15585500000000008,-0.08837499999999998,0.5093125000000001,-0.050955000000000084,-0.1418149999999999,0.28192249999999996,0.007644999999999902,0.072855,0.4552625,-0.14785500000000007,0.2764050000000001,0.34852249999999996,-0.12725500000000012,-0.215735,0.0804425,-0.035515000000000074,0.32560500000000003,0.1635405,-0.19035500000000005,-0.060145000000000004,0.005320500000000006,0.028394999999999948,0.060145000000000004,-0.005320499999999992,-0.02839500000000006,-0.16778499999999996,-0.27168749999999997,0.0709249999999999,0.098445,-0.2817375,-0.03510500000000005,-0.23934499999999992,-0.5545175,0.24291499999999988,0.093445,-0.5935275,-0.0006850000000001577
131,0.12882499999999997,0.559538,-0.15061499999999994,-0.08984500000000006,0.508238,-0.04481500000000005,-0.14269500000000002,0.28266800000000003,0.009454999999999991,0.058904999999999985,0.46833800000000003,-0.14621499999999998,0.26617500000000005,0.354518,-0.12361500000000003,-0.2155950000000001,0.08315499999999999,-0.035414999999999974,0.32957499999999995,0.169667,-0.17571500000000007,-0.05865500000000001,0.003943999999999989,0.028754999999999975,0.0586549999999999,-0.003944000000000003,-0.028754999999999975,-0.16725500000000004,-0.269552,0.06979499999999994,0.0970049999999999,-0.27986200000000006,-0.03296500000000002,-0.239765,-0.551252,0.24383500000000002,0.0896849999999999,-0.5903619999999999,0.0021250000000000435
132,0.11897499999999994,0.555914,-0.1452199999999999,-0.09080500000000002,0.506894,-0.038920000000000066,-0.14322500000000005,0.28226399999999996,0.01155000000000006,0.04498499999999994,0.48389400000000005,-0.14392000000000005,0.255405,0.36003399999999997,-0.11891999999999991,-0.21567500000000006,0.084502,-0.03482000000000007,0.33250499999999994,0.176161,-0.16081999999999996,-0.05695499999999998,0.0026309999999999945,0.029160000000000075,0.05695499999999998,-0.0026310000000000083,-0.029159999999999964,-0.16629500000000008,-0.267856,0.06877,0.09576499999999999,-0.27796600000000005,-0.030889999999999973,-0.24028500000000008,-0.5481360000000001,0.24470999999999998,0.08631499999999992,-0.587426,0.0048200000000000465
133,0.09634500000000001,0.5690225,-0.12563499999999994,-0.20162499999999994,0.4992925,-0.00908500000000001,-0.13890499999999995,0.2949625,0.008184999999999998,0.0025450000000000195,0.3988525,-0.12763499999999994,0.262215,0.3647325,-0.11643500000000007,-0.214785,0.0987585,-0.03913500000000014,0.36511499999999997,0.18401250000000002,-0.1000350000000001,-0.05848500000000001,0.0016375,0.029934999999999934,0.05848500000000001,-0.0016375,-0.029935000000000045,-0.162285,-0.2586675,0.06442499999999995,0.09730500000000009,-0.2767575,-0.028335,-0.24012499999999992,-0.5334975,0.244305,0.08272500000000005,-0.5731775,0.00733499999999998
134,0.09050999999999998,0.557451,-0.12327500000000002,-0.20227000000000006,0.499261,-0.008314999999999961,-0.13839999999999997,0.295261,0.00851500000000005,-0.00385000000000002,0.46348100000000003,-0.13207499999999994,0.2559800000000001,0.364551,-0.11297500000000005,-0.21326999999999996,0.09855799999999999,-0.03827500000000006,0.36348,0.186161,-0.10117500000000001,-0.05920000000000003,0.0014289999999999997,0.03047500000000003,0.05920000000000003,-0.0014289999999999997,-0.03047500000000003,-0.16418,-0.258499,0.06484500000000004,0.09740000000000004,-0.27657899999999996,-0.02807499999999985,-0.24051,-0.5339790000000001,0.244525,0.08194999999999997,-0.573809,0.007875000000000076
135,0.089665,0.5563605,-0.12160499999999996,-0.203515,0.4968505,-0.006024999999999947,-0.13887499999999997,0.2931105,0.01077500000000009,-0.007355,0.48293050000000004,-0.13060499999999986,0.23687500000000006,0.3534205,-0.09210499999999988,-0.21228500000000006,0.09572950000000001,-0.03530499999999992,0.3616750000000001,0.1863085,-0.09610499999999988,-0.06015499999999996,0.00014450000000000573,0.03100500000000006,0.06015499999999996,-0.00014449999999999186,-0.03100499999999995,-0.165385,-0.2595495,0.06609500000000001,0.09631500000000004,-0.2755795,-0.026804999999999968,-0.24127500000000002,-0.5369195,0.24571500000000002,0.08052499999999996,-0.5763895,0.010025000000000062
136,0.08775,0.5536829999999999,-0.11880500000000005,-0.20545000000000002,0.494413,-0.0034849999999999604,-0.14125,0.278973,0.013595000000000024,0.008329999999999949,0.5419430000000001,-0.14490500000000006,0.22101000000000004,0.366053,-0.09150499999999995,-0.21594999999999998,0.08216000000000001,-0.03280499999999997,0.34041,0.194963,-0.08920499999999998,-0.060429999999999984,-0.0007619999999999988,0.03130500000000003,0.060429999999999984,0.0007619999999999988,-0.031304999999999916,-0.16647,-0.259997,0.06730499999999995,0.09482999999999997,-0.274857,-0.02530499999999991,-0.24267000000000005,-0.539587,0.24743499999999996,0.07833000000000001,-0.578727,0.012375000000000025
137,0.07455,0.556916,-0.11161500000000002,-0.09358,0.455806,-0.006585000000000063,-0.16225,0.253396,0.026774999999999882,-0.00772000000000006,0.570416,-0.13581500000000002,0.19396999999999998,0.381486,-0.08001500000000017,-0.23612999999999995,0.059763000000000004,-0.03361500000000017,0.31140999999999996,0.208576,-0.08001500000000017,-0.042200000000000015,-0.0036139999999999922,0.02911499999999989,0.042200000000000015,0.003614000000000006,-0.029115000000000002,-0.17966000000000004,-0.255834,0.07260499999999992,0.08265999999999996,-0.27006399999999997,-0.019015000000000004,-0.25504000000000004,-0.534624,0.25197499999999995,0.06506,-0.574554,0.01864499999999991
138,0.07470999999999994,0.5559895,-0.1096950000000001,-0.09340000000000004,0.4556795,-0.005455000000000099,-0.16039000000000003,0.2536795,0.03185499999999997,-0.007979999999999987,0.5728795,-0.13429500000000005,0.19013000000000002,0.3813595,-0.07459500000000019,-0.22888000000000008,0.055540500000000013,-0.017894999999999994,0.33491000000000004,0.24278950000000002,-0.029895000000000005,-0.04034000000000004,-0.003530499999999992,0.029694999999999916,0.04033999999999993,0.003530500000000006,-0.029695000000000027,-0.16002000000000005,-0.26122049999999997,0.06385499999999988,0.08328000000000002,-0.26938049999999997,-0.018295000000000172,-0.25403,-0.5346905,0.2524549999999999,0.06516,-0.5747104999999999,0.01986499999999991
139,0.07590000000000008,0.556414,-0.10834500000000014,-0.09215999999999991,0.455904,-0.004185000000000105,-0.15667999999999993,0.253224,0.03337499999999993,-0.011479999999999935,0.5823039999999999,-0.12544500000000003,0.18218,0.384124,-0.06984500000000016,-0.22609,0.055512,-0.01694500000000021,0.3236399999999999,0.240644,-0.028245000000000076,-0.03813999999999995,-0.0035659999999999997,0.030544999999999933,0.03814000000000006,0.0035659999999999997,-0.030545000000000044,-0.16550999999999993,-0.261996,0.0653649999999999,0.08528000000000002,-0.268036,-0.017445000000000155,-0.25237,-0.5350760000000001,0.2521849999999999,0.06624000000000008,-0.5747059999999999,0.02120499999999992
