sb224sc-HT22-VT27/4dt907/src/data/kinect_good_vs_bad_not_preprocessed_A13_mediapipe/W27.csv
FrameNo,nose_3d_x,nose_3d_y,nose_3d_z,left_shoulder_3d_x,left_shoulder_3d_y,left_shoulder_3d_z,left_elbow_3d_x,left_elbow_3d_y,left_elbow_3d_z,right_shoulder_3d_x,right_shoulder_3d_y,right_shoulder_3d_z,right_elbow_3d_x,right_elbow_3d_y,right_elbow_3d_z,left_wrist_3d_x,left_wrist_3d_y,left_wrist_3d_z,right_wrist_3d_x,right_wrist_3d_y,right_wrist_3d_z,left_hip_3d_x,left_hip_3d_y,left_hip_3d_z,right_hip_3d_x,right_hip_3d_y,right_hip_3d_z,left_knee_3d_x,left_knee_3d_y,left_knee_3d_z,right_knee_3d_x,right_knee_3d_y,right_knee_3d_z,left_ankle_3d_x,left_ankle_3d_y,left_ankle_3d_z,right_ankle_3d_x,right_ankle_3d_y,right_ankle_3d_z
0,0.010441,0.718247,-0.0051725000000000035,-0.139436,0.490717,0.013871499999999998,-0.31502600000000003,0.642577,-0.0726145,0.147844,0.5014569999999999,0.016066499999999997,0.319054,0.690597,-0.1144545,-0.35893600000000003,0.800207,-0.2162945,0.355524,0.862147,-0.24168450000000002,-0.06729099999999999,0.0005150000000000007,0.0004534999999999956,0.06729099999999999,-0.0005149999999999998,-0.0004535000000000025,-0.120646,-0.331413,0.0017954999999999985,0.098443,-0.346493,0.0226045,-0.12337600000000001,-0.655093,0.0472545,0.10047400000000001,-0.665143,0.042888499999999996
1,0.010226500000000001,0.713818,-0.0063,-0.1382105,0.497078,0.011819999999999997,-0.27932049999999997,0.7000179999999999,-0.070284,0.1467295,0.502598,0.016322999999999997,0.27923950000000003,0.699368,-0.06156400000000001,-0.3347205,0.8797079999999999,-0.204084,0.3219495,0.8750479999999999,-0.18013400000000002,-0.06691649999999999,0.0003389999999999999,-0.0002500000000000002,0.06691649999999999,-0.0003389999999999999,0.0002500000000000002,-0.1216805,-0.33733199999999997,0.0025400000000000006,0.0970125,-0.353552,0.023336,-0.1243505,-0.6620320000000001,0.046383,0.09943950000000001,-0.672022,0.04317
2,0.010008000000000005,0.7106250000000001,-0.007314000000000001,-0.136156,0.495695,0.010115000000000002,-0.276236,0.698395,-0.068705,0.14635399999999998,0.503865,0.016110000000000003,0.298484,0.736305,-0.071735,-0.318106,0.8970250000000001,-0.179645,0.304904,0.926815,-0.170995,-0.06644,0.00027899999999999973,-0.0012449999999999961,0.06644,-0.0002790000000000006,0.001245000000000003,-0.122246,-0.34138500000000005,0.001916000000000001,0.096524,-0.35650499999999996,0.022593000000000002,-0.125116,-0.669555,0.046556,0.098664,-0.676105,0.042733
3,0.010697999999999994,0.70793,-0.008578000000000002,-0.135748,0.49742,0.011096000000000002,-0.269218,0.70027,-0.06425600000000001,0.144712,0.5045,0.016653,0.273682,0.72647,-0.055837000000000005,-0.305168,0.8970899999999999,-0.164571,0.301172,0.9535,-0.169371,-0.066218,2.1000000000000185e-05,-0.0008809999999999998,0.066218,-2.099999999999845e-05,0.0008809999999999998,-0.122418,-0.34487,0.0025439999999999977,0.09634699999999999,-0.3604,0.023247999999999998,-0.124768,-0.67513,0.047625,0.09801199999999999,-0.68025,0.043452
4,0.011503000000000001,0.705272,-0.009903000000000002,-0.135892,0.5007419999999999,0.013105999999999996,-0.260032,0.705812,-0.057024000000000005,0.14466800000000002,0.503832,0.017462999999999996,0.266778,0.729332,-0.049087000000000006,-0.293472,0.898122,-0.152207,0.29636799999999996,0.956812,-0.160447,-0.066276,6.600000000000009e-05,-0.0009620000000000045,0.066276,-6.600000000000009e-05,0.0009619999999999976,-0.12227199999999999,-0.347178,0.0026579999999999937,0.096147,-0.363838,0.023189999999999995,-0.125272,-0.6810480000000001,0.047947,0.096988,-0.685208,0.04331599999999999
5,0.011602500000000002,0.7031075,-0.010946999999999998,-0.1350385,0.5007975,0.012939000000000003,-0.2540585,0.7101775,-0.052905999999999995,0.1434615,0.5045875,0.018407000000000003,0.2605815,0.7344475,-0.04552099999999999,-0.2857085,0.9021675,-0.142989,0.2875515,0.9659475,-0.141449,-0.0661395,4.149999999999987e-05,-0.0016369999999999996,0.0661395,-4.149999999999987e-05,0.0016369999999999996,-0.12194849999999999,-0.3499125,0.0017310000000000034,0.09545150000000001,-0.36647250000000003,0.023124000000000002,-0.1258585,-0.6843625,0.047747000000000005,0.09612150000000001,-0.6879025,0.043324
6,0.0116595,0.702022,-0.011930500000000004,-0.1359255,0.49924199999999996,0.012993499999999998,-0.24203550000000001,0.723282,-0.045943500000000005,0.1426245,0.502772,0.0184305,0.2512745,0.740192,-0.0374045,-0.2645355,0.922362,-0.11952749999999998,0.27606450000000005,0.978332,-0.11331749999999999,-0.0660605,0.00022699999999999804,-0.0019375000000000017,0.0660605,-0.0002270000000000015,0.0019375000000000017,-0.12158550000000001,-0.351398,0.0012075000000000002,0.0949845,-0.368178,0.023407499999999998,-0.1267655,-0.686358,0.0473405,0.0952945,-0.689418,0.0434105
7,0.0121555,0.7032014999999999,-0.011914000000000001,-0.1359275,0.49824150000000006,0.012000999999999994,-0.2433375,0.7196015,-0.04686800000000001,0.1419625,0.5019115,0.017564999999999997,0.2542225,0.7398515,-0.036694000000000004,-0.2710075,0.9371615,-0.12822,0.27793249999999997,0.9729914999999999,-0.12050999999999999,-0.0664655,3.850000000000034e-05,-0.0010300000000000031,0.0664655,-3.850000000000034e-05,0.0010299999999999962,-0.1207375,-0.3501885,-0.0009520000000000015,0.0950825,-0.3684685,0.023190999999999996,-0.1276175,-0.6862685000000001,0.046453999999999995,0.09414249999999999,-0.6875585000000001,0.043047999999999996
8,0.012651999999999997,0.7026209999999999,-0.012095000000000002,-0.13603300000000002,0.498341,0.011965999999999997,-0.238783,0.722831,-0.043440000000000006,0.141187,0.5012709999999999,0.017712999999999996,0.250927,0.741401,-0.03228600000000001,-0.265973,0.946921,-0.12331,0.274017,0.973881,-0.11150000000000002,-0.066554,2.1000000000000185e-05,-0.0010620000000000004,0.066554,-2.1000000000000185e-05,0.0010620000000000004,-0.119913,-0.351329,-0.002465000000000002,0.094967,-0.370129,0.023293999999999995,-0.127973,-0.688249,0.046418,0.09308699999999999,-0.6891090000000001,0.042934
9,0.013202499999999999,0.7023995,-0.012220499999999995,-0.13612649999999998,0.4981295,0.011929500000000003,-0.2353565,0.7252395,-0.0408365,0.1405035,0.5007295,0.017783500000000004,0.24830349999999998,0.7429495,-0.0286965,-0.2625465,0.9563895,-0.12007349999999999,0.2706935,0.9759595,-0.10353349999999999,-0.06660250000000001,1.3499999999999623e-05,-0.0010284999999999947,0.06660250000000001,-1.3499999999999623e-05,0.0010285000000000016,-0.1186565,-0.3522005,-0.004557499999999999,0.09483349999999999,-0.3715605,0.023317500000000005,-0.1275665,-0.6894305000000001,0.0464065,0.0919935,-0.6901105,0.042744500000000005
10,0.0140325,0.702526,-0.0123015,-0.1362405,0.497946,0.012129500000000001,-0.23274050000000002,0.726976,-0.0384865,0.13995950000000001,0.5001059999999999,0.017934500000000003,0.2463395,0.743866,-0.0253185,-0.2602805,0.9652459999999999,-0.11789449999999999,0.26835950000000003,0.975816,-0.0963745,-0.0666455,1.9000000000001654e-05,-0.0009424999999999989,0.0666455,-1.8999999999998185e-05,0.0009424999999999989,-0.11693049999999999,-0.352854,-0.0068614999999999995,0.0947295,-0.37348400000000004,0.0233475,-0.1251205,-0.690314,0.0463825,0.0909695,-0.6910040000000001,0.042612500000000005
11,0.014721999999999999,0.7027605,-0.012443500000000003,-0.136238,0.49796050000000003,0.012266499999999996,-0.231968,0.7269905,-0.036847500000000005,0.139642,0.49973049999999997,0.0180595,0.244872,0.7433705,-0.0227715,-0.260998,0.9716905,-0.1180445,0.267252,0.9754105,-0.0921545,-0.066697,1.5000000000015001e-06,-0.000845499999999999,0.066697,-1.5000000000015001e-06,0.000845499999999999,-0.114828,-0.3533495,-0.008507500000000001,0.094482,-0.3751995,0.023294499999999996,-0.12189799999999999,-0.6911095,0.046329499999999996,0.090072,-0.6915095,0.042428499999999994
12,0.014970500000000001,0.7031535,-0.012482,-0.13606849999999998,0.4980835,0.012236,-0.2325085,0.7268635,-0.0354,0.1394815,0.49954350000000003,0.0182,0.24384150000000002,0.7430935000000001,-0.020262999999999996,-0.2615285,0.9779035,-0.11823499999999999,0.26644150000000005,0.9751335,-0.08809499999999999,-0.06658549999999999,5.8499999999999525e-05,-0.0007209999999999994,0.06658549999999999,-5.8499999999999525e-05,0.0007209999999999994,-0.1121345,-0.35362649999999995,-0.009555999999999995,0.0942115,-0.37670649999999994,0.023286,-0.1177485,-0.6916964999999999,0.046344,0.0897915,-0.6916964999999999,0.042303
13,0.014902499999999999,0.7034285,-0.012471499999999996,-0.1357865,0.4981685,0.012153500000000001,-0.23269649999999997,0.7266185,-0.034200499999999995,0.1395135,0.49937849999999995,0.0183125,0.2428535,0.7428485,-0.0182115,-0.2617065,0.9833384999999999,-0.1185135,0.2658535,0.9748884999999999,-0.0849735,-0.0664295,6.149999999999906e-05,-0.0005925000000000027,0.0664295,-6.150000000000252e-05,0.0005925000000000027,-0.1094435,-0.3538715,-0.0103455,0.0940335,-0.37821150000000003,0.023211500000000003,-0.1131085,-0.6921915000000001,0.046413499999999996,0.0898035,-0.6919415,0.0420565
14,0.014878999999999996,0.703594,-0.012195999999999992,-0.135807,0.49837400000000004,0.012072000000000006,-0.23271699999999998,0.726684,-0.0334,0.139483,0.499234,0.018605000000000003,0.242163,0.742344,-0.015688999999999995,-0.261727,0.983084,-0.11925,0.26519299999999996,0.973234,-0.08203999999999999,-0.066409,5.400000000000196e-05,-0.00044199999999999795,0.066409,-5.3999999999998494e-05,0.0004420000000000049,-0.10737500000000001,-0.353586,-0.010680999999999996,0.094013,-0.379656,0.023131000000000006,-0.108105,-0.692506,0.04665300000000001,0.08991299999999999,-0.692006,0.04186100000000001
15,0.014876999999999998,0.7037424999999999,-0.011770500000000003,-0.135805,0.49866250000000006,0.011855499999999998,-0.232785,0.7267024999999999,-0.0334135,0.139485,0.4991925,0.0189425,0.24174500000000002,0.7415425,-0.013095500000000003,-0.263145,0.9829324999999999,-0.1207745,0.264605,0.9707524999999999,-0.0800045,-0.066409,9.950000000000236e-05,-0.00044349999999999945,0.066409,-9.94999999999989e-05,0.00044349999999999945,-0.10630300000000001,-0.3533575,-0.011140499999999998,0.094015,-0.3807675,0.022880499999999998,-0.103243,-0.6926575,0.046995499999999996,0.089915,-0.6922875000000001,0.0414885
16,0.014875000000000003,0.703882,-0.011245499999999999,-0.135803,0.49890200000000007,0.011719499999999997,-0.233653,0.727172,-0.033848500000000004,0.139487,0.499162,0.019369499999999998,0.241617,0.7407320000000001,-0.011740500000000001,-0.26560300000000003,0.9827819999999999,-0.12287550000000001,0.26431699999999997,0.967502,-0.0780455,-0.066407,0.00016700000000000048,-0.0007515000000000022,0.066407,-0.00016700000000000048,0.0007514999999999952,-0.105879,-0.35319799999999996,-0.011569500000000003,0.093907,-0.38156799999999996,0.022706499999999998,-0.099463,-0.692808,0.0475125,0.089917,-0.692608,0.0411545
17,0.014462000000000003,0.703881,-0.010963500000000001,-0.136203,0.499181,0.0117055,-0.235703,0.727341,-0.0345925,0.138737,0.499671,0.0205705,0.241607,0.7399910000000001,-0.010711499999999999,-0.26915300000000003,0.9810310000000001,-0.1256585,0.26419699999999996,0.961921,-0.0765585,-0.066139,0.00017,-0.0011665000000000009,0.066139,-0.00017,0.0011665000000000009,-0.105609,-0.35312899999999997,-0.012302500000000001,0.093547,-0.38192899999999996,0.0223775,-0.095772,-0.693059,0.047891500000000004,0.090187,-0.6931889999999999,0.0406675
18,0.0136855,0.703584,-0.011005000000000001,-0.13682450000000002,0.499714,0.011843,-0.2380745,0.7265240000000001,-0.035588,0.1379055,0.500254,0.021801,0.2411055,0.738144,-0.009929,-0.27276449999999997,0.979064,-0.128707,0.2648455,0.955124,-0.07535700000000001,-0.0658985,0.00021099999999999938,-0.0015399999999999997,0.0658985,-0.00021099999999999938,0.0015399999999999997,-0.10430350000000001,-0.353276,-0.012700999999999997,0.0932455,-0.38240599999999997,0.0217,-0.0919085,-0.693156,0.048098,0.0912655,-0.693786,0.039826
19,0.012618500000000001,0.7031205,-0.011444999999999997,-0.1374495,0.5002305,0.011689000000000001,-0.24108949999999998,0.7259905,-0.036855,0.13716050000000002,0.5008405,0.022927000000000003,0.24043050000000002,0.7366105000000001,-0.009681999999999996,-0.27619950000000004,0.9773304999999999,-0.131744,0.26571049999999996,0.9503805000000001,-0.076034,-0.06564149999999999,0.00016950000000000298,-0.0020820000000000005,0.06564149999999999,-0.0001694999999999995,0.0020820000000000005,-0.10260449999999999,-0.3536295,-0.012713999999999996,0.0929905,-0.3830395,0.020584,-0.08967449999999999,-0.6925295,0.048039,0.09259049999999999,-0.6945094999999999,0.038694
20,0.011001,0.7029005,-0.012403500000000001,-0.138127,0.5008105,0.011176499999999999,-0.244067,0.7254105000000001,-0.0386625,0.13638299999999998,0.5016405,0.0237925,0.239593,0.7350705000000001,-0.010053499999999996,-0.279467,0.9759505,-0.1350375,0.26626299999999997,0.9468105,-0.07761749999999999,-0.065488,0.00012950000000000114,-0.0024384999999999997,0.065488,-0.00012950000000000114,0.0024384999999999997,-0.100757,-0.35371949999999996,-0.011906499999999997,0.092803,-0.38334949999999995,0.0189795,-0.087298,-0.6916495,0.0477505,0.094503,-0.6949995,0.0369425
21,0.008932999999999996,0.702723,-0.013442500000000003,-0.13904,0.501313,0.010641499999999998,-0.24679,0.724723,-0.040469500000000005,0.13518999999999998,0.5027729999999999,0.0246195,0.23892,0.734043,-0.0109345,-0.28237999999999996,0.974733,-0.1382865,0.26696000000000003,0.9434929999999999,-0.0792965,-0.06537899999999999,0.00010299999999999893,-0.0027774999999999987,0.06537899999999999,-0.0001030000000000024,0.0027774999999999987,-0.09944700000000001,-0.353797,-0.010390499999999997,0.09279799999999999,-0.383557,0.0172225,-0.08452699999999999,-0.6909970000000001,0.047531500000000004,0.09675999999999998,-0.6954370000000001,0.0351465
22,0.0061765,0.7027165,-0.014544500000000002,-0.1400055,0.5018665,0.010057499999999999,-0.2497155,0.7239165,-0.0422295,0.13382449999999999,0.5040165,0.025360499999999998,0.23803449999999998,0.7329165,-0.0119885,-0.2850755,0.9737865,-0.1414145,0.2664345,0.9402564999999999,-0.0810245,-0.06530150000000001,9.049999999999683e-05,-0.0031155,0.06530150000000001,-9.05000000000003e-05,0.0031155,-0.0987275,-0.3534735,-0.008376500000000002,0.09277350000000001,-0.38298350000000003,0.015330499999999999,-0.0815195,-0.6900335,0.0472885,0.09899450000000001,-0.6958835,0.0334355
23,0.003063000000000004,0.7026025,-0.015711,-0.140821,0.5023325000000001,0.009457,-0.25226099999999996,0.7235324999999999,-0.04405400000000001,0.132539,0.5053525000000001,0.025991,0.23685900000000001,0.7323124999999999,-0.013686,-0.28727099999999994,0.9730525000000001,-0.144337,0.26546899999999996,0.9371125,-0.082947,-0.065205,6.850000000000259e-05,-0.003365,0.065205,-6.849999999999912e-05,0.003365,-0.09854099999999999,-0.3528475,-0.0068059999999999996,0.092629,-0.3816875,0.013300000000000001,-0.078416,-0.6888475000000001,0.046992,0.101303,-0.6963474999999999,0.031707
24,0.0003455000000000029,0.702535,-0.016996,-0.1415495,0.503325,0.008987,-0.2538895,0.723455,-0.045778,0.1313805,0.5065850000000001,0.026586,0.2357705,0.732075,-0.015289,-0.2884795,0.972705,-0.146596,0.2643005,0.934835,-0.08455599999999999,-0.0652255,6.1000000000002025e-05,-0.003491000000000001,0.0652255,-6.0999999999998555e-05,0.003491000000000001,-0.0988595,-0.352105,-0.005586999999999998,0.0926615,-0.380095,0.011326000000000001,-0.0759985,-0.687565,0.046699000000000004,0.1034575,-0.696825,0.029964
25,-0.002269500000000004,0.702423,-0.018194499999999995,-0.1422465,0.504353,0.008767500000000001,-0.2553365,0.7233630000000001,-0.047307499999999995,0.13010349999999998,0.5079330000000001,0.027197500000000003,0.2344835,0.731593,-0.0167835,-0.2894065,0.9725330000000001,-0.1484735,0.2631135,0.932683,-0.0863235,-0.0652955,-1.1000000000000593e-05,-0.003476499999999997,0.0652955,1.0999999999997123e-05,0.0034765000000000004,-0.0991165,-0.351347,-0.004510499999999997,0.0929085,-0.378547,0.009458500000000002,-0.07377349999999999,-0.686017,0.0463575,0.1056915,-0.697247,0.028261500000000002
26,-0.004845000000000002,0.7023065,-0.018917999999999997,-0.142352,0.5049665,0.008332,-0.256422,0.7235765,-0.04857,0.129738,0.5082165,0.02701,0.233078,0.7313465,-0.017938000000000003,-0.290262,0.9723265,-0.149837,0.262288,0.9319664999999999,-0.088137,-0.06548899999999999,-9.94999999999989e-05,-0.0033110000000000014,0.06548899999999999,9.94999999999989e-05,0.0033109999999999997,-0.099072,-0.3512335,-0.0035379999999999995,0.093228,-0.37729349999999995,0.007679,-0.07239899999999999,-0.6845435000000001,0.046203999999999995,0.10783300000000001,-0.6978235,0.026788
27,-0.006787000000000005,0.7022324999999999,-0.019333499999999997,-0.14275000000000002,0.5055324999999999,0.008296500000000002,-0.25730000000000003,0.7236925,-0.0495705,0.12958999999999998,0.5081424999999999,0.026797500000000002,0.23237999999999998,0.7312725,-0.019227499999999995,-0.29058,0.9721424999999999,-0.1508405,0.26142,0.9313825,-0.0899905,-0.065603,-0.00014149999999999927,-0.0031114999999999997,0.065603,0.00014150000000000273,0.0031115000000000014,-0.09904,-0.3512075,-0.002621499999999999,0.093772,-0.37597749999999996,0.006045500000000002,-0.071178,-0.6831675,0.04627150000000001,0.109981,-0.6983375,0.0254845
28,-0.008528999999999995,0.7020735,-0.019448,-0.143348,0.5057635,0.008534000000000002,-0.257748,0.7237235000000001,-0.050305,0.129432,0.5079835,0.026611000000000003,0.231802,0.7309335,-0.020241999999999996,-0.290998,0.9719435000000001,-0.15160099999999999,0.260492,0.9306935000000001,-0.091571,-0.06573,-0.00014950000000000033,-0.002887999999999998,0.06573,0.00014950000000000033,0.0028880000000000017,-0.098838,-0.3512565,-0.0017770000000000008,0.09428600000000001,-0.37529650000000003,0.004375,-0.06923199999999999,-0.6826165,0.046346,0.11217500000000001,-0.6989464999999999,0.024444
29,-0.010002499999999998,0.7019390000000001,-0.019173,-0.1440085,0.5059990000000001,0.009061000000000001,-0.2585285,0.7239690000000001,-0.050553,0.1280915,0.507939,0.02658,0.2313715,0.730519,-0.020889999999999995,-0.2916585,0.9717790000000001,-0.15207500000000002,0.2599715,0.9299090000000001,-0.092775,-0.06574150000000001,-0.00017400000000000054,-0.002876,0.06574150000000001,0.00017400000000000054,0.002876000000000002,-0.0987085,-0.35136100000000003,-0.001292999999999999,0.0946335,-0.37500100000000003,0.002687000000000002,-0.0676675,-0.6818909999999999,0.046555,0.1139965,-0.6994809999999999,0.023416
30,-0.010890500000000001,0.7021665,-0.0189375,-0.1443905,0.5063865,0.009600500000000001,-0.2592005,0.7243165,-0.050584500000000004,0.1271695,0.5081465,0.0265105,0.2312795,0.7306765,-0.0213815,-0.2921705,0.9721265,-0.1525645,0.2598495,0.9298065,-0.0939145,-0.0657815,-0.0002444999999999982,-0.002904500000000001,0.0657815,0.00024450000000000166,0.002904500000000001,-0.09806050000000001,-0.3510535,-0.0011224999999999985,0.0952185,-0.3744835,0.0009415000000000014,-0.0658635,-0.6808335,0.0464325,0.1160395,-0.6996435,0.0223325
31,-0.011428499999999998,0.702369,-0.0186475,-0.1445555,0.5070790000000001,0.010065500000000002,-0.2597255,0.724549,-0.0502475,0.1264345,0.508349,0.0263925,0.2311745,0.730409,-0.0219565,-0.2930955,0.972489,-0.15278550000000002,0.26078450000000003,0.929249,-0.0947455,-0.0658085,-0.0002459999999999997,-0.003034499999999999,0.0658085,0.0002459999999999997,0.0030345000000000007,-0.0972355,-0.350641,-0.0012114999999999973,0.0960065,-0.374071,-0.0008015000000000001,-0.0639075,-0.680331,0.0460995,0.1184905,-0.6995009999999999,0.0211625
32,-0.011640500000000002,0.702466,-0.018116999999999998,-0.14464849999999999,0.507416,0.010672000000000001,-0.26018850000000004,0.724686,-0.04969899999999999,0.1257625,0.508066,0.026274,0.2319315,0.729636,-0.02245,-0.29397850000000003,0.972556,-0.152503,0.2624415,0.928256,-0.095233,-0.0658705,-0.00024999999999999675,-0.003193999999999999,0.0658705,0.0002500000000000002,0.003193999999999999,-0.0963485,-0.350674,-0.0014030000000000015,0.0974035,-0.373844,-0.002204000000000001,-0.0618585,-0.679804,0.045768,0.1212565,-0.699474,0.020353
33,-0.011708,0.702588,-0.0176485,-0.14508100000000002,0.507648,0.011197499999999999,-0.260611,0.724788,-0.04922850000000001,0.12442600000000001,0.507968,0.0261025,0.232789,0.728808,-0.022952499999999997,-0.294661,0.972668,-0.15216549999999998,0.264329,0.927108,-0.0957355,-0.066023,-0.0002510000000000012,-0.003355500000000001,0.066023,0.00025099999999999775,0.003355499999999999,-0.09547099999999999,-0.351142,-0.001572500000000001,0.098911,-0.373662,-0.0037785000000000006,-0.059553999999999996,-0.679342,0.0452725,0.124164,-0.6994319999999999,0.019633499999999998
34,-0.011811000000000002,0.7026209999999999,-0.016887,-0.146101,0.5078109999999999,0.012137000000000002,-0.261021,0.7247809999999999,-0.04889399999999999,0.12320800000000001,0.5074609999999999,0.026361000000000002,0.233869,0.727891,-0.023131,-0.295231,0.9726509999999999,-0.15204499999999999,0.266419,0.9259909999999999,-0.096275,-0.06614500000000001,-0.00014199999999999977,-0.0036190000000000007,0.06614500000000001,0.00014199999999999977,0.0036190000000000007,-0.094521,-0.351669,-0.0016869999999999975,0.10053699999999999,-0.373529,-0.005586000000000001,-0.057101000000000006,-0.678919,0.04483,0.127305,-0.699299,0.018903
35,-0.011745499999999999,0.7024985,-0.016220500000000002,-0.1475025,0.5083985,0.013842499999999999,-0.2610925,0.7244685000000001,-0.048476500000000006,0.1219665,0.5068885,0.0267485,0.23503749999999998,0.7266685,-0.022867500000000002,-0.2958325,0.9724885,-0.15205749999999998,0.2686275,0.9244685,-0.09661750000000001,-0.0661825,-0.00011450000000000002,-0.003917500000000001,0.0661825,0.00011450000000000002,0.003917499999999999,-0.0933425,-0.3524215,-0.0016675000000000006,0.1023355,-0.37419149999999995,-0.007627499999999999,-0.054061500000000005,-0.6784315,0.0445465,0.1306165,-0.6992714999999999,0.0178675
36,-0.011743000000000003,0.7022285,-0.0155005,-0.14780700000000002,0.5088485,0.0148345,-0.261087,0.7242485000000001,-0.0480035,0.121131,0.5063685,0.027179500000000002,0.23617300000000002,0.7256285,-0.0224235,-0.296447,0.9722485000000001,-0.15222650000000001,0.270973,0.9230985,-0.09666649999999999,-0.065957,-0.00011450000000000002,-0.004170500000000001,0.06595699999999999,0.00011450000000000002,0.004170500000000001,-0.09211699999999999,-0.3532415,-0.0016214999999999997,0.104195,-0.3753815,-0.010208499999999999,-0.051083,-0.6779715,0.0442785,0.134002,-0.6992714999999999,0.0158235
37,-0.011835499999999999,0.70189,-0.0146915,-0.1476025,0.50906,0.015779500000000002,-0.26121249999999996,0.72408,-0.0476255,0.12050350000000001,0.50584,0.027653499999999998,0.2374875,0.72454,-0.021900500000000003,-0.29708249999999997,0.9717199999999999,-0.1524335,0.27330750000000004,0.9217299999999999,-0.0966335,-0.06589249999999999,-0.0001229999999999981,-0.004373499999999999,0.0658925,0.00012300000000000158,0.004373500000000001,-0.09081249999999999,-0.35413999999999995,-0.0015025000000000004,0.10659650000000001,-0.37672999999999995,-0.013386499999999999,-0.047876499999999995,-0.67801,0.044049500000000005,0.1386585,-0.69887,0.0098885
38,-0.011617499999999996,0.7013665,-0.013894999999999998,-0.1478255,0.5091765,0.016848000000000002,-0.26124549999999996,0.7232965,-0.047095,0.12138950000000001,0.5052865,0.028388000000000004,0.2391245,0.7235265,-0.021254999999999996,-0.2973355,0.9709965,-0.15250799999999998,0.2759345,0.9203965,-0.096458,-0.0658955,-0.00011450000000000002,-0.004518999999999999,0.0658955,0.00011450000000000002,0.0045190000000000004,-0.0891255,-0.3551635,-0.001324999999999998,0.1095235,-0.3781335,-0.017325,-0.044766499999999994,-0.6780435,0.043889,0.14393050000000002,-0.6983135,0.002347000000000002
39,-0.011756499999999996,0.7008125000000001,-0.012846,-0.1478705,0.5089925000000001,0.018024,-0.2617005,0.7223525000000001,-0.046367000000000005,0.12208450000000001,0.5047725000000001,0.029248,0.24028950000000002,0.7225325,-0.020404000000000002,-0.29809050000000004,0.9700225,-0.152395,0.2782095,0.9190325,-0.09603500000000001,-0.06588050000000001,-9.84999999999979e-05,-0.004636000000000001,0.06588050000000001,9.850000000000136e-05,0.0046359999999999995,-0.08775049999999998,-0.35623750000000004,-0.0009670000000000008,0.1123765,-0.3791975,-0.021833,-0.041810499999999994,-0.6784874999999999,0.043732,0.1491165,-0.6975975,-0.007053
40,-0.011863000000000005,0.7002674999999999,-0.011883999999999999,-0.148242,0.5087275,0.019230999999999998,-0.261882,0.7214075,-0.045794,0.122614,0.5043875,0.030182,0.241578,0.7216374999999999,-0.019433,-0.29836199999999996,0.9690975,-0.152377,0.280268,0.9178175,-0.09559699999999999,-0.06590199999999999,-3.850000000000034e-05,-0.004799000000000001,0.065902,3.850000000000034e-05,0.0047989999999999994,-0.08627200000000002,-0.3572825,-0.0005750000000000009,0.11534900000000001,-0.37997250000000005,-0.028359000000000002,-0.03883999999999999,-0.6788525,0.043553999999999995,0.154458,-0.6966625000000001,-0.022125
41,-0.011829500000000007,0.6997564999999999,-0.0110245,-0.1487945,0.5085865,0.0202865,-0.2618245,0.7203065,-0.0452175,0.12308949999999999,0.5040865000000001,0.0312855,0.2425455,0.7205364999999999,-0.0183445,-0.2984245,0.9682364999999999,-0.15250350000000001,0.28216549999999996,0.9163265,-0.09511349999999999,-0.0658445,4.44999999999994e-05,-0.0049365,0.0658445,-4.450000000000287e-05,0.0049365,-0.0845545,-0.3575135,-0.00042850000000000006,0.11828749999999999,-0.38009350000000003,-0.0353525,-0.03583750000000001,-0.6793335,0.043314500000000006,0.1595655,-0.6957135000000001,-0.0377735
42,-0.0118785,0.699364,-0.010069999999999999,-0.1491145,0.508274,0.021298,-0.2618045,0.7191639999999999,-0.044626,0.1240805,0.5037739999999999,0.032381,0.24339550000000001,0.719634,-0.017393000000000002,-0.2985545,0.967534,-0.15244,0.2838755,0.915064,-0.09461,-0.0657645,0.0001010000000000004,-0.005090000000000001,0.0657645,-0.0001010000000000004,0.005090000000000001,-0.0827945,-0.358016,-0.00025199999999999875,0.1209835,-0.380176,-0.043248999999999996,-0.03304649999999999,-0.680226,0.043107,0.1643755,-0.694466,-0.055489
43,-0.011784500000000003,0.699145,-0.009111999999999999,-0.1488295,0.5082949999999999,0.022048,-0.2618595,0.718255,-0.043977999999999996,0.1249605,0.503765,0.033234,0.2438305,0.718905,-0.016235999999999997,-0.2987795,0.966905,-0.15232400000000001,0.2852405,0.9139349999999999,-0.093924,-0.0657595,4.70000000000019e-05,-0.005105999999999999,0.0657595,-4.699999999999843e-05,0.005106000000000001,-0.0811595,-0.358225,3.900000000000084e-05,0.1235015,-0.38007500000000005,-0.05121099999999999,-0.030524499999999996,-0.681235,0.043029,0.16865049999999998,-0.692405,-0.075432
44,-0.01170750000000001,0.6988840000000001,-0.007998000000000002,-0.14806049999999998,0.5081840000000001,0.022553,-0.26194049999999997,0.7174740000000001,-0.043232,0.1257685,0.503634,0.034282,0.2443595,0.7180540000000001,-0.015118,-0.2987805,0.9662240000000001,-0.15204,0.2863595,0.912784,-0.09314,-0.06584050000000001,1.8000000000000654e-05,-0.00519,0.0658405,-1.8000000000000654e-05,0.00519,-0.07961050000000001,-0.35850600000000005,0.000366,0.1259215,-0.37997600000000004,-0.059636,-0.02806750000000001,-0.682396,0.043038,0.1727595,-0.689736,-0.09703999999999999
45,-0.011991500000000002,0.6985805,-0.006571000000000002,-0.14784049999999999,0.5077705,0.023346,-0.2621905,0.7166805,-0.042133000000000004,0.1255315,0.5032805,0.035644999999999996,0.24460949999999998,0.7170405000000001,-0.013694,-0.2990605,0.9655105,-0.151421,0.2872695,0.9115105,-0.092091,-0.06623050000000001,8.500000000001562e-06,-0.005375,0.0662305,-8.499999999998092e-06,0.005375,-0.0780205,-0.35900950000000004,0.0006680000000000002,0.1282135,-0.37903950000000003,-0.069427,-0.025661500000000004,-0.6837595,0.043302,0.1767395,-0.6851695,-0.12025100000000001
46,-0.012245000000000006,0.6983305,-0.004696000000000002,-0.148307,0.5070205,0.024591999999999996,-0.26228700000000005,0.7159105,-0.04071,0.124883,0.5028705,0.037541,0.244383,0.7158505000000001,-0.011688000000000004,-0.29919700000000005,0.9651105,-0.15059899999999998,0.287953,0.9101705,-0.090369,-0.066547,-3.250000000000128e-05,-0.005597000000000001,0.066547,3.250000000000128e-05,0.005596999999999998,-0.07625699999999999,-0.3595195,0.0010609999999999977,0.130199,-0.3773495,-0.080477,-0.023345000000000005,-0.6851195,0.043732999999999994,0.179403,-0.6792895,-0.142959
47,-0.012589500000000003,0.698079,-0.0028660000000000005,-0.1481865,0.506099,0.025852,-0.2624165,0.715279,-0.039357,0.1240685,0.5025489999999999,0.039268,0.24403350000000001,0.714679,-0.009680000000000001,-0.2993365,0.9649789999999999,-0.149844,0.2883435,0.908879,-0.08865400000000001,-0.0667465,-0.00011599999999999805,-0.005742000000000001,0.06674649999999999,0.00011600000000000152,0.005741999999999999,-0.07475650000000002,-0.359981,0.0013199999999999983,0.1321275,-0.375591,-0.092044,-0.02118550000000001,-0.6849810000000001,0.044106,0.18188349999999998,-0.6729710000000001,-0.165774
48,-0.01265200000000001,0.6979285000000001,-0.0009090000000000001,-0.148028,0.5050185,0.027294,-0.262098,0.7147385,-0.037882,0.12334,0.5022985,0.041159,0.24397200000000002,0.7135285,-0.007453999999999999,-0.298948,0.9648285,-0.14888400000000002,0.288842,0.9075485,-0.086614,-0.066958,-0.00019749999999999976,-0.005814,0.06695799999999999,0.00019749999999999976,0.0058140000000000015,-0.07304800000000002,-0.3604115,0.001688000000000002,0.134071,-0.3726415,-0.10527399999999999,-0.019022999999999998,-0.6848715,0.044721,0.184572,-0.6645015,-0.19068400000000002
49,-0.012562000000000004,0.697787,0.0011959999999999991,-0.14765899999999998,0.504257,0.028902999999999998,-0.261739,0.714307,-0.036141,0.122988,0.501877,0.043018,0.244251,0.712647,-0.005207,-0.298379,0.964687,-0.147579,0.289431,0.906537,-0.084289,-0.067199,-0.0002689999999999984,-0.005891999999999998,0.067199,0.0002689999999999984,0.005892000000000001,-0.071179,-0.360883,0.0019629999999999995,0.135866,-0.368663,-0.11831899999999998,-0.016849000000000003,-0.684633,0.045421,0.187141,-0.655313,-0.211469
50,-0.012401499999999996,0.6976275,0.003179999999999999,-0.1473005,0.5035474999999999,0.030588999999999998,-0.26144049999999996,0.7137675,-0.034068,0.1226595,0.5014375,0.044917,0.24471950000000003,0.7119475,-0.003055000000000002,-0.2978705,0.9645374999999999,-0.146018,0.2900395,0.9057675,-0.082008,-0.0675205,-0.00037950000000000136,-0.006082000000000001,0.06752050000000001,0.0003794999999999979,0.006081999999999999,-0.06931049999999998,-0.3616825,0.0022359999999999984,0.1374545,-0.3644925,-0.131788,-0.014566499999999996,-0.6851425000000001,0.045870999999999995,0.1892195,-0.6454025000000001,-0.233728
51,-0.012066000000000007,0.697437,0.005171,-0.146735,0.5029669999999999,0.032275,-0.260985,0.7130869999999999,-0.031840999999999994,0.122624,0.5012169999999999,0.046869999999999995,0.245205,0.711247,-0.0005660000000000005,-0.297235,0.9646969999999999,-0.144339,0.290775,0.905017,-0.079559,-0.067775,-0.0005199999999999996,-0.006281999999999999,0.067775,0.0005199999999999996,0.006281999999999999,-0.067335,-0.362543,0.002477,0.13892,-0.359683,-0.144729,-0.011859000000000008,-0.685583,0.046395,0.19109500000000001,-0.635343,-0.255279
52,-0.011062000000000016,0.697196,0.007297,-0.14647500000000002,0.502336,0.034362000000000004,-0.259895,0.7121959999999999,-0.029235999999999998,0.12362799999999999,0.500846,0.04894,0.246695,0.710406,0.0020599999999999993,-0.29622499999999996,0.964736,-0.141998,0.292285,0.904256,-0.076667,-0.067885,-0.0007629999999999998,-0.006532,0.06788499999999999,0.0007629999999999998,0.006532,-0.06459500000000001,-0.363284,0.002623999999999998,0.14013199999999998,-0.35289400000000004,-0.161128,-0.008573000000000011,-0.685984,0.046943,0.192655,-0.624494,-0.279278
53,-0.009908,0.6968945,0.009444000000000001,-0.14616800000000002,0.5018144999999999,0.036378,-0.258598,0.7109445,-0.026713,0.124586,0.5003945,0.051041,0.247902,0.7096345,0.004942000000000002,-0.295168,0.9646945,-0.139732,0.293902,0.9037145,-0.073471,-0.067958,-0.0009755000000000007,-0.006791999999999999,0.067958,0.0009755000000000007,0.006791999999999999,-0.06174799999999998,-0.3639955,0.0029969999999999997,0.141009,-0.34601550000000003,-0.177212,-0.005083999999999991,-0.6863755,0.047522,0.19413200000000003,-0.6136455,-0.30221200000000004
54,-0.008559499999999998,0.696425,0.011413,-0.1458595,0.501255,0.038405,-0.2571495,0.709615,-0.024533999999999997,0.1261805,0.499825,0.053155,0.2491305,0.708745,0.007778,-0.2937295,0.964495,-0.137866,0.2954205,0.903145,-0.07025300000000001,-0.0679495,-0.0012150000000000008,-0.006966,0.0679495,0.0012150000000000008,0.006966,-0.059149499999999994,-0.36467499999999997,0.0034469999999999987,0.1416395,-0.33952499999999997,-0.19200599999999998,-0.002173499999999995,-0.685995,0.048049,0.1952805,-0.6039450000000001,-0.323376
55,-0.007012500000000005,0.695832,0.012907499999999999,-0.1449925,0.500452,0.039862499999999995,-0.2555525,0.708172,-0.0226715,0.1281535,0.49914200000000003,0.0547575,0.25076750000000003,0.7077920000000001,0.0101175,-0.2919825,0.964202,-0.1363465,0.29732749999999997,0.902472,-0.0676635,-0.06788250000000001,-0.0014690000000000016,-0.007029500000000001,0.0678825,0.001468999999999998,0.007029500000000001,-0.056792499999999996,-0.365398,0.0037384999999999988,0.1421395,-0.333048,-0.2055665,0.0005315000000000042,-0.685418,0.0484965,0.1963085,-0.5951179999999999,-0.3422365
56,-0.005424000000000012,0.6952085,0.0143895,-0.144094,0.4997485,0.0413105,-0.253504,0.7067085,-0.0208255,0.130224,0.49843850000000006,0.0563695,0.252526,0.7068185,0.0124385,-0.28972400000000004,0.9639085,-0.13499250000000002,0.299366,0.9017685,-0.0651555,-0.067894,-0.001673499999999998,-0.0071845,0.067894,0.0016735000000000014,0.0071845,-0.05439400000000001,-0.36610149999999997,0.003988499999999999,0.142487,-0.3260415,-0.2182325,0.00280699999999999,-0.6850115,0.048951499999999995,0.197149,-0.5855615000000001,-0.3603225
57,-0.004014000000000004,0.6944714999999999,0.015671,-0.143314,0.4992515,0.042545,-0.251554,0.7053214999999999,-0.019240999999999998,0.132191,0.49778150000000004,0.057813,0.254006,0.7057715,0.014618,-0.28722400000000003,0.9635714999999999,-0.133954,0.301266,0.9010115,-0.062797,-0.06785400000000001,-0.0018204999999999992,-0.007432999999999999,0.067854,0.0018204999999999992,0.007432999999999999,-0.052194000000000004,-0.3663685,0.004156,0.142657,-0.3193685,-0.229024,0.004875000000000004,-0.6844685,0.04932,0.19730999999999999,-0.5770285,-0.375484
58,-0.0026014999999999927,0.6936735,0.0167565,-0.1426015,0.49858349999999996,0.0436145,-0.2494515,0.7039135,-0.018227500000000004,0.1340305,0.4970335,0.0591805,0.2551585,0.7045535,0.0168865,-0.28435150000000003,0.9630935,-0.1331565,0.3030985,0.9003735,-0.060731499999999994,-0.06768149999999999,-0.002032500000000003,-0.007662499999999999,0.0676815,0.0020324999999999996,0.007662499999999999,-0.050211500000000006,-0.3668765,0.004241499999999999,0.1427445,-0.3131265,-0.23844649999999998,0.006838499999999997,-0.6841365,0.0496275,0.1973615,-0.5681565,-0.38979650000000005
59,-0.0012265000000000192,0.692862,0.017716500000000003,-0.14186650000000003,0.49791199999999997,0.0444625,-0.2472865,0.7025520000000001,-0.0174135,0.13573549999999998,0.496272,0.0603225,0.25624349999999996,0.703342,0.019061500000000002,-0.28158649999999996,0.9621620000000001,-0.1319365,0.3048535,0.899742,-0.058640500000000005,-0.0674565,-0.0022639999999999987,-0.007851499999999997,0.06745649999999999,0.0022639999999999987,0.0078515,-0.04843650000000002,-0.367408,0.004224499999999999,0.1424915,-0.306508,-0.2476665,0.009253499999999984,-0.685068,0.0501305,0.19701649999999998,-0.5593079999999999,-0.4023565
60,-6.150000000001987e-05,0.691962,0.0184985,-0.14143150000000002,0.49736199999999997,0.0453205,-0.24518150000000002,0.701552,-0.0167685,0.1372115,0.49556200000000006,0.0613655,0.2573385,0.702262,0.020720500000000003,-0.27906149999999996,0.961192,-0.1307495,0.3064085,0.899112,-0.05663549999999999,-0.0672615,-0.002522,-0.0080345,0.06726149999999999,0.002522,0.008034500000000003,-0.04695150000000001,-0.367918,0.004187500000000004,0.1420285,-0.300278,-0.2567195,0.011478499999999989,-0.686038,0.0506375,0.1960345,-0.549168,-0.4136395
61,0.00044400000000001383,0.6911705,0.019057500000000005,-0.140806,0.4967705,0.0460275,-0.243616,0.7007304999999999,-0.016205499999999998,0.13786900000000002,0.49498049999999993,0.0621965,0.257784,0.7013604999999999,0.021971500000000005,-0.277456,0.9607105,-0.1297265,0.307314,0.8984504999999999,-0.0550945,-0.067186,-0.0027174999999999977,-0.008123499999999999,0.06718600000000001,0.0027175000000000046,0.008123500000000002,-0.046016,-0.36921950000000003,0.004190500000000003,0.14123200000000002,-0.2951595,-0.26239650000000003,0.012724000000000013,-0.6868595000000001,0.0510095,0.19486,-0.5402995,-0.4211765
62,0.0009709999999999996,0.690476,0.019662,-0.140189,0.49626600000000004,0.046807,-0.242089,0.7000059999999999,-0.015596000000000002,0.138922,0.494426,0.062934,0.258551,0.7005159999999999,0.022952,-0.274539,0.959916,-0.128617,0.308321,0.897856,-0.05391800000000001,-0.06712900000000001,-0.0029400000000000016,-0.008267,0.067129,0.002939999999999998,0.008267,-0.04517900000000001,-0.370514,0.004173,0.140511,-0.290164,-0.267267,0.014101000000000002,-0.688184,0.051489,0.193513,-0.531654,-0.42760699999999996
63,0.001480000000000009,0.6898315,0.020219499999999998,-0.13934000000000002,0.4959015,0.0474705,-0.24064000000000002,0.6993914999999999,-0.015369500000000005,0.139852,0.4939215,0.0634925,0.25929,0.6998015,0.023744499999999998,-0.27156,0.9538815,-0.1263855,0.30928,0.8974215,-0.05300149999999999,-0.06707,-0.0031184999999999997,-0.008432499999999999,0.06707,0.003118500000000003,0.008432499999999999,-0.044230000000000005,-0.3717185,0.004012499999999999,0.139912,-0.2855685,-0.2714855,0.015300000000000008,-0.6890685,0.0518205,0.191838,-0.5238185,-0.4334455
64,0.0018229999999999913,0.6893305,0.020740500000000002,-0.138737,0.4956805,0.0481055,-0.23910700000000001,0.6990204999999999,-0.015461499999999996,0.14072199999999999,0.4935405,0.0640805,0.259883,0.6992805,0.024502500000000003,-0.268077,0.9478804999999999,-0.12441550000000001,0.31000300000000003,0.8968505,-0.0522365,-0.067027,-0.0032855000000000002,-0.008607499999999997,0.06702699999999999,0.0032854999999999968,0.0086075,-0.04331700000000002,-0.3727595,0.003918500000000002,0.13907999999999998,-0.2811995,-0.2748955,0.016532999999999992,-0.6898995,0.0521295,0.18984299999999998,-0.5170095,-0.4382255
65,0.0020459999999999923,0.688939,0.021133,-0.138164,0.49568900000000005,0.048726,-0.237844,0.699059,-0.015491000000000001,0.141474,0.49324900000000005,0.064622,0.260216,0.698929,0.025141999999999998,-0.26473399999999997,0.942049,-0.12238299999999999,0.310486,0.8965190000000001,-0.051678,-0.066954,-0.0034409999999999996,-0.008718,0.066954,0.0034409999999999996,0.008718,-0.042443999999999996,-0.373591,0.0036759999999999987,0.137911,-0.276951,-0.277973,0.017636,-0.6904509999999999,0.052174,0.187475,-0.511061,-0.441963
66,0.0023870000000000002,0.688645,0.021466000000000002,-0.137663,0.49577499999999997,0.049401,-0.236623,0.698995,-0.015399999999999997,0.142562,0.49292500000000006,0.064983,0.260747,0.698455,0.025699000000000003,-0.26155300000000004,0.935745,-0.12034399999999999,0.311087,0.896225,-0.051022,-0.066853,-0.003583999999999997,-0.00884,0.066853,0.003584000000000004,0.00884,-0.041402999999999995,-0.374685,0.0033050000000000024,0.13680599999999998,-0.27320500000000003,-0.280884,0.018786999999999998,-0.690905,0.052156,0.18536599999999998,-0.505225,-0.444794
67,0.0025784999999999975,0.6884899999999999,0.021723000000000003,-0.1372015,0.49600999999999995,0.05004,-0.23559149999999998,0.69887,-0.015224999999999995,0.1435245,0.49277000000000004,0.065279,0.26127849999999997,0.69816,0.026335,-0.25881149999999997,0.92914,-0.11829300000000001,0.31150849999999997,0.89594,-0.050396,-0.0668215,-0.003598999999999998,-0.008969999999999999,0.0668215,0.003599000000000005,0.008970000000000002,-0.040471499999999994,-0.37599,0.0028680000000000025,0.1355655,-0.26966,-0.283493,0.019748500000000002,-0.69145,0.052204,0.1833815,-0.5,-0.447343
68,0.0027609999999999996,0.688353,0.021963999999999997,-0.13680900000000001,0.496293,0.050526,-0.234639,0.698863,-0.015066000000000003,0.144368,0.492703,0.0655,0.261781,0.697923,0.027019999999999995,-0.256529,0.922363,-0.116175,0.311871,0.895763,-0.049753000000000006,-0.06684899999999999,-0.003570999999999998,-0.009122000000000005,0.06684899999999999,0.003570999999999998,0.009121999999999998,-0.039619000000000015,-0.37787699999999996,0.002473999999999997,0.13448,-0.266687,-0.286335,0.02129099999999999,-0.692527,0.052303999999999996,0.181561,-0.495197,-0.450825
69,0.0025260000000000005,0.6881649999999999,0.022032500000000003,-0.136834,0.49650500000000003,0.0509985,-0.23421399999999998,0.6988350000000001,-0.014989499999999996,0.144798,0.492635,0.06560250000000001,0.261806,0.697765,0.0275415,-0.255094,0.915405,-0.1139645,0.311736,0.895545,-0.049225500000000005,-0.067214,-0.0036259999999999973,-0.009362499999999996,0.067214,0.0036260000000000042,0.009362500000000003,-0.03925400000000001,-0.379815,0.0018855000000000018,0.133164,-0.26348499999999997,-0.28970450000000003,0.022375999999999993,-0.6936249999999999,0.0522715,0.179724,-0.490925,-0.45578450000000004
70,0.002290500000000001,0.6880735,0.022232500000000002,-0.13664950000000003,0.4966435,0.0515935,-0.2339095,0.6987735,-0.014737499999999994,0.14534249999999999,0.49253349999999996,0.0657065,0.2617105,0.6975935,0.027873500000000002,-0.25414950000000003,0.9083535,-0.1116125,0.3116005,0.8953735,-0.048673499999999995,-0.0675195,-0.0036875000000000033,-0.009579499999999998,0.0675195,0.0036874999999999963,0.009579500000000005,-0.03894950000000001,-0.3818265,0.001360500000000004,0.1323285,-0.2605765,-0.2930625,0.023440500000000003,-0.6946964999999999,0.052250500000000005,0.1783025,-0.4856265,-0.4608125
71,0.0019990000000000008,0.687954,0.022345999999999998,-0.13654099999999997,0.49672399999999994,0.052044999999999994,-0.23367099999999996,0.698724,-0.014603999999999999,0.145659,0.4924339999999999,0.065698,0.261539,0.697344,0.028036,-0.253921,0.901204,-0.109589,0.311479,0.895184,-0.048354999999999995,-0.067651,-0.0037369999999999973,-0.009711999999999998,0.067651,0.003737000000000004,0.009711999999999998,-0.03855099999999999,-0.38408600000000004,0.0008330000000000004,0.131685,-0.257646,-0.296739,0.024250000000000008,-0.695496,0.052062,0.177243,-0.480136,-0.466379
72,0.0017695000000000072,0.6879305,0.022489000000000002,-0.13645049999999997,0.4968205,0.052553,-0.23342049999999998,0.6986805,-0.014458999999999993,0.1462025,0.49237050000000004,0.06576000000000001,0.2613895,0.6971605,0.028179000000000003,-0.2536805,0.8998105000000001,-0.108924,0.3114495,0.8950405,-0.048076999999999995,-0.06777050000000001,-0.0037634999999999995,-0.009856999999999998,0.06777050000000001,0.003763500000000003,0.009857000000000005,-0.03796050000000001,-0.38635949999999997,0.0003850000000000034,0.1311575,-0.2541395,-0.30052399999999996,0.025085499999999997,-0.6961995,0.051953000000000006,0.1765835,-0.4739195,-0.471924
73,0.0016580000000000067,0.687948,0.022590500000000006,-0.13622199999999995,0.49690799999999996,0.0530095,-0.23321199999999997,0.698478,-0.014351499999999996,0.14678000000000002,0.492358,0.0658415,0.261328,0.6970780000000001,0.028281500000000005,-0.25345199999999996,0.898498,-0.10832050000000001,0.311538,0.895058,-0.047930499999999994,-0.067842,-0.0037750000000000006,-0.0099625,0.06784200000000001,0.0037750000000000006,0.009962500000000003,-0.03743199999999998,-0.387002,-7.249999999999618e-05,0.13101300000000002,-0.250262,-0.3048105,0.025866000000000014,-0.696782,0.0518845,0.17646,-0.466692,-0.47828050000000005
74,0.0014909999999999923,0.6879575,0.022658500000000005,-0.136089,0.49698749999999997,0.0533705,-0.23315900000000003,0.6983075000000001,-0.014251499999999993,0.14726499999999998,0.49238750000000003,0.06591250000000001,0.261351,0.6970975,0.028423500000000004,-0.253949,0.8972075,-0.10782149999999999,0.311641,0.8951375,-0.04783049999999999,-0.067939,-0.0037465,-0.010059499999999999,0.067939,0.0037465,0.010059500000000002,-0.036909,-0.38756250000000003,-0.00031849999999999934,0.131101,-0.24630249999999998,-0.3092615,0.02659099999999999,-0.6973125,0.051812500000000004,0.176535,-0.4593125,-0.48517150000000003
75,0.0011115000000000014,0.687913,0.022768499999999997,-0.13621849999999996,0.497013,0.0535605,-0.23342849999999998,0.698323,-0.014127500000000001,0.1474485,0.492393,0.0658825,0.26114149999999997,0.6968829999999999,0.0287785,-0.2547485,0.8962730000000001,-0.10751349999999998,0.3115115,0.8951629999999999,-0.0477955,-0.06806849999999999,-0.0037940000000000022,-0.010154500000000004,0.0680685,0.0037939999999999988,0.0101545,-0.036638500000000004,-0.388057,-0.000508500000000002,0.1309925,-0.241947,-0.3137335,0.027070499999999997,-0.697857,0.0516335,0.1761055,-0.452237,-0.49273350000000005
76,0.0006829999999999892,0.6878705,0.023007,-0.136417,0.4970005,0.053821,-0.233827,0.6981705,-0.013933999999999995,0.147553,0.49238049999999994,0.06592100000000001,0.26086299999999996,0.6966005000000001,0.029225,-0.255657,0.8957205,-0.107206,0.311283,0.8951605,-0.047628000000000004,-0.068297,-0.003838499999999998,-0.010223999999999997,0.068297,0.0038385000000000016,0.010224,-0.03648700000000002,-0.3878595,-0.0006050000000000014,0.13078499999999998,-0.23744949999999998,-0.318276,0.027288999999999994,-0.6982295,0.05157200000000001,0.175694,-0.44515950000000004,-0.500336
77,0.0001714999999999911,0.6878155,0.023178999999999998,-0.1367285,0.49682550000000003,0.053992,-0.23433850000000003,0.6981455,-0.014010000000000002,0.1474925,0.49235549999999995,0.065893,0.2605415,0.6963055,0.029656999999999996,-0.25667850000000003,0.8955055,-0.107281,0.3109615,0.8951955,-0.047499,-0.0686185,-0.0039165,-0.010359,0.0686185,0.003916499999999996,0.010358999999999997,-0.036348500000000006,-0.38823450000000004,-0.0008490000000000025,0.1304815,-0.23186449999999997,-0.322361,0.027245499999999992,-0.6984045,0.051458,0.17522549999999998,-0.4372045,-0.507251
78,-0.0004289999999999988,0.687821,0.023331499999999998,-0.13710899999999998,0.496651,0.054072499999999996,-0.23511900000000002,0.6976610000000001,-0.0138495,0.147318,0.49237099999999995,0.0658705,0.260031,0.6960810000000001,0.030074499999999997,-0.257849,0.8951610000000001,-0.1073015,0.310541,0.894761,-0.04732050000000001,-0.069039,-0.004063000000000001,-0.010489499999999999,0.069039,0.004063000000000004,0.010489499999999999,-0.03641899999999999,-0.38821900000000004,-0.0011315000000000006,0.130267,-0.226489,-0.3260515,0.026962,-0.698519,0.0513285,0.17511500000000002,-0.429109,-0.5140615000000001
79,-0.0010450000000000043,0.6877455,0.023467500000000002,-0.137615,0.4965155,0.0541255,-0.23591499999999999,0.6971255000000001,-0.013725500000000002,0.147005,0.4923455,0.0659035,0.259425,0.6958655,0.0303665,-0.259025,0.8947955000000001,-0.10740250000000001,0.310045,0.8947155,-0.0471315,-0.069505,-0.004199499999999998,-0.010609500000000001,0.06950499999999998,0.004199500000000002,0.010609500000000001,-0.03654500000000001,-0.3882445,-0.0014214999999999992,0.130181,-0.2210145,-0.3298925,0.026658999999999988,-0.6985644999999999,0.051152500000000004,0.174703,-0.4220545,-0.5198325
80,-0.0016625000000000112,0.6877255,0.023587500000000004,-0.1381025,0.49632550000000003,0.0542675,-0.2366325,0.6966755,-0.0136685,0.1466545,0.49231549999999996,0.0660005,0.2588475,0.6956555,0.030589500000000002,-0.2602525,0.8943954999999999,-0.1075195,0.30969749999999996,0.8945955000000001,-0.04701849999999999,-0.0699525,-0.004356499999999999,-0.010715499999999996,0.06995249999999999,0.004356499999999999,0.010715500000000003,-0.036662500000000015,-0.3882745,-0.0017684999999999992,0.1301345,-0.2153645,-0.33358950000000004,0.02630549999999998,-0.6985945,0.0509425,0.17428549999999998,-0.4149345,-0.5252895
81,-0.0025864999999999916,0.6874545,0.023741000000000005,-0.13880649999999997,0.49588449999999995,0.054499000000000006,-0.23761649999999998,0.6957345,-0.013560999999999997,0.1460285,0.49205449999999995,0.066126,0.25805350000000005,0.6952545,0.030758000000000004,-0.26173650000000004,0.8936745,-0.10763799999999998,0.3093235,0.8940845,-0.047077999999999995,-0.07038649999999999,-0.004653499999999998,-0.010778999999999997,0.0703865,0.004653500000000005,0.010779000000000004,-0.03704649999999998,-0.3880055,-0.002333999999999996,0.1299015,-0.20908549999999998,-0.33759799999999995,0.02562650000000001,-0.6988555,0.05068500000000001,0.1736625,-0.4059755,-0.532158
82,-0.0036559999999999926,0.6871125,0.0238315,-0.13975600000000002,0.4954525,0.0547365,-0.23868599999999998,0.6946625000000001,-0.013448500000000002,0.145273,0.49171249999999994,0.0662155,0.257204,0.6947725,0.0309445,-0.26332599999999995,0.8928725000000001,-0.1078245,0.308954,0.8929925000000001,-0.047190499999999996,-0.070826,-0.0050025,-0.010806500000000004,0.070826,0.0050025,0.0108065,-0.03756599999999999,-0.38764750000000003,-0.002972500000000003,0.129281,-0.2026875,-0.3415145,0.024827000000000002,-0.6991674999999999,0.0502205,0.172876,-0.3974575,-0.5384045000000001
83,-0.004795999999999995,0.686802,0.023913999999999998,-0.140796,0.495022,0.05498,-0.23985599999999999,0.6934220000000001,-0.013254000000000002,0.144371,0.49140199999999995,0.066242,0.256324,0.694382,0.031047999999999996,-0.26491600000000004,0.8921020000000001,-0.108128,0.308484,0.892082,-0.04730100000000001,-0.07125599999999999,-0.005321000000000003,-0.010853000000000002,0.071256,0.005320999999999999,0.010852999999999998,-0.038166000000000005,-0.387208,-0.0036880000000000038,0.128378,-0.19617800000000002,-0.345448,0.023901000000000006,-0.699368,0.049752,0.17200300000000002,-0.388918,-0.544498
84,-0.005688999999999986,0.6865375,0.024141000000000003,-0.14168899999999995,0.4947575,0.055184000000000004,-0.24088899999999996,0.6922575000000001,-0.012930999999999998,0.143622,0.4912275,0.066388,0.25583100000000003,0.6940275,0.031101000000000004,-0.26629899999999995,0.8914475000000001,-0.10836599999999999,0.308461,0.8909975,-0.047284,-0.071479,-0.005515500000000003,-0.01081,0.07147900000000001,0.0055155,0.010810000000000004,-0.038399,-0.38667250000000003,-0.004343,0.127806,-0.1885425,-0.349536,0.023057000000000008,-0.6994425,0.049423,0.17127900000000001,-0.37975250000000005,-0.550106
85,-0.0066960000000000075,0.6861919999999999,0.024370499999999996,-0.14283600000000002,0.494422,0.05541549999999999,-0.24208600000000002,0.691192,-0.012731500000000007,0.14266399999999999,0.491002,0.0664905,0.255154,0.6936720000000001,0.031174499999999997,-0.267756,0.8908419999999999,-0.10870750000000001,0.308304,0.8897919999999999,-0.04736350000000001,-0.071746,-0.005715999999999999,-0.010734500000000001,0.07174599999999999,0.005716000000000006,0.010734499999999998,-0.038666000000000006,-0.386118,-0.0050695000000000046,0.126598,-0.180648,-0.3536475,0.022002999999999995,-0.699508,0.0490225,0.170147,-0.370668,-0.5554175
86,-0.0077015,0.6857905000000001,0.0246345,-0.14397149999999997,0.4941305,0.0556695,-0.2433515,0.6901205,-0.012507499999999998,0.1415605,0.49067049999999995,0.06658449999999999,0.25439849999999997,0.6932505,0.0312515,-0.2692415,0.8902405,-0.1090855,0.3081685,0.8884805,-0.047331500000000006,-0.0721215,-0.005927499999999999,-0.010637500000000001,0.0721215,0.005927500000000002,0.010637500000000001,-0.039001499999999995,-0.3855195,-0.0057415000000000035,0.1252495,-0.1733695,-0.3575455,0.0208165,-0.6995195,0.0486225,0.1688155,-0.3624695,-0.5603855000000001
87,-0.008673,0.6853175,0.024967,-0.14484299999999997,0.49373749999999994,0.055967,-0.244623,0.6891275,-0.012253,0.140449,0.4903075,0.06673799999999999,0.253707,0.6928075,0.031396,-0.270703,0.8895974999999999,-0.109215,0.30812700000000004,0.8869874999999999,-0.047245,-0.072493,-0.006149500000000002,-0.010465000000000002,0.072493,0.006149500000000002,0.010464999999999999,-0.03928300000000001,-0.38494249999999997,-0.0063590000000000035,0.12389800000000001,-0.1660225,-0.361865,0.019585000000000005,-0.6994825,0.048309,0.167268,-0.35896249999999996,-0.5604650000000001
88,-0.009381500000000001,0.68484,0.025486500000000002,-0.14574149999999997,0.49348000000000003,0.0563615,-0.2458015,0.68825,-0.0116625,0.1393125,0.48989000000000005,0.0670565,0.2532285,0.69204,0.0316135,-0.27218149999999997,0.8891,-0.10919649999999999,0.3083685,0.88537,-0.0471115,-0.07283150000000001,-0.0062970000000000005,-0.010217499999999997,0.07283150000000001,0.006296999999999997,0.010217500000000004,-0.039421499999999984,-0.38412999999999997,-0.006909499999999999,0.1224375,-0.15996,-0.3655365,0.01814750000000001,-0.69934,0.0480125,0.1655325,-0.35631999999999997,-0.5603565
89,-0.009987499999999996,0.684265,0.026049000000000003,-0.14628750000000001,0.49300499999999997,0.05677,-0.2469175,0.687345,-0.011037999999999992,0.1382195,0.48932500000000007,0.06736800000000001,0.2528525,0.6911649999999999,0.031831000000000005,-0.2735775,0.888635,-0.10908399999999999,0.3086225,0.883385,-0.046918,-0.07317749999999999,-0.006451999999999999,-0.009911999999999997,0.0731775,0.006451999999999999,0.009912000000000004,-0.039637500000000006,-0.38337499999999997,-0.007387999999999999,0.1210015,-0.155115,-0.36887400000000004,0.016786499999999996,-0.699345,0.047764,0.16385349999999999,-0.355525,-0.5602440000000001
90,-0.009964,0.6838194999999999,0.0267325,-0.146374,0.4929195,0.057258500000000004,-0.24726399999999998,0.6869595,-0.010341500000000003,0.137699,0.4888995,0.0677075,0.253126,0.6905994999999999,0.0320905,-0.27439399999999997,0.8884694999999999,-0.10893649999999999,0.309346,0.8824995,-0.0466925,-0.073344,-0.0064624999999999995,-0.009531499999999998,0.07334399999999999,0.006462500000000003,0.009531499999999998,-0.03944399999999999,-0.3828405,-0.007617499999999999,0.11979000000000001,-0.1523305,-0.3713865,0.016028,-0.6992305000000001,0.0476155,0.16209099999999999,-0.35553049999999997,-0.5600965
91,-0.009697500000000012,0.6833994999999999,0.0274705,-0.1463175,0.49290950000000006,0.057762499999999994,-0.2475075,0.6868194999999999,-0.009615499999999999,0.1373435,0.48846950000000006,0.0681065,0.2537525,0.6901295,0.0324005,-0.2750375,0.8883694999999999,-0.10872849999999999,0.31052250000000003,0.8816795,-0.0464005,-0.0734975,-0.0064635000000000005,-0.009148500000000004,0.0734975,0.006463499999999997,0.0091485,-0.03915750000000001,-0.38256049999999997,-0.007705500000000004,0.1184855,-0.1509405,-0.3732085,0.015425499999999995,-0.6991305,0.0476555,0.16007849999999998,-0.35553049999999997,-0.5596685
92,-0.009203000000000003,0.6829540000000001,0.028364000000000004,-0.146013,0.492774,0.058348000000000004,-0.24766300000000002,0.686824,-0.008750999999999995,0.137149,0.48805399999999993,0.06857100000000001,0.254577,0.689644,0.032821,-0.275473,0.888344,-0.10820999999999999,0.311947,0.8810340000000001,-0.046026,-0.07363299999999999,-0.0064680000000000015,-0.008599999999999997,0.073633,0.006467999999999995,0.008600000000000003,-0.038883000000000015,-0.382496,-0.0076869999999999925,0.117143,-0.150346,-0.37451,0.014903,-0.699066,0.047808,0.15794999999999998,-0.355526,-0.5579599999999999
93,-0.008652499999999994,0.6826720000000001,0.029305,-0.1456025,0.49259200000000003,0.059026,-0.24772249999999998,0.686902,-0.007720999999999999,0.1370715,0.48775199999999996,0.069069,0.2555375,0.689392,0.033234,-0.27582249999999997,0.888382,-0.10750599999999999,0.3132775,0.880542,-0.045727,-0.0738325,-0.006424000000000003,-0.007963999999999999,0.0738325,0.006423999999999999,0.007964000000000002,-0.03893250000000001,-0.38240799999999997,-0.0073620000000000005,0.1157185,-0.150258,-0.374996,0.014507500000000007,-0.698948,0.048019000000000006,0.1556195,-0.360408,-0.549746
94,-0.007724999999999996,0.6824975000000001,0.030195499999999997,-0.14481499999999997,0.49252749999999995,0.0597365,-0.24740499999999999,0.6870475,-0.0066265000000000004,0.13742100000000002,0.4876375,0.0695775,0.256915,0.6890275,0.0337265,-0.275735,0.8884675000000001,-0.10674249999999999,0.315005,0.8799975,-0.045385499999999995,-0.073835,-0.006357499999999999,-0.007348500000000001,0.073835,0.006357500000000002,0.007348499999999997,-0.03882500000000001,-0.3822625,-0.006997500000000004,0.114786,-0.1501125,-0.37518250000000003,0.014553999999999997,-0.6988025,0.0483325,0.153836,-0.3662425,-0.5409825
95,-0.006877000000000008,0.6823790000000001,0.0310665,-0.144167,0.49250900000000003,0.060452500000000006,-0.24712699999999999,0.687189,-0.005491499999999996,0.137782,0.487569,0.07009850000000001,0.258233,0.6887589999999999,0.0342455,-0.275657,0.888609,-0.1057815,0.316653,0.8800889999999999,-0.0451995,-0.073837,-0.006295000000000002,-0.0067424999999999985,0.073837,0.006294999999999995,0.006742500000000002,-0.038827000000000014,-0.382121,-0.0066265000000000004,0.113929,-0.14997100000000002,-0.3752915,0.014624999999999999,-0.6987909999999999,0.0487765,0.151971,-0.373091,-0.5316215
96,-0.006048999999999999,0.682345,0.031858,-0.143779,0.492595,0.061068,-0.246819,0.687285,-0.004386000000000001,0.138144,0.487545,0.070518,0.259531,0.688515,0.034688,-0.275629,0.888785,-0.10469999999999999,0.318141,0.879885,-0.044923,-0.073839,-0.006214999999999998,-0.006225000000000001,0.07383899999999999,0.006214999999999998,0.006224999999999998,-0.038819000000000006,-0.383065,-0.006270999999999999,0.113302,-0.151215,-0.37515000000000004,0.014690999999999996,-0.6986249999999999,0.049038,0.149887,-0.381905,-0.5216299999999999
97,-0.0053995000000000015,0.682566,0.032713500000000006,-0.1434095,0.49284599999999995,0.06169050000000001,-0.2465495,0.6875960000000001,-0.0033414999999999973,0.1385585,0.48782600000000004,0.0708745,0.2606405,0.6885960000000001,0.035118500000000004,-0.2755495,0.889216,-0.10340250000000001,0.3194405,0.879826,-0.044537499999999994,-0.0738695,-0.005966999999999997,-0.005657499999999996,0.0738695,0.005967,0.005657500000000003,-0.03857949999999999,-0.383874,-0.0058474999999999985,0.1129925,-0.153654,-0.3748325,0.014813500000000007,-0.698294,0.049356500000000005,0.1475495,-0.392274,-0.5102025
98,-0.004790500000000003,0.6827924999999999,0.033576,-0.14322049999999997,0.4931425,0.062223,-0.24625049999999998,0.6878925,-0.0021589999999999943,0.1390135,0.48812249999999996,0.071242,0.2616795,0.6886524999999999,0.035550000000000005,-0.27543049999999997,0.8896824999999999,-0.10195499999999999,0.32069949999999997,0.8797524999999999,-0.043989,-0.0739005,-0.005728500000000004,-0.0051189999999999986,0.0739005,0.0057284999999999975,0.005119000000000002,-0.03820050000000001,-0.3847275,-0.005357999999999995,0.1128235,-0.1568675,-0.37451500000000004,0.014983499999999997,-0.6978074999999999,0.049710000000000004,0.1452905,-0.4032875,-0.49863500000000005
99,-0.0038709999999999856,0.6829784999999999,0.0343375,-0.14268099999999997,0.49341850000000004,0.0627115,-0.24553099999999997,0.6881584999999999,-0.0009115000000000026,0.139797,0.4883785,0.0716195,0.262979,0.6886885,0.0359905,-0.27495099999999995,0.8902384999999999,-0.10058149999999999,0.322249,0.8800385,-0.0436605,-0.073711,-0.005461499999999998,-0.004757499999999998,0.07371100000000001,0.005461500000000001,0.004757500000000001,-0.03757099999999999,-0.3855715,-0.004798499999999997,0.11316500000000002,-0.1607115,-0.3736015,0.015569000000000013,-0.6973615,0.0501275,0.144565,-0.4111715,-0.48966149999999997
100,-0.0026994999999999936,0.6832945,0.0347865,-0.1418895,0.4937845,0.0628765,-0.24454949999999998,0.6885245,0.00013450000000000267,0.1408845,0.4887145,0.0717295,0.2643705,0.6889945000000001,0.0361055,-0.27423949999999997,0.8908745,-0.0994585,0.32355049999999996,0.8801545000000001,-0.043611500000000004,-0.0734695,-0.0051094999999999995,-0.004621500000000001,0.0734695,0.005109500000000003,0.004621500000000001,-0.036819500000000005,-0.3856155,-0.004709499999999998,0.11380950000000001,-0.1638955,-0.37278849999999997,0.016421500000000006,-0.6971455,0.050349500000000005,0.1444025,-0.4183655,-0.4805285
101,-0.0016074999999999978,0.683581,0.035102,-0.1411675,0.494201,0.062927,-0.24353750000000002,0.688811,0.001010000000000004,0.1419445,0.489001,0.07177800000000001,0.2656825,0.689301,0.036129,-0.2735075,0.891401,-0.09847699999999998,0.3247325,0.880551,-0.043751000000000005,-0.0730875,-0.004810999999999996,-0.004588000000000002,0.0730875,0.004811000000000003,0.004588000000000002,-0.03604750000000001,-0.386609,-0.004429000000000002,0.11433549999999999,-0.166739,-0.372147,0.0173175,-0.6968489999999999,0.050508,0.1445235,-0.424709,-0.4722370000000001
102,-0.00048599999999998644,0.6838985,0.0354005,-0.140366,0.4945885,0.06295150000000001,-0.242516,0.6890784999999999,0.0018145000000000036,0.14300800000000002,0.4893685,0.0718545,0.266784,0.6897785,0.03614850000000001,-0.272786,0.8918484999999999,-0.0977035,0.32581400000000005,0.8809985,-0.0438145,-0.072686,-0.004435500000000002,-0.004585499999999999,0.072686,0.004435499999999995,0.004585500000000003,-0.035246,-0.38750150000000005,-0.004027499999999996,0.114876,-0.1688615,-0.37147349999999996,0.018500000000000003,-0.6913315,0.05122750000000001,0.144644,-0.42807150000000005,-0.4678535
103,0.0007174999999999959,0.6842735,0.035736500000000004,-0.13949250000000002,0.4950335,0.0629865,-0.2414325,0.6893735,0.0025874999999999995,0.1441225,0.4897935,0.07193350000000001,0.26796749999999997,0.6903535,0.0361405,-0.2719925,0.8923235,-0.09691949999999999,0.32691749999999997,0.8816435,-0.0439365,-0.0722125,-0.0040414999999999965,-0.004583499999999997,0.07221249999999999,0.004041500000000003,0.004583500000000001,-0.03432250000000002,-0.3882965,-0.0036064999999999986,0.1155215,-0.1704065,-0.3706695,0.019789499999999988,-0.6857665,0.0518645,0.1448335,-0.4311465,-0.4630795
104,0.002080499999999999,0.68468,0.0360585,-0.13851950000000002,0.49548000000000003,0.0629885,-0.24027950000000003,0.68981,0.0033595000000000014,0.14536349999999998,0.49023000000000005,0.0720035,0.2693005,0.69084,0.0361145,-0.2711595,0.89284,-0.09630749999999999,0.3280505,0.88218,-0.0440475,-0.0716595,-0.003672999999999999,-0.004654499999999999,0.07165949999999999,0.0036730000000000027,0.004654500000000002,-0.033309500000000006,-0.38904,-0.0031774999999999998,0.1163905,-0.17195,-0.3695875,0.021233500000000002,-0.68018,0.0523995,0.1447755,-0.43438,-0.4570075
105,0.003543499999999991,0.6850355,0.0363085,-0.13740650000000001,0.49588550000000003,0.0629225,-0.2390665,0.6900855,0.004002500000000003,0.1466855,0.49058549999999995,0.07198950000000001,0.2706435,0.6911855,0.036049500000000005,-0.27026649999999997,0.8933455,-0.09579449999999999,0.3292135,0.8825655,-0.0442275,-0.0709765,-0.003340500000000003,-0.004791499999999997,0.0709765,0.0033404999999999963,0.004791500000000004,-0.03222650000000002,-0.3896045,-0.002850499999999999,0.1173085,-0.17335450000000002,-0.36839449999999996,0.022784499999999985,-0.6746645,0.0526345,0.14478449999999998,-0.4374845,-0.4507445
106,0.004572500000000007,0.6851845,0.036402000000000004,-0.1366675,0.49605449999999995,0.062839,-0.23822749999999998,0.6900445,0.004527,0.1476025,0.4907245,0.071954,0.27165249999999996,0.6913345,0.035954,-0.2697175,0.8935345,-0.09538600000000001,0.32989250000000003,0.8827645,-0.04442499999999999,-0.07052749999999999,-0.003256499999999999,-0.004941000000000001,0.07052749999999999,0.0032565000000000024,0.004941000000000001,-0.03144749999999999,-0.38953550000000003,-0.0027319999999999983,0.1176715,-0.17451550000000002,-0.367106,0.0239245,-0.6745755,0.052565,0.14464950000000001,-0.4406755,-0.44562599999999997
107,0.0057274999999999965,0.685369,0.036379999999999996,-0.13579249999999998,0.496229,0.062709,-0.2372825,0.6900689999999999,0.004865999999999995,0.14861749999999999,0.490879,0.071825,0.2727675,0.691539,0.035805,-0.2690625,0.893759,-0.09514600000000001,0.3306875,0.883089,-0.044687000000000004,-0.06997249999999999,-0.0031400000000000004,-0.005101000000000001,0.06997249999999999,0.003140000000000004,0.005100999999999994,-0.030512499999999998,-0.389391,-0.002727000000000007,0.1181295,-0.17573100000000003,-0.365876,0.025168499999999996,-0.6691010000000001,0.052613999999999994,0.1446305,-0.443951,-0.440576
108,0.006485500000000005,0.6854374999999999,0.036324499999999996,-0.1352245,0.4962875,0.0625505,-0.23684449999999999,0.6899075,0.005094499999999998,0.1492205,0.4908975,0.0716675,0.27353550000000004,0.6915375,0.0356485,-0.26879449999999994,0.8938375,-0.09494450000000001,0.3310755,0.8831275,-0.0450255,-0.0697245,-0.0031195000000000007,-0.0052864999999999995,0.06972450000000001,0.0031194999999999973,0.005286499999999996,-0.0297645,-0.38934250000000004,-0.002746500000000006,0.11804650000000001,-0.1770425,-0.36463450000000003,0.026004500000000014,-0.6638325,0.0524575,0.1441375,-0.44723250000000003,-0.4355145
109,0.007092500000000002,0.6854775000000001,0.036166,-0.1347975,0.49633749999999993,0.062252,-0.2365475,0.6897775,0.005202999999999999,0.1496655,0.4909275,0.071359,0.2742025,0.6918075,0.035265,-0.26861749999999995,0.8939075000000001,-0.09466000000000001,0.3313225,0.8832075,-0.045517,-0.0695575,-0.003129499999999997,-0.005606,0.06955750000000001,0.0031295000000000003,0.005606,-0.029247499999999982,-0.3892725,-0.003041000000000002,0.1177315,-0.17822249999999998,-0.36365000000000003,0.02679050000000001,-0.6638225,0.052164,0.1434915,-0.4501625,-0.43113
110,0.007520499999999999,0.6853825,0.035955,-0.1345495,0.4962525,0.061927,-0.23642950000000001,0.6895325,0.005274000000000001,0.1499465,0.4907625,0.071015,0.2747005,0.6918825000000001,0.034796,-0.26863950000000003,0.8938125,-0.094441,0.3313805,0.8828925,-0.045872,-0.0694695,-0.0032674999999999996,-0.005937999999999999,0.0694695,0.0032674999999999996,0.005938000000000002,-0.028969499999999995,-0.38935749999999997,-0.0032149999999999956,0.1171785,-0.1792775,-0.36280100000000004,0.02772150000000001,-0.6587375,0.051854,0.1426745,-0.4524775,-0.426721
111,0.007932499999999995,0.6853125,0.035813,-0.13428750000000003,0.49619250000000004,0.061669,-0.2362675,0.6893225,0.005474,0.1502605,0.49062249999999996,0.070746,0.2752225,0.6919825,0.034339,-0.26864750000000004,0.8937025,-0.09415299999999999,0.3314625,0.8826525,-0.046345000000000004,-0.0693675,-0.0033605000000000024,-0.006227000000000003,0.0693675,0.0033605000000000024,0.006227,-0.028657500000000002,-0.38936750000000003,-0.003283000000000001,0.11658049999999999,-0.17981750000000002,-0.362263,0.02839649999999999,-0.6536375,0.051503,0.1417925,-0.4540775,-0.422763
112,0.008212999999999998,0.685374,0.0357735,-0.134137,0.496244,0.061594499999999996,-0.23617700000000003,0.689204,0.005827499999999999,0.150473,0.490614,0.0706185,0.275593,0.692044,0.0340315,-0.268737,0.893694,-0.0936805,0.331463,0.882584,-0.0468395,-0.069367,-0.0033620000000000004,-0.006375499999999999,0.06936699999999998,0.003361999999999997,0.006375499999999999,-0.02838700000000001,-0.389226,-0.0033784999999999996,0.115935,-0.179846,-0.3621105,0.02881099999999999,-0.653706,0.051297499999999996,0.140865,-0.454776,-0.41921050000000004
113,0.008453499999999989,0.6854475,0.035835,-0.13394650000000002,0.4962275,0.061557,-0.2360965,0.6891275,0.006237999999999997,0.1506445,0.49060750000000003,0.07055,0.27583349999999995,0.6920175,0.033804999999999995,-0.2688665,0.8942975,-0.093173,0.3313935,0.8825575,-0.047275,-0.0693665,-0.0033415000000000007,-0.006442000000000003,0.0693665,0.0033414999999999973,0.006441999999999996,-0.0281565,-0.3884625,-0.0037640000000000035,0.11548349999999999,-0.17987250000000002,-0.362133,0.029065499999999994,-0.6598025000000001,0.050689,0.1403535,-0.4548025,-0.416973
114,0.008503499999999997,0.6853425000000001,0.0359275,-0.1339365,0.4960625,0.061469499999999996,-0.2361665,0.6889625,0.006610500000000002,0.1506325,0.49046249999999997,0.0704645,0.27591350000000003,0.6918425,0.0335445,-0.2691365,0.8947325,-0.0927415,0.33113349999999997,0.8822025,-0.047585499999999996,-0.06946650000000001,-0.0035125000000000017,-0.006474500000000001,0.0694665,0.003512499999999995,0.006474500000000001,-0.028086500000000014,-0.3878875,-0.004171500000000002,0.1150005,-0.18004750000000003,-0.3621915,0.028955499999999995,-0.6658575,0.0502055,0.13976349999999998,-0.45497750000000003,-0.4150015
115,0.008593000000000003,0.685169,0.036029,-0.133917,0.495889,0.061395,-0.236217,0.688829,0.007038999999999997,0.150701,0.490329,0.070425,0.275893,0.691669,0.033379,-0.26930699999999996,0.895069,-0.092289,0.331053,0.882029,-0.047942,-0.069537,-0.0036830000000000022,-0.006532000000000003,0.06953699999999999,0.0036829999999999988,0.006532,-0.027837000000000015,-0.38810100000000003,-0.004185000000000001,0.114632,-0.18008100000000002,-0.36222899999999997,0.029287999999999995,-0.666811,0.050624999999999996,0.139224,-0.45515100000000003,-0.413099
116,0.0087285,0.6849955,0.036103500000000004,-0.1338415,0.49574550000000006,0.06131350000000001,-0.2362415,0.6887555000000001,0.007453500000000005,0.1508175,0.4901755,0.0703385,0.2758785,0.6913955,0.03326250000000001,-0.2693915,0.8953755,-0.09174149999999998,0.3310185,0.8816655,-0.0481595,-0.0696015,-0.0038004999999999983,-0.006576499999999999,0.0696015,0.0038004999999999983,0.0065765000000000025,-0.027551499999999993,-0.38750450000000003,-0.004513499999999997,0.1142035,-0.1787945,-0.3626315,0.029184500000000002,-0.6724045,0.05015850000000001,0.1391215,-0.4547645,-0.4114315
117,0.008458000000000007,0.684735,0.0361995,-0.134262,0.495495,0.061283500000000005,-0.23664200000000002,0.688565,0.007825500000000003,0.15052000000000001,0.48987500000000006,0.0702865,0.275388,0.690985,0.0331995,-0.269882,0.895635,-0.09127450000000001,0.330608,0.881215,-0.0482015,-0.069932,-0.004015000000000001,-0.006618499999999999,0.06993200000000001,0.004014999999999998,0.006618500000000003,-0.027711999999999987,-0.387085,-0.004812499999999997,0.113404,-0.17724499999999999,-0.3626045,0.02869200000000001,-0.6780849999999999,0.0497195,0.138544,-0.453625,-0.4105645
118,0.008036500000000002,0.6844009999999999,0.036336,-0.1348535,0.49522099999999997,0.061274999999999996,-0.23724350000000002,0.688321,0.008124000000000003,0.1500885,0.489501,0.07027900000000001,0.27478650000000004,0.6901309999999999,0.033191,-0.27046349999999997,0.895901,-0.090913,0.33011650000000003,0.880281,-0.04821,-0.07030349999999999,-0.0042689999999999985,-0.006626,0.0703035,0.004269000000000002,0.006626,-0.028023500000000007,-0.38670899999999997,-0.005013999999999998,0.1123045,-0.174779,-0.363383,0.028090500000000004,-0.683539,0.049578,0.1379385,-0.450919,-0.40958300000000003
119,0.007749500000000006,0.6840465,0.0364195,-0.1352205,0.49494650000000007,0.0612105,-0.23769050000000003,0.6879665,0.008358499999999998,0.1497685,0.4890865,0.07019449999999999,0.2743395,0.6892865,0.033126499999999996,-0.2708805,0.8961365,-0.0905675,0.3297895,0.8794265,-0.048273500000000004,-0.07058049999999999,-0.004475499999999997,-0.006679499999999998,0.07058049999999999,0.0044755,0.006679499999999998,-0.028170499999999987,-0.38629349999999996,-0.005323500000000002,0.11136650000000001,-0.1719535,-0.3644275,0.027551500000000007,-0.6889934999999999,0.0494295,0.1374855,-0.44743350000000004,-0.4083675
120,0.007447000000000009,0.6836829999999999,0.0363695,-0.135563,0.49458300000000005,0.0610705,-0.23811300000000002,0.687603,0.008402499999999997,0.14943800000000002,0.488693,0.06999949999999999,0.273917,0.688403,0.032930499999999994,-0.271223,0.896473,-0.09031349999999999,0.32944700000000005,0.878543,-0.0484255,-0.070933,-0.004702000000000001,-0.006731500000000001,0.07093300000000001,0.004701999999999998,0.006731499999999998,-0.028402999999999984,-0.38586699999999996,-0.0056285000000000016,0.11044500000000002,-0.169087,-0.3654235,0.026910000000000003,-0.6943870000000001,0.0491805,0.137179,-0.443787,-0.4073435
121,0.007155500000000009,0.6833125,0.036234499999999996,-0.1358845,0.49428249999999996,0.0609285,-0.23858449999999998,0.6878825,0.008338499999999995,0.1491665,0.4883025,0.0697065,0.2734855,0.6874425,0.03268649999999999,-0.2715645,0.8969025,-0.09008950000000002,0.32920550000000004,0.8776325,-0.04848750000000001,-0.0712845,-0.004903500000000002,-0.0067445000000000005,0.0712845,0.004903499999999998,0.006744499999999997,-0.028734499999999996,-0.38547750000000003,-0.006003500000000002,0.1095685,-0.1663075,-0.3660695,0.026396500000000003,-0.6936975,0.0490035,0.1368375,-0.4403275,-0.4062595
122,0.006838499999999997,0.6829395,0.03605849999999999,-0.1361615,0.49403949999999996,0.0607705,-0.23905149999999997,0.6881395,0.008296499999999998,0.1488755,0.48791950000000006,0.0694475,0.2730285,0.6864695,0.0325935,-0.2718815,0.8971395,-0.0898755,0.3289385,0.8767595,-0.0484725,-0.0716315,-0.005129500000000002,-0.006710500000000001,0.0716315,0.005129499999999995,0.006710499999999998,-0.029081499999999996,-0.3851505,-0.0062985000000000055,0.1085965,-0.1631105,-0.3663955,0.025419499999999998,-0.6990305,0.0486565,0.1366555,-0.4369205,-0.4050255
123,0.006495999999999988,0.6826000000000001,0.0358025,-0.136404,0.49379,0.0605975,-0.239614,0.6886000000000001,0.008236499999999997,0.14857399999999998,0.48752,0.0691575,0.272556,0.6855600000000001,0.0325115,-0.272174,0.89744,-0.0896555,0.328616,0.87592,-0.048281500000000005,-0.07198399999999999,-0.0053440000000000015,-0.006724500000000001,0.07198399999999999,0.0053440000000000015,0.006724499999999998,-0.029424000000000006,-0.38544,-0.006593500000000002,0.107371,-0.1596,-0.3667655,0.02442499999999999,-0.69934,0.0483505,0.136599,-0.43399,-0.40347550000000004
124,0.006081500000000004,0.6822795,0.035470999999999996,-0.1367085,0.49357949999999995,0.060330999999999996,-0.24024849999999998,0.6890995,0.008142999999999997,0.1481695,0.4871495,0.068754,0.2719615,0.6847295,0.032535,-0.27254849999999997,0.8976895,-0.089409,0.3282015,0.8751895,-0.047910999999999995,-0.07224850000000001,-0.0055295,-0.0066949999999999996,0.07224850000000001,0.0055295,0.0066949999999999996,-0.029858499999999996,-0.3857705,-0.0064610000000000015,0.10572050000000001,-0.1531705,-0.367209,0.0233535,-0.6985205,0.048053,0.13654850000000002,-0.4309505,-0.401119
125,0.006087499999999996,0.6820265000000001,0.035058,-0.1366725,0.4934065,0.059994,-0.24049250000000003,0.6896165000000001,0.008036999999999999,0.1481745,0.4868065,0.068272,0.2717675,0.6840465,0.032527,-0.2724725,0.8974265,-0.08918799999999999,0.3281175,0.8746265000000001,-0.047507,-0.0722525,-0.005691499999999999,-0.006631999999999999,0.0722525,0.005691500000000002,0.006631999999999999,-0.0299025,-0.3859435,-0.006981000000000001,0.1046685,-0.1477635,-0.367408,0.022820499999999994,-0.6987734999999999,0.047771,0.1369105,-0.4280835,-0.398528
126,0.006108500000000003,0.6817935,0.0346645,-0.13663150000000002,0.4932835,0.0596695,-0.2407015,0.6901935,0.007961500000000003,0.1482155,0.4864935,0.0678005,0.2715985,0.6834635,0.0325745,-0.2724415,0.8971935,-0.08878849999999999,0.3280585,0.8743935,-0.04710849999999999,-0.0722915,-0.005854500000000002,-0.006540499999999998,0.0722915,0.005854499999999999,0.006540500000000001,-0.029931500000000014,-0.3860965,-0.007491499999999998,0.1035405,-0.1408565,-0.3673885,0.022403499999999993,-0.6990065,0.0474455,0.1373185,-0.4245165,-0.3947485
127,0.006039000000000003,0.681535,0.0345405,-0.13659100000000002,0.493165,0.059521500000000005,-0.240801,0.689935,0.008085500000000002,0.148208,0.48605499999999996,0.0674765,0.271439,0.683065,0.0327205,-0.272381,0.8968149999999999,-0.0881525,0.32787900000000003,0.8741350000000001,-0.04647749999999999,-0.072341,-0.006044999999999995,-0.006458499999999999,0.07234100000000002,0.006045000000000002,0.006458500000000002,-0.03030099999999998,-0.38626499999999997,-0.007231499999999995,0.102635,-0.133845,-0.3669825,0.022148,-0.6983550000000001,0.0472595,0.137714,-0.421015,-0.39082249999999996
128,0.007096500000000006,0.6810010000000001,0.034452500000000004,-0.13543349999999998,0.492861,0.059493500000000005,-0.2398035,0.689401,0.008463500000000002,0.14935350000000003,0.485351,0.0671795,0.27244650000000004,0.682461,0.0328895,-0.2711935,0.896611,-0.0873595,0.32906650000000004,0.873451,-0.045920499999999996,-0.0725335,-0.005931000000000002,-0.006367499999999998,0.0725335,0.005930999999999999,0.006367500000000002,-0.029513499999999998,-0.38668899999999995,-0.006831499999999997,0.1027885,-0.126578,-0.3661495,0.023150500000000004,-0.698379,0.047103500000000006,0.13915650000000002,-0.41737900000000006,-0.3869395
129,0.008441500000000005,0.680606,0.034686499999999995,-0.13394849999999997,0.492706,0.0597225,-0.23840850000000002,0.688956,0.009106499999999997,0.1508825,0.48468599999999995,0.0670775,0.2738515,0.682016,0.033257499999999995,-0.2695885,0.8966459999999999,-0.08614450000000001,0.3302415,0.873006,-0.0456915,-0.0727385,-0.005699000000000003,-0.006246500000000002,0.07273850000000001,0.005698999999999996,0.006246499999999999,-0.028258500000000006,-0.386994,-0.006227500000000004,0.1033625,-0.118428,-0.3649845,0.024535500000000002,-0.698174,0.047127499999999996,0.1409825,-0.413484,-0.3835345
130,0.010394,0.6804169999999999,0.03492,-0.131936,0.492647,0.059947,-0.236316,0.688427,0.010654,0.15301199999999998,0.484237,0.06700400000000001,0.27582399999999996,0.6817369999999999,0.033606,-0.26742600000000005,0.896907,-0.084909,0.331864,0.873487,-0.04571600000000001,-0.07297600000000001,-0.005420000000000001,-0.006265,0.072976,0.005420000000000001,0.006265,-0.026316000000000006,-0.387013,-0.005586000000000001,0.104505,-0.109793,-0.363529,0.026535000000000003,-0.698033,0.047050999999999996,0.143366,-0.40989299999999995,-0.380599
131,0.012421000000000001,0.680277,0.0351955,-0.129849,0.492547,0.0602295,-0.23407899999999998,0.6878770000000001,0.012169499999999996,0.155261,0.48384699999999997,0.0669765,0.277861,0.6815070000000001,0.0339295,-0.265209,0.8972169999999999,-0.0836185,0.333381,0.8742270000000001,-0.045622499999999996,-0.073089,-0.005179999999999997,-0.0063005000000000005,0.07308900000000002,0.005180000000000004,0.006300499999999997,-0.024228999999999987,-0.387063,-0.004862500000000006,0.10584600000000001,-0.101269,-0.3622685,0.028621000000000008,-0.697883,0.0471795,0.145795,-0.406823,-0.3780285
132,0.014625000000000013,0.6802295,0.0354695,-0.12756499999999998,0.49247949999999996,0.0604985,-0.231655,0.6873895,0.0136855,0.15769100000000003,0.48352950000000006,0.0669655,0.28008500000000003,0.6813995,0.0341865,-0.263005,0.8974995,-0.08214250000000001,0.335085,0.8750295,-0.0456405,-0.072935,-0.004951499999999998,-0.006325500000000001,0.07293500000000001,0.004951499999999998,0.006325500000000001,-0.021874999999999978,-0.3870805,-0.004112500000000002,0.10820900000000001,-0.09816749999999999,-0.3615525,0.03088500000000001,-0.6976505,0.0473715,0.148653,-0.4044905,-0.3767025
133,0.017557500000000004,0.6807435,0.0357505,-0.12427249999999998,0.49275349999999996,0.0607685,-0.22846249999999999,0.6867735,0.015107500000000001,0.1608495,0.48375349999999995,0.0669795,0.2830675,0.6818935,0.0343395,-0.26021249999999996,0.8982935,-0.08065249999999999,0.3375175,0.8765235,-0.0456345,-0.0720825,-0.0040494999999999975,-0.006326499999999999,0.07208250000000001,0.0040494999999999975,0.006326499999999999,-0.01878249999999998,-0.3864165,-0.0033424999999999983,0.11089650000000001,-0.0882935,-0.3605925,0.0339025,-0.6970865,0.0475825,0.15189950000000002,-0.4010365,-0.3744825
134,0.020500500000000005,0.6813945,0.036007,-0.1210195,0.49322450000000007,0.061022999999999994,-0.22529949999999999,0.6862945,0.016420999999999998,0.16404849999999999,0.48412449999999996,0.06698,0.2861405,0.6825345,0.034451999999999997,-0.25747950000000003,0.8990545,-0.07928500000000001,0.3398405,0.8783645,-0.04565100000000001,-0.0711695,-0.0031375000000000014,-0.006357999999999999,0.0711695,0.0031375000000000014,0.006357999999999999,-0.015559500000000004,-0.3857255,-0.002630000000000004,0.1140365,-0.0813755,-0.360085,0.0369525,-0.6964055,0.047778,0.1551305,-0.3977055,-0.372635
135,0.023476999999999984,0.682117,0.0362805,-0.11785300000000001,0.49379700000000004,0.0612815,-0.222083,0.685887,0.0177095,0.167316,0.484607,0.06697349999999999,0.289277,0.683127,0.0345455,-0.25479300000000005,0.899907,-0.0779935,0.342187,0.880287,-0.0457955,-0.070163,-0.0021639999999999993,-0.0064024999999999985,0.07016299999999999,0.0021639999999999993,0.006402500000000002,-0.012253000000000014,-0.384963,-0.0020545000000000008,0.11733099999999999,-0.074018,-0.3595235,0.04009699999999998,-0.6956330000000001,0.047855499999999995,0.15861599999999998,-0.39510300000000004,-0.37066350000000003
136,0.02661300000000001,0.6828425,0.0366065,-0.11454699999999998,0.49423249999999996,0.061677499999999996,-0.218707,0.6854025,0.019137499999999998,0.17072,0.48513249999999997,0.0671175,0.292593,0.6838925,0.0347515,-0.252077,0.9007425,-0.0767165,0.34464300000000003,0.8822925,-0.045978500000000005,-0.06923699999999999,-0.0011894999999999961,-0.006579500000000002,0.069237,0.001189500000000003,0.0065794999999999985,-0.008797,-0.3842175,-0.0012655000000000027,0.12084500000000001,-0.0677845,-0.35877650000000005,0.04341800000000001,-0.6948775,0.0481765,0.16314800000000002,-0.3860575,-0.36782650000000006
137,0.02849099999999999,0.683736,0.0369,-0.112479,0.49483600000000005,0.061986,-0.21662900000000002,0.685076,0.02035,0.17288299999999998,0.48592599999999997,0.067237,0.294541,0.684846,0.034883,-0.250599,0.901716,-0.075615,0.345951,0.884526,-0.046317,-0.06828900000000002,-0.0003929999999999975,-0.006804000000000001,0.06828899999999999,0.0003929999999999975,0.006804000000000001,-0.006518999999999997,-0.383304,-0.0006250000000000006,0.12342899999999998,-0.062374,-0.358025,0.045538999999999996,-0.693964,0.048492,0.166259,-0.376754,-0.365055
138,0.030069,0.684597,0.037123,-0.11063100000000001,0.495487,0.062147,-0.214931,0.684717,0.021559000000000002,0.17469600000000002,0.48671699999999996,0.06739300000000001,0.296049,0.6858569999999999,0.035031,-0.249511,0.902687,-0.074991,0.347169,0.886747,-0.046703,-0.06728100000000001,0.0004019999999999996,-0.006991999999999998,0.06728100000000001,-0.0004019999999999996,0.006992000000000002,-0.004600999999999994,-0.382423,0.00018900000000000167,0.125454,-0.057624,-0.35725100000000004,0.047388,-0.693083,0.048910999999999996,0.168686,-0.367663,-0.362431
139,0.03100499999999999,0.6855375,0.0372485,-0.10950500000000002,0.49619749999999996,0.0622345,-0.21392500000000003,0.6853975,0.0218305,0.175866,0.4875975,0.0674645,0.296975,0.6869775,0.0350795,-0.24912500000000004,0.9037675,-0.0746705,0.347715,0.8885575,-0.04733949999999999,-0.06620500000000001,0.0012764999999999999,-0.0070314999999999996,0.06620499999999999,-0.0012764999999999999,0.0070314999999999996,-0.0033250000000000224,-0.3814925,0.000844499999999998,0.12676099999999998,-0.052823499999999995,-0.3564905,0.04867299999999998,-0.6922125,0.0492415,0.17016099999999998,-0.3583025,-0.3624005
140,0.031737000000000015,0.6865235,0.037354,-0.10852300000000001,0.4969135,0.062335,-0.21312299999999998,0.6860735,0.022075,0.176849,0.48851350000000004,0.067492,0.29773700000000003,0.6880635,0.035096,-0.249063,0.9048735,-0.07450200000000001,0.348217,0.8902835,-0.048022,-0.065243,0.0020125000000000004,-0.007108999999999997,0.06524300000000001,-0.002012500000000004,0.007109000000000001,-0.0022129999999999928,-0.3804765,0.0014940000000000023,0.12804300000000002,-0.047573500000000005,-0.355402,0.04978300000000001,-0.6913165,0.049615,0.17120700000000003,-0.3485765,-0.36037199999999997
141,0.032199000000000005,0.6873255,0.037387,-0.10771099999999997,0.4974955,0.062345,-0.21246099999999998,0.6863655,0.022265999999999998,0.177645,0.48932549999999997,0.067443,0.298259,0.6889855,0.035021,-0.24953099999999998,0.9059255,-0.074577,0.348489,0.8910055,-0.048376,-0.064301,0.002763499999999995,-0.007358000000000003,0.064301,-0.002763500000000002,0.007358,-0.0012609999999999844,-0.3796445,0.002055999999999999,0.129401,-0.041926500000000005,-0.354407,0.05065,-0.6906245,0.04994899999999999,0.172053,-0.3384345,-0.35835700000000004
142,0.031922500000000006,0.687451,0.037270000000000005,-0.1074775,0.497541,0.062203,-0.21252749999999998,0.6859310000000001,0.022239000000000002,0.1777725,0.48943100000000006,0.067234,0.2980625,0.6892710000000001,0.034738000000000005,-0.2505375,0.906151,-0.074804,0.3481025,0.891051,-0.048839999999999995,-0.0640375,0.002803,-0.007574999999999998,0.0640375,-0.002803,0.007575000000000002,-0.0009774999999999923,-0.379599,0.002414000000000003,0.1296445,-0.035678,-0.353294,0.050861500000000004,-0.690709,0.050117,0.1722065,-0.328349,-0.356324
143,0.03146,0.687531,0.0370405,-0.10748999999999997,0.497541,0.0620225,-0.21272000000000002,0.685241,0.0221835,0.177813,0.4895010000000001,0.0669845,0.29773,0.6894910000000001,0.0344055,-0.25155,0.906151,-0.0750575,0.34772000000000003,0.891051,-0.0492895,-0.06386,0.002803,-0.007828500000000002,0.06386,-0.002803,0.007828499999999999,-0.0007699999999999929,-0.379599,0.0026265000000000004,0.129932,-0.028693999999999997,-0.3521375,0.051005999999999996,-0.690839,0.0501685,0.17175,-0.315299,-0.3544175
144,0.03088449999999998,0.687621,0.036706,-0.1077555,0.497541,0.061793,-0.21300550000000001,0.684531,0.021971,0.1777335,0.48960100000000006,0.066669,0.29706449999999995,0.6897110000000001,0.033964,-0.2525755,0.906151,-0.075369,0.3471845,0.890351,-0.049789,-0.06374550000000001,0.002803,-0.008187,0.06374549999999998,-0.002803,0.008187,-0.0006855000000000055,-0.379529,0.00273,0.1301955,-0.020089,-0.350659,0.05106749999999999,-0.690979,0.050112000000000004,0.1700715,-0.29984900000000003,-0.351479
145,0.03019250000000001,0.6876595,0.036107,-0.10817749999999998,0.49747949999999996,0.0613,-0.21341749999999998,0.6836395,0.021448000000000002,0.1775065,0.4896695,0.066082,0.2962225,0.6898795,0.033267000000000005,-0.2535875,0.9060895,-0.076185,0.34665250000000003,0.8892895,-0.05052999999999999,-0.0636175,0.002860500000000002,-0.008804,0.06361750000000001,-0.0028604999999999985,0.008804000000000003,-0.0006674999999999875,-0.37940050000000003,0.0021340000000000005,0.13044450000000002,-0.008475499999999997,-0.34897500000000004,0.0510685,-0.6910405000000001,0.049516000000000004,0.16668550000000001,-0.2885205,-0.34880500000000003
146,0.029426499999999994,0.6875715,0.035500000000000004,-0.10871349999999999,0.4973915,0.060865,-0.21387350000000002,0.6827314999999999,0.020876,0.1772215,0.4895815,0.065511,0.29541649999999997,0.6898814999999999,0.032562,-0.25459350000000003,0.9059014999999999,-0.077135,0.3461265,0.8885115,-0.051239999999999994,-0.06349350000000001,0.0029054999999999984,-0.009438000000000002,0.0634935,-0.002905500000000002,0.009438000000000002,-0.0007034999999999958,-0.3793485,0.0015639999999999994,0.1304635,0.003100499999999999,-0.34729499999999996,0.0509545,-0.6912185000000001,0.048946,0.16335449999999999,-0.27694850000000004,-0.348145
147,0.028541999999999998,0.6873555,0.03486,-0.10926799999999998,0.49718549999999995,0.06041,-0.214368,0.6820055,0.020291,0.17688399999999999,0.4893455,0.064927,0.294632,0.6897555,0.031779,-0.256208,0.9040155,-0.078218,0.345592,0.8872555,-0.051975999999999994,-0.063358,0.0029204999999999995,-0.010026,0.063358,-0.0029204999999999995,0.010026,-0.0008179999999999854,-0.3792045,0.001188999999999999,0.130408,0.014888499999999999,-0.345518,0.05082400000000001,-0.6916545000000001,0.048598,0.160246,-0.2651945,-0.347508
148,0.027602,0.687152,0.034003,-0.10986800000000002,0.497232,0.059907,-0.214858,0.6816920000000001,0.019629,0.176549,0.48914199999999997,0.064265,0.293792,0.689542,0.030891,-0.257818,0.902062,-0.07941799999999999,0.345102,0.885902,-0.05274500000000001,-0.063248,0.0028709999999999986,-0.010502999999999998,0.063248,-0.0028709999999999986,0.010502999999999998,-0.0012780000000000014,-0.377888,0.0005269999999999997,0.130556,0.026555000000000002,-0.34393799999999997,0.05052899999999999,-0.691848,0.047937,0.157768,-0.253458,-0.34698799999999996
149,0.026778999999999997,0.6868465,0.0331825,-0.110371,0.4972365000000001,0.059464499999999997,-0.215401,0.6812965000000001,0.0188315,0.176163,0.4888165,0.06361549999999999,0.292979,0.6893965000000001,0.0300915,-0.259211,0.9008765000000001,-0.0805425,0.34479899999999997,0.8843365000000001,-0.0533855,-0.063221,0.0028335000000000027,-0.010835499999999998,0.063221,-0.002833499999999999,0.010835499999999998,-0.002020999999999995,-0.37648349999999997,0.00013950000000000073,0.130654,0.037928500000000004,-0.3425625,0.05010099999999999,-0.6922535,0.047605499999999995,0.15531699999999998,-0.2417135,-0.34642249999999997
150,0.025987499999999997,0.6864955,0.032313,-0.11098250000000001,0.49723550000000005,0.05898,-0.21623250000000002,0.6809155,0.01794,0.1757665,0.48847550000000006,0.06296299999999999,0.2921775,0.6891455000000001,0.029196,-0.26014250000000005,0.8995855,-0.081429,0.3445275,0.8826355,-0.053991000000000004,-0.0632025,0.0028144999999999976,-0.011184,0.0632025,-0.0028145000000000045,0.011184000000000001,-0.0038225000000000064,-0.36739449999999996,-0.001634,0.1309795,0.047924499999999995,-0.341199,0.0492885,-0.6885545,0.046395000000000006,0.1526675,-0.2304945,-0.34584899999999996
151,0.025407999999999986,0.6861805000000001,0.0309265,-0.11137200000000003,0.4972205,0.0581125,-0.217862,0.6808305,0.0162455,0.175614,0.48811049999999995,0.0619195,0.29146799999999995,0.6888205000000001,0.0278405,-0.261222,0.8981805,-0.0826435,0.344388,0.8808205,-0.055121500000000004,-0.062922,0.0027924999999999964,-0.011651500000000002,0.06292199999999999,-0.0027925000000000033,0.011651499999999999,-0.005381999999999998,-0.3583095,-0.0037944999999999993,0.13155799999999998,0.0570495,-0.3396935,0.048645999999999995,-0.6849195,0.0447675,0.150029,-0.2193095,-0.34536350000000005
152,0.025064500000000017,0.6859460000000001,0.029163500000000002,-0.11133549999999998,0.497246,0.057001500000000004,-0.21912549999999997,0.680856,0.014261500000000002,0.17563250000000002,0.487906,0.0605905,0.2910045,0.6885560000000001,0.0261035,-0.2620355,0.896656,-0.08430750000000001,0.3444145,0.8804960000000001,-0.0567655,-0.06250549999999999,0.002789,-0.0120235,0.06250550000000002,-0.002789,0.012023500000000001,-0.006905499999999981,-0.349224,-0.006333499999999999,0.13216750000000002,0.065856,-0.3380575,0.047901500000000014,-0.681194,0.0427675,0.1477285,-0.210814,-0.3450775
153,0.024757499999999988,0.6859815,0.0274445,-0.11120250000000001,0.49740150000000005,0.0559775,-0.2204225,0.6817815,0.0122185,0.1756775,0.4880215,0.0593215,0.2910975,0.6885315000000001,0.0244025,-0.26282249999999996,0.8960615000000001,-0.0858395,0.34448749999999995,0.8804215000000001,-0.0585145,-0.062102500000000005,0.0026975000000000054,-0.012314500000000003,0.06210249999999999,-0.0026974999999999985,0.0123145,-0.0077625000000000055,-0.3456485,-0.0074625,0.1329235,0.07411150000000001,-0.3366395,0.04767549999999998,-0.6814285,0.041509500000000005,0.14747949999999999,-0.2026885,-0.3449995
154,0.024574500000000013,0.6860510000000001,0.026008,-0.1108255,0.497501,0.055112,-0.2215655,0.682771,0.010437,0.1758935,0.488261,0.05833,0.29130449999999997,0.688631,0.022953,-0.2636155,0.895741,-0.087144,0.3445945,0.880401,-0.060032999999999996,-0.061695499999999986,0.0026569999999999996,-0.012367000000000003,0.0616955,-0.0026569999999999996,0.012367,-0.007085499999999995,-0.345549,-0.008327000000000001,0.1332015,0.07897099999999999,-0.335464,0.047061500000000006,-0.677219,0.039851,0.1479785,-0.197569,-0.344574
155,0.02448800000000001,0.6861330000000001,0.024572999999999998,-0.110432,0.49760299999999996,0.05424,-0.222772,0.683543,0.008558,0.17625200000000002,0.488543,0.057365,0.29154800000000003,0.688793,0.021429999999999998,-0.264362,0.895513,-0.088365,0.344398,0.886633,-0.064274,-0.061291999999999985,0.0026189999999999963,-0.012402,0.061292,-0.0026190000000000033,0.012402,-0.007561999999999985,-0.342007,-0.009203,0.133545,0.083273,-0.334445,0.046998,-0.677297,0.038927,0.148442,-0.193187,-0.343735
156,0.02457050000000001,0.6862644999999999,0.023139,-0.10997950000000001,0.49771449999999995,0.053316,-0.2236395,0.6841145,0.006776000000000001,0.17684450000000002,0.48895449999999996,0.056381,0.2918305,0.6903845,0.019596000000000002,-0.2646895,0.8955044999999999,-0.089796,0.3443805,0.8943544999999999,-0.06848499999999999,-0.06091949999999999,0.0025994999999999976,-0.012418000000000002,0.0609195,-0.0025994999999999976,0.012418000000000002,-0.007599500000000009,-0.33798550000000005,-0.010114999999999999,0.1339685,0.0871145,-0.333596,0.04716050000000001,-0.6775355000000001,0.038003,0.1493215,-0.1890655,-0.339706
157,0.024750999999999995,0.686401,0.021806999999999997,-0.10947899999999999,0.49785100000000004,0.052434999999999996,-0.22434900000000002,0.684671,0.005056999999999997,0.177524,0.489561,0.055485,0.29222099999999995,0.692031,0.017849999999999998,-0.264909,0.895511,-0.09126600000000001,0.344441,0.902161,-0.07253000000000001,-0.06051900000000002,0.002592999999999998,-0.012503,0.06051899999999999,-0.002592999999999998,0.012502999999999997,-0.008479000000000014,-0.328889,-0.011875000000000004,0.135621,0.09099099999999999,-0.332696,0.04693099999999999,-0.673459,0.036599999999999994,0.150301,-0.184709,-0.335146
158,0.025124999999999995,0.686591,0.0203635,-0.10881500000000002,0.498011,0.0513705,-0.22472499999999998,0.685201,0.0034155,0.178556,0.490391,0.054414500000000005,0.292875,0.693711,0.0159695,-0.264985,0.895451,-0.0929275,0.344705,0.910061,-0.0766905,-0.060045000000000015,0.0025430000000000036,-0.0125785,0.060045,-0.0025429999999999967,0.012578500000000001,-0.008775000000000005,-0.32099900000000003,-0.013815499999999998,0.137484,0.09441100000000001,-0.3318975,0.047085,-0.669259,0.0350635,0.151532,-0.18095899999999998,-0.3303775
159,0.025500999999999996,0.6868205,0.018765,-0.10803900000000002,0.49817049999999996,0.050039,-0.224789,0.6854605,0.001653,0.179649,0.49146049999999997,0.053186,0.293631,0.6954105,0.014029999999999999,-0.26468899999999995,0.8967705,-0.09504599999999999,0.345021,0.9179905,-0.080901,-0.05956900000000001,0.0024635000000000004,-0.012647000000000002,0.059569,-0.0024635000000000004,0.012646999999999999,-0.007609000000000005,-0.3188595,-0.014957000000000002,0.139164,0.09758049999999999,-0.331176,0.048251,-0.6692695,0.033926,0.152852,-0.1774195,-0.325336
160,0.025596499999999994,0.686848,0.0176995,-0.10762349999999998,0.498158,0.0491245,-0.22422350000000002,0.685408,0.0006864999999999996,0.1803905,0.492428,0.0523955,0.2940065,0.6969879999999999,0.0126685,-0.2654135,0.897968,-0.0967505,0.3451265,0.9258379999999999,-0.08428050000000001,-0.059233499999999994,0.0024269999999999986,-0.012618500000000001,0.059233499999999994,-0.0024269999999999986,0.0126185,-0.005773500000000015,-0.326672,-0.014165500000000001,0.1399945,0.109118,-0.32755049999999997,0.0483865,-0.669322,0.0335125,0.1543855,-0.16539199999999998,-0.31644049999999996
161,0.025548500000000002,0.686913,0.0169525,-0.10748150000000001,0.49815300000000007,0.04844949999999999,-0.22391149999999999,0.685363,-6.0500000000001525e-05,0.1808315,0.49337300000000006,0.051888500000000004,0.29413849999999997,0.698623,0.0116945,-0.2660715,0.898503,-0.0980215,0.3450885,0.933733,-0.0871515,-0.05900150000000001,0.002361999999999996,-0.0126685,0.0590015,-0.002362000000000003,0.0126685,-0.003911500000000012,-0.33451699999999995,-0.0126595,0.1403865,0.12004300000000001,-0.3242915,0.04894849999999999,-0.673497,0.0338695,0.1554575,-0.153997,-0.3078815
162,0.025593999999999978,0.6870165,0.016104,-0.10728599999999999,0.49816649999999996,0.047699,-0.223406,0.6853365,-0.0008099999999999982,0.181337,0.49431649999999994,0.051297,0.294424,0.7003865,0.010737,-0.266656,0.8986265,-0.099357,0.345194,0.9416765,-0.08992699999999999,-0.058696,0.0023395000000000013,-0.012721,0.058695999999999984,-0.0023395000000000013,0.012721000000000001,-0.0029860000000000164,-0.33352350000000003,-0.011861999999999998,0.141007,0.1301965,-0.321217,0.049453999999999984,-0.6732935,0.033387,0.15683999999999998,-0.1433635,-0.29931699999999994
163,0.025652499999999995,0.6870729999999999,0.014941999999999999,-0.10703749999999998,0.498123,0.046602000000000005,-0.2226875,0.684383,-0.0018440000000000019,0.1818655,0.4952829999999999,0.050427,0.2947425,0.702193,0.009436,-0.2671975,0.898543,-0.10095699999999999,0.34537249999999997,0.9497829999999999,-0.092967,-0.0583475,0.0022900000000000004,-0.012507,0.05834750000000001,-0.0022900000000000004,0.012506999999999999,-0.0003974999999999951,-0.34019699999999997,-0.010214,0.1414945,0.140553,-0.318297,0.0505525,-0.6775070000000001,0.033418,0.1581195,-0.132533,-0.291157
164,0.025542499999999996,0.6871335,0.013811999999999998,-0.1069175,0.49809349999999997,0.04554,-0.2223275,0.6836234999999999,-0.0029580000000000006,0.1821805,0.4963335,0.049617,0.2949625,0.7038734999999999,0.008258999999999999,-0.2678775,0.8983635,-0.10253,0.34569249999999996,0.9500535,-0.09387,-0.05819750000000001,0.0022374999999999964,-0.012227,0.058197499999999985,-0.0022375000000000034,0.012226999999999998,0.0007024999999999948,-0.3390965,-0.009741000000000001,0.1416555,0.1404935,-0.31515,0.05089249999999998,-0.6773565,0.032618999999999995,0.1584235,-0.1325925,-0.28406
165,0.02532999999999999,0.6872115,0.0126145,-0.10689000000000001,0.4980515,0.0444915,-0.22208999999999998,0.6828415,-0.004092499999999999,0.182449,0.49733150000000004,0.0488325,0.29525,0.7042515,0.0072345000000000005,-0.26820999999999995,0.8981615000000001,-0.1040195,0.34595,0.9503015,-0.0947695,-0.05815999999999999,0.002177499999999999,-0.0118965,0.05816,-0.002177499999999999,0.0118965,0.002929999999999988,-0.3473985,-0.008365499999999998,0.141496,0.1509215,-0.3113495,0.05173,-0.6815485,0.032946500000000004,0.160533,-0.1216895,-0.2787695
166,0.025091000000000002,0.6873045,0.011481,-0.10689900000000002,0.49803449999999994,0.043487,-0.222049,0.6821745,-0.005217999999999999,0.18268,0.49837449999999994,0.048118999999999995,0.295461,0.7047045,0.006312,-0.268599,0.8979545,-0.105459,0.34614100000000003,0.9502345,-0.095559,-0.05826899999999999,0.0021144999999999983,-0.011517999999999999,0.058269,-0.0021144999999999983,0.011518,0.005171000000000009,-0.3550955,-0.007096,0.14115,0.1621845,-0.30715899999999996,0.052681000000000006,-0.6856255,0.032992,0.16165400000000002,-0.1101935,-0.273609
167,0.024741500000000027,0.6873775000000001,0.010348000000000001,-0.10698849999999999,0.49789749999999994,0.042684,-0.2220685,0.6816275,-0.006167999999999998,0.18276550000000003,0.49974749999999996,0.047677000000000004,0.2956215,0.7050675000000001,0.005543,-0.26898849999999996,0.8981975000000001,-0.106785,0.3462815,0.9500475,-0.095595,-0.058428499999999994,0.002173500000000002,-0.011056999999999999,0.05842850000000001,-0.002173499999999995,0.011057,0.007351500000000011,-0.3577225,-0.006588999999999999,0.1409785,0.17344749999999998,-0.30290500000000004,0.05360150000000001,-0.6897725,0.033215,0.16266650000000002,-0.0988915,-0.268685
168,0.024516499999999997,0.6871325,0.009330499999999999,-0.1070235,0.49731250000000005,0.0420885,-0.2218235,0.6808225,-0.0067315,0.1829355,0.5004525,0.0473105,0.2957865,0.7049225,0.005054499999999999,-0.2690135,0.8969125,-0.10790250000000001,0.3464965,0.9494125,-0.0956525,-0.05867349999999999,0.0024575000000000014,-0.0106035,0.0586735,-0.0024575000000000014,0.010603499999999998,0.0088665,-0.3578475,-0.007070500000000002,0.1408405,0.1842125,-0.2986525,0.05380650000000001,-0.6863875,0.0323875,0.16352550000000002,-0.08797350000000001,-0.2641025
169,0.02436149999999998,0.6866595,0.008356999999999998,-0.1069485,0.49649950000000004,0.041499999999999995,-0.22147850000000002,0.6797295,-0.0075660000000000015,0.1832085,0.5008595,0.046969,0.2959715,0.7045994999999999,0.004613999999999999,-0.2690185,0.8953895,-0.10945300000000001,0.3461515,0.9430295,-0.094843,-0.0590185,0.0029425000000000007,-0.010163,0.05901849999999999,-0.0029425000000000007,0.010162999999999998,0.009731500000000004,-0.35664049999999997,-0.008071,0.1412965,0.19524950000000002,-0.297383,0.05491149999999999,-0.6912505,0.032577999999999996,0.1645925,-0.0768285,-0.262833
170,0.02406950000000002,0.6860565,0.007261,-0.1069505,0.49556649999999997,0.040888,-0.2212205,0.6784865,-0.008745,0.1834115,0.5010764999999999,0.046585,0.2960995,0.7040464999999999,0.004148000000000001,-0.2692005,0.8937465,-0.111618,0.34574950000000004,0.9423265,-0.09530799999999999,-0.0594305,0.003554500000000002,-0.009738,0.05943050000000001,-0.003554499999999995,0.009738,0.011629500000000015,-0.3587935,-0.008164999999999999,0.14184650000000001,0.1970865,-0.296068,0.055521500000000015,-0.6922435,0.032230999999999996,0.16514050000000002,-0.07499349999999999,-0.261508
