sb224sc-HT22-VT27/4dt907/src/data/kinect_good_vs_bad_not_preprocessed_A13_mediapipe/W29.csv
FrameNo,nose_3d_x,nose_3d_y,nose_3d_z,left_shoulder_3d_x,left_shoulder_3d_y,left_shoulder_3d_z,left_elbow_3d_x,left_elbow_3d_y,left_elbow_3d_z,right_shoulder_3d_x,right_shoulder_3d_y,right_shoulder_3d_z,right_elbow_3d_x,right_elbow_3d_y,right_elbow_3d_z,left_wrist_3d_x,left_wrist_3d_y,left_wrist_3d_z,right_wrist_3d_x,right_wrist_3d_y,right_wrist_3d_z,left_hip_3d_x,left_hip_3d_y,left_hip_3d_z,right_hip_3d_x,right_hip_3d_y,right_hip_3d_z,left_knee_3d_x,left_knee_3d_y,left_knee_3d_z,right_knee_3d_x,right_knee_3d_y,right_knee_3d_z,left_ankle_3d_x,left_ankle_3d_y,left_ankle_3d_z,right_ankle_3d_x,right_ankle_3d_y,right_ankle_3d_z
0,0.012232,0.730883,-0.002133999999999997,-0.134172,0.481313,0.009025000000000002,-0.326192,0.601973,-0.115957,0.149528,0.48666299999999996,0.0072450000000000014,0.32467799999999997,0.587183,-0.105717,-0.41333200000000003,0.722563,-0.297607,0.406798,0.690103,-0.281287,-0.067295,0.0009199999999999998,0.0007370000000000015,0.067295,-0.0009199999999999998,-0.0007370000000000015,-0.115012,-0.32321700000000003,0.0031979999999999995,0.102938,-0.33714700000000003,0.020857,-0.11444199999999999,-0.623617,0.046633,0.119368,-0.654267,0.044976
1,0.011069499999999996,0.7260734999999999,-0.0012095000000000022,-0.13483550000000002,0.4803135,0.009840499999999999,-0.3123555,0.6187334999999999,-0.0841485,0.14755449999999998,0.4910835,0.004508499999999999,0.3056145,0.6151335,-0.0912985,-0.3851455,0.7693435,-0.24955850000000002,0.38628450000000003,0.7843135,-0.2653785,-0.0671535,0.0001855,0.0014764999999999986,0.0671535,-0.0001855,-0.0014764999999999986,-0.11583550000000001,-0.3281965,0.0035315,0.1023345,-0.3409565,0.0208075,-0.1152155,-0.6284965,0.0468455,0.1182645,-0.6583965,0.0454585
2,0.010586000000000003,0.7242934999999999,-0.0009260000000000032,-0.134503,0.4777135,0.009888000000000001,-0.30939300000000003,0.6409635,-0.088727,0.149027,0.4922435,0.005299999999999999,0.307897,0.6392635,-0.088197,-0.378683,0.8354035,-0.24890700000000002,0.374147,0.8137635,-0.24385700000000002,-0.066992,5.5499999999999994e-05,0.0012039999999999967,0.066992,-5.5499999999999994e-05,-0.0012039999999999967,-0.11632300000000001,-0.3300165,0.003804000000000002,0.10189700000000002,-0.3423865,0.020951,-0.115923,-0.6268465000000001,0.048004,0.117697,-0.6608465,0.045722
3,0.010526999999999998,0.7181835,-0.0007360000000000005,-0.13891699999999998,0.4867135,0.009381999999999998,-0.307687,0.6534135,-0.073621,0.149613,0.49254349999999997,0.00648,0.295753,0.6622935,-0.084841,-0.369697,0.8483434999999999,-0.233781,0.36168300000000003,0.8467235,-0.22717099999999998,-0.06664500000000001,0.0005485000000000004,0.00015199999999999936,0.06664500000000001,-0.0005485000000000004,-0.00015199999999999936,-0.116537,-0.3364165,0.004241999999999999,0.101543,-0.3484365,0.021272,-0.11588699999999999,-0.6336465,0.048465,0.118003,-0.6702665,0.046379
4,0.010590000000000004,0.7172285,-0.0010409999999999933,-0.138882,0.4855585,0.009821000000000003,-0.30036199999999996,0.6640485,-0.06609799999999999,0.14951799999999998,0.49127850000000006,0.006422000000000004,0.290198,0.6769185,-0.081208,-0.361712,0.8643485,-0.21842799999999998,0.34867800000000004,0.8550485,-0.20360799999999998,-0.066567,0.0003765000000000001,0.0001810000000000006,0.066567,-0.0003765000000000001,-0.00018099999999999367,-0.116522,-0.3373015,0.004744000000000002,0.10155800000000001,-0.34872149999999996,0.020917000000000005,-0.115442,-0.6354815,0.048124,0.11805800000000001,-0.6714715,0.046589000000000005
5,0.010492499999999995,0.7141805,-0.0013265000000000013,-0.1387905,0.48882049999999994,0.0084065,-0.2793605,0.6903605,-0.06143150000000001,0.1497995,0.49070049999999993,0.0070975,0.2858595,0.6921705,-0.0753345,-0.3446105,0.8800105,-0.1847345,0.3400795,0.8666505,-0.1889245,-0.0661355,0.00017249999999999904,-7.549999999999918e-05,0.0661355,-0.00017250000000000078,7.549999999999918e-05,-0.11649050000000001,-0.3414295,0.005600499999999998,0.1015195,-0.3526495,0.0215795,-0.1151805,-0.6399895,0.0488755,0.1179895,-0.6755595,0.0472955
6,0.0107675,0.7106355,-0.001580000000000005,-0.1382845,0.4894955,0.008992999999999994,-0.2778745,0.6982955,-0.058836,0.1498355,0.4915855,0.009204999999999994,0.2785255,0.7072455,-0.063598,-0.3379245,0.8876755,-0.180478,0.3316455,0.8842455,-0.17316800000000002,-0.06600049999999999,0.0002925000000000011,-1.0000000000003062e-05,0.06600049999999999,-0.0002925000000000011,9.999999999996123e-06,-0.11600450000000001,-0.3436845,0.005569999999999995,0.1021155,-0.35575450000000003,0.022349999999999995,-0.11451449999999999,-0.6456245,0.048193999999999994,0.11809549999999999,-0.6795145,0.047742999999999994
7,0.011420000000000001,0.7083915,-0.0037105000000000055,-0.136904,0.4935115,0.011350499999999993,-0.27341400000000005,0.6979315,-0.0510405,0.14763600000000002,0.49220149999999996,0.009521499999999992,0.271366,0.7066115,-0.05601750000000001,-0.32730400000000004,0.8939615,-0.1566385,0.321136,0.8935115,-0.15192850000000002,-0.066196,0.0001925000000000017,-0.0005445000000000033,0.066196,-0.0001925000000000017,0.0005444999999999964,-0.116314,-0.3456885,0.004516499999999993,0.10200600000000001,-0.3569985,0.021248499999999993,-0.11494399999999999,-0.6482585,0.04721249999999999,0.11774599999999999,-0.6810685,0.047356499999999996
8,0.011614999999999999,0.7062109999999999,-0.0044954999999999995,-0.136679,0.495301,0.0114975,-0.266529,0.705811,-0.0454075,0.14725100000000002,0.4921209999999999,0.0100085,0.265211,0.7142109999999999,-0.048710500000000004,-0.318179,0.902341,-0.1394935,0.311951,0.902841,-0.1343235,-0.06618,0.00013999999999999777,-0.0006564999999999974,0.06618,-0.00014000000000000123,0.0006564999999999974,-0.11627900000000001,-0.34753900000000004,0.004236499999999997,0.102011,-0.35921899999999996,0.0212865,-0.114879,-0.651219,0.0470025,0.117611,-0.684139,0.0477125
9,0.0118315,0.7039194999999999,-0.00544,-0.13627050000000002,0.4970195,0.011556,-0.26045050000000003,0.7124794999999999,-0.040551000000000004,0.1468595,0.4924095,0.010647,0.2591695,0.7212795,-0.04145,-0.3099605,0.9089794999999999,-0.123912,0.3040695,0.9124194999999999,-0.119312,-0.0661205,0.00011850000000000055,-0.0008219999999999963,0.0661205,-0.00011850000000000055,0.0008220000000000033,-0.11618049999999999,-0.34941049999999996,0.003696000000000005,0.1020095,-0.3616405,0.021332000000000004,-0.1148905,-0.6543405,0.046626,0.1174695,-0.6873405,0.048026
10,0.012081000000000005,0.7018865,-0.0062964999999999965,-0.135925,0.4981165000000001,0.0115765,-0.256635,0.7160865000000001,-0.03605049999999999,0.146235,0.4927665,0.011201500000000003,0.253535,0.7260165000000001,-0.0346125,-0.303455,0.9138065,-0.11168050000000002,0.297085,0.9202665,-0.1057205,-0.066041,0.00011450000000000002,-0.0009305000000000008,0.066041,-0.00011450000000000002,0.0009305000000000008,-0.116045,-0.35077349999999996,0.002958500000000003,0.102025,-0.3636735,0.0214055,-0.11491499999999999,-0.6573335,0.0461845,0.117315,-0.6900335,0.0482895
11,0.012093999999999997,0.7001365,-0.006981000000000008,-0.135289,0.4991465,0.011771999999999994,-0.252989,0.7185665,-0.031504000000000004,0.145261,0.49310649999999995,0.011820999999999995,0.24877100000000002,0.7296265000000001,-0.02963700000000001,-0.297779,0.9175765,-0.099658,0.290201,0.9308765,-0.093828,-0.066024,6.749999999999812e-05,-0.0009600000000000025,0.066024,-6.749999999999812e-05,0.0009599999999999956,-0.11602900000000001,-0.35207350000000004,0.0021979999999999916,0.101911,-0.36550350000000004,0.021642999999999996,-0.115199,-0.6599835,0.045995999999999995,0.116871,-0.6921934999999999,0.048704
12,0.011929499999999999,0.698902,-0.007377500000000002,-0.1346765,0.499472,0.012097499999999994,-0.2502765,0.719882,-0.027784500000000004,0.14434349999999999,0.49324199999999996,0.012384499999999993,0.2448835,0.731972,-0.025732500000000005,-0.2940165,0.919582,-0.09158950000000002,0.2849835,0.939272,-0.08534950000000001,-0.0660545,3.499999999999337e-05,-0.0008565000000000031,0.0660545,-3.500000000000031e-05,0.0008564999999999962,-0.1159965,-0.35282800000000003,0.0014234999999999942,0.10176349999999999,-0.366918,0.021963499999999997,-0.1155765,-0.661848,0.04593649999999999,0.1163135,-0.693888,0.049255499999999994
13,0.011536499999999998,0.6977945,-0.007664999999999998,-0.1342775,0.49971450000000006,0.012724000000000003,-0.2482775,0.7210645,-0.02471899999999999,0.1432725,0.49371450000000006,0.013111000000000005,0.24156249999999999,0.7362245000000001,-0.022458,-0.2913975,0.9211145000000001,-0.085199,0.2797225,0.9473245,-0.07787899999999999,-0.0660525,3.849999999999687e-05,-0.000899999999999998,0.0660525,-3.850000000000381e-05,0.000900000000000005,-0.1160775,-0.35335550000000004,0.0006620000000000029,0.10151249999999999,-0.36855550000000004,0.022364000000000002,-0.1161475,-0.6637155,0.046047000000000005,0.1155925,-0.6954655,0.049983
14,0.0109865,0.696442,-0.007565999999999996,-0.1340735,0.499492,0.013730000000000006,-0.2469735,0.7215419999999999,-0.021800999999999994,0.1420065,0.49387200000000003,0.014260000000000005,0.2379365,0.737312,-0.018973999999999998,-0.28939349999999997,0.921182,-0.079526,0.27484650000000005,0.954442,-0.071296,-0.0660095,9.900000000000186e-05,-0.0012169999999999959,0.0660095,-9.900000000000186e-05,0.0012170000000000028,-0.1161735,-0.354288,-2.2999999999995246e-05,0.1012365,-0.370538,0.022757000000000003,-0.1167435,-0.665678,0.046419,0.1147265,-0.697378,0.051137
15,0.010318500000000001,0.694986,-0.007322500000000003,-0.1338275,0.49895599999999996,0.014397499999999997,-0.2463675,0.721086,-0.0194625,0.1407125,0.493826,0.015303499999999998,0.2346525,0.738136,-0.0157165,-0.2879775,0.921126,-0.07527550000000001,0.2704025,0.9611759999999999,-0.06564550000000001,-0.0659445,0.0001419999999999963,-0.0015025000000000038,0.0659445,-0.00014200000000000323,0.001502499999999997,-0.1161475,-0.355284,-0.0008254999999999998,0.1009925,-0.372544,0.023120499999999995,-0.11713749999999999,-0.667724,0.046606499999999995,0.1138025,-0.699384,0.0523615
16,0.009523500000000004,0.694181,-0.0068565000000000015,-0.1341635,0.49800099999999997,0.015198499999999997,-0.2467835,0.720561,-0.0180525,0.13950649999999998,0.49398099999999995,0.0164085,0.23297650000000003,0.7373010000000001,-0.013933500000000001,-0.2882435,0.920651,-0.07387250000000001,0.2675265,0.9668610000000001,-0.0642625,-0.0658845,0.00016100000000000142,-0.0017605000000000051,0.0658845,-0.00016100000000000142,0.0017604999999999982,-0.1159935,-0.356229,-0.001523500000000004,0.1007465,-0.373759,0.023493499999999997,-0.11723349999999999,-0.6690689999999999,0.046551499999999996,0.1128965,-0.7006089999999999,0.0536305
17,0.008652,0.693437,-0.006228500000000005,-0.134576,0.497007,0.015953499999999995,-0.24749600000000002,0.719927,-0.016538500000000005,0.13830399999999998,0.494217,0.017459499999999996,0.231324,0.736447,-0.012231500000000006,-0.289026,0.919817,-0.0723515,0.265104,0.971847,-0.06277150000000001,-0.065762,0.00018800000000000067,-0.0020495000000000027,0.065762,-0.00018800000000000067,0.0020494999999999958,-0.115506,-0.357343,-0.0021455000000000016,0.100464,-0.37484300000000004,0.023972499999999997,-0.116716,-0.670423,0.046606499999999995,0.111944,-0.701513,0.0550125
18,0.007719500000000004,0.6929160000000001,-0.005567500000000003,-0.1352025,0.49628599999999995,0.0168455,-0.2480925,0.719076,-0.015003500000000003,0.13718750000000002,0.494206,0.0185285,0.22954750000000002,0.735596,-0.010600499999999999,-0.2896925,0.9189660000000001,-0.0708215,0.26279749999999996,0.975896,-0.061261499999999997,-0.0656395,0.00017800000000000454,-0.0023504999999999984,0.0656395,-0.0001779999999999976,0.0023504999999999984,-0.1148925,-0.358194,-0.0023735000000000006,0.1001475,-0.375574,0.0244615,-0.1158625,-0.6715639999999999,0.0468885,0.11099750000000001,-0.7021639999999999,0.0564305
19,0.0067265,0.692472,-0.004916000000000004,-0.1358315,0.495622,0.017760999999999996,-0.24887150000000002,0.718302,-0.013747000000000002,0.13606849999999998,0.494282,0.019379999999999994,0.22785850000000002,0.733632,-0.009276000000000006,-0.2907115,0.918192,-0.069483,0.2605285,0.9797220000000001,-0.059933,-0.0655075,0.00016499999999999848,-0.002606000000000004,0.0655075,-0.00016499999999999848,0.002605999999999997,-0.1139915,-0.358968,-0.0023360000000000047,0.0997785,-0.376238,0.024958999999999995,-0.1150115,-0.672588,0.04727599999999999,0.1100785,-0.702758,0.057810999999999994
20,0.005922500000000001,0.6921579999999999,-0.004424500000000005,-0.1363465,0.49507799999999996,0.0184855,-0.2496765,0.717768,-0.0130235,0.13513350000000002,0.49434800000000007,0.019968499999999997,0.2274135,0.737298,-0.008668500000000003,-0.2915065,0.917658,-0.0694615,0.2591135,0.979288,-0.0599215,-0.0653195,0.0001840000000000036,-0.002980500000000004,0.0653195,-0.00018399999999999667,0.002980499999999997,-0.11276649999999999,-0.359782,-0.0021585000000000007,0.0994735,-0.37662199999999996,0.025283499999999997,-0.1138565,-0.6733520000000001,0.0476145,0.10952350000000001,-0.7030120000000001,0.0589405
21,0.005170000000000001,0.6918449999999999,-0.004138500000000003,-0.137109,0.494425,0.0192685,-0.250429,0.716035,-0.012623500000000003,0.134251,0.494355,0.020223500000000002,0.226641,0.737395,-0.008345499999999999,-0.29224900000000004,0.915725,-0.06985050000000001,0.25792099999999996,0.979075,-0.060320500000000006,-0.0651,0.0002009999999999998,-0.0034944999999999976,0.0651,-0.0002009999999999998,0.0034944999999999976,-0.11150099999999999,-0.36075500000000005,-0.0018794999999999992,0.09921100000000001,-0.376915,0.0255245,-0.112449,-0.6742750000000001,0.0479145,0.10901100000000001,-0.703375,0.059922500000000004
22,0.004471999999999997,0.6917375,-0.0039930000000000035,-0.1378,0.49396750000000006,0.020066999999999998,-0.25112,0.7145174999999999,-0.012538,0.13344999999999999,0.49435750000000006,0.020405,0.22547,0.7341574999999999,-0.007831000000000005,-0.29303999999999997,0.9139474999999999,-0.070995,0.25724,0.9789675,-0.060895,-0.064943,0.00017049999999999704,-0.0038989999999999997,0.064943,-0.00017049999999999704,0.0038989999999999997,-0.110185,-0.3617625,-0.0015490000000000018,0.09897,-0.3770425,0.025713,-0.110911,-0.6748225,0.048049999999999995,0.10855,-0.7035225,0.060703
23,0.0037885,0.6919175,-0.0042185,-0.1384195,0.49386749999999996,0.020489499999999997,-0.2518095,0.7133275,-0.013069499999999998,0.1326805,0.4946675,0.020165499999999996,0.2245605,0.7333075,-0.008611500000000001,-0.2940395,0.9125774999999999,-0.0728415,0.2564805,0.9781674999999999,-0.06205150000000001,-0.06485250000000001,0.00017049999999999704,-0.0040505000000000055,0.06485250000000001,-0.00017049999999999704,0.0040504999999999985,-0.1088915,-0.3626625,-0.0013655000000000056,0.0987305,-0.3769425,0.025841499999999996,-0.10939449999999999,-0.6749525000000001,0.04785349999999999,0.1081505,-0.7031625,0.0610485
24,0.003137000000000001,0.6920795,-0.004463999999999996,-0.139003,0.4936695,0.020787000000000003,-0.252743,0.7122895,-0.013793,0.13199699999999998,0.4949295,0.020218000000000003,0.223617,0.7324695,-0.009398999999999998,-0.295303,0.9110795,-0.07490399999999998,0.255697,0.9774495,-0.063524,-0.064785,0.00015249999999999986,-0.004219999999999995,0.064785,-0.00015249999999999986,0.0042200000000000015,-0.107765,-0.3633105,-0.0011499999999999982,0.098297,-0.3769005,0.026038000000000002,-0.108108,-0.6749005,0.047825000000000006,0.107617,-0.7031905,0.061294
25,0.002682000000000004,0.69213,-0.004753500000000001,-0.139681,0.49351999999999996,0.0210215,-0.25365099999999996,0.71126,-0.014527499999999999,0.131529,0.4951,0.020278499999999998,0.223199,0.73236,-0.010288499999999999,-0.296591,0.9094099999999999,-0.0771945,0.255139,0.97742,-0.0654845,-0.06471299999999999,0.0001470000000000013,-0.004413500000000001,0.06471299999999999,-0.0001470000000000013,0.004413500000000001,-0.106741,-0.36399000000000004,-0.0011495000000000047,0.09791899999999999,-0.37699000000000005,0.026181499999999996,-0.106914,-0.6750700000000001,0.0480345,0.107239,-0.70347,0.0614745
26,0.0022270000000000033,0.6923355,-0.005262500000000003,-0.14022600000000002,0.4931355,0.0211615,-0.254816,0.7103655,-0.015703499999999995,0.131314,0.4953355,0.0203275,0.222534,0.7324655,-0.011126499999999998,-0.298296,0.9078755,-0.08005350000000001,0.254874,0.9768255,-0.0678535,-0.064776,4.149999999999987e-05,-0.0044864999999999974,0.064776,-4.149999999999987e-05,0.0044864999999999974,-0.105922,-0.3645445,-0.0013374999999999984,0.097854,-0.37689449999999997,0.0262155,-0.105977,-0.6752045,0.0481175,0.107174,-0.7037945,0.0615025
27,0.0016030000000000037,0.6924665,-0.0057224999999999915,-0.140816,0.49273649999999997,0.020909500000000004,-0.256106,0.7094465,-0.016685499999999992,0.13108399999999998,0.4957265,0.020345500000000006,0.222244,0.7301765,-0.012013499999999996,-0.300256,0.9062465,-0.08278349999999998,0.254604,0.9762564999999999,-0.0702835,-0.064776,-4.849999999999993e-05,-0.004506499999999997,0.064776,4.849999999999993e-05,0.0045065000000000036,-0.105839,-0.3647835,-0.001390499999999996,0.097854,-0.3767635,0.026235500000000005,-0.105254,-0.6753335,0.04814650000000001,0.107144,-0.7040535,0.0614475
28,0.0005215000000000046,0.692682,-0.006443999999999998,-0.1417855,0.492312,0.020608,-0.2580355,0.708172,-0.017994999999999997,0.1306945,0.496142,0.020078000000000002,0.22194450000000002,0.730082,-0.012965999999999991,-0.3028455,0.904232,-0.08587800000000001,0.2544045,0.9750620000000001,-0.072908,-0.0647755,-0.00015699999999999742,-0.0045509999999999995,0.0647755,0.00015700000000000436,0.004551000000000006,-0.10584049999999999,-0.365258,-0.0012459999999999971,0.0977945,-0.376488,0.026191000000000002,-0.1043915,-0.6758379999999999,0.048307,0.1070645,-0.704368,0.06135500000000001
29,-0.0008759999999999966,0.692872,-0.007271,-0.143062,0.492012,0.020449,-0.26035200000000003,0.707032,-0.01953300000000001,0.130058,0.49661199999999994,0.019798999999999997,0.221448,0.730762,-0.014585,-0.305682,0.902372,-0.088763,0.253968,0.9744919999999999,-0.07477299999999999,-0.064787,-0.00032300000000000384,-0.004626000000000005,0.064787,0.0003229999999999969,0.004625999999999998,-0.105832,-0.365398,-0.0009310000000000013,0.097608,-0.37602800000000003,0.026121999999999996,-0.10351199999999999,-0.676508,0.048527999999999995,0.106938,-0.704448,0.061327
30,-0.002446000000000002,0.6931729999999999,-0.008390000000000002,-0.144302,0.491713,0.019928999999999995,-0.262952,0.706683,-0.021841,0.129458,0.497253,0.019275999999999995,0.220738,0.732143,-0.016585000000000003,-0.308632,0.901393,-0.09278200000000002,0.25351799999999997,0.973753,-0.077002,-0.06486600000000001,-0.0004559999999999981,-0.004915000000000003,0.06486600000000001,0.0004559999999999981,0.004914999999999996,-0.105125,-0.365137,-0.0009200000000000041,0.097668,-0.375617,0.025863999999999995,-0.10217300000000001,-0.677837,0.048512999999999994,0.10741799999999999,-0.704117,0.061084999999999993
31,-0.004118500000000002,0.6934745,-0.009727000000000006,-0.14578750000000001,0.49143449999999994,0.018476,-0.26554750000000005,0.7063845000000001,-0.024886000000000005,0.1275425,0.4983045,0.018688999999999997,0.2202825,0.7342545,-0.018768000000000007,-0.3114975,0.9005345,-0.097584,0.2534225,0.9731744999999999,-0.07961399999999999,-0.0649425,-0.0005745000000000056,-0.005144000000000003,0.0649425,0.0005744999999999986,0.005143999999999996,-0.1044865,-0.3648155,-0.0010630000000000014,0.0980125,-0.3751755,0.025426999999999995,-0.0999795,-0.6793954999999999,0.048615,0.10878249999999999,-0.7036255,0.060722
32,-0.005765500000000002,0.6939725,-0.011544999999999993,-0.1470315,0.49151249999999996,0.016698000000000005,-0.2680415,0.7061824999999999,-0.028220999999999996,0.12587849999999998,0.49973249999999997,0.017964,0.21990849999999998,0.7354824999999999,-0.02029199999999999,-0.3140015,0.8997824999999999,-0.10254,0.2532285,0.9728625,-0.08228,-0.0651845,-0.0008084999999999967,-0.005318999999999997,0.0651845,0.0008085000000000037,0.005319000000000004,-0.1038395,-0.36393749999999997,-0.0013189999999999938,0.0985985,-0.37453749999999997,0.024900000000000005,-0.0973205,-0.6807275,0.04854700000000001,0.11054850000000001,-0.7034775000000001,0.06024500000000001
33,-0.007407000000000001,0.6944795,-0.013503000000000001,-0.14811800000000003,0.49147950000000007,0.014591,-0.270398,0.7056195000000001,-0.031816,0.12414199999999999,0.5011395000000001,0.017388999999999995,0.21928199999999998,0.7362695,-0.022063,-0.31625800000000004,0.8987695,-0.10762,0.253102,0.9724395000000001,-0.08488000000000001,-0.065444,-0.0010495000000000018,-0.0055600000000000024,0.065444,0.0010495000000000018,0.0055599999999999955,-0.103539,-0.3625805,-0.0016620000000000038,0.099222,-0.37390049999999997,0.024345,-0.094622,-0.6817305,0.048374999999999994,0.11271199999999999,-0.7033205,0.059751
34,-0.008748000000000002,0.694903,-0.015505999999999992,-0.148812,0.491453,0.012505000000000002,-0.27232199999999995,0.704893,-0.035689,0.12275799999999998,0.502513,0.016865000000000005,0.218988,0.7368530000000001,-0.023681999999999995,-0.318042,0.897613,-0.11307899999999999,0.253058,0.971963,-0.08729899999999999,-0.06556200000000001,-0.0012510000000000021,-0.005866999999999997,0.06556200000000001,0.0012510000000000021,0.005867000000000004,-0.10289999999999999,-0.361427,-0.001910999999999996,0.10036799999999999,-0.373327,0.023837,-0.09115000000000001,-0.682997,0.048335,0.11557799999999999,-0.7032069999999999,0.059265
35,-0.010196499999999999,0.695354,-0.017625999999999996,-0.14894549999999998,0.491514,0.010245000000000004,-0.2738055,0.704194,-0.039599,0.1215745,0.5038440000000001,0.016419000000000003,0.2182145,0.735494,-0.024665,-0.3197755,0.896364,-0.11888099999999999,0.2528445,0.9711639999999999,-0.08979099999999998,-0.0656715,-0.0014209999999999987,-0.006217,0.0656715,0.0014209999999999987,0.006217,-0.10224549999999999,-0.360046,-0.002043999999999997,0.10143450000000001,-0.372846,0.023201000000000003,-0.0871285,-0.684346,0.048351000000000005,0.11898449999999999,-0.7030759999999999,0.058795
36,-0.011302000000000001,0.6957275,-0.01982600000000001,-0.14948899999999998,0.49152749999999995,0.0075799999999999965,-0.27558900000000003,0.7035775,-0.044377,0.119961,0.5052075,0.015827999999999995,0.217691,0.7359875,-0.026309,-0.321259,0.8952175,-0.125103,0.252731,0.9704375000000001,-0.09243300000000002,-0.065737,-0.0015825000000000006,-0.006566000000000002,0.065737,0.0015825000000000006,0.0065659999999999955,-0.10170900000000001,-0.3585625,-0.0020810000000000065,0.10278599999999999,-0.3723625,0.022500999999999993,-0.08264600000000001,-0.6857225,0.048429999999999994,0.123001,-0.7027025,0.058395999999999997
37,-0.012106000000000002,0.696078,-0.021861500000000006,-0.150257,0.49148800000000004,0.0044905000000000014,-0.27679699999999996,0.703098,-0.048883499999999996,0.118443,0.506578,0.015240499999999997,0.217053,0.736288,-0.0278765,-0.322217,0.894138,-0.13089450000000002,0.252503,0.9696579999999999,-0.0949945,-0.065812,-0.0017669999999999977,-0.006786500000000001,0.065812,0.0017669999999999977,0.006786500000000001,-0.101257,-0.357072,-0.0019474999999999978,0.104303,-0.371882,0.0218685,-0.07805,-0.686742,0.0486065,0.127043,-0.702382,0.0581855
38,-0.012761499999999999,0.6960124999999999,-0.023925499999999995,-0.15109650000000002,0.4913525,0.0011465000000000017,-0.27777650000000004,0.7024524999999999,-0.053243500000000006,0.1168035,0.5076125,0.014700499999999998,0.21652349999999998,0.7365225,-0.029322499999999994,-0.3230165,0.8927825,-0.1367535,0.2524235,0.9686425000000001,-0.09749350000000001,-0.0657175,-0.0017875000000000044,-0.006915499999999998,0.0657175,0.0017874999999999974,0.006915499999999998,-0.1009465,-0.3562975,-0.0015615000000000004,0.1059075,-0.3719275,0.021326499999999998,-0.0733925,-0.6872075,0.0488145,0.1312335,-0.7026174999999999,0.0580615
39,-0.013336999999999998,0.6959005,-0.025828500000000004,-0.151933,0.4913505,-0.001957500000000001,-0.27881300000000003,0.7018305,-0.05720649999999999,0.115064,0.5085305,0.014145500000000005,0.21625699999999998,0.7366905,-0.030270499999999992,-0.323813,0.8916805,-0.14210650000000002,0.25227700000000003,0.9678405000000001,-0.09964649999999999,-0.065661,-0.0017894999999999994,-0.0069665000000000005,0.065661,0.0017894999999999994,0.0069665000000000005,-0.10076299999999999,-0.3554295,-0.0008974999999999955,0.10738600000000001,-0.3719295,0.0208325,-0.069281,-0.6872095,0.0489175,0.13505699999999998,-0.7028495,0.0580055
40,-0.013738499999999997,0.6958664999999999,-0.027796500000000002,-0.1524855,0.49137650000000005,-0.004372500000000001,-0.2795855,0.7012065,-0.0607825,0.1147035,0.5090264999999999,0.013534499999999998,0.2159745,0.7367564999999999,-0.030866500000000005,-0.3246755,0.8905164999999999,-0.1470725,0.2519445,0.9670664999999999,-0.1016225,-0.0656705,-0.0018304999999999988,-0.007011500000000004,0.0656705,0.0018304999999999988,0.007011499999999997,-0.1005155,-0.3549735,-0.0002585000000000018,0.1088395,-0.37170349999999996,0.0203345,-0.0660405,-0.6864635,0.0489915,0.1383345,-0.7028235,0.0578245
41,-0.014031500000000006,0.6957074999999999,-0.0298005,-0.15345250000000002,0.4912675,-0.006621500000000002,-0.2803825,0.7005975,-0.06502450000000001,0.1143135,0.5093675,0.012894499999999996,0.2158475,0.7355674999999999,-0.0314545,-0.3255425,0.8904274999999999,-0.1526145,0.2514475,0.9662775,-0.10379449999999998,-0.0655185,-0.0019034999999999955,-0.007320500000000001,0.0655185,0.0019035000000000024,0.007320500000000001,-0.10006250000000001,-0.3548125,0.0006115000000000009,0.1106105,-0.3716025,0.019494499999999998,-0.0629955,-0.6865725,0.0493465,0.1418075,-0.7029225,0.0579975
42,-0.014362,0.695712,-0.031852,-0.154729,0.491212,-0.008739999999999998,-0.28108900000000003,0.7004119999999999,-0.06934299999999999,0.113931,0.509732,0.012270999999999997,0.215971,0.734532,-0.032273,-0.326449,0.889362,-0.158313,0.250641,0.9654219999999999,-0.106153,-0.06535300000000001,-0.0019589999999999955,-0.007528,0.065353,0.0019590000000000024,0.007528,-0.099139,-0.35486799999999996,0.0017039999999999972,0.112444,-0.37155799999999994,0.018171,-0.060027,-0.686628,0.049972,0.145041,-0.7029380000000001,0.0587
43,-0.014845499999999998,0.69565,-0.0337205,-0.1565425,0.49121000000000004,-0.010852500000000001,-0.2818425,0.7003400000000001,-0.07310749999999999,0.1131925,0.5101,0.011581500000000002,0.2158575,0.7337,-0.03282449999999999,-0.3273725,0.88848,-0.16323749999999998,0.2498275,0.96462,-0.10825749999999999,-0.06536249999999999,-0.0019570000000000004,-0.007760499999999997,0.0653625,0.0019570000000000004,0.0077605000000000035,-0.0984025,-0.35487,0.002889500000000003,0.1137995,-0.37132,0.0163395,-0.0576635,-0.6854899999999999,0.0504825,0.1479175,-0.70294,0.0596285
44,-0.014791499999999999,0.6952395,-0.035276,-0.15854849999999998,0.4907895,-0.012609999999999996,-0.2823485,0.6999095000000001,-0.07647499999999999,0.11248350000000001,0.5101195000000001,0.011063999999999997,0.2163015,0.7328195000000001,-0.033086000000000004,-0.3281785,0.8873695,-0.168655,0.2492615,0.9637895000000001,-0.109985,-0.0653485,-0.0018314999999999998,-0.008053999999999999,0.0653485,0.0018314999999999998,0.008053999999999999,-0.0974585,-0.3553005,0.00417,0.1154995,-0.3715305,0.014675,-0.055439499999999996,-0.6850605,0.051432,0.1503715,-0.7029504999999999,0.060686000000000004
45,-0.014648000000000001,0.6948885,-0.03671850000000001,-0.15957200000000002,0.49070849999999994,-0.013974500000000008,-0.282072,0.6995285,-0.0788835,0.11244000000000001,0.5102885,0.010931499999999997,0.216868,0.7323285,-0.033495500000000004,-0.328522,0.8861485,-0.17326350000000001,0.248968,0.9629385000000001,-0.11148350000000001,-0.065382,-0.0017165000000000027,-0.008345499999999999,0.065382,0.0017164999999999958,0.008345499999999999,-0.09609200000000001,-0.3558915,0.005517499999999995,0.11741099999999999,-0.3717315,0.013074499999999996,-0.052921,-0.6844515,0.052483499999999995,0.152558,-0.7028415,0.0632615
46,-0.014434999999999996,0.6946209999999999,-0.0378835,-0.160352,0.49062100000000003,-0.01467149999999999,-0.281942,0.6993109999999999,-0.0811585,0.112249,0.5104409999999999,0.010931500000000004,0.217308,0.731881,-0.0339525,-0.328702,0.885241,-0.1774385,0.248768,0.9622709999999999,-0.11275849999999998,-0.065412,-0.001572999999999998,-0.008503499999999997,0.065412,0.001572999999999998,0.008503500000000004,-0.094662,-0.356529,0.0068665000000000045,0.11930400000000001,-0.371929,0.011809500000000007,-0.050579,-0.683829,0.05366050000000001,0.15415800000000002,-0.702789,0.0685525
47,-0.014252499999999994,0.694487,-0.03891050000000001,-0.1610405,0.490737,-0.015086499999999996,-0.2818505,0.699247,-0.0832155,0.1121605,0.510647,0.0109075,0.21769950000000002,0.7315969999999999,-0.034482500000000006,-0.3287305,0.885047,-0.18095550000000002,0.2484595,0.961687,-0.1139955,-0.06547049999999999,-0.0014289999999999997,-0.008619499999999995,0.0654705,0.0014289999999999997,0.008619499999999995,-0.09320049999999999,-0.357333,0.007998499999999999,0.1210515,-0.371943,0.011550499999999998,-0.048457499999999994,-0.683063,0.0548395,0.1553995,-0.702513,0.0762615
48,-0.013956499999999997,0.6942885,-0.039762,-0.1618415,0.4908585,-0.015231000000000001,-0.2814315,0.6991085,-0.08487,0.1122225,0.5108185,0.010909000000000002,0.2181285,0.7312885,-0.034925000000000005,-0.3284415,0.8845284999999999,-0.18382,0.2482685,0.9611685,-0.11522000000000002,-0.0655015,-0.0013125000000000012,-0.008676999999999997,0.06550149999999999,0.0013125000000000012,0.008676999999999997,-0.09172150000000001,-0.35824150000000005,0.009153000000000001,0.1226695,-0.37200150000000004,0.011247,-0.04670150000000001,-0.6823715,0.056001999999999996,0.1563585,-0.7023815,0.087226
49,-0.013633499999999993,0.6940945,-0.0404765,-0.16249950000000002,0.49103449999999993,-0.015301499999999996,-0.2811395,0.6989645,-0.0863215,0.11225850000000001,0.5109345,0.010932500000000005,0.2186205,0.7310344999999999,-0.035490499999999994,-0.3278195,0.8841545,-0.1861515,0.2481605,0.9605445,-0.1163815,-0.0654995,-0.0012144999999999934,-0.008767499999999998,0.0654995,0.0012145000000000003,0.008767500000000004,-0.09034949999999999,-0.3590055,0.010303500000000007,0.12417650000000001,-0.37208549999999996,0.010759500000000005,-0.045149499999999995,-0.6811255,0.05711850000000001,0.1571075,-0.7010455,0.1010915
50,-0.013479000000000005,0.694013,-0.040856,-0.16323,0.49109299999999995,-0.015213000000000004,-0.28099,0.698963,-0.08674000000000001,0.11224699999999999,0.511143,0.011122999999999994,0.21907,0.731033,-0.035986000000000004,-0.3271,0.8839130000000001,-0.18743,0.24819999999999998,0.9600330000000001,-0.11767,-0.06548,-0.001239999999999998,-0.008775000000000005,0.06548,0.001240000000000005,0.008774999999999998,-0.08925000000000001,-0.359067,0.011243999999999997,0.12490199999999999,-0.371357,0.010104999999999996,-0.04372000000000001,-0.6801769999999999,0.058092,0.15605399999999997,-0.695917,0.120131
51,-0.013244500000000006,0.6939504999999999,-0.040968500000000005,-0.1636125,0.4910805,-0.01470450000000001,-0.2810125,0.6989105,-0.0867015,0.11237249999999999,0.5112905,0.011451499999999996,0.21963749999999999,0.7309304999999999,-0.03640650000000001,-0.3263425,0.8836904999999999,-0.1880115,0.24860749999999998,0.9595004999999999,-0.1185315,-0.0654525,-0.001299500000000002,-0.008771500000000002,0.0654525,0.001299499999999995,0.008771499999999995,-0.0882725,-0.3591995,0.012117499999999996,0.1252595,-0.3691595,0.009791499999999995,-0.0428225,-0.6789695,0.0589535,0.1545415,-0.6878095000000001,0.1409935
52,-0.01297100000000001,0.6938475,-0.040931999999999996,-0.163636,0.4909475,-0.013973,-0.281326,0.6987575,-0.08671200000000001,0.112652,0.5112774999999999,0.011925999999999999,0.22023399999999999,0.7308875,-0.03665600000000001,-0.325726,0.8832175,-0.188692,0.249064,0.9589475,-0.11919199999999999,-0.065406,-0.0013405000000000014,-0.008736999999999995,0.06540599999999999,0.0013405000000000014,0.008737000000000002,-0.08730600000000001,-0.3593525,0.012893999999999996,0.12568000000000001,-0.3663125,0.009366,-0.041836,-0.6784025,0.059761,0.152302,-0.6775225,0.163108
53,-0.012892500000000001,0.6938325,-0.04099950000000001,-0.1638345,0.4908625,-0.0135295,-0.2817445,0.6984825,-0.0866995,0.1126455,0.5114225,0.012264499999999998,0.2206555,0.7308025,-0.0369395,-0.3247745,0.8826925,-0.1882395,0.2495055,0.9585625,-0.1197795,-0.06537449999999999,-0.0013265000000000013,-0.008746500000000004,0.0653745,0.0013265000000000013,0.008746499999999997,-0.0865845,-0.35922750000000003,0.013326499999999998,0.1260425,-0.3614775,0.008784499999999994,-0.0412245,-0.6773475,0.060462499999999995,0.1495125,-0.6632675,0.1859405
54,-0.013032999999999989,0.6938615,-0.0411585,-0.16433199999999998,0.4907715,-0.013250499999999998,-0.282382,0.6983215,-0.0867485,0.112513,0.5115715,0.0123995,0.22081800000000001,0.7308115,-0.037407499999999996,-0.324402,0.8821815,-0.1879985,0.249838,0.9583315,-0.12044850000000001,-0.065312,-0.0013144999999999962,-0.008758500000000002,0.06531200000000001,0.0013145000000000032,0.008758499999999995,-0.086072,-0.3592085,0.013558500000000001,0.12604700000000002,-0.3556885,0.008391499999999996,-0.040922,-0.6769685,0.0612485,0.14514300000000002,-0.6438385,0.20920149999999998
55,-0.01341400000000001,0.6936005000000001,-0.04164849999999999,-0.164331,0.49050049999999995,-0.01329749999999999,-0.283381,0.6980605000000001,-0.0869785,0.112408,0.5114305,0.012315500000000007,0.22108899999999998,0.7306005,-0.0380105,-0.324781,0.8815805,-0.1882585,0.250199,0.9578705000000001,-0.1212285,-0.065271,-0.0014525000000000024,-0.008757500000000001,0.065271,0.0014525000000000024,0.008757500000000001,-0.085751,-0.3584395,0.013455500000000002,0.126145,-0.3476495,0.008801500000000004,-0.04053100000000001,-0.6767194999999999,0.061872500000000004,0.140563,-0.6159895,0.2322015
56,-0.01403349999999999,0.693222,-0.042021,-0.16439749999999997,0.49012199999999995,-0.013343000000000008,-0.28460749999999996,0.6976019999999999,-0.087201,0.1123875,0.5111519999999999,0.012239999999999994,0.22126250000000003,0.7303419999999999,-0.038563,-0.3257075,0.880722,-0.188271,0.2504625,0.957292,-0.122081,-0.0652975,-0.0016590000000000008,-0.008758000000000002,0.06529750000000001,0.0016590000000000008,0.008757999999999995,-0.08573750000000001,-0.355518,0.013454999999999995,0.1263585,-0.339518,0.009658999999999994,-0.0401875,-0.677138,0.06227599999999999,0.1359055,-0.5882580000000001,0.25366900000000003
57,-0.014737,0.692843,-0.042384500000000006,-0.16440499999999997,0.48978299999999997,-0.013343500000000008,-0.285935,0.6970729999999999,-0.0874345,0.112286,0.510903,0.012165499999999996,0.221285,0.730243,-0.039123500000000005,-0.32704500000000003,0.880383,-0.1883245,0.250585,0.9567530000000001,-0.1228245,-0.06532500000000001,-0.0018710000000000046,-0.008758500000000002,0.06532500000000001,0.0018709999999999977,0.008758499999999995,-0.08584499999999999,-0.352547,0.013481499999999993,0.12690400000000002,-0.331197,0.010827499999999997,-0.03974499999999999,-0.677727,0.06275549999999999,0.131316,-0.560127,0.2727355
58,-0.015629000000000004,0.69241,-0.042742,-0.164556,0.48926000000000003,-0.013504000000000002,-0.287476,0.6963,-0.087772,0.11221699999999998,0.51076,0.012077000000000004,0.221134,0.7301300000000001,-0.039639999999999995,-0.328946,0.8798,-0.18841199999999997,0.25058400000000003,0.9560900000000001,-0.12353199999999999,-0.065356,-0.0021639999999999993,-0.008783,0.065356,0.0021639999999999993,0.008783000000000006,-0.086206,-0.34941,0.013540000000000003,0.127884,-0.32223,0.012440000000000007,-0.03969600000000001,-0.67842,0.063192,0.12825599999999998,-0.53257,0.290468
59,-0.016596,0.6918645,-0.0433795,-0.16453299999999998,0.4886245,-0.013998499999999997,-0.289123,0.6952445,-0.0888095,0.112028,0.5104545,0.0116905,0.220667,0.7300245000000001,-0.040219500000000005,-0.331413,0.8788145,-0.18932949999999998,0.250417,0.9553444999999999,-0.12423949999999999,-0.06539299999999999,-0.0024785000000000015,-0.008834499999999995,0.065393,0.0024785000000000015,0.008834500000000002,-0.08695299999999999,-0.3462855,0.013455500000000002,0.128376,-0.3130455,0.014587500000000003,-0.039862999999999996,-0.6776255,0.0631705,0.126964,-0.5081755,0.3032605
60,-0.017591999999999997,0.6912475,-0.04435800000000001,-0.164435,0.48793749999999997,-0.014729000000000006,-0.290635,0.6941475,-0.090158,0.11184,0.5101575,0.011025,0.220155,0.7298975000000001,-0.041058,-0.333965,0.8776375000000001,-0.19073800000000002,0.25017500000000004,0.9544775,-0.12524800000000003,-0.06542500000000001,-0.0028144999999999976,-0.008784,0.065425,0.0028145000000000045,0.008784,-0.08790500000000001,-0.3424725,0.013268999999999996,0.128735,-0.3052225,0.017075999999999994,-0.039904999999999996,-0.6767225,0.06290699999999999,0.127052,-0.48831250000000004,0.31474199999999997
61,-0.018717499999999998,0.6904665,-0.04588300000000001,-0.16434549999999998,0.4871365,-0.015844999999999998,-0.2922055,0.6928065,-0.09215300000000001,0.1116245,0.5098065,0.010030999999999998,0.2195645,0.7296565,-0.042353,-0.3366055,0.8761365,-0.19293300000000002,0.2498145,0.9533665,-0.126823,-0.0654355,-0.003190499999999999,-0.008829000000000004,0.0654355,0.003190499999999999,0.008828999999999997,-0.0890055,-0.3387435,0.012668999999999993,0.1289385,-0.2972935,0.019851999999999995,-0.04055550000000001,-0.6748835,0.062033,0.1271685,-0.4709135,0.324577
62,-0.01979249999999999,0.6896865,-0.047715499999999994,-0.1641415,0.4862765,-0.01715549999999999,-0.2937415,0.6914865,-0.09457549999999999,0.11158850000000001,0.5094865,0.008788500000000005,0.21897850000000002,0.7293465,-0.04396549999999999,-0.3391115,0.8743665,-0.1959055,0.2494385,0.9521265,-0.1290055,-0.0654415,-0.003541500000000003,-0.008820499999999995,0.06544150000000001,0.003541499999999996,0.008820500000000002,-0.09007149999999998,-0.3355335,0.011868500000000004,0.13005250000000002,-0.2911235,0.021659500000000005,-0.041711499999999985,-0.6724035,0.0608095,0.1272475,-0.4571235,0.3333845
63,-0.020840499999999998,0.688929,-0.04967,-0.1640255,0.48548900000000006,-0.0186,-0.2951955,0.690109,-0.09722,0.1115575,0.5091990000000001,0.007417,0.2184245,0.729019,-0.04571000000000001,-0.3414055,0.8724190000000001,-0.19925,0.2489745,0.950889,-0.1314,-0.06547549999999999,-0.003832999999999996,-0.008759999999999997,0.06547549999999999,0.003833000000000003,0.008759999999999997,-0.09124550000000001,-0.332221,0.010978999999999996,0.1318615,-0.285581,0.023881,-0.04306550000000001,-0.670741,0.059821,0.1272675,-0.448051,0.3398
64,-0.021518999999999996,0.6883760000000001,-0.0516035,-0.164007,0.48491599999999996,-0.020043499999999992,-0.29604699999999995,0.689056,-0.09989350000000001,0.11157500000000001,0.5091460000000001,0.0060575,0.21804300000000001,0.7288760000000001,-0.04742349999999999,-0.342917,0.870776,-0.20268350000000002,0.248763,0.949816,-0.1337335,-0.06547700000000001,-0.00401,-0.008738499999999996,0.06547700000000001,0.004010000000000007,0.008738500000000003,-0.09207699999999999,-0.329084,0.010119500000000003,0.134166,-0.282214,0.026826500000000003,-0.04493699999999999,-0.667704,0.0586175,0.127732,-0.447214,0.3435665
65,-0.021949499999999997,0.6879350000000001,-0.05356400000000001,-0.1639835,0.48446500000000003,-0.021483999999999996,-0.29669349999999994,0.688125,-0.10261399999999998,0.1115875,0.5091950000000001,0.004673999999999998,0.21772650000000002,0.7287950000000001,-0.049134000000000004,-0.34399349999999995,0.869275,-0.20621399999999998,0.2486465,0.948885,-0.136104,-0.06547349999999999,-0.004116000000000002,-0.008693,0.0654735,0.004116000000000002,0.008693,-0.09264349999999999,-0.32804500000000003,0.009350999999999998,0.1365815,-0.278945,0.03066,-0.04675349999999999,-0.664685,0.057381,0.1287915,-0.44699500000000003,0.34647599999999995
66,-0.02222049999999999,0.687519,-0.0555885,-0.1639045,0.484029,-0.0230765,-0.2972245,0.6872189999999999,-0.10537850000000001,0.11160650000000001,0.509219,0.003193499999999995,0.2174855,0.728659,-0.05101850000000001,-0.3448745,0.867869,-0.20967850000000002,0.24864550000000002,0.947959,-0.1385685,-0.0654745,-0.004226000000000001,-0.008663500000000005,0.0654745,0.004225999999999994,0.008663499999999998,-0.0931145,-0.32693099999999997,0.008590499999999994,0.1390495,-0.275911,0.03469849999999999,-0.048494499999999996,-0.6617810000000001,0.056064499999999996,0.13141550000000002,-0.447271,0.34873149999999997
67,-0.022539000000000003,0.6871805000000001,-0.057480500000000004,-0.164043,0.4837405,-0.0245765,-0.29780300000000004,0.6863205,-0.1079005,0.11160600000000001,0.5091005000000001,0.0018294999999999978,0.21712700000000001,0.7284705,-0.0529505,-0.345613,0.8665705,-0.21282050000000002,0.248477,0.9471405,-0.1411505,-0.06550299999999999,-0.0042745000000000005,-0.008587500000000005,0.065503,0.0042745000000000005,0.008587499999999998,-0.093713,-0.32583949999999995,0.0078885,0.14138499999999998,-0.2733895,0.037462499999999996,-0.050352999999999995,-0.6581794999999999,0.054891499999999996,0.13508900000000001,-0.4474595,0.3497595
68,-0.022755499999999998,0.686918,-0.0590325,-0.1641545,0.48348800000000003,-0.0258245,-0.2982345,0.685588,-0.10977250000000001,0.1115585,0.5090180000000001,0.0007194999999999979,0.2169055,0.728318,-0.0545225,-0.34609449999999997,0.865568,-0.2151925,0.2482655,0.946418,-0.14332250000000002,-0.06549450000000001,-0.0043300000000000005,-0.008504500000000005,0.0654945,0.0043300000000000005,0.008504499999999998,-0.09422449999999999,-0.324762,0.007290499999999998,0.1436885,-0.272252,0.0392135,-0.05200450000000001,-0.6555219999999999,0.053955499999999997,0.1385015,-0.44643200000000005,0.3504675
69,-0.022972999999999993,0.686717,-0.0603995,-0.16426800000000003,0.483277,-0.0269145,-0.298668,0.6850069999999999,-0.1113895,0.111517,0.508967,-0.00022550000000000348,0.216692,0.728227,-0.0559295,-0.346508,0.864777,-0.21729949999999998,0.248052,0.945747,-0.1452495,-0.065478,-0.004371,-0.008486500000000001,0.065478,0.004371,0.008486500000000001,-0.09454800000000001,-0.324333,0.006650499999999997,0.14561200000000002,-0.272343,0.0389875,-0.053688,-0.652653,0.0531855,0.14147500000000002,-0.445523,0.3499905
70,-0.023131000000000013,0.686598,-0.0612485,-0.16431800000000002,0.48315800000000003,-0.027658500000000003,-0.298848,0.6845180000000001,-0.1124185,0.11150399999999999,0.509008,-0.0008765000000000023,0.216532,0.7282080000000001,-0.057028499999999996,-0.346828,0.864058,-0.21867850000000003,0.24804199999999998,0.9453280000000001,-0.1467685,-0.065468,-0.004380000000000002,-0.008379500000000005,0.065468,0.004380000000000002,0.008379499999999998,-0.09473800000000002,-0.323952,0.0062974999999999975,0.14667799999999998,-0.272262,0.0383835,-0.05316800000000002,-0.6548419999999999,0.0527775,0.142198,-0.445102,0.3493815
71,-0.023201,0.6864680000000001,-0.061885499999999996,-0.16436800000000001,0.48305799999999993,-0.028199500000000002,-0.299068,0.684068,-0.11317550000000001,0.111499,0.509038,-0.0013405000000000014,0.216382,0.727998,-0.0579755,-0.347298,0.8635280000000001,-0.2195655,0.248282,0.944998,-0.1479955,-0.065448,-0.004380000000000002,-0.008299500000000001,0.065448,0.004380000000000002,0.008299499999999994,-0.094918,-0.323572,0.006113500000000001,0.147573,-0.272262,0.0379795,-0.053928000000000004,-0.652732,0.0525005,0.14221699999999998,-0.445462,0.3489645
72,-0.023188500000000015,0.686358,-0.062315,-0.1643385,0.482898,-0.028571000000000006,-0.2992285,0.683698,-0.11366500000000002,0.1115235,0.509058,-0.0016159999999999994,0.21641149999999998,0.727588,-0.058805,-0.34780849999999996,0.863128,-0.22004500000000002,0.2486515,0.944628,-0.149075,-0.0654285,-0.004380000000000002,-0.008356000000000002,0.06542849999999999,0.004380000000000002,0.008356000000000002,-0.09507850000000001,-0.323312,0.006003000000000001,0.14791749999999998,-0.272262,0.037746,-0.05408850000000001,-0.652732,0.052464000000000004,0.1420575,-0.445462,0.34870500000000004
73,-0.023044999999999996,0.6862665,-0.06251949999999999,-0.16428700000000002,0.48274649999999997,-0.028776499999999997,-0.299367,0.6833665,-0.1139495,0.111624,0.5090765,-0.0016874999999999946,0.21665299999999998,0.7269665,-0.059659500000000004,-0.348177,0.8628165,-0.22028950000000003,0.249253,0.9441165,-0.15006950000000002,-0.06541699999999999,-0.0043715,-0.0083885,0.065417,0.0043715,0.0083885,-0.095207,-0.32330349999999997,0.005928500000000003,0.147778,-0.2732735,0.036126500000000006,-0.054247000000000004,-0.6527235,0.052235500000000004,0.14191399999999998,-0.4467835,0.3473805
74,-0.022807499999999994,0.686229,-0.0625715,-0.1642355,0.48263900000000004,-0.028868500000000005,-0.2995155,0.683129,-0.11410150000000001,0.11175950000000001,0.509129,-0.0016854999999999995,0.21700450000000002,0.7263890000000001,-0.0602915,-0.3483255,0.862589,-0.22046150000000003,0.25013450000000004,0.9435290000000001,-0.15119149999999998,-0.0654255,-0.004382999999999998,-0.0083885,0.06542550000000001,0.004383000000000005,0.0083885,-0.09532549999999998,-0.32325099999999996,0.005927500000000002,0.14765050000000002,-0.27453099999999997,0.0335955,-0.05312549999999999,-0.655481,0.0523715,0.1417825,-0.447971,0.34514849999999997
75,-0.022447499999999995,0.6862955,-0.0625735,-0.16418649999999999,0.4825855,-0.028887499999999997,-0.29966649999999995,0.6828955,-0.11432350000000001,0.1119305,0.5091955,-0.0016655000000000003,0.2175535,0.7257355,-0.060803499999999996,-0.3484965,0.8623554999999999,-0.2206535,0.2515035,0.9427055,-0.1525535,-0.0654265,-0.004404499999999999,-0.0083885,0.0654265,0.004404500000000006,0.0083885,-0.09544649999999999,-0.3231845,0.005912500000000001,0.1475415,-0.2762545,0.028552499999999998,-0.05175650000000001,-0.6584945,0.0524855,0.1359245,-0.44806450000000003,0.3412465
76,-0.021934499999999982,0.6863055,-0.0625665,-0.16416349999999996,0.4825655,-0.028887500000000003,-0.2996835,0.6828555000000001,-0.1146365,0.11212350000000001,0.5092855000000001,-0.0016414999999999971,0.2183965,0.7248955,-0.0610765,-0.3486635,0.8624455,-0.2209065,0.2533965,0.9419355,-0.1537365,-0.0654435,-0.004416500000000004,-0.0083885,0.06544350000000002,0.004416499999999997,0.0083885,-0.09545349999999998,-0.32373450000000004,0.005824500000000003,0.1472495,-0.2782645,0.021363500000000004,-0.04997349999999999,-0.6627945,0.052506500000000005,0.1308375,-0.4519345,0.3320735
77,-0.021335499999999993,0.6863875,-0.062445999999999995,-0.1642365,0.48252749999999994,-0.028774,-0.2996365,0.6828775,-0.11485600000000001,0.11228550000000001,0.5093675000000001,-0.001451999999999995,0.2194735,0.7240575,-0.061116,-0.3488665,0.8625275,-0.221006,0.2555535,0.9410275,-0.154806,-0.06546650000000001,-0.004427500000000001,-0.008438000000000001,0.0654665,0.004427500000000001,0.008438000000000001,-0.0950965,-0.3257525,0.005895000000000004,0.1462765,-0.2816725,0.012813999999999999,-0.047896499999999995,-0.6676025,0.052647,0.1263045,-0.4643125,0.31625400000000004
78,-0.020612999999999992,0.6864445,-0.0618775,-0.164288,0.48258449999999997,-0.0285025,-0.299458,0.6829045,-0.1147775,0.11246300000000001,0.5094945,-0.0010954999999999993,0.220802,0.7232945,-0.06082750000000001,-0.348888,0.8626645,-0.22102750000000002,0.258072,0.9401645,-0.1555975,-0.065478,-0.0044195,-0.008454499999999997,0.06547800000000001,0.0044195,0.008454499999999997,-0.09466799999999999,-0.3279855,0.006055499999999998,0.14504699999999998,-0.2859255,0.003783500000000002,-0.045857999999999996,-0.6722755,0.0529765,0.122157,-0.4794255,0.2981625
79,-0.019871,0.6865445,-0.06107950000000001,-0.16430999999999998,0.48266450000000005,-0.028023500000000007,-0.29918,0.6829845,-0.11431949999999999,0.112697,0.5096645,-0.000507500000000001,0.2223,0.7225545,-0.06032950000000001,-0.34791,0.8665345,-0.22251949999999998,0.26069,0.9393645,-0.1550895,-0.0655,-0.004394499999999996,-0.008483500000000005,0.0655,0.004394500000000003,0.008483499999999998,-0.09403,-0.3312855,0.006446499999999994,0.143382,-0.2916055,-0.005709500000000006,-0.04382,-0.6769855,0.053476499999999996,0.118729,-0.4980155,0.27755050000000003
80,-0.01904950000000001,0.68667,-0.060097000000000005,-0.1642135,0.48277000000000003,-0.027426,-0.2988035,0.68323,-0.11380699999999999,0.1129665,0.50982,0.0001460000000000003,0.2239965,0.72192,-0.059796999999999996,-0.3468835,0.87048,-0.22399700000000003,0.2634965,0.93871,-0.154957,-0.0655235,-0.004341999999999999,-0.008514,0.0655235,0.004341999999999999,0.008514,-0.09326350000000001,-0.33516,0.006824000000000004,0.14156449999999998,-0.29779,-0.014876,-0.0418935,-0.68151,0.054115,0.1162425,-0.5190400000000001,0.254583
81,-0.017987500000000003,0.6868175000000001,-0.058841000000000004,-0.16419850000000002,0.4829675,-0.026769,-0.2981385,0.6834975,-0.11328099999999999,0.1133075,0.5100175,0.001007000000000001,0.2260215,0.7213675,-0.058911000000000005,-0.3458285,0.8745175000000001,-0.225421,0.2676115,0.9377175,-0.154391,-0.0655785,-0.0042535,-0.008544999999999997,0.0655785,0.0042535,0.008545000000000004,-0.0925785,-0.33923250000000005,0.007271,0.13946350000000002,-0.3048725,-0.022864999999999996,-0.04002850000000001,-0.6851324999999999,0.054553000000000004,0.1146575,-0.5420925,0.229919
82,-0.016841499999999995,0.6870155,-0.0574235,-0.1641815,0.4832155,-0.026065500000000005,-0.2973215,0.6838455,-0.11277350000000001,0.1136645,0.5102255,0.0019915,0.2280685,0.7209755,-0.0579035,-0.3446415,0.8787355,-0.22677349999999996,0.2715685,0.9357055000000001,-0.15384350000000002,-0.0656215,-0.0041544999999999985,-0.008570500000000002,0.0656215,0.0041544999999999985,0.008570500000000002,-0.0917615,-0.3433345,0.007780500000000003,0.13746350000000002,-0.3130545,-0.030005500000000004,-0.03901149999999999,-0.6876445,0.0548945,0.1143075,-0.5660744999999999,0.20350649999999998
83,-0.015502999999999989,0.6872815,-0.055794,-0.163945,0.4835115,-0.02533,-0.296305,0.6842015,-0.11211400000000002,0.114026,0.5104415,0.003012000000000001,0.230515,0.7204115,-0.056514,-0.343295,0.8829915,-0.227424,0.275785,0.9320015,-0.152834,-0.06564500000000001,-0.004029499999999998,-0.008569,0.06564500000000001,0.004029499999999998,0.008569,-0.09099499999999999,-0.3473885,0.008205999999999998,0.135706,-0.3213785,-0.035887999999999996,-0.038764999999999994,-0.6882085,0.055054,0.11413100000000001,-0.5924585,0.176516
84,-0.014262499999999997,0.687678,-0.05415700000000001,-0.1636805,0.483968,-0.024566000000000004,-0.2952805,0.6846880000000001,-0.11132700000000001,0.1142195,0.510768,0.003936999999999996,0.2328695,0.7200080000000001,-0.05501700000000001,-0.3419205,0.8874380000000001,-0.227967,0.2797895,0.928328,-0.151267,-0.0656905,-0.0038600000000000023,-0.008446000000000002,0.06569050000000001,0.0038600000000000023,0.008445999999999995,-0.09032049999999998,-0.35127200000000003,0.008528999999999995,0.1340885,-0.329822,-0.038952,-0.03868049999999999,-0.6886519999999999,0.055219,0.11381850000000002,-0.619242,0.150513
85,-0.012991500000000003,0.6881949999999999,-0.05237649999999999,-0.1633305,0.48447500000000004,-0.02381749999999999,-0.2943205,0.6852849999999999,-0.1105465,0.11441950000000001,0.511115,0.004786500000000006,0.2351595,0.719775,-0.0531365,-0.3405005,0.892245,-0.2284065,0.2832595,0.927915,-0.1504565,-0.06575049999999999,-0.0036590000000000025,-0.008344499999999998,0.0657505,0.0036589999999999956,0.008344500000000005,-0.0897605,-0.354535,0.008740500000000005,0.1326885,-0.338205,-0.0399925,-0.0385505,-0.6884650000000001,0.055275500000000005,0.11347750000000001,-0.642145,0.12791249999999998
86,-0.011816999999999994,0.6888655,-0.05062,-0.163127,0.48515549999999996,-0.02314200000000001,-0.29336700000000004,0.6861254999999999,-0.10966000000000001,0.114424,0.5115755,0.005460999999999994,0.237283,0.7196655,-0.05123,-0.339167,0.8975855,-0.22873000000000002,0.286303,0.9278255,-0.14958,-0.06576699999999999,-0.0033994999999999997,-0.008266000000000003,0.065767,0.0033994999999999997,0.008265999999999996,-0.08982699999999999,-0.3561845,0.008767999999999998,0.131587,-0.3454545,-0.03991800000000001,-0.038977,-0.6881145,0.055182999999999996,0.11329700000000001,-0.6574545,0.110267
87,-0.010815000000000005,0.6895805,-0.049153499999999996,-0.163016,0.48588050000000005,-0.022567499999999997,-0.292426,0.6870505,-0.1086445,0.11436199999999999,0.5120505,0.006102500000000004,0.239164,0.7197805,-0.0493775,-0.338026,0.9030005,-0.22873449999999998,0.288784,0.9279105,-0.1484145,-0.06576599999999999,-0.0031235000000000013,-0.008226499999999998,0.06576599999999999,0.0031235000000000013,0.008226499999999998,-0.09009600000000001,-0.3576095,0.0087355,0.130468,-0.3520195,-0.039892500000000004,-0.03955600000000001,-0.6878095,0.0552155,0.11812399999999999,-0.6701895,0.09357750000000001
88,-0.009934499999999999,0.6903975,-0.0476645,-0.1623075,0.4864775,-0.022016499999999994,-0.2917775,0.6881275,-0.10746850000000001,0.1147115,0.5121875,0.007031500000000003,0.24064249999999998,0.7198975,-0.0476355,-0.3381075,0.9047275,-0.2286785,0.29175249999999997,0.9281775,-0.14726850000000002,-0.06576749999999999,-0.0028655,-0.008170499999999997,0.06576749999999999,0.0028655,0.008170500000000004,-0.0908675,-0.35784249999999995,0.008781500000000005,0.12888650000000001,-0.3568825,-0.0398565,-0.040497500000000006,-0.6873725,0.0553135,0.1218225,-0.6795925,0.0787545
89,-0.009299000000000016,0.6911875,-0.0462415,-0.161134,0.48673749999999993,-0.021430499999999998,-0.291194,0.6891375,-0.1063045,0.11510699999999999,0.5123475,0.008140500000000002,0.241886,0.7204875,-0.045974499999999995,-0.338384,0.9064475,-0.2286745,0.293886,0.9290075,-0.1461445,-0.065734,-0.0026205000000000048,-0.0081115,0.06573399999999999,0.002620499999999998,0.0081115,-0.09197400000000001,-0.3575125,0.008898500000000004,0.12683299999999997,-0.3610625,-0.0392775,-0.041814000000000004,-0.6869225,0.0554105,0.12457499999999999,-0.6864925000000001,0.0661645
90,-0.008719499999999998,0.6920229999999999,-0.045204999999999995,-0.1598565,0.48695299999999997,-0.021044999999999994,-0.29063649999999996,0.6900229999999999,-0.105023,0.11581849999999999,0.512483,0.009139000000000001,0.24289349999999998,0.7212729999999999,-0.044725,-0.33847649999999996,0.908193,-0.22877299999999998,0.29450350000000003,0.929513,-0.144803,-0.0656565,-0.0023919999999999983,-0.008105000000000001,0.06565649999999999,0.0023919999999999983,0.008105000000000001,-0.0930465,-0.35712700000000003,0.009013,0.12486249999999999,-0.36323700000000003,-0.03744600000000001,-0.043256499999999996,-0.685877,0.055367,0.1269925,-0.691487,0.055611
91,-0.008328499999999996,0.6931520000000001,-0.044309,-0.1585655,0.487442,-0.020768999999999996,-0.2904955,0.691222,-0.1039,0.1161395,0.512962,0.010022000000000003,0.2433745,0.722472,-0.043506,-0.3389955,0.9101720000000001,-0.22716999999999998,0.2944145,0.9307120000000001,-0.14395000000000002,-0.0656455,-0.002142999999999999,-0.008072999999999997,0.0656455,0.002142999999999999,0.008073000000000004,-0.09444550000000002,-0.356558,0.009109000000000006,0.12224950000000001,-0.363938,-0.03472399999999999,-0.045775500000000004,-0.684608,0.055395,0.1276325,-0.695368,0.048127
92,-0.008230000000000001,0.694091,-0.04406000000000001,-0.15775699999999998,0.48757100000000003,-0.02056700000000001,-0.290247,0.692131,-0.10314900000000002,0.11643999999999999,0.5132610000000001,0.010390999999999997,0.24357299999999998,0.723491,-0.042753000000000006,-0.339407,0.911991,-0.225479,0.293843,0.9317310000000001,-0.14338900000000002,-0.065647,-0.0018990000000000049,-0.007923,0.065647,0.001898999999999998,0.007923,-0.09608699999999999,-0.35624900000000004,0.009246999999999998,0.119286,-0.36456900000000003,-0.031401000000000005,-0.048987,-0.683249,0.055547,0.126856,-0.6982889999999999,0.041921
93,-0.0082015,0.6948805,-0.043711,-0.1567575,0.48749049999999994,-0.020206000000000002,-0.2894775,0.6927105,-0.10236500000000001,0.1171875,0.5134205,0.010811999999999995,0.2433825,0.7243404999999999,-0.042246000000000006,-0.34012749999999997,0.9136205,-0.223635,0.2931825,0.9326805,-0.142565,-0.0655375,-0.0016764999999999974,-0.007774000000000003,0.0655375,0.0016764999999999974,0.007773999999999996,-0.0973375,-0.3561095,0.009286999999999997,0.1160265,-0.3649595,-0.027176000000000006,-0.053387500000000004,-0.6821195,0.055693,0.1248755,-0.7007595,0.037017999999999995
94,-0.0081805,0.695659,-0.043171,-0.15583149999999998,0.487379,-0.019654000000000005,-0.2887715,0.693329,-0.101434,0.11848149999999999,0.5135689999999999,0.011367999999999996,0.2431085,0.725219,-0.04170900000000001,-0.3404415,0.915079,-0.22162400000000002,0.2922585,0.937039,-0.141804,-0.06541150000000001,-0.0014960000000000043,-0.007577,0.0654115,0.0014959999999999973,0.0075769999999999935,-0.0987615,-0.355961,0.009308999999999998,0.1128305,-0.364981,-0.022028000000000006,-0.05803149999999999,-0.680811,0.056022999999999996,0.1219575,-0.702091,0.033724
95,-0.007998999999999992,0.6961485,-0.042243,-0.154364,0.4870685,-0.018966999999999998,-0.28786399999999995,0.6934785,-0.100257,0.120257,0.5134285,0.012315,0.242706,0.7262885,-0.040789000000000006,-0.340234,0.9159285,-0.21985699999999997,0.291476,0.9395085,-0.140457,-0.065324,-0.0013654999999999987,-0.007350000000000002,0.06532400000000001,0.0013655000000000056,0.007349999999999995,-0.10000400000000001,-0.3561315,0.009283,0.109204,-0.3651115,-0.017092999999999997,-0.06345399999999998,-0.6802615,0.056429999999999994,0.11771700000000002,-0.7028215,0.032281
96,-0.007561999999999996,0.6965819999999999,-0.041443499999999994,-0.152883,0.48676200000000003,-0.018253499999999992,-0.28676300000000005,0.693842,-0.09912549999999999,0.122161,0.513272,0.0134125,0.242567,0.727592,-0.0397175,-0.339523,0.9165019999999999,-0.2180955,0.290697,0.944202,-0.1398255,-0.065231,-0.0012829999999999994,-0.007110499999999999,0.065231,0.0012829999999999994,0.007110500000000006,-0.10122299999999998,-0.35643800000000003,0.009123500000000007,0.105393,-0.365338,-0.012834499999999999,-0.06909699999999999,-0.681168,0.057126500000000004,0.112862,-0.703558,0.032322500000000004
97,-0.0071360000000000035,0.6968295,-0.040769999999999994,-0.152147,0.4864895,-0.017411000000000003,-0.28530700000000003,0.6941995,-0.097807,0.123643,0.5133995,0.014434000000000002,0.242733,0.7288795,-0.03878499999999999,-0.338417,0.9171294999999999,-0.21582700000000002,0.289153,0.9457895,-0.138947,-0.065196,-0.0011985000000000051,-0.006815000000000002,0.065196,0.0011984999999999982,0.006815000000000002,-0.10230699999999998,-0.3566505,0.009007000000000001,0.10158400000000001,-0.36578049999999995,-0.008897999999999996,-0.074827,-0.6818305,0.057986,0.10780899999999999,-0.7043005,0.03316
98,-0.0062965,0.696978,-0.04043300000000001,-0.1523075,0.486598,-0.016543000000000002,-0.2834475,0.694508,-0.09636,0.1247025,0.513578,0.015560999999999998,0.2430825,0.729898,-0.038122,-0.33668750000000003,0.917758,-0.21342999999999998,0.2881225,0.947388,-0.13798,-0.0651165,-0.001120999999999997,-0.006634000000000001,0.0651165,0.001120999999999997,0.006633999999999994,-0.1028975,-0.357402,0.008754999999999999,0.09819050000000001,-0.366352,-0.005623000000000003,-0.07993549999999999,-0.682442,0.058947,0.1027535,-0.704992,0.034245
99,-0.0052539999999999965,0.6970645,-0.040193,-0.152732,0.4866545,-0.015600999999999997,-0.281532,0.6948044999999999,-0.09473999999999999,0.125088,0.5136245,0.016811,0.243618,0.7309145,-0.037749,-0.334452,0.9182045,-0.21108000000000002,0.287368,0.9486145,-0.13685999999999998,-0.065049,-0.0010444999999999968,-0.006415999999999998,0.065049,0.0010445000000000038,0.006415999999999998,-0.10342199999999999,-0.3582655,0.008552999999999998,0.09476500000000002,-0.36699550000000003,-0.003162999999999999,-0.084562,-0.6828755,0.059879,0.097309,-0.7054555,0.035553
100,-0.0039015000000000013,0.69702,-0.0400295,-0.15162950000000003,0.48676,-0.01505349999999999,-0.2790595,0.69448,-0.09297849999999999,0.1271705,0.5132,0.016900500000000006,0.2445505,0.73136,-0.037301499999999994,-0.3314995,0.9185599999999999,-0.2091385,0.2875005,0.94872,-0.1350285,-0.0649125,-0.0009839999999999988,-0.006198500000000003,0.0649125,0.0009839999999999988,0.006198500000000003,-0.1038295,-0.35924999999999996,0.008542500000000001,0.09213249999999999,-0.36812999999999996,-0.0013074999999999962,-0.0882855,-0.6841,0.0608575,0.0922635,-0.7059300000000001,0.0370935
101,-0.002155,0.6969350000000001,-0.03995749999999999,-0.14974500000000002,0.486825,-0.014495499999999995,-0.276165,0.694175,-0.09144749999999999,0.12960500000000003,0.5125850000000001,0.016730500000000002,0.245765,0.731415,-0.03709749999999999,-0.327905,0.918585,-0.2070675,0.288165,0.9487650000000001,-0.13362749999999998,-0.064789,-0.0009390000000000023,-0.006117499999999998,0.064789,0.0009389999999999954,0.006117500000000005,-0.104085,-0.360675,0.008225500000000004,0.089632,-0.369485,0.0006885000000000016,-0.092084,-0.685425,0.0627625,0.087009,-0.7065849999999999,0.03876650000000001
102,-0.00015050000000000306,0.6969015000000001,-0.039926500000000004,-0.14742850000000002,0.48686150000000006,-0.0143475,-0.2735785,0.6937815,-0.0902865,0.1320815,0.5119215,0.0161385,0.24787149999999997,0.7314315,-0.037331500000000004,-0.32328850000000003,0.9186015,-0.20515649999999996,0.2890415,0.9487815,-0.1328165,-0.0647535,-0.0009224999999999997,-0.005934499999999995,0.0647535,0.0009224999999999997,0.005934500000000002,-0.1045655,-0.36212849999999996,0.007668500000000002,0.0877265,-0.3707985,0.0025695000000000023,-0.0949285,-0.6858585,0.0646315,0.0823095,-0.7072485,0.0404645
103,0.0022579999999999944,0.6967095,-0.040250499999999995,-0.144832,0.48699950000000003,-0.014217499999999994,-0.269812,0.6934395,-0.08922050000000001,0.134348,0.5112495,0.0151395,0.250548,0.7312695,-0.038210499999999994,-0.318362,0.9184395,-0.2033905,0.291228,0.9485995,-0.1327105,-0.064715,-0.0008685000000000012,-0.0057375000000000065,0.064715,0.0008685000000000012,0.0057374999999999995,-0.105215,-0.3632605,0.0085065,0.08568799999999999,-0.3714905,0.004568499999999996,-0.097862,-0.6866005,0.0666195,0.07728399999999999,-0.7078905,0.0420645
104,0.004739999999999998,0.696585,-0.0406015,-0.141966,0.487105,-0.014345499999999997,-0.266136,0.693405,-0.08842150000000001,0.13658399999999998,0.510565,0.014144499999999997,0.253654,0.731175,-0.0394815,-0.313556,0.918345,-0.2017815,0.293744,0.947675,-0.1331815,-0.064693,-0.0008290000000000033,-0.0055135000000000045,0.064693,0.0008289999999999964,0.005513499999999998,-0.105871,-0.364055,0.010274499999999999,0.084144,-0.37204499999999996,0.005858499999999996,-0.100043,-0.685385,0.0683685,0.072951,-0.708205,0.0435085
105,0.007289999999999998,0.6965165,-0.04107050000000001,-0.13903300000000002,0.48748649999999993,-0.014516500000000002,-0.262243,0.6937865,-0.08819050000000002,0.138767,0.5099665,0.012935499999999996,0.256727,0.7309065,-0.04071050000000001,-0.308763,0.9182564999999999,-0.20039050000000003,0.296907,0.9469065,-0.1343705,-0.064722,-0.0007565000000000002,-0.005302500000000002,0.064722,0.0007565000000000002,0.005302499999999995,-0.106575,-0.36482349999999997,0.012051499999999993,0.082617,-0.3722835,0.006560499999999997,-0.102011,-0.6847435000000001,0.0730025,0.06879099999999999,-0.7082935,0.044767499999999995
106,0.010405499999999998,0.6964794999999999,-0.041927500000000006,-0.1350135,0.4879495,-0.015520500000000007,-0.2581035,0.6943094999999999,-0.0883775,0.1417265,0.5093495,0.011852499999999988,0.2605565,0.7302194999999999,-0.042117500000000016,-0.3034635,0.9177894999999999,-0.19979750000000002,0.30114650000000004,0.9459795,-0.13596750000000002,-0.06454750000000001,-0.0007095000000000018,-0.005143500000000009,0.06454750000000001,0.0007094999999999949,0.005143499999999995,-0.10699049999999999,-0.3648705,0.013802499999999988,0.08142650000000001,-0.3723305,0.006503499999999995,-0.1045815,-0.6843505000000001,0.0838655,0.0646835,-0.7083405,0.04591949999999999
107,0.0136415,0.6965695000000001,-0.042841000000000004,-0.1305935,0.48836949999999996,-0.016929,-0.2541435,0.6948495,-0.08901099999999999,0.14504650000000002,0.5087495000000001,0.010532,0.2645565,0.7292595000000001,-0.043551000000000006,-0.2982235,0.9171895000000001,-0.199451,0.3059265,0.9441895,-0.137801,-0.0644615,-0.0006564999999999974,-0.004903000000000005,0.0644615,0.0006565000000000043,0.004903000000000005,-0.1075515,-0.3648905,0.015875,0.0800265,-0.37235050000000003,0.006275000000000003,-0.10815150000000001,-0.6843305,0.10050100000000001,0.060873500000000004,-0.7083605,0.046969
108,0.016828000000000003,0.696549,-0.04396900000000001,-0.126087,0.48877899999999996,-0.018374,-0.25014200000000003,0.695349,-0.090359,0.148588,0.508099,0.009055999999999995,0.268678,0.727919,-0.04500900000000001,-0.29294200000000004,0.916139,-0.19981900000000002,0.311838,0.939259,-0.139719,-0.064364,-0.0005849999999999952,-0.004704000000000014,0.064364,0.0005850000000000022,0.004704,-0.10828099999999999,-0.364921,0.018565999999999992,0.07863800000000001,-0.372381,0.005868999999999999,-0.11202999999999999,-0.683561,0.119623,0.057675,-0.707881,0.047680999999999994
109,0.019982,0.6966055,-0.045184000000000016,-0.123329,0.4891755,-0.019389000000000017,-0.24598,0.6958455,-0.09230400000000002,0.15061,0.5078455000000001,0.008433999999999983,0.273,0.7262755000000001,-0.046644000000000005,-0.28785,0.9149555,-0.20106400000000002,0.31737000000000004,0.9339955,-0.141714,-0.06427,-0.0005324999999999983,-0.004489000000000007,0.06427,0.0005324999999999983,0.004488999999999993,-0.10916000000000001,-0.3644145,0.02083799999999999,0.07733999999999999,-0.3721945,0.005142999999999995,-0.115788,-0.6803644999999999,0.14087499999999997,0.054854999999999994,-0.7073845,0.048122999999999985
110,0.023102000000000004,0.6965874999999999,-0.04672749999999999,-0.12117,0.48962750000000005,-0.0204665,-0.242313,0.6963475,-0.09441749999999999,0.152337,0.5077075,0.007801500000000003,0.277117,0.7245775,-0.04815749999999999,-0.28319300000000003,0.9137474999999999,-0.20306749999999998,0.322427,0.9285074999999999,-0.1432275,-0.06415699999999999,-0.00046750000000000264,-0.004257499999999997,0.06415699999999999,0.0004674999999999957,0.004257500000000011,-0.10992299999999999,-0.36329249999999996,0.022644500000000005,0.07655700000000001,-0.3715725,0.004188500000000012,-0.11796799999999999,-0.6710725000000001,0.1660175,0.052937000000000005,-0.7068525,0.04850750000000001
111,0.026168499999999997,0.6965405,-0.04839950000000001,-0.11976350000000001,0.48996049999999997,-0.02114250000000001,-0.23874850000000003,0.6966505000000001,-0.09663950000000002,0.1535915,0.5075305,0.007282499999999983,0.2809915,0.7226605,-0.04965950000000002,-0.2788685,0.9125605,-0.20539949999999998,0.3274615,0.9229905,-0.14440950000000002,-0.0640815,-0.00042049999999999726,-0.00397850000000001,0.0640815,0.0004205000000000042,0.003978499999999996,-0.1109165,-0.3590395,0.02416449999999999,0.07591149999999999,-0.3704995,0.003103499999999995,-0.1200325,-0.6579394999999999,0.1920405,0.05132249999999999,-0.7061995,0.04893149999999999
112,0.028962500000000002,0.6965805,-0.05005150000000001,-0.11866349999999999,0.4901905000000001,-0.021875500000000006,-0.23617749999999998,0.6968405000000001,-0.09890149999999999,0.15453250000000002,0.5073405000000001,0.006940500000000002,0.2843625,0.7209105,-0.0509015,-0.27501749999999997,0.9109205,-0.20780149999999997,0.33178250000000004,0.9183405,-0.1452215,-0.0640225,-0.00035049999999999665,-0.0037144999999999956,0.0640225,0.0003505000000000036,0.0037144999999999956,-0.11165649999999999,-0.35388949999999997,0.0249905,0.0755725,-0.36886949999999996,0.002171499999999993,-0.1215615,-0.6396895,0.22063850000000002,0.050335500000000005,-0.7056295,0.0494275
113,0.0316645,0.696642,-0.051647,-0.1181465,0.49037200000000003,-0.022397,-0.23366949999999997,0.696862,-0.101137,0.1552805,0.5072220000000001,0.006665000000000004,0.2880005,0.719242,-0.052436999999999984,-0.2715595,0.909182,-0.210167,0.3362405,0.913802,-0.146287,-0.0639505,-0.00028400000000000647,-0.0035229999999999984,0.0639505,0.00028399999999999953,0.0035229999999999984,-0.1127105,-0.34709799999999996,0.025603,0.0754605,-0.366608,0.0011870000000000075,-0.1236375,-0.618208,0.24846300000000002,0.0495705,-0.704878,0.049917
114,0.034207,0.6966365,-0.053183499999999995,-0.117482,0.4904765,-0.023183499999999982,-0.23136,0.6966465000000001,-0.10324349999999999,0.15602,0.5069165,0.006524500000000016,0.29162,0.7176465,-0.05414349999999998,-0.26847,0.9074465,-0.21224349999999997,0.34062000000000003,0.9093465000000001,-0.1475435,-0.06386,-0.0001764999999999961,-0.0033514999999999934,0.06386,0.00017650000000000304,0.0033515000000000073,-0.11411,-0.3395835,0.026166500000000016,0.07565,-0.3641935,0.0003075000000000161,-0.125658,-0.5937135,0.2728665,0.049058000000000004,-0.7041135,0.05046650000000001
115,0.036419,0.6965024999999999,-0.0546595,-0.11687899999999998,0.4907025,-0.0237295,-0.229414,0.6968325,-0.1052595,0.15584599999999998,0.5064825,0.0063045000000000045,0.294426,0.7160124999999999,-0.055709499999999995,-0.266144,0.9060925,-0.2140095,0.344086,0.9048125,-0.1489895,-0.063896,-5.5499999999999994e-05,-0.003183499999999992,0.06389600000000001,5.5499999999999994e-05,0.0031835000000000058,-0.115264,-0.3317575,0.02663050000000001,0.07580600000000001,-0.3625775,-0.00018849999999999423,-0.127858,-0.5690375000000001,0.2909805,0.0488,-0.7034575000000001,0.050875500000000004
116,0.0384015,0.6961865,-0.056235499999999994,-0.11615249999999999,0.49084649999999996,-0.024235500000000007,-0.2276905,0.6966765,-0.10701550000000001,0.15680950000000002,0.5059365,0.005474499999999993,0.2969895,0.7141065,-0.0574355,-0.26406050000000003,0.9044765,-0.2159255,0.3469395,0.8998965,-0.15067550000000002,-0.0638995,0.0001505000000000048,-0.0030535000000000007,0.0638995,-0.00015049999999999786,0.0030534999999999868,-0.1166005,-0.32314350000000003,0.027034499999999996,0.0760595,-0.3608735,-0.0006775000000000114,-0.1303925,-0.5448635000000001,0.30319450000000003,0.048247500000000006,-0.7030735,0.051281499999999994
117,0.0400375,0.6957835,-0.05756199999999999,-0.1148495,0.49079349999999994,-0.025111999999999995,-0.2262985,0.6963435,-0.10826200000000001,0.15866149999999998,0.5053835,0.0042159999999999975,0.2990215,0.7122935,-0.059132000000000004,-0.2626285,0.9031335,-0.21738200000000002,0.3485815,0.8980735000000001,-0.152752,-0.0639515,0.0004524999999999946,-0.002944000000000002,0.0639515,-0.0004525000000000015,0.002944000000000002,-0.1184345,-0.31407650000000004,0.027485000000000002,0.07640149999999998,-0.35881650000000004,-0.001015000000000002,-0.1331325,-0.5215865,0.313108,0.047136500000000005,-0.7033765,0.051741
118,0.04158850000000001,0.6954165000000001,-0.05889,-0.1130035,0.4909765,-0.026319999999999996,-0.2252655,0.6959964999999999,-0.10916999999999999,0.16085449999999998,0.5045065,0.002921000000000007,0.3008345,0.7108965,-0.06078999999999998,-0.2613455,0.9019165,-0.21855999999999998,0.35043450000000004,0.8964265,-0.15485,-0.0639945,0.0007635000000000003,-0.002804999999999988,0.06399450000000001,-0.0007634999999999934,0.002805000000000002,-0.1209685,-0.3057935,0.026696000000000004,0.0768345,-0.3568635,-0.001114999999999991,-0.1356615,-0.5002335,0.32076000000000005,0.046026500000000005,-0.7036435000000001,0.052208000000000004
119,0.042855000000000004,0.694956,-0.06002350000000001,-0.111311,0.49097599999999997,-0.027483500000000008,-0.224428,0.6955359999999999,-0.1097735,0.163152,0.503566,0.0015534999999999993,0.302362,0.709766,-0.062463500000000005,-0.26045799999999997,0.900766,-0.2193235,0.352182,0.895006,-0.1569935,-0.064032,0.0011110000000000009,-0.002666500000000002,0.064032,-0.0011110000000000009,0.002666500000000002,-0.123836,-0.297284,0.0246785,0.07716200000000001,-0.354974,-0.0009805000000000091,-0.13831300000000002,-0.484344,0.3232065,0.044836,-0.703984,0.05268249999999999
120,0.0440345,0.694434,-0.0610155,-0.1093485,0.490944,-0.028735499999999997,-0.2236455,0.694974,-0.1101055,0.1657645,0.5025839999999999,2.4499999999996747e-05,0.3036645,0.7088939999999999,-0.06394549999999999,-0.2598255,0.899774,-0.2196255,0.3535945,0.893794,-0.1592555,-0.0640345,0.001471,-0.0025825000000000015,0.0640345,-0.001471,0.0025825000000000015,-0.1266095,-0.291706,0.0220975,0.0774745,-0.353566,-0.0006914999999999977,-0.1408775,-0.471146,0.3246745,0.043694500000000004,-0.704396,0.0533065
121,0.04502400000000001,0.6938235,-0.06182199999999999,-0.10725799999999999,0.4910335,-0.029941999999999996,-0.222996,0.6945035,-0.10986199999999999,0.168414,0.5016435,-0.0014139999999999986,0.304754,0.7081135,-0.065112,-0.25952600000000003,0.8992835,-0.21925199999999997,0.354634,0.8931935,-0.16009199999999998,-0.064014,0.0018265000000000017,-0.0025489999999999957,0.064014,-0.0018265000000000017,0.0025490000000000096,-0.128916,-0.28642650000000003,0.01979700000000001,0.077764,-0.3522865,-0.0004219999999999918,-0.143073,-0.4624765,0.32501800000000003,0.042574,-0.7047665,0.053694000000000006
122,0.04599849999999999,0.693349,-0.06241849999999999,-0.1050005,0.490899,-0.031258499999999995,-0.22244150000000001,0.6942590000000001,-0.10945849999999999,0.1709485,0.500989,-0.002533499999999994,0.3051485,0.707609,-0.06555849999999999,-0.2593715,0.898989,-0.2188585,0.35507849999999996,0.892899,-0.16065849999999998,-0.06397850000000001,0.002120999999999998,-0.0025115,0.0639785,-0.002121000000000005,0.0025115,-0.1310375,-0.28259100000000004,0.0179835,0.07781849999999998,-0.351241,-0.00015749999999999098,-0.1445065,-0.45704100000000003,0.3253915,0.04133849999999999,-0.7049409999999999,0.05407150000000001
123,0.046799999999999994,0.6930289999999999,-0.062662,-0.10305500000000001,0.49067900000000003,-0.032341999999999996,-0.22210000000000002,0.6940189999999999,-0.109012,0.17342999999999997,0.500559,-0.0033229999999999926,0.30532000000000004,0.7072590000000001,-0.065352,-0.25925,0.898739,-0.218412,0.35504,0.892649,-0.160582,-0.06396,0.002370999999999998,-0.002451999999999996,0.06396,-0.002371000000000005,0.002451999999999996,-0.132533,-0.279861,0.016571000000000002,0.07781,-0.350241,6.899999999999962e-05,-0.14557599999999998,-0.454871,0.325828,0.040080000000000005,-0.705041,0.054512000000000005
124,0.0470855,0.6927165,-0.062223500000000015,-0.1024935,0.49050649999999996,-0.03253350000000001,-0.2221345,0.6938965,-0.10809350000000001,0.17550549999999998,0.5002365,-0.0035685000000000022,0.3048955,0.7073065,-0.0645435,-0.2593145,0.8990465,-0.2168535,0.35405549999999997,0.8928365,-0.1596735,-0.0639255,0.0025835000000000025,-0.0023485000000000034,0.06392550000000001,-0.0025835000000000025,0.0023485000000000034,-0.1345335,-0.27812349999999997,0.015228499999999992,0.0776855,-0.3492135,0.0007714999999999944,-0.1468015,-0.4537435,0.32506650000000004,0.038345500000000005,-0.7049835,0.0554195
125,0.047007999999999994,0.6924899999999999,-0.06112100000000001,-0.10225000000000001,0.49046999999999996,-0.03219100000000001,-0.222472,0.69386,-0.10680100000000001,0.176288,0.50018,-0.002803000000000014,0.304148,0.7072499999999999,-0.063391,-0.259832,0.89984,-0.214521,0.352788,0.893,-0.15852100000000002,-0.063878,0.0026689999999999978,-0.0023230000000000056,0.063878,-0.0026689999999999978,0.0023229999999999917,-0.136563,-0.27786,0.014244999999999994,0.07734799999999999,-0.34840000000000004,0.001883999999999983,-0.148843,-0.45364000000000004,0.32396899999999995,0.036647999999999986,-0.70462,0.05659299999999999
126,0.04694599999999999,0.6922165,-0.059897000000000006,-0.102623,0.49050649999999996,-0.03135700000000001,-0.222944,0.6939465,-0.10508700000000001,0.176306,0.5002165,-0.001586000000000018,0.30328599999999994,0.7072864999999999,-0.06217700000000001,-0.260614,0.9010365,-0.211627,0.351306,0.8934565,-0.157317,-0.06377600000000001,0.0027054999999999996,-0.0022830000000000072,0.063776,-0.0027054999999999996,0.0022829999999999934,-0.138325,-0.2778235,0.012723999999999985,0.07682599999999998,-0.3479635,0.0030529999999999863,-0.150688,-0.4526835,0.322253,0.035065999999999986,-0.7042035,0.05783899999999999
127,0.046652999999999986,0.6919784999999999,-0.058574,-0.10348900000000001,0.4903985,-0.030114000000000002,-0.223617,0.6938985,-0.10299399999999999,0.17593299999999998,0.5002584999999999,-0.00026299999999999935,0.302293,0.7073284999999999,-0.06086399999999999,-0.26165700000000003,0.9023485,-0.208424,0.349643,0.8939285,-0.15515400000000001,-0.06369300000000001,0.0027475,-0.002242999999999995,0.063693,-0.0027475,0.002242999999999995,-0.139463,-0.2777815,0.010742000000000002,0.076153,-0.3479215,0.004274,-0.15232400000000001,-0.4521415,0.319906,0.033422999999999994,-0.7038115,0.059163
128,0.046227500000000005,0.691807,-0.0571305,-0.1045585,0.49019700000000005,-0.028680499999999984,-0.22447250000000002,0.6939069999999999,-0.10050049999999999,0.1752575,0.500397,0.0011765000000000109,0.3011875,0.7078669999999999,-0.0591805,-0.2628225,0.903917,-0.2047605,0.3479175,0.8952169999999999,-0.1527405,-0.06365749999999999,0.0028460000000000013,-0.0020994999999999903,0.06365749999999999,-0.0028459999999999944,0.002099500000000004,-0.1397955,-0.277683,0.008123500000000006,0.0753475,-0.347823,0.005382500000000012,-0.1537175,-0.452043,0.3172195,0.0317375,-0.7034830000000001,0.06056850000000001
129,0.045661999999999994,0.6916475,-0.055536,-0.10579100000000001,0.49001750000000005,-0.027195999999999984,-0.22567800000000002,0.6939875,-0.097746,0.174292,0.5008275,0.0028890000000000027,0.299822,0.7081575,-0.057116,-0.264258,0.9057075000000001,-0.200866,0.346132,0.8977275,-0.14948599999999998,-0.063612,0.0028965000000000032,-0.0019809999999999967,0.063612,-0.0028964999999999963,0.0019810000000000105,-0.139044,-0.2780025,0.005174000000000012,0.07447199999999998,-0.3476825,0.006397000000000014,-0.154039,-0.4519725,0.314504,0.02999199999999999,-0.7033425,0.06193400000000001
130,0.04483150000000001,0.6915485,-0.05348,-0.1072205,0.4898585,-0.025429999999999994,-0.2271185,0.6941185,-0.09448999999999999,0.1730515,0.5013385,0.004976999999999995,0.29824150000000005,0.7084085,-0.05446000000000001,-0.26593849999999997,0.9077485,-0.19645,0.3443615,0.9005685,-0.14592,-0.0635215,0.0028994999999999993,-0.0019639999999999935,0.06352150000000001,-0.0028994999999999993,0.0019639999999999935,-0.1371885,-0.2792915,0.0014289999999999997,0.07344149999999999,-0.3479015,0.007430000000000006,-0.1544285,-0.4526915,0.31122,0.028241500000000003,-0.7031515,0.063469
131,0.04369799999999999,0.6915815000000001,-0.05123900000000001,-0.10880200000000001,0.48973150000000004,-0.023539000000000004,-0.22878199999999999,0.6942215,-0.091139,0.171748,0.5017115000000001,0.0072419999999999984,0.296628,0.7088315000000001,-0.051599000000000006,-0.267712,0.9098615000000001,-0.192069,0.342678,0.9035314999999999,-0.142179,-0.06342800000000001,0.002855500000000004,-0.0019590000000000024,0.063428,-0.002855499999999997,0.0019589999999999885,-0.134329,-0.28270850000000003,-0.002052000000000012,0.07245799999999998,-0.3486085,0.008361999999999994,-0.154477,-0.4556785,0.307701,0.02657799999999999,-0.7029384999999999,0.064842
132,0.04246499999999999,0.6917685,-0.0486405,-0.110431,0.48979849999999997,-0.021520499999999998,-0.230605,0.6945684999999999,-0.08750050000000001,0.170345,0.5024185000000001,0.0099775,0.294865,0.7095285,-0.04809050000000001,-0.26954500000000003,0.9120984999999999,-0.18737050000000002,0.34085499999999996,0.9054085000000001,-0.1378005,-0.06327500000000001,0.002771500000000003,-0.0020265000000000005,0.063275,-0.002771500000000003,0.0020265000000000005,-0.1317,-0.2878415,-0.004999500000000004,0.071215,-0.3498415,0.009331499999999993,-0.155007,-0.4664515,0.29792949999999996,0.024894999999999987,-0.7025315000000001,0.0663195
133,0.041403999999999996,0.6920839999999999,-0.04629849999999999,-0.111506,0.490184,-0.019838499999999995,-0.231686,0.695054,-0.08467849999999999,0.169254,0.503124,0.012370500000000006,0.293774,0.710264,-0.04489850000000001,-0.270636,0.9137339999999999,-0.1840285,0.339754,0.9080739999999999,-0.1346285,-0.063164,0.002614000000000005,-0.002208500000000002,0.063164,-0.0026139999999999983,0.002208500000000002,-0.129225,-0.29431599999999997,-0.007178500000000004,0.070154,-0.351446,0.010454500000000005,-0.154944,-0.480126,0.28663150000000004,0.023844000000000004,-0.702006,0.0675305
134,0.040926000000000004,0.6925315000000001,-0.044000999999999985,-0.111979,0.49048149999999996,-0.018181000000000003,-0.232174,0.6956815000000001,-0.082061,0.168776,0.5037915000000001,0.014357999999999996,0.293276,0.7110215000000001,-0.04187099999999999,-0.27112400000000003,0.9151715,-0.181021,0.339206,0.9106015000000001,-0.131621,-0.063106,0.0024534999999999973,-0.0023080000000000045,0.063106,-0.0024535000000000043,0.0023080000000000045,-0.126797,-0.3009385,-0.009110999999999994,0.069686,-0.3531885,0.011429999999999996,-0.153888,-0.49751850000000003,0.275189,0.023376000000000008,-0.7015985,0.068552
135,0.040903999999999996,0.6931055,-0.04200999999999999,-0.11199700000000001,0.49081549999999996,-0.016689999999999997,-0.232376,0.6964155,-0.07944999999999999,0.168764,0.5045055,0.015994000000000008,0.293254,0.7118355,-0.039199999999999985,-0.271416,0.9165455,-0.1783,0.338394,0.9118555,-0.12769999999999998,-0.06310400000000001,0.0022735000000000047,-0.002369999999999997,0.063104,-0.0022734999999999977,0.002370000000000011,-0.12483000000000001,-0.3076645,-0.01086999999999999,0.06967399999999999,-0.3556245,0.012320000000000011,-0.152514,-0.5176745,0.26016,0.023363999999999996,-0.7012145,0.06943300000000001
136,0.04088299999999999,0.693683,-0.04010250000000001,-0.11241000000000001,0.49118300000000004,-0.01523250000000001,-0.233147,0.697093,-0.07674250000000002,0.16873300000000002,0.5050830000000001,0.017462499999999992,0.29273299999999997,0.712613,-0.0364225,-0.272757,0.917963,-0.17527250000000003,0.337593,0.914513,-0.12442250000000002,-0.063103,0.0020849999999999966,-0.002422500000000008,0.063103,-0.0020850000000000035,0.002422499999999994,-0.123721,-0.315037,-0.012452500000000005,0.06938299999999999,-0.359037,0.013134499999999993,-0.151228,-0.542627,0.2414975,0.023362999999999995,-0.701027,0.0701185
137,0.04019199999999999,0.6942995000000001,-0.038266999999999995,-0.11402000000000001,0.4917395,-0.013506999999999991,-0.234348,0.6977895000000001,-0.07416699999999998,0.167452,0.5057495000000001,0.018848000000000004,0.291862,0.7133095,-0.033826999999999996,-0.27451800000000004,0.9195395000000001,-0.172127,0.335902,0.9142195000000001,-0.120777,-0.063102,0.001869500000000003,-0.0026569999999999927,0.06310199999999999,-0.0018694999999999962,0.0026570000000000066,-0.123239,-0.3226205,-0.013376999999999986,0.068862,-0.36247050000000003,0.013855000000000006,-0.14982,-0.5678004999999999,0.21919300000000003,0.022891999999999996,-0.7016104999999999,0.070827
138,0.039040000000000005,0.694837,-0.03650650000000001,-0.11606699999999999,0.492217,-0.011736499999999997,-0.23592,0.698367,-0.0715265,0.16544,0.506307,0.0201495,0.29052,0.713967,-0.031246499999999996,-0.27642,0.921117,-0.16892650000000003,0.33374000000000004,0.913487,-0.11727649999999999,-0.06309,0.001676999999999998,-0.002856499999999998,0.06309000000000001,-0.001676999999999998,0.002856499999999998,-0.12301199999999998,-0.330503,-0.014076500000000006,0.06827,-0.365953,0.0145565,-0.148216,-0.593593,0.19401849999999998,0.022480000000000014,-0.702253,0.0713785
139,0.03804550000000001,0.695439,-0.03502149999999998,-0.11801249999999999,0.492489,-0.010261499999999993,-0.2372745,0.698859,-0.06927149999999999,0.16357549999999998,0.5068090000000001,0.021197500000000008,0.2893555,0.714619,-0.02908150000000001,-0.2778645,0.922459,-0.16643149999999998,0.33218549999999997,0.914599,-0.11367150000000001,-0.06307549999999999,0.0015170000000000045,-0.0029214999999999935,0.06307549999999999,-0.0015169999999999975,0.0029215000000000074,-0.1223605,-0.337971,-0.014791499999999999,0.0679055,-0.368771,0.015186500000000006,-0.1463085,-0.6193409999999999,0.1691705,0.0224955,-0.702961,0.0718445
140,0.03665650000000001,0.696106,-0.0336775,-0.11966349999999999,0.492726,-0.009177500000000005,-0.2386935,0.699546,-0.06768750000000001,0.1617865,0.507246,0.02199949999999999,0.2878765,0.714976,-0.026797500000000002,-0.27922349999999996,0.923796,-0.1641875,0.3304865,0.915126,-0.1099775,-0.0630765,0.001350999999999998,-0.0030175000000000063,0.06307650000000001,-0.001350999999999998,0.0030174999999999924,-0.1211645,-0.344124,-0.015487500000000001,0.0677065,-0.371364,0.015884499999999996,-0.1438685,-0.643554,0.1439605,0.02276650000000001,-0.704124,0.0723685
141,0.035286,0.6964984999999999,-0.03285750000000001,-0.12111000000000001,0.4927685,-0.008517499999999997,-0.239924,0.6999584999999999,-0.0667075,0.160216,0.5074784999999999,0.022352499999999997,0.286496,0.7152285,-0.025087500000000013,-0.280324,0.9247785,-0.1626575,0.328916,0.9154585,-0.1068375,-0.063086,0.001187500000000001,-0.003097500000000003,0.063086,-0.001187500000000001,0.003097499999999989,-0.11968100000000001,-0.3485815,-0.016257500000000008,0.06759599999999999,-0.3734615,0.016482499999999997,-0.142159,-0.6600415,0.1248225,0.023184999999999997,-0.7052315,0.07274549999999999
142,0.033666000000000015,0.6967335,-0.032194,-0.122249,0.49287349999999996,-0.008014000000000007,-0.241064,0.7001335,-0.065864,0.158906,0.5074135,0.022745,0.285266,0.7153335,-0.023344000000000004,-0.281304,0.9253935,-0.161544,0.327416,0.9156035,-0.103414,-0.06312599999999999,0.0010854999999999962,-0.0031840000000000063,0.063126,-0.0010855000000000031,0.0031839999999999924,-0.11856199999999999,-0.35209650000000003,-0.015924000000000008,0.06783600000000002,-0.37536650000000005,0.017442,-0.139869,-0.6741165,0.106554,0.024177000000000018,-0.7065865,0.073166
143,0.03212499999999999,0.6969125,-0.03168349999999999,-0.123452,0.4929525,-0.0074935,-0.24224500000000002,0.7001825,-0.0653535,0.15723499999999999,0.5072925,0.02325350000000001,0.28376500000000004,0.7154725000000001,-0.02194349999999999,-0.28203500000000004,0.9257425,-0.1608235,0.325855,0.9165125000000001,-0.1002135,-0.063255,0.0010115000000000055,-0.0033735000000000015,0.063255,-0.0010114999999999985,0.0033735000000000015,-0.11787,-0.35516749999999997,-0.014853499999999992,0.06828499999999998,-0.3772075,0.018949500000000008,-0.13593100000000002,-0.6846075,0.0886875,0.025705999999999993,-0.7079975,0.0737135
144,0.030663999999999997,0.697092,-0.031055,-0.12435399999999999,0.49309200000000003,-0.006855,-0.243129,0.700412,-0.06470500000000001,0.155271,0.5071420000000001,0.023690000000000003,0.282481,0.7157420000000001,-0.020905000000000007,-0.282539,0.925842,-0.16017499999999998,0.325311,0.915572,-0.098385,-0.063461,0.0009800000000000017,-0.003585000000000005,0.06346099999999999,-0.0009800000000000017,0.003585000000000005,-0.116619,-0.357698,-0.013874999999999998,0.06890099999999999,-0.378558,0.019780999999999993,-0.132217,-0.692588,0.075307,0.027568999999999996,-0.7093579999999999,0.07463
145,0.029646500000000006,0.6973189999999999,-0.030350000000000002,-0.1258185,0.493229,-0.006150000000000003,-0.2435845,0.7005089999999999,-0.06399999999999999,0.15375550000000002,0.506969,0.024061,0.2818555,0.7159089999999999,-0.020199999999999996,-0.2824145,0.925939,-0.15945000000000004,0.3250455,0.914229,-0.09688000000000001,-0.06361549999999999,0.0009219999999999992,-0.003820000000000004,0.06361549999999999,-0.0009219999999999992,0.003820000000000004,-0.1146275,-0.359421,-0.013340000000000005,0.0701155,-0.379001,0.020516000000000006,-0.12735449999999998,-0.696011,0.066335,0.0300135,-0.7105410000000001,0.07531
146,0.028776999999999997,0.697448,-0.029745000000000008,-0.12648700000000002,0.49314800000000003,-0.0056649999999999895,-0.244145,0.700618,-0.06319499999999999,0.152955,0.5068079999999999,0.02440600000000001,0.281095,0.7160179999999999,-0.019385,-0.28224499999999997,0.926048,-0.15863500000000003,0.324975,0.912588,-0.096065,-0.063775,0.0008900000000000019,-0.004135,0.063775,-0.000889999999999995,0.004135,-0.112774,-0.36041199999999995,-0.013054999999999997,0.07119500000000001,-0.37937200000000004,0.021350000000000008,-0.122679,-0.699182,0.061528000000000006,0.032848,-0.711182,0.076071
147,0.028102499999999996,0.697548,-0.029369999999999993,-0.1265525,0.49321799999999993,-0.0054600000000000065,-0.2447275,0.700688,-0.06355000000000001,0.1526525,0.506628,0.024779999999999996,0.28049250000000003,0.716108,-0.01822,-0.2819875,0.9251079999999999,-0.15861999999999998,0.3250925,0.9125479999999999,-0.09549,-0.0639425,0.0008499999999999966,-0.004470000000000002,0.06394250000000001,-0.0008500000000000035,0.004470000000000002,-0.1109965,-0.361042,-0.012329999999999994,0.07188250000000002,-0.37986200000000003,0.022527000000000005,-0.1182805,-0.701462,0.060004,0.0365875,-0.711762,0.077176
148,0.027247999999999994,0.6976515,-0.029450000000000004,-0.126665,0.4932715,-0.005979999999999985,-0.24526199999999998,0.7006915,-0.06483,0.152188,0.5065515,0.024922000000000014,0.280428,0.7162115,-0.017249999999999988,-0.280842,0.9234615,-0.15994,0.32579800000000003,0.9104415,-0.09422,-0.06400800000000001,0.0008104999999999987,-0.004849999999999993,0.064008,-0.0008104999999999987,0.004850000000000007,-0.109722,-0.3616185,-0.011569999999999997,0.07340799999999999,-0.3806285,0.021916000000000005,-0.11422,-0.7036785,0.05890900000000001,0.040106,-0.7118685,0.07823500000000001
149,0.026584500000000004,0.6977795,-0.029839999999999978,-0.1272055,0.49337949999999997,-0.007329999999999989,-0.2457825,0.7001095,-0.06724999999999998,0.15153750000000002,0.5063395,0.024652000000000007,0.2819775,0.7162495,-0.016719999999999985,-0.2780825,0.9204895000000001,-0.16330999999999998,0.3273375,0.9101695000000001,-0.09284999999999999,-0.0640575,0.0007654999999999954,-0.005239999999999995,0.06405749999999999,-0.0007655000000000023,0.0052400000000000085,-0.10890649999999999,-0.36222050000000006,-0.01079999999999999,0.0759975,-0.3814805,0.01996600000000001,-0.1111065,-0.7055005,0.059211000000000014,0.0429805,-0.7117905,0.07923600000000001
150,0.025861499999999996,0.6977585,-0.030485000000000012,-0.12736150000000002,0.4933285,-0.008995000000000017,-0.2469435,0.6989384999999999,-0.07098500000000002,0.1505565,0.5061085000000001,0.024225999999999984,0.2840165,0.7157085000000001,-0.016735,-0.2759835,0.9168384999999999,-0.16822499999999999,0.32937649999999996,0.9095085,-0.092645,-0.06408649999999999,0.0007594999999999963,-0.005735000000000004,0.0640865,-0.0007595000000000032,0.00573499999999999,-0.1085585,-0.3627715,-0.009735000000000008,0.07806650000000001,-0.3824415,0.016746999999999984,-0.1088875,-0.7070315,0.05987099999999999,0.045631500000000005,-0.7117315,0.078842
151,0.025244999999999997,0.697796,-0.03153500000000001,-0.128077,0.49324599999999996,-0.011264999999999997,-0.24878399999999998,0.697396,-0.076715,0.14932600000000001,0.5059359999999999,0.02368400000000001,0.284846,0.7138559999999999,-0.017405000000000004,-0.27506400000000003,0.912996,-0.17557499999999998,0.330206,0.907446,-0.093195,-0.064086,0.0006979999999999972,-0.0062349999999999905,0.064086,-0.0006980000000000042,0.006235000000000004,-0.109183,-0.363304,-0.008324999999999999,0.078956,-0.382334,0.011675000000000005,-0.108055,-0.708024,0.061359000000000004,0.049673,-0.711624,0.07694300000000001
152,0.025255999999999994,0.6981425000000001,-0.032664999999999986,-0.128683,0.49347250000000004,-0.013115000000000002,-0.250736,0.6952225000000001,-0.083275,0.149334,0.5059925000000001,0.02304600000000001,0.284864,0.7104824999999999,-0.018835000000000005,-0.274936,0.9089925000000001,-0.18626499999999996,0.330224,0.9038925,-0.095155,-0.064084,0.000622500000000005,-0.006605,0.064084,-0.0006224999999999981,0.006605,-0.109874,-0.3632775,-0.0061249999999999916,0.079034,-0.3818275,0.0053450000000000025,-0.108061,-0.7080375000000001,0.063353,0.055794,-0.7096875,0.072343
153,0.02527449999999999,0.6987655,-0.03400500000000001,-0.12863249999999998,0.4925355,-0.017164999999999986,-0.2525915,0.6921255000000001,-0.092005,0.14933849999999999,0.5063755,0.022664000000000004,0.2861285,0.7042955000000001,-0.020084999999999992,-0.2733215,0.9048055,-0.199365,0.33071849999999997,0.8972255,-0.098025,-0.0640785,0.0005325000000000052,-0.006945000000000007,0.0640785,-0.0005324999999999983,0.006945000000000007,-0.1099025,-0.36263449999999997,-0.0036650000000000016,0.0816785,-0.3809945,-0.003494999999999998,-0.10801050000000001,-0.7076144999999999,0.06594,0.0646385,-0.7071744999999999,0.066458
154,0.0252905,0.6995875,-0.03537500000000002,-0.1285865,0.49182750000000003,-0.020985000000000004,-0.25372649999999997,0.6871375,-0.10125500000000001,0.1493435,0.5069275,0.022555999999999993,0.2899835,0.6951475,-0.02121500000000001,-0.2695265,0.8960075000000001,-0.214195,0.33287350000000004,0.8876975,-0.101105,-0.0640735,0.0003464999999999996,-0.007355,0.0640735,-0.0003465000000000065,0.007355,-0.1099395,-0.3616325,-0.0007550000000000057,0.0865435,-0.3798025,-0.01366500000000001,-0.1079885,-0.7066725,0.069129,0.07787349999999998,-0.7038424999999999,0.056687
155,0.024992999999999994,0.7006015,-0.03723499999999999,-0.129076,0.49085149999999994,-0.02440500000000001,-0.254112,0.6797415,-0.11349500000000001,0.148928,0.5072415,0.022425,0.296608,0.6823915,-0.02096500000000001,-0.263672,0.8827715,-0.23072499999999999,0.336388,0.8743915,-0.10441500000000001,-0.064048,0.00016449999999999798,-0.007784999999999986,0.064048,-0.00016450000000000145,0.007785,-0.110507,-0.3606085,0.0021950000000000025,0.09364800000000001,-0.3781185,-0.025595000000000007,-0.108569,-0.7052485,0.073158,0.094228,-0.7002284999999999,0.043823
156,0.024606500000000003,0.702053,-0.03877,-0.1313925,0.48954300000000006,-0.027749999999999997,-0.25767450000000003,0.665203,-0.12455,0.14814549999999999,0.506383,0.022129999999999997,0.3046155,0.662533,-0.016990000000000005,-0.2562445,0.860213,-0.24711,0.3400555,0.853343,-0.10774999999999998,-0.0641655,-2.6999999999999247e-05,-0.00816,0.0641655,2.7000000000002716e-05,0.00816,-0.1138065,-0.35794699999999996,0.0064700000000000035,0.1035755,-0.375087,-0.038229999999999986,-0.1123465,-0.702587,0.079667,0.11441549999999999,-0.693917,0.025779999999999997
157,0.024210000000000002,0.7034005,-0.0401,-0.13361699999999999,0.48810050000000005,-0.029909999999999992,-0.26271500000000003,0.6475105,-0.13673000000000002,0.14619500000000002,0.5057505,0.022940000000000002,0.31555500000000003,0.6374305,-0.010999999999999982,-0.24726499999999998,0.8319205000000001,-0.2661,0.344435,0.8264605,-0.11082999999999998,-0.064355,-0.0002454999999999992,-0.008479999999999988,0.064355,0.0002454999999999992,0.008480000000000015,-0.117621,-0.3555295,0.010520000000000002,0.11333500000000002,-0.3705695,-0.04916999999999999,-0.11763,-0.6996895,0.08669600000000001,0.13567500000000002,-0.6874895,0.006200000000000011
158,0.025278499999999995,0.7052315,-0.041525000000000006,-0.1332935,0.48513149999999994,-0.033104999999999996,-0.26722250000000003,0.6216315,-0.150045,0.14479749999999997,0.5040515,0.02363499999999999,0.3264075,0.6053815,-0.0012949999999999906,-0.2332725,0.7922215,-0.28569500000000003,0.3497275,0.7895415,-0.112185,-0.06438750000000001,-0.0003814999999999999,-0.008654999999999996,0.0643875,0.00038150000000000336,0.008654999999999996,-0.12222850000000002,-0.3513385,0.015704999999999997,0.12342749999999998,-0.3651485,-0.05740500000000001,-0.1263805,-0.6949585,0.096467,0.1585875,-0.6800785,-0.015284999999999993
159,0.026172,0.707569,-0.04284000000000002,-0.135034,0.482529,-0.03494,-0.270728,0.5909089999999999,-0.16099000000000002,0.143862,0.502419,0.025169999999999998,0.336022,0.5708289999999999,0.008800000000000002,-0.216638,0.747259,-0.30237,0.354192,0.7481589999999999,-0.1129,-0.064592,-0.0004910000000000001,-0.008230000000000015,0.064592,0.0004910000000000001,0.008229999999999987,-0.12736,-0.346391,0.020839999999999997,0.13362200000000002,-0.35995099999999997,-0.06396000000000002,-0.137561,-0.688911,0.10686799999999999,0.179162,-0.673571,-0.035150000000000015
160,0.02645349999999999,0.7113925,-0.043389999999999984,-0.1324575,0.47947249999999997,-0.03896999999999998,-0.2759965,0.5547325,-0.16575,0.1426635,0.5010725,0.027639999999999998,0.3418735,0.5362225,0.02114000000000002,-0.2015065,0.6963025,-0.31137,0.3559635,0.7032325,-0.11108000000000001,-0.06403350000000001,-0.0004414999999999992,-0.008739999999999998,0.06403350000000001,0.0004415000000000009,0.008739999999999998,-0.1344615,-0.3403375,0.027130000000000015,0.14151350000000001,-0.35256750000000003,-0.06831999999999999,-0.15203650000000002,-0.6815475,0.11905400000000001,0.19459350000000003,-0.6670275,-0.052159999999999984
161,0.027220999999999995,0.7148085,-0.04386499999999999,-0.129952,0.4756985,-0.044185,-0.276749,0.5154185,-0.168405,0.142641,0.4994085,0.030295000000000016,0.34482100000000004,0.5008885,0.033085,-0.179868,0.6407784999999999,-0.317245,0.35714100000000004,0.6537585,-0.10871499999999998,-0.063551,-0.0002924999999999998,-0.009635000000000005,0.063551,0.0002925000000000002,0.009635000000000005,-0.14166600000000001,-0.3348115,0.03265500000000002,0.14844100000000002,-0.3450815,-0.072715,-0.16835,-0.6745015,0.131905,0.20607099999999998,-0.6610015,-0.06613499999999997
162,0.029665999999999998,0.7171265,-0.045094999999999996,-0.130227,0.4734465,-0.046265,-0.276614,0.4719465,-0.16364499999999998,0.142806,0.49567649999999996,0.032755000000000006,0.339326,0.4644165,0.04913500000000001,-0.164613,0.5704565,-0.30682499999999996,0.354976,0.5921665,-0.102655,-0.063336,0.0003554999999999999,-0.010185,0.063336,-0.0003554999999999999,0.010185000000000027,-0.14949,-0.3308535,0.037415000000000004,0.151246,-0.3400435,-0.07455499999999998,-0.190004,-0.6669535,0.14655700000000002,0.210706,-0.6558735,-0.07580500000000001
163,0.032115000000000005,0.719321,-0.046435000000000004,-0.129738,0.47120100000000004,-0.048595,-0.278205,0.429101,-0.15397499999999997,0.142005,0.490811,0.036465,0.326885,0.426831,0.06786500000000001,-0.15574,0.492871,-0.287155,0.347495,0.525151,-0.093995,-0.062785,0.0010599999999999993,-0.010635000000000006,0.06278500000000001,-0.0010600000000000002,0.010635000000000006,-0.156818,-0.32746899999999995,0.037565000000000015,0.149345,-0.33541899999999997,-0.072625,-0.212838,-0.657059,0.15844200000000003,0.205905,-0.651249,-0.07721499999999998
164,0.034009999999999985,0.721295,-0.04769000000000001,-0.130163,0.469095,-0.05010999999999999,-0.276006,0.38909499999999997,-0.14215,0.14058999999999996,0.486535,0.03991,0.31021,0.390755,0.08639000000000002,-0.150784,0.416165,-0.26256999999999997,0.33833,0.457295,-0.08346999999999999,-0.062189999999999995,0.0017529999999999994,-0.011349999999999971,0.062189999999999995,-0.001753000000000001,0.011350000000000027,-0.16259400000000002,-0.324515,0.034900000000000014,0.14464999999999997,-0.330675,-0.06592999999999999,-0.233192,-0.652315,0.16889,0.19569,-0.645915,-0.0741
165,0.03666999999999998,0.722507,-0.04996500000000004,-0.12903,0.467327,-0.051295000000000035,-0.268647,0.356147,-0.12578500000000004,0.13889,0.483277,0.04220499999999999,0.28925,0.361997,0.10116499999999998,-0.15347,0.345747,-0.23613500000000004,0.32421999999999995,0.390547,-0.069025,-0.061710000000000015,0.0023020000000000002,-0.012635000000000007,0.06170999999999999,-0.0023019999999999985,0.012635000000000007,-0.161862,-0.323003,0.023584999999999967,0.13445000000000001,-0.327873,-0.054694999999999994,-0.245618,-0.648533,0.169645,0.17522,-0.641173,-0.061555000000000026
166,0.03963999999999995,0.7242715000000001,-0.05275000000000002,-0.12708000000000003,0.4651415,-0.053310000000000024,-0.26144300000000004,0.3265015,-0.10746,0.13795999999999997,0.4800415,0.04366999999999999,0.26470999999999995,0.3385815,0.11421999999999999,-0.15923000000000004,0.28387150000000005,-0.20942000000000005,0.30859999999999993,0.32880149999999997,-0.05473,-0.061220000000000024,0.0025494999999999997,-0.014089999999999991,0.06122,-0.0025494999999999997,0.014089999999999991,-0.15893000000000002,-0.31977849999999997,0.009019999999999972,0.12298999999999999,-0.3272385,-0.043179999999999996,-0.252193,-0.6445784999999999,0.16527,0.15176999999999996,-0.6349184999999999,-0.046109999999999984
167,0.04188499999999995,0.725035,-0.05606,-0.12829500000000005,0.463775,-0.05320999999999998,-0.25899200000000006,0.30588499999999996,-0.07946999999999999,0.13670499999999997,0.47722499999999995,0.04550000000000004,0.24056499999999992,0.320685,0.12179000000000001,-0.17795500000000006,0.233095,-0.17576999999999998,0.2900649999999999,0.275505,-0.044989999999999974,-0.06122500000000003,0.002772,-0.01580999999999999,0.061224999999999974,-0.002772,0.015810000000000046,-0.14526500000000003,-0.318765,-0.016749999999999987,0.10254499999999994,-0.328505,-0.024489999999999956,-0.23447200000000004,-0.6427149999999999,0.13737000000000002,0.11675499999999994,-0.6297649999999999,-0.021769999999999956
