sb224sc-HT22-VT27/4dt907/src/data/kinect_good_vs_bad_not_preprocessed_A13_mediapipe/W39.csv
FrameNo,nose_3d_x,nose_3d_y,nose_3d_z,left_shoulder_3d_x,left_shoulder_3d_y,left_shoulder_3d_z,left_elbow_3d_x,left_elbow_3d_y,left_elbow_3d_z,right_shoulder_3d_x,right_shoulder_3d_y,right_shoulder_3d_z,right_elbow_3d_x,right_elbow_3d_y,right_elbow_3d_z,left_wrist_3d_x,left_wrist_3d_y,left_wrist_3d_z,right_wrist_3d_x,right_wrist_3d_y,right_wrist_3d_z,left_hip_3d_x,left_hip_3d_y,left_hip_3d_z,right_hip_3d_x,right_hip_3d_y,right_hip_3d_z,left_knee_3d_x,left_knee_3d_y,left_knee_3d_z,right_knee_3d_x,right_knee_3d_y,right_knee_3d_z,left_ankle_3d_x,left_ankle_3d_y,left_ankle_3d_z,right_ankle_3d_x,right_ankle_3d_y,right_ankle_3d_z
0,0.020654500000000003,0.740483,-0.026569999999999996,-0.1318205,0.46571300000000004,0.017593,-0.1788505,0.225043,0.053276000000000004,0.1548095,0.46564300000000003,0.009447,0.1940295,0.22736299999999998,0.016568,-0.2123905,0.04371,-0.006170000000000002,0.2081595,0.029381,-0.043871999999999994,-0.0654225,0.002117,-0.0011009999999999978,0.0654225,-0.002117,0.0011009999999999978,-0.12061050000000001,-0.311977,0.007963000000000001,0.1112995,-0.320357,0.005422,-0.11570050000000001,-0.6260870000000001,0.05357,0.1273795,-0.6410170000000001,0.029319
1,0.020977000000000003,0.7396595,-0.021676999999999995,-0.133845,0.4689295,0.018325000000000004,-0.22719499999999998,0.3014295,0.0026660000000000017,0.15318500000000002,0.4685495,0.008229000000000004,0.22040500000000002,0.2804995,-0.04940599999999999,-0.29085500000000003,0.1418395,-0.08548599999999999,0.263785,0.1221095,-0.151956,-0.065945,0.0014975000000000001,0.00024800000000000516,0.065945,-0.0014974999999999997,-0.0002479999999999982,-0.121195,-0.3101005,0.011083000000000003,0.110545,-0.3209105,0.0069810000000000046,-0.11371500000000001,-0.6343605,0.056385000000000005,0.127285,-0.6397305,0.030684000000000003
2,0.0201535,0.7385745,-0.019027999999999996,-0.13248349999999998,0.4692045,0.019335000000000005,-0.23882350000000002,0.3082645,-0.006292999999999993,0.14882650000000003,0.4736445,0.0034450000000000036,0.23041650000000002,0.30235449999999997,-0.06471199999999999,-0.32848350000000004,0.1772545,-0.15128199999999997,0.2902565,0.1724145,-0.19656200000000001,-0.0660665,0.0013555000000000004,0.0008020000000000041,0.0660665,-0.0013555,-0.0008019999999999972,-0.1215635,-0.3106455,0.011381000000000006,0.1099765,-0.3213055,0.007251000000000004,-0.1136535,-0.6385055,0.058908,0.1268865,-0.6413255,0.030914000000000004
3,0.019992000000000003,0.7375970000000001,-0.015853000000000006,-0.132076,0.468957,0.019485999999999996,-0.275486,0.32771700000000004,-0.04441200000000001,0.147214,0.474507,0.0017109999999999972,0.251614,0.324627,-0.09769300000000002,-0.365856,0.226047,-0.18371300000000002,0.32369400000000004,0.235477,-0.255583,-0.06615599999999999,0.001283,0.0017459999999999976,0.06615599999999999,-0.0012829999999999999,-0.0017460000000000045,-0.12210599999999999,-0.310803,0.012203999999999996,0.109344,-0.32148299999999996,0.007489999999999993,-0.113986,-0.6388429999999999,0.058307,0.126584,-0.642983,0.030431999999999994
4,0.0193,0.7374379999999999,-0.011840999999999997,-0.130257,0.471918,0.020801,-0.282577,0.377608,-0.057061,0.146663,0.475648,0.00028000000000000247,0.286393,0.352408,-0.14172600000000002,-0.388957,0.302418,-0.201606,0.371903,0.253168,-0.367286,-0.066377,0.0013130000000000001,0.002153000000000002,0.066377,-0.001313,-0.002152999999999995,-0.122187,-0.310662,0.012639000000000001,0.108873,-0.321282,0.008083,-0.113937,-0.639212,0.057794,0.126823,-0.6435820000000001,0.030054
5,0.019204500000000003,0.736994,-0.010286499999999997,-0.1309365,0.47209399999999996,0.0231885,-0.2994465,0.400524,-0.03983249999999999,0.1449135,0.476894,-0.0012434999999999946,0.2823235,0.41171399999999997,-0.12671349999999998,-0.3925165,0.386934,-0.2109335,0.3509835,0.36825399999999997,-0.30438350000000003,-0.0666105,0.00119,0.003109500000000001,0.0666105,-0.00119,-0.003109499999999994,-0.1219565,-0.311336,0.012372500000000002,0.1086035,-0.32241600000000004,0.008004500000000001,-0.1135265,-0.640636,0.0574075,0.1268635,-0.6454059999999999,0.029762500000000004
6,0.018648,0.7357360000000001,-0.010154499999999997,-0.13325599999999999,0.471996,0.020284500000000004,-0.310236,0.450876,-0.0648695,0.145184,0.478306,-0.0026974999999999985,0.29564399999999996,0.442266,-0.12306149999999999,-0.412466,0.449176,-0.2403815,0.35303399999999996,0.451276,-0.3235515,-0.066601,0.001092,0.003801500000000003,0.066601,-0.001092,-0.0038014999999999993,-0.12246599999999999,-0.311654,0.012650500000000005,0.10783400000000001,-0.324174,0.007549500000000004,-0.114766,-0.625854,0.056358500000000006,0.12607400000000002,-0.647794,0.028245500000000003
7,0.018089500000000005,0.7277945,-0.010515500000000004,-0.1332465,0.4786445,0.019895499999999993,-0.27458649999999996,0.5285645,-0.0375365,0.14686349999999998,0.48523449999999996,-0.0014435000000000073,0.2566735,0.5431945,-0.0898405,-0.3482865,0.6075944999999999,-0.1615705,0.2994835,0.6153145,-0.22270050000000002,-0.0658985,0.0008224999999999986,0.003513499999999996,0.0658985,-0.0008225000000000003,-0.0035135000000000027,-0.12146649999999999,-0.31882550000000004,0.013926499999999994,0.1078235,-0.3325055,0.009440499999999994,-0.1143365,-0.6429755,0.058698499999999994,0.1269035,-0.6571855,0.03144449999999999
8,0.017544000000000004,0.7247955,-0.009995000000000004,-0.133323,0.48078550000000003,0.020353999999999997,-0.274553,0.5696455,-0.037061,0.14638700000000002,0.48818550000000005,-0.0016400000000000026,0.25670699999999996,0.5879355,-0.089365,-0.34825300000000003,0.6837055,-0.161095,0.299517,0.6956455,-0.222225,-0.06587799999999999,0.0006984999999999995,0.0039900000000000005,0.06587799999999999,-0.0006985000000000012,-0.0039900000000000005,-0.121413,-0.3216245,0.0144,0.10736699999999999,-0.3355145,0.009956999999999997,-0.11427299999999999,-0.6471145,0.059211,0.12695700000000001,-0.6612145,0.031918
9,0.017072000000000004,0.7218785,-0.009490499999999999,-0.133288,0.48254850000000005,0.020837500000000002,-0.27453799999999995,0.6056085,-0.036593499999999994,0.145972,0.4909985,-0.0015485000000000013,0.256722,0.6298885000000001,-0.08889749999999999,-0.348238,0.7523285000000001,-0.16062749999999998,0.299682,0.7746185,-0.21983750000000002,-0.065824,0.0005645000000000025,0.0044545,0.065824,-0.000564499999999999,-0.0044545,-0.12134799999999998,-0.3244715,0.014863500000000002,0.106962,-0.33856149999999996,0.0104565,-0.11437800000000001,-0.6507915,0.059688500000000005,0.126912,-0.6652914999999999,0.0323905
10,0.0166785,0.7190544999999999,-0.008967000000000003,-0.1334055,0.4841645,0.021227999999999997,-0.2744955,0.6393745,-0.036104,0.1455845,0.4936345,-0.0012490000000000001,0.2563345,0.6652745,-0.086628,-0.34537549999999995,0.8123144999999999,-0.15276800000000001,0.2963445,0.8413145,-0.210318,-0.0657525,0.0004284999999999983,0.004934000000000001,0.0657525,-0.0004285000000000018,-0.004934000000000001,-0.1211655,-0.32737550000000004,0.015270999999999996,0.1066345,-0.3416255,0.010974999999999999,-0.1144855,-0.6541955,0.05988399999999999,0.1268945,-0.6693055,0.032776
11,0.016326499999999994,0.7160974999999999,-0.008452500000000002,-0.1334265,0.4863575,0.0216525,-0.27127650000000003,0.6683574999999999,-0.0323315,0.14528349999999998,0.4959175,-0.0006204999999999961,0.2525535,0.6973975,-0.07996349999999999,-0.3375865,0.8658375,-0.1396835,0.28922349999999997,0.8966475,-0.1934535,-0.0656775,0.00032949999999999993,0.0052905000000000035,0.0656775,-0.00032949999999999993,-0.005290499999999997,-0.12088650000000001,-0.3304925,0.015585500000000002,0.1064135,-0.34482250000000003,0.011602500000000002,-0.11450650000000001,-0.6579325,0.0601975,0.12691349999999998,-0.6733525,0.0332905
12,0.015995000000000002,0.7133735,-0.008463499999999999,-0.133492,0.4868235000000001,0.0219395,-0.266852,0.6815435000000001,-0.027119499999999998,0.144898,0.4963535,2.6499999999998747e-05,0.244748,0.7094135,-0.0692255,-0.326862,0.8872735,-0.12385549999999998,0.27985800000000005,0.9209235,-0.1697255,-0.065624,0.0003075000000000022,0.005272499999999999,0.065624,-0.00030749999999999875,-0.005272499999999999,-0.120672,-0.33371649999999997,0.0157295,0.106228,-0.34777650000000004,0.012068500000000003,-0.114602,-0.6613865,0.0604855,0.12684800000000002,-0.6770864999999999,0.0337925
13,0.015619000000000001,0.710792,-0.008736500000000001,-0.133542,0.487492,0.022388500000000002,-0.260272,0.692912,-0.023080500000000004,0.144668,0.49704200000000004,0.0007015000000000007,0.237338,0.719132,-0.058909500000000004,-0.316122,0.904982,-0.10631650000000001,0.271868,0.9407019999999999,-0.1456165,-0.065544,0.00027600000000000194,0.005093500000000001,0.065544,-0.00027599999999999847,-0.005093500000000001,-0.120442,-0.336458,0.0157195,0.106048,-0.35053799999999996,0.012500500000000001,-0.114662,-0.664738,0.0608345,0.126768,-0.680698,0.034320500000000004
14,0.015314999999999997,0.7087515,-0.009122499999999999,-0.133569,0.48750150000000003,0.023002500000000002,-0.254059,0.7018815,-0.017369499999999996,0.14436100000000002,0.49786149999999996,0.0014315000000000022,0.229931,0.7261315,-0.0487885,-0.306689,0.9179915,-0.08815849999999999,0.264721,0.9567715,-0.12329849999999999,-0.065493,0.00021350000000000535,0.004777500000000004,0.065493,-0.0002134999999999984,-0.004777499999999997,-0.120189,-0.3386085,0.015609500000000002,0.105921,-0.3526785,0.0129025,-0.114709,-0.6688485,0.061242500000000005,0.126701,-0.6837385,0.0349335
15,0.015018500000000002,0.706919,-0.009793499999999997,-0.13335550000000002,0.487839,0.023480500000000005,-0.24870550000000002,0.705859,-0.011678499999999994,0.14383449999999998,0.498729,0.002762500000000008,0.22430450000000002,0.7301989999999999,-0.04137049999999999,-0.29959549999999996,0.9241889999999999,-0.0735125,0.26039450000000003,0.963429,-0.10584249999999999,-0.0654285,0.00012099999999999611,0.004560500000000002,0.0654285,-0.00012100000000000305,-0.004560499999999995,-0.1198655,-0.34040099999999995,0.015375500000000004,0.1058745,-0.35460100000000006,0.013277500000000005,-0.1147555,-0.672541,0.061560500000000004,0.12663449999999998,-0.6864210000000001,0.035416500000000004
16,0.014741500000000005,0.7054595,-0.010401500000000001,-0.1333555,0.48738950000000003,0.023759500000000003,-0.2451255,0.7076295,-0.0079435,0.14362450000000002,0.49809950000000003,0.003667500000000004,0.2214345,0.7307095,-0.03711249999999999,-0.29521549999999996,0.9274895,-0.0640895,0.2573745,0.9659895000000001,-0.09332950000000001,-0.0653515,7.449999999999818e-05,0.0045055000000000026,0.0653515,-7.449999999999818e-05,-0.004505499999999996,-0.11964549999999999,-0.34171050000000003,0.015010500000000003,0.1058045,-0.35626050000000004,0.013503500000000002,-0.1148055,-0.6753905,0.0616795,0.1265745,-0.6883705,0.0356315
17,0.014520000000000002,0.7040185,-0.010849500000000005,-0.133335,0.48715849999999994,0.023951499999999997,-0.242005,0.7092485,-0.004715500000000004,0.143435,0.49759849999999994,0.0045004999999999976,0.218785,0.7312784999999999,-0.0331115,-0.291255,0.9302785,-0.05569350000000001,0.254825,0.9684285,-0.08285050000000001,-0.06531999999999999,6.749999999999812e-05,0.004395499999999997,0.06531999999999999,-6.749999999999812e-05,-0.004395500000000004,-0.119455,-0.3428415,0.014589499999999998,0.105735,-0.3579715,0.013690499999999998,-0.114875,-0.6781615,0.0617925,0.12653499999999998,-0.6902315,0.035873499999999996
18,0.014358499999999998,0.7025685,-0.01117,-0.1333035,0.48695849999999996,0.024108000000000004,-0.2395035,0.7104585,-0.0019569999999999935,0.1432565,0.4972485,0.005350000000000001,0.2169965,0.7316985,-0.029849,-0.28808350000000005,0.9320685,-0.048913,0.25268650000000004,0.9704985,-0.07457799999999999,-0.0653065,7.549999999999918e-05,0.004304000000000002,0.0653065,-7.549999999999918e-05,-0.004303999999999995,-0.1192835,-0.3439415,0.014200000000000004,0.1056965,-0.3595215,0.013870000000000004,-0.1148935,-0.6807915,0.061988,0.1265165,-0.6920615,0.036094
19,0.014222500000000003,0.7011375,-0.011214499999999995,-0.1333395,0.48690749999999994,0.024257500000000005,-0.2376395,0.7113675,0.0003095000000000042,0.14310050000000002,0.49687749999999997,0.006130500000000004,0.2155805,0.7321275,-0.02722949999999999,-0.2855895,0.9331175,-0.043498499999999996,0.25145049999999997,0.9721074999999999,-0.06854249999999999,-0.0652915,9.55000000000053e-05,0.0042715000000000045,0.0652915,-9.549999999999836e-05,-0.0042714999999999975,-0.11914949999999999,-0.3448325,0.013933500000000005,0.10572050000000001,-0.3609325,0.014011500000000003,-0.1148095,-0.6834125,0.0622085,0.12651050000000003,-0.6937725,0.03628750000000001
20,0.014085999999999996,0.69996,-0.011272500000000005,-0.13337100000000002,0.48629999999999995,0.024415499999999996,-0.23625100000000002,0.7114699999999999,0.002074499999999993,0.142929,0.4969,0.006886499999999997,0.21517899999999998,0.73246,-0.025205500000000006,-0.283821,0.9337099999999999,-0.03965450000000001,0.250249,0.9734,-0.0633355,-0.065279,8.39999999999938e-05,0.004292499999999998,0.065279,-8.400000000000074e-05,-0.004292500000000005,-0.119031,-0.34550000000000003,0.013865499999999996,0.105769,-0.36192,0.014112499999999997,-0.11475099999999999,-0.68496,0.062314499999999995,0.126519,-0.69519,0.036440499999999994
21,0.013967499999999996,0.699596,-0.011408500000000002,-0.1333765,0.486266,0.024474499999999996,-0.23534650000000001,0.711876,0.003334499999999997,0.14281349999999998,0.497366,0.0074124999999999955,0.2147435,0.733116,-0.0234385,-0.28237650000000003,0.934686,-0.036735500000000004,0.2495635,0.973606,-0.060061500000000004,-0.0652885,7.700000000000068e-05,0.004334499999999998,0.0652885,-7.700000000000068e-05,-0.004334500000000005,-0.1189065,-0.345424,0.0137335,0.1058235,-0.362104,0.014114499999999999,-0.1147065,-0.685754,0.0623465,0.12652349999999998,-0.695774,0.0364815
22,0.01382,0.6992389999999999,-0.011478000000000002,-0.133353,0.486259,0.024511,-0.234703,0.712179,0.004237999999999999,0.142717,0.497649,0.007834,0.214457,0.733519,-0.022011000000000003,-0.281233,0.935379,-0.034451999999999997,0.249037,0.974619,-0.057818999999999995,-0.065316,7.700000000000068e-05,0.004337000000000001,0.065316,-7.700000000000068e-05,-0.004337000000000001,-0.118823,-0.345721,0.013678,0.105887,-0.362311,0.014093999999999999,-0.114663,-0.686341,0.062331,0.126567,-0.696361,0.036565
23,0.0136355,0.6989194999999999,-0.011492499999999996,-0.13336150000000002,0.4863295,0.024527500000000004,-0.2343115,0.7124695,0.004969500000000002,0.14261849999999998,0.49770949999999997,0.008121500000000004,0.2142285,0.7336794999999999,-0.020951499999999998,-0.2803115,0.9358694999999999,-0.03268649999999999,0.2489385,0.9755595,-0.057456499999999994,-0.0653445,6.950000000000012e-05,0.004339500000000003,0.0653445,-6.950000000000012e-05,-0.004339499999999996,-0.1187115,-0.3460205,0.013639500000000002,0.1059385,-0.3624905,0.014075500000000001,-0.1146115,-0.6869605000000001,0.0623015,0.1265885,-0.6969505,0.036687500000000005
24,0.013422500000000002,0.698636,-0.011516500000000006,-0.1333935,0.486436,0.024512499999999996,-0.2341935,0.712676,0.005480499999999992,0.1425365,0.497656,0.008350499999999997,0.21406650000000002,0.733676,-0.02033950000000001,-0.27968350000000003,0.935826,-0.031989500000000004,0.2487165,0.976246,-0.05745750000000001,-0.06536149999999999,5.9000000000003494e-05,0.004504499999999995,0.06536149999999999,-5.8999999999996555e-05,-0.0045045000000000016,-0.1186535,-0.346314,0.013596499999999994,0.10596649999999999,-0.362614,0.014037499999999994,-0.1145735,-0.687574,0.062329499999999996,0.12664650000000002,-0.697394,0.036775499999999996
25,0.013175,0.698693,-0.011526000000000002,-0.13342400000000001,0.486753,0.024516999999999997,-0.23411400000000002,0.713073,0.005918999999999994,0.142446,0.49783299999999997,0.008485999999999994,0.21390599999999999,0.733903,-0.019813000000000004,-0.279144,0.936083,-0.031441,0.24831599999999998,0.9760829999999999,-0.057437,-0.06537899999999999,3.699999999999537e-05,0.004674999999999999,0.06537899999999999,-3.700000000000231e-05,-0.0046750000000000055,-0.118614,-0.346007,0.013524999999999995,0.105986,-0.36240700000000003,0.014025999999999997,-0.11455399999999999,-0.687847,0.06229899999999999,0.12670599999999999,-0.697427,0.036856999999999994
26,0.012885000000000004,0.698722,-0.011480500000000005,-0.133468,0.48698199999999997,0.024603499999999997,-0.234098,0.7133619999999999,0.0063964999999999925,0.14233200000000001,0.49796200000000007,0.008684499999999998,0.213792,0.734062,-0.019285500000000004,-0.278748,0.9360419999999999,-0.031174500000000008,0.247912,0.9759319999999999,-0.057369500000000004,-0.065388,7.000000000000062e-06,0.004698499999999994,0.065388,-7.000000000000062e-06,-0.004698500000000001,-0.11860799999999999,-0.345958,0.013492499999999994,0.105982,-0.362168,0.014027499999999995,-0.11456799999999999,-0.688258,0.0623875,0.126762,-0.697478,0.0369855
27,0.012569499999999997,0.698725,-0.011446499999999998,-0.13351949999999999,0.48723500000000003,0.024688500000000002,-0.2341095,0.7136250000000001,0.0068565000000000015,0.14221050000000002,0.49796499999999994,0.0088045,0.2136805,0.734095,-0.0189625,-0.2784395,0.9360050000000001,-0.031029499999999995,0.24728050000000001,0.9763150000000002,-0.05775449999999999,-0.06540750000000001,-2.8999999999994308e-05,0.004656500000000001,0.06540750000000001,2.9000000000001247e-05,-0.004656500000000001,-0.11858950000000001,-0.346025,0.0135295,0.10594049999999999,-0.362085,0.014040500000000001,-0.11458950000000001,-0.6885549999999999,0.0623975,0.12675050000000002,-0.6975849999999999,0.0370525
28,0.012270999999999995,0.6987315000000001,-0.011372,-0.133548,0.48746150000000005,0.024798999999999998,-0.234078,0.7138515000000001,0.007302999999999997,0.14213199999999998,0.4979815,0.008983999999999999,0.213692,0.7341115,-0.018614,-0.278138,0.9359715,-0.030896,0.246662,0.9765015000000001,-0.058154000000000004,-0.065443,-6.149999999999906e-05,0.0046689999999999995,0.065443,6.149999999999906e-05,-0.0046689999999999995,-0.118578,-0.3460985,0.013578999999999997,0.105932,-0.3619685,0.014050999999999998,-0.11455800000000001,-0.6887985000000001,0.062394,0.12675199999999998,-0.6976985,0.037113999999999994
29,0.011965500000000002,0.6986005,-0.011182500000000005,-0.1335715,0.48756049999999995,0.024963499999999996,-0.23404149999999999,0.7139405,0.007758499999999995,0.14206850000000001,0.49783049999999995,0.0091585,0.2137185,0.7339205,-0.018362500000000004,-0.2779015,0.9358005,-0.030758500000000008,0.2460485,0.9749405,-0.0585845,-0.0654715,-7.049999999999418e-05,0.004684499999999994,0.0654715,7.050000000000112e-05,-0.004684500000000001,-0.1185615,-0.34634950000000003,0.013688499999999996,0.1059385,-0.36222950000000004,0.014078499999999997,-0.11450149999999999,-0.6891795000000001,0.0624035,0.1267585,-0.6979595,0.0371335
30,0.011673000000000005,0.698428,-0.010934,-0.13361499999999998,0.48767800000000006,0.025165999999999997,-0.234105,0.714038,0.008167,0.142015,0.49767799999999995,0.009388,0.213755,0.733738,-0.018087,-0.277765,0.935648,-0.030552999999999997,0.245475,0.974688,-0.058964,-0.065497,-8.199999999999874e-05,0.004642,0.065497,8.199999999999874e-05,-0.004642,-0.118535,-0.346602,0.013848999999999997,0.10594500000000001,-0.362482,0.014110999999999999,-0.114425,-0.689702,0.062452999999999995,0.126775,-0.6982119999999999,0.037204
31,0.011400499999999994,0.6982324999999999,-0.010597499999999996,-0.13366150000000002,0.48771250000000005,0.025390500000000007,-0.2342015,0.7140525,0.008554500000000007,0.14194849999999998,0.4976225,0.009694500000000009,0.2138485,0.7335225,-0.017220499999999993,-0.2776915,0.9354925,-0.030369499999999994,0.2448785,0.9726724999999999,-0.0594725,-0.06551850000000001,-8.450000000000124e-05,0.004568500000000003,0.06551850000000001,8.450000000000124e-05,-0.004568499999999996,-0.11850150000000001,-0.34683749999999997,0.014039500000000007,0.1059485,-0.3626975,0.014157500000000007,-0.11434150000000001,-0.6895275000000001,0.06251050000000001,0.1267785,-0.6985775000000001,0.037297500000000004
32,0.0111365,0.6980655,-0.010261,-0.1337215,0.48765549999999996,0.025582999999999998,-0.23434149999999998,0.7139454999999999,0.008912999999999997,0.1418985,0.4975555,0.009988999999999998,0.21400850000000002,0.7333054999999999,-0.015968999999999997,-0.2776715,0.9352955000000001,-0.030261999999999997,0.2442085,0.9719555,-0.059981999999999994,-0.0655395,-7.850000000000218e-05,0.004476000000000001,0.0655395,7.850000000000218e-05,-0.004476000000000001,-0.1184915,-0.3471245,0.014130999999999998,0.10592850000000001,-0.36291450000000003,0.014206,-0.1143015,-0.6893845000000001,0.062553,0.1267285,-0.6988645,0.03739
33,0.010857500000000004,0.6979200000000001,-0.009963499999999993,-0.13375949999999998,0.48757999999999996,0.025731500000000004,-0.2344995,0.7138199999999999,0.009017500000000005,0.14185050000000002,0.49750999999999995,0.010273500000000005,0.2142805,0.7331300000000001,-0.014863499999999995,-0.2776395,0.93512,-0.03017249999999999,0.24354050000000002,0.9716800000000001,-0.0603325,-0.0655725,-6.0999999999998555e-05,0.004366500000000002,0.0655725,6.1000000000005494e-05,-0.004366499999999995,-0.11849950000000001,-0.3473,0.014222500000000006,0.10591049999999999,-0.3631,0.014244500000000007,-0.1142795,-0.68896,0.06253850000000001,0.12670050000000002,-0.6990400000000001,0.0374625
34,0.010586,0.6977415,-0.009721500000000001,-0.133802,0.4874815,0.0258575,-0.23466199999999998,0.7136615,0.009122499999999999,0.141818,0.49747149999999996,0.010558499999999998,0.21454800000000002,0.7330215,-0.014136500000000003,-0.277602,0.9349415,-0.030082499999999998,0.243008,0.9715015,-0.0606425,-0.06561,-4.749999999999893e-05,0.004213500000000002,0.06561,4.749999999999893e-05,-0.004213500000000002,-0.11849199999999999,-0.3474785,0.014315499999999998,0.10588800000000001,-0.36335850000000003,0.014249499999999998,-0.114262,-0.6888485,0.06253349999999999,0.126668,-0.6992185000000001,0.0374875
35,0.010295000000000004,0.697515,-0.009572000000000004,-0.13376899999999997,0.487265,0.025952,-0.23473899999999998,0.7134349999999999,0.009211999999999998,0.14181100000000002,0.49737500000000007,0.010811000000000001,0.214881,0.7328549999999999,-0.013634,-0.277509,0.934685,-0.030005999999999998,0.24234100000000003,0.971275,-0.060936,-0.065639,-5.099999999999549e-05,0.004046000000000001,0.065639,5.100000000000243e-05,-0.004046000000000001,-0.118549,-0.34751499999999996,0.014265,0.105911,-0.363685,0.014234,-0.11416899999999999,-0.6893950000000001,0.062565,0.126701,-0.6994450000000001,0.037495
36,0.009988999999999998,0.6973225,-0.009438500000000002,-0.13367600000000002,0.4870325,0.026054499999999994,-0.234746,0.7132025,0.009314499999999996,0.14182399999999998,0.4972725,0.011051499999999992,0.21515399999999998,0.7325025,-0.013545500000000002,-0.27737599999999996,0.9344525,-0.030005500000000004,0.241894,0.9722424999999999,-0.0612355,-0.06567200000000001,-5.7499999999995055e-05,0.003869499999999998,0.06567200000000001,5.7500000000001994e-05,-0.003869500000000005,-0.118616,-0.3474875,0.014191499999999996,0.10595399999999999,-0.3640475,0.014250499999999996,-0.11408599999999999,-0.6902275,0.06264149999999999,0.126764,-0.6996775000000001,0.037530499999999994
37,0.009658999999999997,0.6970655,-0.009466499999999996,-0.133608,0.48687549999999996,0.025996500000000002,-0.234728,0.7129455,0.009146500000000002,0.141852,0.4970155,0.0109975,0.215292,0.7320755,-0.013609499999999997,-0.277278,0.9341455000000001,-0.030359499999999998,0.241542,0.9713855,-0.061837500000000004,-0.065708,-6.650000000000406e-05,0.0038195000000000034,0.065708,6.649999999999712e-05,-0.0038194999999999965,-0.118718,-0.34748450000000003,0.013961500000000002,0.106002,-0.3643945,0.014193500000000001,-0.113918,-0.6911444999999999,0.0624825,0.126832,-0.6999645,0.0374415
38,0.009383999999999998,0.6968685,-0.009547,-0.133512,0.4867885,0.025865,-0.234612,0.7126785,0.008707,0.141898,0.4968185,0.010890999999999998,0.215558,0.7316585,-0.013732000000000001,-0.277172,0.9338185,-0.030989000000000003,0.241638,0.9695885,-0.062821,-0.06572700000000001,-9.25000000000023e-05,0.0037379999999999983,0.06572700000000001,9.249999999999536e-05,-0.0037379999999999983,-0.11879200000000001,-0.3476115,0.013871999999999999,0.106078,-0.3645815,0.014086000000000001,-0.11369200000000002,-0.6919715,0.062356999999999996,0.126948,-0.7001315,0.037290000000000004
39,0.008960999999999995,0.6966755,-0.0099765,-0.133412,0.4866955,0.025628500000000002,-0.23461200000000001,0.7123855,0.0075975,0.141948,0.4966255,0.0107675,0.21592799999999998,0.7310155,-0.0139385,-0.27717200000000003,0.9331255,-0.0329795,0.241718,0.9672955,-0.0653125,-0.065754,-0.00011749999999999955,0.0036194999999999977,0.065754,0.00011749999999999955,-0.0036194999999999977,-0.118872,-0.34749450000000004,0.0137585,0.106158,-0.3647745,0.0139595,-0.113482,-0.6918845,0.0622205,0.12708799999999998,-0.7003444999999999,0.0371535
40,0.008259000000000006,0.696019,-0.011727500000000002,-0.133258,0.48656900000000003,0.0252365,-0.234688,0.711999,0.004866500000000003,0.142052,0.496309,0.0103175,0.21617200000000003,0.730279,-0.0165005,-0.277108,0.931669,-0.03696050000000001,0.24154199999999998,0.9670489999999999,-0.0706745,-0.065832,-0.00013699999999999823,0.003446499999999998,0.065832,0.00013699999999999823,-0.003446499999999998,-0.11892799999999999,-0.347671,0.0136095,0.106362,-0.365021,0.0137685,-0.11334799999999999,-0.691681,0.062074500000000005,0.12731199999999998,-0.700661,0.0369505
41,0.0071999999999999955,0.694832,-0.015394500000000005,-0.13316499999999998,0.48623200000000005,0.024162499999999996,-0.23491499999999998,0.7112919999999999,-0.0003305000000000044,0.142125,0.49577200000000005,0.0090545,0.216215,0.729262,-0.0215905,-0.277365,0.9280619999999999,-0.0451815,0.241045,0.9665919999999999,-0.0805785,-0.065884,-0.00020699999999999885,0.0032704999999999956,0.065884,0.00020699999999999885,-0.0032705000000000026,-0.119045,-0.347808,0.013103499999999997,0.106595,-0.365438,0.013279499999999996,-0.11318500000000001,-0.6913980000000001,0.06135449999999999,0.127515,-0.7011580000000001,0.036226499999999995
42,0.005563000000000001,0.6922745,-0.023740999999999998,-0.13327799999999998,0.48598449999999993,0.021233999999999996,-0.23560799999999998,0.7093345,-0.012035000000000004,0.14206200000000002,0.49515449999999994,0.0057909999999999975,0.21613200000000002,0.7270845,-0.032995,-0.278428,0.9209145,-0.061986,0.24055200000000002,0.9577045,-0.09813600000000001,-0.065917,-0.0003425000000000025,0.0032219999999999957,0.065917,0.0003424999999999956,-0.0032220000000000026,-0.11921799999999999,-0.3480655,0.011831999999999995,0.10680200000000001,-0.3655755,0.012336999999999997,-0.113258,-0.6903855,0.05967499999999999,0.127662,-0.7016455,0.03435
43,0.0037219999999999983,0.6891360000000001,-0.034097,-0.133411,0.48606599999999994,0.017332999999999998,-0.236451,0.7068960000000001,-0.026466000000000003,0.141959,0.49474599999999996,0.0012779999999999944,0.216069,0.7240460000000001,-0.048565,-0.27973099999999995,0.912976,-0.082711,0.240079,0.9487460000000001,-0.120931,-0.065999,-0.0004549999999999971,0.0034409999999999996,0.065999,0.0004549999999999971,-0.0034409999999999996,-0.11940100000000001,-0.34779400000000005,0.010467999999999998,0.107059,-0.365284,0.011142999999999997,-0.113271,-0.6885239999999999,0.057377,0.127819,-0.701804,0.031847
44,0.001705999999999995,0.685596,-0.0463725,-0.133579,0.48594599999999993,0.012438500000000002,-0.237709,0.703546,-0.043914499999999995,0.14163099999999998,0.494496,-0.0042535,0.215751,0.7201960000000001,-0.0673185,-0.281519,0.904386,-0.10804849999999999,0.239581,0.940346,-0.1500785,-0.06619900000000001,-0.0004549999999999971,0.0035645000000000017,0.06619900000000001,0.0004549999999999971,-0.0035644999999999982,-0.11971899999999999,-0.34779400000000005,0.009031500000000001,0.107211,-0.365034,0.009791500000000002,-0.113479,-0.685784,0.0545695,0.12776099999999999,-0.701804,0.028699500000000003
45,0.0007385000000000048,0.680736,-0.061970000000000004,-0.13384249999999998,0.4858259999999999,0.005727999999999997,-0.23909249999999999,0.698736,-0.06514500000000001,0.1411175,0.494226,-0.012241000000000002,0.2154875,0.7150460000000001,-0.090398,-0.2845025,0.893966,-0.14210799999999998,0.23887750000000002,0.929806,-0.184878,-0.0664205,-0.0004549999999999971,0.003851999999999998,0.0664205,0.0004549999999999971,-0.0038520000000000013,-0.1199625,-0.34779400000000005,0.007734999999999999,0.10740750000000002,-0.365114,0.008024999999999997,-0.1137525,-0.682914,0.051045,0.12766750000000002,-0.701804,0.024721
46,-0.0011280000000000005,0.674166,-0.0808695,-0.134189,0.48564599999999997,-0.0027965000000000004,-0.240729,0.6917460000000001,-0.0903395,0.14011099999999999,0.49374599999999996,-0.0219795,0.21410099999999999,0.7084360000000001,-0.11656949999999999,-0.287579,0.882456,-0.1820895,0.237781,0.9181560000000001,-0.2250795,-0.06668199999999999,-0.0004549999999999971,0.004060499999999998,0.06668199999999999,0.0004549999999999971,-0.004060500000000002,-0.120279,-0.34779400000000005,0.006197499999999998,0.107851,-0.365114,0.0064875,-0.11412900000000001,-0.6822239999999999,0.0467685,0.12756099999999998,-0.701894,0.0198075
47,-0.0036564999999999983,0.663298,-0.11076,-0.1349905,0.48374800000000007,-0.024424,-0.2435505,0.678098,-0.13121,0.1354995,0.49111800000000005,-0.044313,0.21111950000000002,0.695018,-0.15768,-0.2923005,0.858148,-0.24153,0.23609950000000002,0.901938,-0.27488,-0.0670245,-0.0005929999999999963,0.004226000000000001,0.0670245,0.0005930000000000032,-0.004226000000000001,-0.1207805,-0.34566199999999997,0.0031460000000000012,0.1080895,-0.362212,0.002752000000000001,-0.1149805,-0.677792,0.038669999999999996,0.12704949999999998,-0.699122,0.010308000000000001
48,-0.006138999999999997,0.6481895,-0.14548049999999998,-0.13478500000000002,0.4750895,-0.0513625,-0.24657500000000002,0.6515995,-0.1749805,0.130615,0.48063950000000005,-0.0700895,0.207785,0.6683994999999999,-0.2027305,-0.296835,0.8148295,-0.3069605,0.231385,0.8557395,-0.33833050000000003,-0.067417,-0.0015775000000000025,0.004545499999999999,0.067417,0.0015775000000000025,-0.0045455,-0.12154499999999999,-0.34504049999999997,-7.750000000000031e-05,0.10863500000000001,-0.36124049999999996,-0.0012275000000000003,-0.11594499999999999,-0.6750505,0.028746499999999998,0.126415,-0.6987905000000001,-0.0010675000000000003
49,-0.008846499999999995,0.629172,-0.1819085,-0.1345825,0.46691200000000005,-0.07949550000000001,-0.24902249999999998,0.6218119999999999,-0.21921849999999998,0.12859750000000003,0.47049199999999997,-0.09756250000000001,0.20425749999999998,0.6391319999999999,-0.2475385,-0.3012725,0.7649819999999999,-0.37141850000000004,0.2265375,0.8029419999999999,-0.40204850000000003,-0.0678545,-0.0010819999999999996,0.004420499999999999,0.0678545,0.0010819999999999996,-0.0044205,-0.1223925,-0.344338,-0.0030095,0.1091275,-0.359848,-0.0054425,-0.1170625,-0.671388,0.0180565,0.1256375,-0.6964680000000001,-0.0130455
50,-0.0114165,0.607966,-0.21820299999999998,-0.13415349999999998,0.456006,-0.10939700000000001,-0.25137349999999997,0.5871059999999999,-0.265053,0.1263665,0.457596,-0.127353,0.20044650000000003,0.605656,-0.294243,-0.3052135,0.709516,-0.429143,0.22192650000000003,0.742526,-0.461933,-0.0683225,0.00012999999999999817,0.004416,0.0683225,-0.0001300000000000051,-0.004416,-0.1232235,-0.343144,-0.006874999999999999,0.1096965,-0.357984,-0.010088,-0.1183235,-0.6674640000000001,0.006547000000000001,0.1247765,-0.693214,-0.025961
51,-0.014364,0.5756645,-0.2664305,-0.13514299999999999,0.43784449999999997,-0.1532905,-0.250053,0.5415245000000001,-0.3179405,0.11984700000000001,0.4368345,-0.1707705,0.19434700000000002,0.5573445,-0.3496405,-0.305973,0.6377045,-0.4881205,0.215307,0.6706845,-0.5272605,-0.06903899999999999,-2.4499999999996747e-05,0.005186499999999997,0.06903899999999999,2.4500000000003685e-05,-0.005186500000000004,-0.12412300000000001,-0.3432355,-0.0230835,0.109597,-0.35761550000000003,-0.0271535,-0.12038299999999999,-0.6678755,-0.0178805,0.12326700000000002,-0.6936154999999999,-0.0515665
52,-0.014938999999999997,0.543876,-0.315001,-0.136009,0.418916,-0.197191,-0.249959,0.49264600000000003,-0.368591,0.115981,0.415796,-0.21469100000000002,0.18666100000000002,0.504816,-0.403921,-0.307309,0.560316,-0.544471,0.207651,0.592056,-0.589181,-0.070627,-0.00013400000000000217,0.005923999999999999,0.070627,0.00013399999999999523,-0.005923999999999999,-0.12592899999999999,-0.343604,-0.037911,0.108521,-0.357314,-0.043214,-0.123339,-0.668354,-0.042344,0.121091,-0.694044,-0.0768
53,-0.014174500000000001,0.51697,-0.36774,-0.1340455,0.4043,-0.24747000000000002,-0.2484555,0.444,-0.41785,0.1121245,0.39908,-0.26416,0.17903449999999999,0.45377,-0.45692,-0.30793550000000003,0.48429999999999995,-0.60137,0.1996245,0.51181,-0.64573,-0.0729225,0.0005910000000000012,0.004869999999999999,0.0729225,-0.0005909999999999943,-0.004869999999999999,-0.1276455,-0.34089,-0.05494,0.1076645,-0.35421,-0.061519000000000004,-0.12625550000000002,-0.66442,-0.069101,0.11895449999999999,-0.6901,-0.10383400000000001
54,-0.011803000000000001,0.480742,-0.421845,-0.130492,0.379462,-0.300555,-0.24798199999999998,0.393172,-0.467415,0.109718,0.372332,-0.315825,0.171618,0.399092,-0.5108250000000001,-0.306562,0.401202,-0.648505,0.19278800000000001,0.424942,-0.695125,-0.073982,0.0006600000000000009,0.003814999999999985,0.073982,-0.0006600000000000009,-0.003815000000000013,-0.12901200000000002,-0.338178,-0.07842200000000002,0.107398,-0.35182800000000003,-0.08483400000000002,-0.128142,-0.659568,-0.09961000000000003,0.11758800000000001,-0.685158,-0.13428500000000002
55,-0.009511999999999998,0.44613949999999997,-0.472725,-0.127524,0.3545995,-0.352105,-0.24834399999999998,0.3418195,-0.515325,0.10675599999999999,0.3457695,-0.366005,0.16392600000000002,0.3424495,-0.559525,-0.304974,0.3149595,-0.685505,0.18557600000000002,0.3317195,-0.734745,-0.07655100000000001,0.0006994999999999987,0.002585000000000004,0.07655100000000001,-0.0006995000000000022,-0.002584999999999976,-0.131214,-0.33533050000000003,-0.103596,0.106376,-0.3491105,-0.11121099999999999,-0.130694,-0.6557305,-0.130489,0.11529600000000001,-0.6792305,-0.16666299999999998
56,-0.006555499999999999,0.419066,-0.512825,-0.12449650000000001,0.33509599999999995,-0.390835,-0.2467665,0.297436,-0.547875,0.10463349999999999,0.32456599999999997,-0.403675,0.1565935,0.29376599999999997,-0.592155,-0.3016665,0.23705600000000002,-0.714235,0.1783035,0.238106,-0.7626550000000001,-0.0792995,0.0007199999999999984,0.0027449999999999974,0.0792995,-0.0007200000000000019,-0.0027449999999999974,-0.1336165,-0.33118400000000003,-0.128265,0.10476350000000001,-0.345704,-0.132485,-0.1328465,-0.650454,-0.158799,0.11326350000000002,-0.671944,-0.19295199999999998
57,-0.00036950000000000004,0.391173,-0.529155,-0.1193465,0.317453,-0.40707499999999996,-0.2401365,0.263273,-0.564235,0.1061135,0.306263,-0.419645,0.1514935,0.251033,-0.607615,-0.29464650000000003,0.171063,-0.730625,0.1729335,0.162483,-0.778095,-0.08081550000000001,0.0023549999999999995,0.002835000000000004,0.08081550000000001,-0.0023550000000000003,-0.0028349999999999764,-0.1337465,-0.327307,-0.14410199999999998,0.1050535,-0.34342700000000004,-0.148355,-0.1325565,-0.642497,-0.174669,0.11398349999999999,-0.6609470000000001,-0.207646
58,0.004230000000000001,0.36021099999999995,-0.529505,-0.11629500000000001,0.292321,-0.416475,-0.23571499999999998,0.236961,-0.564575,0.10578499999999999,0.280771,-0.429965,0.144785,0.211441,-0.6080749999999999,-0.288985,0.113981,-0.7310650000000001,0.165685,0.09171900000000001,-0.777525,-0.082174,0.0036230000000000004,0.002945000000000003,0.082174,-0.0036230000000000004,-0.0029449999999999754,-0.135245,-0.312379,-0.14004699999999998,0.10367499999999999,-0.337419,-0.14824299999999999,-0.134005,-0.6306889999999999,-0.17455099999999998,0.11313500000000001,-0.645459,-0.205917
59,0.0099105,0.328765,-0.529945,-0.1117665,0.26714499999999997,-0.425535,-0.2314255,0.206365,-0.564915,0.10966450000000001,0.255275,-0.439655,0.1379245,0.175755,-0.607545,-0.28050549999999996,0.061555,-0.716215,0.15570450000000002,0.029279,-0.773825,-0.0838745,0.004423,0.0030749999999999944,0.0838745,-0.004423,-0.0030749999999999944,-0.1368455,-0.293285,-0.139925,0.1020545,-0.32889500000000005,-0.146093,-0.1360555,-0.618615,-0.175291,0.1114245,-0.629455,-0.205786
60,0.008375500000000001,0.340074,-0.53913,-0.1110985,0.27992399999999995,-0.43633,-0.2288945,0.22295399999999999,-0.5753,0.11031550000000001,0.268344,-0.45045,0.13468549999999999,0.18923399999999999,-0.6180300000000001,-0.2703245,0.05949799999999999,-0.70234,0.1533055,0.02022999999999999,-0.76004,-0.0860855,0.005763999999999991,0.0022799999999999765,0.0860855,-0.005764000000000005,-0.0022800000000000042,-0.13538450000000002,-0.24248600000000003,-0.15077400000000002,0.1030755,-0.288416,-0.15390900000000002,-0.1350045,-0.567286,-0.187312,0.1118055,-0.574476,-0.21655200000000002
61,0.011872999999999998,0.329585,-0.53579,-0.108281,0.291315,-0.44172999999999996,-0.22048600000000002,0.214605,-0.5715699999999999,0.11279399999999999,0.279735,-0.45581,0.131764,0.18898700000000002,-0.61722,-0.256556,0.03826499999999999,-0.67527,0.15090399999999998,-0.003134999999999999,-0.7348399999999999,-0.089014,0.009525000000000006,0.0025100000000000122,0.089014,-0.009525000000000006,-0.0025099999999999845,-0.131666,-0.21619500000000003,-0.151696,0.107054,-0.265425,-0.15042499999999998,-0.131706,-0.539275,-0.187181,0.113804,-0.543555,-0.21615199999999998
62,0.0203605,0.306945,-0.528845,-0.0987975,0.291235,-0.448505,-0.2074545,0.203934,-0.5630649999999999,0.1229255,0.27966500000000005,-0.462655,0.1353455,0.17718,-0.609715,-0.2381645,0.013245000000000007,-0.648705,0.1534255,-0.031915,-0.705035,-0.0895285,0.011545,-0.0002949999999999897,0.0895285,-0.011545,0.00029500000000001747,-0.1223545,-0.18757499999999996,-0.15087799999999998,0.1148055,-0.249835,-0.148083,-0.1233745,-0.513855,-0.186248,0.1190255,-0.5213749999999999,-0.21270599999999998
63,0.0311315,0.30667500000000003,-0.503835,-0.08667050000000001,0.311545,-0.432815,-0.1948015,0.202371,-0.539355,0.1352885,0.29996500000000004,-0.446455,0.14151850000000002,0.17857800000000001,-0.587845,-0.2176415,-0.0030850000000000044,-0.608915,0.1569685,-0.048065,-0.661485,-0.0884655,0.011995000000000006,-0.0035350000000000104,0.0884655,-0.011995000000000006,0.0035350000000000104,-0.1113915,-0.17244500000000001,-0.137432,0.1247685,-0.235925,-0.133295,-0.11306150000000001,-0.489205,-0.17214400000000002,0.1254385,-0.498285,-0.194214
64,0.040789500000000006,0.30224,-0.46906,-0.0766995,0.32812,-0.4065,-0.1796165,0.199499,-0.5052399999999999,0.1452635,0.31653000000000003,-0.42013999999999996,0.14936349999999998,0.17985700000000002,-0.55663,-0.19513650000000002,-0.017859999999999987,-0.56568,0.1625835,-0.058219999999999994,-0.61122,-0.0888565,0.012400000000000022,-0.004259999999999986,0.0888565,-0.012399999999999994,0.004260000000000014,-0.0980665,-0.15092,-0.12073999999999999,0.1351335,-0.22018,-0.114714,-0.10049649999999999,-0.46446,-0.152828,0.13399350000000002,-0.47892999999999997,-0.173625
65,0.044983999999999996,0.28080799999999995,-0.45784,-0.065365,0.32411999999999996,-0.40274,-0.166169,0.18061599999999997,-0.49499000000000004,0.156611,0.31254,-0.41638,0.15381099999999998,0.16385499999999997,-0.54964,-0.17700900000000003,-0.044930000000000025,-0.54712,0.165221,-0.08107000000000003,-0.58474,-0.088899,0.01294999999999999,-0.006879999999999997,0.088899,-0.012950000000000017,0.006879999999999997,-0.089149,-0.15084000000000003,-0.126037,0.139931,-0.21926,-0.11776800000000001,-0.091439,-0.46038999999999997,-0.15488100000000002,0.137821,-0.47536,-0.175544
66,0.053521,0.260755,-0.441465,-0.051724,0.32014,-0.396355,-0.150088,0.159569,-0.475755,0.170252,0.30855,-0.41000499999999995,0.158362,0.149871,-0.5347850000000001,-0.157928,-0.06899,-0.518215,0.168102,-0.09675,-0.554875,-0.088168,0.013009999999999994,-0.008094999999999991,0.088168,-0.013009999999999994,0.008095000000000019,-0.08069799999999999,-0.15805999999999998,-0.12498599999999999,0.144302,-0.22004,-0.11296099999999999,-0.081928,-0.46292,-0.150498,0.14136200000000002,-0.47753999999999996,-0.168295
67,0.06846000000000001,0.279312,-0.40568499999999996,-0.03336099999999999,0.347435,-0.370585,-0.12266199999999998,0.170806,-0.440425,0.188618,0.335855,-0.384225,0.17558800000000002,0.17172300000000001,-0.504405,-0.128502,-0.057565000000000005,-0.475545,0.18237799999999998,-0.073385,-0.512115,-0.090602,0.015704999999999997,-0.009784999999999988,0.09060200000000002,-0.015704999999999997,0.009785000000000016,-0.05935199999999999,-0.142365,-0.10500399999999999,0.16081800000000002,-0.196945,-0.09472299999999999,-0.06031199999999999,-0.436195,-0.12813799999999997,0.15699800000000003,-0.445445,-0.145387
68,0.082605,0.304778,-0.368355,-0.015779,0.376125,-0.343645,-0.094341,0.194191,-0.40409500000000004,0.20619900000000002,0.36454200000000003,-0.357275,0.19494899999999998,0.19583899999999999,-0.475105,-0.09958099999999999,-0.04009499999999999,-0.436775,0.20036900000000002,-0.048155,-0.474505,-0.09134099999999999,0.018864999999999993,-0.011655000000000013,0.091341,-0.01886500000000002,0.011654999999999999,-0.035521,-0.120415,-0.083654,0.182619,-0.17346499999999998,-0.07558300000000001,-0.035990999999999995,-0.40694499999999995,-0.104773,0.179149,-0.41619500000000004,-0.12174400000000002
69,0.079199,0.34506699999999996,-0.3157195,-0.010768,0.39183199999999996,-0.29177949999999997,-0.08718000000000001,0.22942099999999999,-0.3491895,0.21122,0.38024499999999994,-0.30541949999999995,0.197,0.23517099999999996,-0.4264095,-0.09247,-0.005410000000000026,-0.3797795,0.201,-0.008900000000000019,-0.4214795,-0.09012999999999999,0.020409999999999984,-0.011441499999999993,0.09013,-0.02041000000000004,0.011441500000000007,-0.029299999999999993,-0.06787000000000004,-0.039845499999999985,0.18730000000000002,-0.14151000000000002,-0.033393499999999986,-0.029899999999999996,-0.36426000000000003,-0.05864549999999999,0.18511,-0.37350000000000005,-0.07749049999999999
70,0.081298,0.381523,-0.2631655,-0.0014390000000000097,0.413456,-0.2442055,-0.078254,0.26473399999999997,-0.29372550000000003,0.22055599999999997,0.401867,-0.2578455,0.20057599999999998,0.26919699999999996,-0.3768655,-0.08476399999999999,0.024629999999999985,-0.32431550000000003,0.205226,0.032789999999999986,-0.3704155,-0.08895399999999999,0.021889999999999965,-0.012309499999999998,0.08895399999999999,-0.02189000000000002,0.012309500000000001,-0.02107400000000001,-0.020130000000000037,0.0048375000000000015,0.189176,-0.11775000000000002,0.0118025,-0.022713999999999998,-0.32417000000000007,-0.010987499999999997,0.194316,-0.3336100000000001,-0.0294595
71,0.0922705,0.392863,-0.213789,0.0141825,0.429959,-0.200519,-0.05716249999999999,0.26283999999999996,-0.242669,0.23617749999999998,0.41837599999999997,-0.214129,0.2213175,0.281517,-0.32924899999999996,-0.0636925,0.02432000000000001,-0.273619,0.22388750000000002,0.04637999999999998,-0.325269,-0.0897825,0.022210000000000008,-0.013392,0.0897825,-0.022210000000000008,0.013392,0.0009674999999999961,-0.01876,0.045087,0.2057565,-0.09905999999999998,0.050215,-0.0010825000000000001,-0.31921,0.03173,0.2091275,-0.3165,-0.016446000000000002
72,0.0944645,0.392409,-0.18985950000000001,0.019540500000000016,0.438156,-0.17683949999999998,-0.050445499999999976,0.24939500000000003,-0.2190995,0.2415745,0.426572,-0.1904495,0.2275745,0.276374,-0.3058495,-0.054155499999999995,0.010475000000000012,-0.2446395,0.22808450000000002,0.03912500000000002,-0.3021795,-0.0921855,0.022614999999999996,-0.015613499999999995,0.0921855,-0.022614999999999996,0.015613500000000002,0.007534500000000013,-0.022434999999999983,0.060846500000000005,0.2121425,-0.083895,0.08059350000000001,0.006564500000000015,-0.32476499999999997,0.0530535,0.2118065,-0.320175,-0.016372499999999998
73,0.099824,0.39258899999999997,-0.1976815,0.02006899999999999,0.43833599999999995,-0.1816615,-0.043093000000000006,0.23237499999999997,-0.2236115,0.242047,0.42675199999999996,-0.19527150000000001,0.232897,0.269385,-0.3146615,-0.04810299999999999,-0.0024650000000000505,-0.25103149999999996,0.23111700000000002,0.033324999999999994,-0.3113415,-0.093203,0.022794999999999954,-0.0212165,0.093203,-0.02279500000000001,0.021216500000000003,0.01207699999999999,-0.04183500000000001,0.0417495,0.21399200000000002,-0.08371500000000004,0.0766115,0.012627,-0.324495,0.038540500000000005,0.2143,-0.32401500000000005,-0.027671499999999995
74,0.10017000000000001,0.39258899999999997,-0.2298065,0.016097,0.43833599999999995,-0.20919649999999998,-0.039892999999999984,0.21479499999999996,-0.2546665,0.238027,0.42675199999999996,-0.22279649999999998,0.234917,0.263351,-0.34816650000000005,-0.046623,-0.020275000000000043,-0.2824665,0.228987,0.028234999999999955,-0.34448650000000003,-0.09406300000000001,0.022794999999999954,-0.0237235,0.09406300000000001,-0.02279500000000001,0.0237235,0.012017,-0.06140500000000004,-0.0019454999999999993,0.211789,-0.10255500000000001,0.0433115,0.014357000000000009,-0.3304250000000001,0.0013495,0.215288,-0.3288150000000001,-0.0609435
75,0.09356,0.39258899999999997,-0.2265345,0.00522800000000001,0.43833599999999995,-0.2055845,-0.05133199999999999,0.20857499999999998,-0.2510145,0.22894799999999998,0.42675199999999996,-0.2193245,0.223638,0.263351,-0.3445245,-0.06013199999999999,-0.04245500000000002,-0.2755445,0.21416800000000003,0.028234999999999955,-0.3389145,-0.09360199999999999,0.022794999999999954,-0.0209945,0.093602,-0.02279500000000001,0.0209945,-0.00011200000000000099,-0.06665500000000002,-0.0076775,0.197158,-0.11965500000000001,0.0528035,0.003478000000000009,-0.32979500000000006,0.0021735,0.204706,-0.3288150000000001,-0.0598205
76,0.08638699999999999,0.417163,-0.21883249999999999,-0.0039040000000000047,0.435687,-0.1760525,-0.06225400000000002,0.21456,-0.23811249999999998,0.22200599999999998,0.424105,-0.1913125,0.214246,0.28984,-0.33277249999999997,-0.071454,-0.03591,-0.2693025,0.20033600000000001,0.056379999999999986,-0.3331425,-0.092204,0.02026,-0.0170605,0.092204,-0.02026,0.0170605,-0.011914000000000008,-0.05185000000000001,-0.0125485,0.17893799999999999,-0.11139000000000004,0.0730145,-0.007944000000000007,-0.29957000000000006,0.002291500000000001,0.193753,-0.30427,-0.07981350000000001
77,0.08953700000000002,0.45341000000000004,-0.242551,-0.006422999999999984,0.441237,-0.172631,-0.06518099999999999,0.22904500000000003,-0.256551,0.22243900000000003,0.42965600000000004,-0.19237100000000001,0.21071900000000002,0.322475,-0.351911,-0.075321,-0.02094499999999999,-0.29446100000000003,0.195739,0.09153500000000003,-0.359281,-0.092141,0.01996500000000001,-0.01327,0.09214100000000001,-0.019964999999999955,0.013269999999999997,-0.016470999999999986,-0.041935,-0.048695,0.17011900000000002,-0.09843499999999994,0.070469,-0.01097099999999998,-0.265675,-0.029614,0.19199900000000003,-0.27146499999999996,-0.130663
78,0.07498800000000001,0.44551300000000005,-0.240815,-0.020897999999999986,0.40182500000000004,-0.160495,-0.081346,0.20625000000000004,-0.256365,0.207874,0.39390600000000003,-0.185785,0.19778400000000002,0.30985000000000007,-0.35318499999999997,-0.08993599999999999,-0.04293999999999998,-0.297175,0.182404,0.08674000000000004,-0.361825,-0.089366,0.018400000000000027,-0.013743000000000002,0.08936600000000001,-0.018399999999999972,0.013742999999999998,-0.028565999999999994,-0.045609999999999984,-0.051603,0.152543,-0.09953999999999996,0.093605,-0.02363599999999999,-0.26217999999999997,-0.032478,0.177083,-0.25864999999999994,-0.143275
79,0.0628415,0.46480899999999997,-0.2750515,-0.031315499999999996,0.39435099999999995,-0.1832215,-0.09522549999999999,0.21397999999999995,-0.2906615,0.2021545,0.388217,-0.2271415,0.1891845,0.32727999999999996,-0.38865150000000004,-0.10082550000000001,-0.033340000000000036,-0.33486150000000003,0.1739945,0.10776999999999998,-0.40116150000000006,-0.08883550000000001,0.019299999999999984,-0.01093050000000001,0.0888355,-0.01930000000000004,0.010930499999999996,-0.036795499999999995,-0.036820000000000075,-0.09850650000000001,0.13971250000000002,-0.07517000000000007,0.08359849999999999,-0.0314055,-0.22979000000000005,-0.07465450000000001,0.1661705,-0.21719,-0.18654150000000003
80,0.05784950000000001,0.47728000000000004,-0.268693,-0.045621499999999995,0.38105000000000006,-0.181263,-0.10300149999999998,0.21664000000000005,-0.288043,0.1943185,0.37878000000000006,-0.22481299999999999,0.1865285,0.33991000000000005,-0.383083,-0.10570149999999999,-0.02859999999999996,-0.33215300000000003,0.17029850000000002,0.12078000000000005,-0.401563,-0.0890315,0.017300000000000038,-0.009684000000000005,0.08903150000000001,-0.017299999999999982,0.009683999999999998,-0.03878149999999998,-0.031629999999999936,-0.104844,0.12489350000000002,-0.06767999999999996,0.11386699999999998,-0.03354349999999999,-0.20187999999999995,-0.07584400000000001,0.15452950000000001,-0.19345999999999997,-0.190093
81,0.050969,0.488677,-0.26223799999999997,-0.063421,0.3710399999999999,-0.177848,-0.11377100000000001,0.22086999999999996,-0.285638,0.185139,0.37411999999999995,-0.22143800000000002,0.181689,0.35334999999999994,-0.376608,-0.113461,-0.02080000000000004,-0.331528,0.164089,0.13386999999999993,-0.401208,-0.08940100000000001,0.013909999999999978,-0.0078079999999999955,0.08940100000000001,-0.013910000000000089,0.0078079999999999955,-0.043200999999999996,-0.022270000000000012,-0.109732,0.106444,-0.05288000000000004,0.143882,-0.036953999999999994,-0.17396,-0.076592,0.139531,-0.17023,-0.192218
82,0.037891499999999995,0.5028429999999999,-0.2642265,-0.0811525,0.3671,-0.17680649999999998,-0.13183250000000002,0.23073999999999995,-0.29119649999999997,0.17472749999999998,0.37374999999999997,-0.2236865,0.16972749999999998,0.35039,-0.37873650000000003,-0.1278625,-0.008419999999999983,-0.3408165,0.1495375,0.13572999999999996,-0.41142650000000003,-0.0887225,0.009070000000000022,-0.004193500000000003,0.0887225,-0.009070000000000022,0.004193500000000003,-0.056552500000000006,-0.003310000000000035,-0.1246515,0.0829155,-0.04217000000000004,0.16862349999999998,-0.049599500000000005,-0.13968999999999998,-0.0913335,0.12053549999999999,-0.15413,-0.2104065
83,0.028915499999999997,0.5080570000000001,-0.26722,-0.09486950000000001,0.369715,-0.17407499999999998,-0.1455095,0.23016500000000006,-0.2959,0.16599049999999999,0.379935,-0.22368,0.1615205,0.3374250000000001,-0.38144999999999996,-0.13829950000000002,-0.0013249999999999096,-0.35450000000000004,0.1399405,0.12618500000000005,-0.42437,-0.08754949999999999,0.008995000000000086,-0.0011879999999999946,0.0875495,-0.008994999999999975,0.0011880000000000085,-0.0675295,0.0010850000000000026,-0.13890999999999998,0.06405849999999999,-0.040734999999999966,0.19224,-0.058121500000000006,-0.12278499999999992,-0.104529,0.1035745,-0.14924499999999996,-0.20324
84,0.023176999999999996,0.509249,-0.2769565,-0.10528000000000001,0.36890999999999996,-0.1792415,-0.14925,0.2311399999999999,-0.3062565,0.15953,0.38236999999999993,-0.2289565,0.15949,0.3235699999999999,-0.39063650000000005,-0.14249,0.007659999999999889,-0.37421649999999995,0.13674999999999998,0.1149699999999999,-0.44249649999999996,-0.0864,0.007679999999999909,0.0028124999999999956,0.0864,-0.00768000000000002,-0.0028124999999999956,-0.07253,0.0007299999999998974,-0.1585145,0.05286299999999999,-0.025060000000000082,0.1952635,-0.062654,-0.11104000000000003,-0.1219095,0.09174099999999999,-0.14811000000000007,-0.2116665
85,0.01724,0.516039,-0.27812400000000004,-0.11469000000000001,0.374905,-0.17625200000000002,-0.15296,0.236595,-0.308954,0.15394,0.391065,-0.229904,0.15739999999999998,0.30843499999999996,-0.392834,-0.14623,0.02165499999999998,-0.388274,0.13431,0.10641499999999998,-0.454544,-0.08541,0.0068549999999999445,0.0018159999999999982,0.08541,-0.0068550000000000555,-0.0018159999999999982,-0.07690000000000001,0.005885000000000029,-0.169328,0.042877,-0.02177499999999999,0.19512600000000002,-0.06625700000000001,-0.10051500000000002,-0.13261900000000001,0.081612,-0.146015,-0.211734
86,0.009206999999999998,0.5188539999999999,-0.2768135,-0.12138299999999999,0.3763949999999999,-0.1747465,-0.162413,0.23732499999999995,-0.3112435,0.145407,0.3948649999999999,-0.2286135,0.149637,0.29010499999999995,-0.3929335,-0.155353,0.030134999999999912,-0.4019135,0.126647,0.09615499999999988,-0.4664735,-0.083893,0.007674999999999987,0.0007125000000000048,0.083893,-0.007675000000000098,-0.0007124999999999909,-0.08649300000000001,0.011234999999999884,-0.1792165,0.037836999999999996,-0.029875000000000096,0.19551649999999998,-0.075517,-0.08862500000000006,-0.1429145,0.07797499999999999,-0.15685500000000008,-0.2114335
87,0.002031500000000002,0.5244900000000001,-0.274791,-0.1340405,0.3848100000000001,-0.171315,-0.1742505,0.24014000000000008,-0.315601,0.1369195,0.40280000000000005,-0.229511,0.1428795,0.28481000000000006,-0.39241099999999995,-0.1656405,0.04239000000000004,-0.41754099999999994,0.12036949999999999,0.09827000000000008,-0.48233099999999995,-0.08259050000000001,0.008420000000000094,0.0006110000000000004,0.08259050000000001,-0.008419999999999983,-0.0006110000000000004,-0.09555050000000001,0.01707000000000003,-0.19189099999999998,0.023211500000000003,-0.029509999999999925,0.196819,-0.0846285,-0.08109999999999995,-0.156379,0.0644825,-0.16079999999999994,-0.210231
88,-0.010756499999999999,0.53325,-0.2684895,-0.1459795,0.39357,-0.1852495,-0.1862795,0.24889999999999995,-0.3229495,0.1279005,0.4115599999999999,-0.2408595,0.1360805,0.2869399999999999,-0.3931995,-0.1757895,0.05114999999999992,-0.4355595,0.1152605,0.10702999999999996,-0.4950595,-0.0806135,0.007629999999999915,0.0047875,0.0806135,-0.007630000000000026,-0.0047875,-0.1026495,0.02238999999999991,-0.19779950000000002,0.0086305,-0.029970000000000052,0.1958805,-0.0918045,-0.07506000000000002,-0.1631235,0.0506685,-0.1691800000000001,-0.2192195
89,-0.021123999999999997,0.54009,-0.26296,-0.15304800000000002,0.40041000000000004,-0.196,-0.195568,0.25777,-0.33098,0.121472,0.4184,-0.25183,0.132222,0.2889,-0.39588,-0.183918,0.05854999999999999,-0.45661,0.110932,0.11387000000000003,-0.51036,-0.079157,0.006260000000000043,0.007898000000000002,0.079157,-0.006260000000000043,-0.007898000000000002,-0.10724800000000001,0.029549999999999965,-0.20294,-0.001907999999999997,-0.03056000000000003,0.19588,-0.09640599999999999,-0.06791000000000003,-0.168257,0.039547000000000006,-0.17152999999999996,-0.22716999999999998
90,-0.022796,0.54169,-0.259192,-0.15486100000000003,0.40315999999999996,-0.199002,-0.200451,0.26360999999999996,-0.334962,0.118739,0.41999999999999993,-0.250142,0.13249899999999998,0.28553999999999996,-0.396072,-0.187961,0.06384999999999996,-0.478522,0.111469,0.11546999999999996,-0.527752,-0.078251,0.0045599999999998975,0.010335999999999998,0.078251,-0.0045600000000000085,-0.010336000000000012,-0.107571,0.030849999999999933,-0.207772,-0.0036850000000000008,-0.02862000000000009,0.19187799999999997,-0.09673,-0.0666000000000001,-0.17309400000000003,0.037153,-0.17265000000000008,-0.23911200000000002
91,-0.024270499999999997,0.541535,-0.259073,-0.15662549999999997,0.405625,-0.20665300000000003,-0.20459549999999999,0.264255,-0.34320300000000004,0.11629450000000001,0.422215,-0.253813,0.13379449999999998,0.28470500000000004,-0.402153,-0.1940555,0.082005,-0.504453,0.1136645,0.119425,-0.545233,-0.0775955,0.002615000000000034,0.009776999999999994,0.0775955,-0.002614999999999923,-0.009777000000000008,-0.1079055,0.029075000000000073,-0.21230300000000002,-0.005109499999999996,-0.026795000000000013,0.18812699999999996,-0.0970675,-0.06836500000000001,-0.177624,0.0357285,-0.17084500000000002,-0.24286300000000002
92,-0.025060000000000002,0.5432599999999999,-0.256648,-0.157769,0.4087399999999999,-0.209288,-0.208389,0.26574999999999993,-0.345628,0.113411,0.4245899999999999,-0.256308,0.135651,0.2825399999999999,-0.405128,-0.200389,0.1025799999999999,-0.522428,0.11550099999999999,0.12966999999999995,-0.563588,-0.07708,0.0018699999999999273,0.008754999999999999,0.07708,-0.0018700000000000383,-0.008754999999999999,-0.10875900000000001,0.03130999999999995,-0.21760800000000002,-0.006253000000000002,-0.016650000000000054,0.185492,-0.097925,-0.06615000000000004,-0.182925,0.034585,-0.15792000000000006,-0.245498
93,-0.023866499999999995,0.561253,-0.2474885,-0.15449449999999998,0.41902999999999996,-0.2053285,-0.2110445,0.2805099999999999,-0.3411985,0.1143855,0.4330799999999999,-0.2520285,0.13949550000000002,0.28972999999999993,-0.4009685,-0.2043045,0.14035999999999993,-0.5316985000000001,0.12022550000000001,0.14925,-0.5715785,-0.07677049999999999,0.0016199999999999548,0.0075485,0.07677049999999999,-0.0016200000000000658,-0.0075485,-0.1085345,0.03707999999999989,-0.2157485,0.013913500000000006,-0.009460000000000024,0.1519615,-0.09799449999999998,-0.05362,-0.1810455,0.055060500000000005,-0.15073000000000003,-0.2870785
94,-0.0234175,0.576122,-0.2383545,-0.15106850000000002,0.42423500000000003,-0.2023745,-0.2149185,0.294775,-0.33768450000000005,0.1132215,0.439545,-0.2393245,0.1427915,0.308155,-0.39801450000000005,-0.2088685,0.178245,-0.5339745,0.1246215,0.181205,-0.5794644999999999,-0.0761745,0.0023450000000000415,0.0074234999999999995,0.0761745,-0.0023450000000000415,-0.0074234999999999995,-0.1095585,0.03927500000000006,-0.2150845,0.0308395,-0.005874999999999964,0.11719550000000001,-0.0990115,-0.05141499999999999,-0.1803845,0.07194049999999999,-0.14714499999999997,-0.3218645
95,-0.023184499999999997,0.5879079999999999,-0.2336175,-0.14750149999999998,0.43057499999999993,-0.1944575,-0.22058149999999999,0.3218749999999999,-0.3344975,0.11269850000000001,0.44190499999999994,-0.2292575,0.1464085,0.3244749999999999,-0.3980675,-0.21697149999999998,0.22544499999999995,-0.5420675,0.1300985,0.22902499999999992,-0.5825374999999999,-0.0753665,0.0023449999999999305,0.007360499999999992,0.0753665,-0.0023450000000000415,-0.007360500000000006,-0.11204149999999999,0.04002499999999998,-0.2182575,0.0448095,0.003014999999999879,0.0680125,-0.10121449999999999,-0.05442500000000006,-0.18009750000000002,0.08509649999999999,-0.13832500000000003,-0.36300750000000004
96,-0.022604999999999997,0.5992799999999999,-0.22879,-0.14401799999999998,0.43610499999999996,-0.18642,-0.22598800000000002,0.3529549999999999,-0.33035000000000003,0.112162,0.4438749999999999,-0.2187,0.15362199999999998,0.3534049999999999,-0.39790000000000003,-0.224908,0.2792049999999999,-0.54145,0.138702,0.2840749999999999,-0.58321,-0.074573,0.0023449999999999305,0.007299,0.074573,-0.0023450000000000415,-0.007299,-0.114748,0.04002499999999998,-0.22096,0.058495000000000005,0.01287499999999997,0.020166000000000003,-0.101449,-0.05721500000000013,-0.17985,0.087684,-0.1365050000000001,-0.36319999999999997
97,-0.021697999999999995,0.6103709999999999,-0.22295,-0.14024599999999998,0.44015499999999996,-0.178539,-0.23027599999999998,0.3874949999999999,-0.32705,0.111794,0.44613499999999995,-0.20801,0.16126400000000002,0.3877149999999999,-0.39227999999999996,-0.235476,0.3395249999999999,-0.54063,0.146344,0.3438049999999999,-0.5838,-0.07411000000000001,0.0023449999999999305,0.007262999999999992,0.07411000000000001,-0.0023450000000000415,-0.0072630000000000056,-0.11699599999999999,0.04046499999999997,-0.22237,0.07239600000000002,0.0334549999999999,-0.02749800000000001,-0.10203000000000001,-0.05915500000000007,-0.17981000000000003,0.090536,-0.12292500000000006,-0.36343000000000003
98,-0.020659000000000004,0.620893,-0.2173015,-0.136466,0.447485,-0.1716935,-0.233096,0.428965,-0.3231115,0.111434,0.452995,-0.19897150000000002,0.168054,0.426305,-0.3874915,-0.245676,0.404555,-0.5417315,0.15404400000000001,0.41285499999999997,-0.5862915,-0.07302600000000001,0.0024049999999999905,0.007386500000000004,0.07302600000000001,-0.0024049999999999905,-0.007386500000000004,-0.120166,0.056584999999999996,-0.2259615,0.08655099999999999,0.055725000000000025,-0.0757825,-0.10164600000000001,-0.06009500000000001,-0.1747755,0.09631399999999998,-0.11045499999999997,-0.3651115
99,-0.020077,0.6273110000000001,-0.2156455,-0.13374,0.45339,-0.1675665,-0.2357,0.47245000000000004,-0.3184055,0.11042,0.45665,-0.1928055,0.1744,0.46241,-0.3818755,-0.25345,0.47939,-0.5378155,0.16059,0.47976,-0.5834355,-0.071905,0.003489999999999993,0.007452500000000001,0.071905,-0.003489999999999993,-0.007452499999999987,-0.12161,0.07172,-0.2285655,0.10019,0.07645000000000002,-0.1269305,-0.099882,-0.06215999999999999,-0.1660665,0.10085,-0.09931000000000001,-0.3539555
100,-0.019119,0.62977,-0.213877,-0.132548,0.45588000000000006,-0.165219,-0.237068,0.5046300000000001,-0.30794699999999997,0.110482,0.4551700000000001,-0.191187,0.180112,0.48938000000000004,-0.372467,-0.25763800000000003,0.5421400000000001,-0.523957,0.166492,0.53822,-0.575157,-0.070996,0.0045800000000000285,0.007484999999999992,0.070996,-0.0045799999999999175,-0.0074850000000000055,-0.123248,0.08670000000000011,-0.232167,0.113852,0.10042000000000006,-0.177601,-0.098106,-0.06452999999999998,-0.158948,0.105402,-0.0847199999999999,-0.341547
101,-0.018243000000000002,0.630669,-0.212669,-0.131455,0.458025,-0.16206900000000002,-0.237595,0.537135,-0.296039,0.110515,0.45460500000000004,-0.188631,0.185425,0.5177050000000001,-0.361479,-0.26031499999999996,0.604537,-0.502679,0.172475,0.596404,-0.564199,-0.070105,0.005434999999999968,0.007667999999999994,0.070105,-0.005434999999999968,-0.007667999999999994,-0.125175,0.10114500000000004,-0.23455900000000002,0.12748500000000001,0.122425,-0.227339,-0.097192,-0.06847499999999995,-0.152737,0.109905,-0.07181499999999996,-0.328019
102,-0.017833,0.631064,-0.210954,-0.130365,0.45981999999999995,-0.15834900000000002,-0.236955,0.568676,-0.283974,0.109735,0.45588999999999996,-0.186476,0.18981499999999998,0.5502319999999999,-0.348034,-0.262555,0.6644129999999999,-0.478204,0.17904499999999998,0.660076,-0.549614,-0.069405,0.006149999999999989,0.008076,0.069405,-0.006149999999999989,-0.008076,-0.12662500000000002,0.11526999999999998,-0.23633400000000002,0.12661499999999998,0.13998999999999995,-0.243514,-0.09629499999999999,-0.07301000000000002,-0.146067,0.11407500000000001,-0.06540000000000001,-0.31629399999999996
103,-0.0172905,0.630214,-0.2095185,-0.12888650000000001,0.46150500000000005,-0.1544645,-0.2355665,0.601596,-0.2716985,0.1093535,0.45682500000000004,-0.18397950000000002,0.1945635,0.5811900000000001,-0.3370685,-0.2647865,0.722716,-0.4592585,0.1855035,0.723951,-0.5341385000000001,-0.0683095,0.006285000000000096,0.00844149999999999,0.0683095,-0.006284999999999985,-0.008441500000000005,-0.1297065,0.12629500000000005,-0.2383085,0.12615349999999997,0.15730500000000003,-0.25950850000000003,-0.0968525,-0.08069499999999996,-0.1391895,0.1178035,-0.058925000000000005,-0.3045285
104,-0.016663500000000005,0.628064,-0.2086025,-0.1276605,0.462835,-0.1515075,-0.2341205,0.62644,-0.26156250000000003,0.10856949999999999,0.4576549999999999,-0.1828285,0.19887950000000001,0.61098,-0.3241825,-0.2628205,0.771605,-0.43300249999999996,0.1925895,0.770075,-0.5090825,-0.06735150000000001,0.0065749999999999975,0.008657499999999999,0.06735150000000001,-0.0065749999999999975,-0.008657499999999999,-0.1332305,0.13630499999999995,-0.2421625,0.1265595,0.15779499999999996,-0.2627425,-0.09805450000000002,-0.08664500000000008,-0.1332335,0.1214395,-0.06342500000000006,-0.2942125
105,-0.016802000000000004,0.6259570000000001,-0.2085825,-0.12735,0.4646800000000001,-0.1495255,-0.23338,0.6464890000000001,-0.25185250000000003,0.10727,0.4587500000000001,-0.1823435,0.2003,0.6280690000000001,-0.31035250000000003,-0.26115,0.8133300000000001,-0.40815250000000003,0.19721,0.8055300000000001,-0.4813725,-0.06733600000000001,0.006720000000000059,0.008577500000000002,0.06733600000000001,-0.006719999999999948,-0.008577500000000002,-0.13681,0.1441300000000001,-0.2450925,0.12455,0.1575600000000001,-0.2654825,-0.09992900000000002,-0.09180999999999995,-0.1292405,0.11054,-0.06858999999999993,-0.2469125
106,-0.0174635,0.623838,-0.2093215,-0.1272385,0.4666,-0.1473755,-0.23278849999999998,0.662015,-0.2416215,0.10579150000000001,0.46001,-0.18145450000000002,0.2016215,0.64086,-0.2988015,-0.2596485,0.8489599999999999,-0.3852715,0.2020615,0.83424,-0.4552115,-0.06724949999999999,0.007009999999999961,0.008788500000000005,0.06724949999999999,-0.007009999999999961,-0.008788500000000005,-0.1403385,0.15177999999999997,-0.24794149999999998,0.1222415,0.15542,-0.2682115,-0.1020355,-0.09809999999999997,-0.1253475,0.1011215,-0.07381000000000004,-0.2006435
107,-0.018617500000000002,0.62155,-0.2099895,-0.1273555,0.46699500000000005,-0.1460595,-0.2300655,0.6710180000000001,-0.2333795,0.1043145,0.46033500000000005,-0.1807315,0.2025745,0.6482650000000001,-0.2868695,-0.2584555,0.878695,-0.3655095,0.2069145,0.8521850000000001,-0.4317495,-0.0670315,0.0070950000000000735,0.0088805,0.0670315,-0.0070949999999999624,-0.0088805,-0.1408655,0.14638500000000004,-0.25030949999999996,0.12120449999999999,0.15200500000000006,-0.26928949999999996,-0.10449549999999999,-0.10615499999999989,-0.1262005,0.09432650000000001,-0.0874649999999999,-0.1489725
108,-0.020616,0.618026,-0.21185199999999998,-0.12839099999999998,0.464525,-0.14729,-0.22851100000000002,0.672872,-0.230092,0.101669,0.459245,-0.181835,0.20126899999999998,0.652937,-0.279562,-0.25894100000000003,0.8917550000000001,-0.357912,0.210449,0.861685,-0.416552,-0.066051,0.005824999999999969,0.007907999999999998,0.066051,-0.005824999999999969,-0.007907999999999998,-0.142231,0.139735,-0.254582,0.119329,0.145835,-0.271732,-0.10752099999999999,-0.115375,-0.129057,0.09313,-0.096495,-0.150898
109,-0.022190500000000002,0.615036,-0.21318,-0.1290525,0.462445,-0.148059,-0.2275925,0.67621,-0.22931,0.09952749999999999,0.45848500000000003,-0.182361,0.2009675,0.656542,-0.27549999999999997,-0.2566925,0.898895,-0.35124,0.2136375,0.8693949999999999,-0.40566,-0.0649375,0.004194999999999949,0.007089999999999999,0.0649375,-0.004194999999999949,-0.007089999999999999,-0.1432025,0.13339499999999999,-0.25868,0.1179075,0.14008500000000002,-0.27426,-0.1095825,-0.12419499999999994,-0.131532,0.0924595,-0.10484499999999997,-0.153081
110,-0.0230265,0.613251,-0.21263500000000002,-0.1295275,0.460295,-0.146087,-0.2269275,0.67849,-0.225875,0.09741250000000001,0.457665,-0.180094,0.1998325,0.658937,-0.271075,-0.2556275,0.903775,-0.343165,0.2150625,0.875435,-0.391505,-0.06521450000000001,0.003114999999999979,0.007095000000000004,0.06521450000000001,-0.003114999999999979,-0.007095000000000004,-0.1444675,0.12827499999999997,-0.259465,0.1162725,0.135805,-0.274265,-0.11014750000000001,-0.130455,-0.131005,0.0916545,-0.11163500000000004,-0.152536
111,-0.024884999999999997,0.612966,-0.2138,-0.130975,0.45805999999999997,-0.147249,-0.228385,0.679099,-0.22521999999999998,0.095885,0.45592,-0.180375,0.197885,0.660223,-0.26727,-0.25704499999999997,0.90508,-0.34202,0.215475,0.87823,-0.38258000000000003,-0.065411,0.0020200000000000218,0.006610000000000005,0.065411,-0.0020200000000000218,-0.006609999999999991,-0.146215,0.12417,-0.26294,0.113805,0.13183,-0.277,-0.113235,-0.13656000000000001,-0.133856,0.092395,-0.11794000000000004,-0.156561
112,-0.025925499999999997,0.6117370000000001,-0.215115,-0.1313075,0.45734500000000006,-0.148294,-0.2285875,0.6764490000000001,-0.224705,0.09527250000000001,0.45900500000000005,-0.180243,0.1969825,0.665624,-0.263875,-0.2571775,0.902695,-0.340685,0.2178025,0.881935,-0.37549499999999997,-0.0657485,0.001595000000000013,0.005635000000000001,0.0657485,-0.001594999999999902,-0.005635000000000001,-0.14672749999999998,0.11816500000000002,-0.26687500000000003,0.11245250000000001,0.12576500000000007,-0.280345,-0.1151275,-0.14438499999999999,-0.136803,0.09422250000000001,-0.126135,-0.160581
113,-0.026507500000000003,0.617219,-0.21821000000000002,-0.1315045,0.45974,-0.150991,-0.2286345,0.67761,-0.22626000000000002,0.0947755,0.46197,-0.181644,0.1962855,0.671552,-0.26251,-0.2571945,0.90385,-0.34177,0.2202055,0.88773,-0.37271,-0.0658495,0.0009799999999999809,0.004710000000000006,0.0658495,-0.0009799999999999809,-0.004709999999999992,-0.1471345,0.10693999999999998,-0.27258,0.1112455,0.11496,-0.28554999999999997,-0.1155245,-0.15629000000000004,-0.14011099999999999,0.0945055,-0.13749999999999996,-0.164808
114,-0.026994499999999998,0.6239020000000001,-0.220435,-0.1322315,0.46162600000000004,-0.153197,-0.22909149999999998,0.679895,-0.228095,0.0943985,0.463441,-0.182398,0.19482850000000002,0.676475,-0.263215,-0.2594915,0.905015,-0.343005,0.2199285,0.893625,-0.37221499999999996,-0.0662265,0.0004450000000000287,0.0038949999999999957,0.0662265,-0.0004450000000000287,-0.0038949999999999957,-0.1479015,0.087175,-0.27725500000000003,0.1089085,0.09603500000000004,-0.290465,-0.1162915,-0.176605,-0.142952,0.0951985,-0.15851499999999996,-0.16897299999999998
115,-0.027466000000000004,0.62521,-0.22183,-0.132459,0.45974500000000007,-0.15438000000000002,-0.229569,0.67682,-0.22821,0.09438099999999999,0.46168000000000003,-0.182909,0.193941,0.67716,-0.26349,-0.261919,0.9013,-0.34315,0.22004100000000001,0.89648,-0.37189000000000005,-0.06672800000000001,-0.00024999999999997247,0.0031899999999999984,0.06672800000000001,0.0002500000000000835,-0.0031899999999999984,-0.148339,0.061360000000000026,-0.28144,0.107131,0.07064000000000004,-0.29457,-0.116669,-0.2037,-0.144829,0.09606100000000001,-0.18560999999999994,-0.171797
116,-0.027447500000000003,0.628905,-0.221085,-0.1323535,0.459497,-0.15396,-0.2299035,0.6771050000000001,-0.227325,0.09497649999999999,0.459795,-0.182375,0.1928665,0.678105,-0.26156500000000005,-0.26469349999999997,0.897885,-0.342135,0.2205965,0.896665,-0.370845,-0.0672035,-0.0005249999999999977,0.0032249999999999918,0.0672035,0.0005249999999999977,-0.0032250000000000056,-0.1479135,0.032445,-0.28154500000000005,0.10650649999999999,0.04214499999999999,-0.295785,-0.11640350000000001,-0.234145,-0.145564,0.0968965,-0.21675499999999998,-0.17239000000000002
117,-0.027541000000000003,0.63577,-0.221105,-0.132319,0.461348,-0.15424,-0.230799,0.67746,-0.226215,0.09570100000000001,0.46172699999999994,-0.181645,0.192231,0.6807799999999999,-0.25910500000000003,-0.267689,0.8938599999999999,-0.339445,0.220921,0.9024,-0.370085,-0.06769800000000001,-0.0007400000000000184,0.003265000000000004,0.06769800000000001,0.0007399999999999629,-0.00326499999999999,-0.14740899999999998,0.0025199999999999667,-0.280495,0.106041,0.012509999999999966,-0.29512499999999997,-0.116309,-0.26677000000000006,-0.145893,0.09779099999999999,-0.25021000000000004,-0.172209
118,-0.027238500000000006,0.64144,-0.22121000000000002,-0.1326115,0.461754,-0.154449,-0.2316815,0.6777,-0.22475,0.0965285,0.46629899999999996,-0.181071,0.1913885,0.6864399999999999,-0.25856,-0.2704415,0.89484,-0.33572,0.2206785,0.90588,-0.36918,-0.0684855,-0.0008000000000000229,0.0032200000000000006,0.0684855,0.0007999999999999674,-0.0032200000000000006,-0.1465215,-0.02806000000000003,-0.27886,0.1058285,-0.01859000000000005,-0.29411,-0.1155615,-0.30007000000000006,-0.146244,0.0987185,-0.28683000000000003,-0.172175
119,-0.026704499999999996,0.647985,-0.22106,-0.13298949999999998,0.46582,-0.154095,-0.2325295,0.679535,-0.22200999999999999,0.09747050000000002,0.470439,-0.18024400000000002,0.19047050000000001,0.691785,-0.25723,-0.2726195,0.8977849999999999,-0.32912,0.22020050000000002,0.912305,-0.36529,-0.06884950000000001,-0.0004350000000000187,0.003049999999999997,0.06884950000000001,0.0004350000000000187,-0.003049999999999997,-0.14571949999999997,-0.061415,-0.27625,0.1056705,-0.05372500000000002,-0.29231,-0.11480949999999998,-0.34148500000000004,-0.145585,0.0997305,-0.33116500000000004,-0.170874
120,-0.024156,0.6534599999999999,-0.21615499999999999,-0.131941,0.47051,-0.14915799999999999,-0.230551,0.6836,-0.214455,0.10042899999999999,0.47463999999999995,-0.174699,0.19147899999999998,0.69611,-0.251235,-0.272751,0.8989199999999999,-0.316245,0.22097899999999998,0.91225,-0.35594499999999996,-0.06892300000000001,-0.00038000000000004697,0.0033250000000000085,0.06892300000000001,0.00037999999999999146,-0.0033249999999999946,-0.14372100000000002,-0.09703000000000006,-0.270405,0.10747899999999999,-0.09088000000000002,-0.286095,-0.112291,-0.38803,-0.14088,0.102709,-0.38144,-0.165313
121,-0.0213115,0.66113,-0.21115,-0.1310585,0.47449,-0.144176,-0.2275285,0.68818,-0.206585,0.1035115,0.47345000000000004,-0.169115,0.1929415,0.69539,-0.24522999999999998,-0.27103849999999996,0.89952,-0.3026,0.22191149999999998,0.91598,-0.34547,-0.06847249999999999,-0.00029000000000001247,0.0034200000000000064,0.06847249999999999,0.00029000000000001247,-0.0034199999999999925,-0.14165850000000002,-0.1306,-0.26334,0.1093915,-0.12706,-0.27871999999999997,-0.1101685,-0.43299999999999994,-0.13580599999999998,0.1057015,-0.42945,-0.15955799999999998
122,-0.0177985,0.663835,-0.20590350000000002,-0.1294535,0.474105,-0.1386175,-0.2266135,0.687465,-0.1979055,0.10690649999999999,0.475815,-0.1632235,0.1946565,0.697225,-0.2387535,-0.27004350000000005,0.896415,-0.2874335,0.2238265,0.919395,-0.3345135,-0.06863749999999999,-0.00033500000000000196,0.003646499999999997,0.06863749999999999,0.00033500000000000196,-0.003646499999999997,-0.13848349999999998,-0.160555,-0.2546135,0.11150650000000001,-0.158285,-0.2690535,-0.1077735,-0.474585,-0.1294435,0.10901649999999999,-0.47271500000000005,-0.1530755
123,-0.014816,0.665975,-0.20032850000000002,-0.128303,0.478235,-0.1330835,-0.225323,0.686835,-0.18904949999999998,0.10961699999999999,0.478765,-0.1573765,0.19567700000000002,0.7003550000000001,-0.23209849999999999,-0.268573,0.897925,-0.2722285,0.225407,0.922985,-0.3236485,-0.06815199999999999,-0.0003349999999999742,0.0039254999999999984,0.06815199999999999,0.00033500000000000196,-0.0039254999999999984,-0.135823,-0.182095,-0.24329850000000003,0.112897,-0.18161499999999997,-0.2580685,-0.10661300000000001,-0.5075649999999999,-0.1231435,0.11163699999999999,-0.507845,-0.1466175
124,-0.013624500000000005,0.676335,-0.1950085,-0.1288555,0.485605,-0.1277325,-0.2246455,0.6928650000000001,-0.1803415,0.1105245,0.484955,-0.1527645,0.1951345,0.707825,-0.22457850000000001,-0.2674355,0.9036850000000001,-0.2575385,0.22523449999999998,0.9304250000000001,-0.3125185,-0.06813949999999999,-0.00036499999999997645,0.004090499999999997,0.06813949999999999,0.0003650000000000042,-0.004090499999999997,-0.1345655,-0.19777499999999998,-0.2304585,0.11267449999999998,-0.198305,-0.24490850000000003,-0.10742550000000001,-0.534475,-0.1170245,0.1123545,-0.536235,-0.1403185
125,-0.013041,0.6830350000000001,-0.190427,-0.128928,0.492995,-0.12409900000000001,-0.224008,0.699565,-0.17417300000000002,0.111462,0.49340500000000004,-0.149916,0.196302,0.713575,-0.218817,-0.266278,0.9148850000000001,-0.244807,0.224732,0.938445,-0.30368700000000004,-0.067972,-0.00038499999999999646,0.004117999999999997,0.067972,0.00038499999999999646,-0.0041180000000000105,-0.133028,-0.217725,-0.215027,0.111862,-0.220045,-0.228707,-0.108178,-0.560455,-0.11208900000000001,0.113032,-0.5667449999999999,-0.13422900000000001
126,-0.012125999999999998,0.688505,-0.18442199999999997,-0.128772,0.499745,-0.118066,-0.22306199999999998,0.707735,-0.16671799999999998,0.111928,0.499705,-0.14459,0.19684800000000002,0.7175050000000001,-0.21182199999999998,-0.265472,0.928645,-0.23447199999999999,0.22511799999999998,0.942925,-0.294572,-0.067954,-0.0004979999999999984,0.004345000000000002,0.067954,0.0004979999999999984,-0.004344999999999988,-0.131882,-0.234875,-0.19531199999999999,0.111268,-0.239195,-0.209122,-0.108702,-0.5822849999999999,-0.102338,0.114008,-0.5928249999999999,-0.125253
127,-0.010954499999999999,0.6963134999999999,-0.17891,-0.12875150000000002,0.5086435,-0.112545,-0.22139150000000002,0.7163934999999999,-0.160761,0.1124885,0.5030835,-0.1398,0.1969185,0.7190635,-0.20573999999999998,-0.2644915,0.9364235,-0.22723,0.2252785,0.9481235,-0.28733000000000003,-0.0675875,-0.0010465000000000058,0.004646999999999998,0.0675875,0.0010464999999999988,-0.004646999999999998,-0.13083150000000002,-0.2514265,-0.17425000000000002,0.1107385,-0.2572065,-0.18680000000000002,-0.1096915,-0.6037765,-0.092391,0.11465850000000001,-0.6166765000000001,-0.115997
128,-0.009817,0.6979355,-0.166657,-0.128307,0.5092855000000001,-0.101474,-0.218997,0.7175555,-0.148511,0.11453300000000001,0.5040555,-0.128434,0.19811299999999998,0.7197055,-0.19342700000000002,-0.262507,0.9372255,-0.214947,0.225183,0.9427854999999999,-0.274887,-0.066967,-0.0012854999999999984,0.00469,0.066967,0.0012854999999999984,-0.004689999999999993,-0.129327,-0.2703945,-0.145116,0.111073,-0.2759745,-0.155831,-0.110827,-0.6220945,-0.07347,0.115343,-0.6371045,-0.09828599999999998
129,-0.008375000000000002,0.6999080000000001,-0.1556145,-0.128388,0.5100680000000001,-0.0914695,-0.215968,0.716048,-0.13759349999999998,0.116652,0.505418,-0.1187805,0.200362,0.718998,-0.1824545,-0.259048,0.9352480000000001,-0.2040645,0.225492,0.9410780000000001,-0.2637545,-0.066297,-0.0012729999999999998,0.004921500000000002,0.066297,0.0012729999999999998,-0.004921499999999995,-0.127228,-0.28550200000000003,-0.1196325,0.111732,-0.291582,-0.1293135,-0.111768,-0.634482,-0.055820499999999995,0.116252,-0.649222,-0.0827325
130,-0.006572000000000003,0.7015819999999999,-0.145144,-0.129176,0.510752,-0.08224100000000001,-0.214456,0.715232,-0.12821,0.119194,0.508272,-0.109874,0.201424,0.718592,-0.17192400000000002,-0.25635600000000003,0.935502,-0.193654,0.225204,0.934842,-0.253124,-0.06593399999999999,-0.0012910000000000005,0.005135999999999995,0.06593399999999999,0.0012909999999999987,-0.005136000000000002,-0.125936,-0.299158,-0.095664,0.111904,-0.305148,-0.10508,-0.113186,-0.645038,-0.038787,0.116284,-0.659648,-0.068057
131,-0.004408000000000004,0.7022425,-0.1360205,-0.12848099999999998,0.5126725,-0.0743975,-0.213671,0.7136325,-0.1222445,0.12222899999999999,0.5077125,-0.10060350000000001,0.204789,0.7123925,-0.1636605,-0.253911,0.9323024999999999,-0.18919049999999998,0.226579,0.9236624999999999,-0.2452705,-0.065526,-0.0010305000000000002,0.004954500000000001,0.065526,0.0010305000000000002,-0.004954500000000001,-0.12562099999999998,-0.3103375,-0.0730455,0.110799,-0.3163275,-0.0833325,-0.115511,-0.6539975,-0.0222425,0.11543899999999999,-0.6692575000000001,-0.053844500000000003
132,-0.0017690000000000015,0.7029055000000001,-0.1266905,-0.128951,0.5093155,-0.06613050000000001,-0.214261,0.7085955,-0.11737049999999999,0.124979,0.5076755000000001,-0.09096850000000001,0.210359,0.7036155000000001,-0.1569605,-0.251541,0.9235255,-0.1882105,0.229829,0.9148855,-0.2395905,-0.065132,-0.0009835000000000017,0.004651499999999999,0.065132,0.0009834999999999983,-0.004651500000000001,-0.125411,-0.3191145,-0.0525675,0.10897899999999999,-0.3251045,-0.0632145,-0.11771100000000001,-0.6619545,-0.005721500000000001,0.11440900000000001,-0.6762045,-0.039594500000000005
133,-6.649999999999885e-05,0.7012115,-0.1171075,-0.1296195,0.5069115,-0.057554499999999995,-0.2176795,0.7013815,-0.1142475,0.12695050000000002,0.5078015,-0.0808645,0.2179005,0.6964015,-0.1507175,-0.2501195,0.9163115,-0.1888575,0.2336405,0.9076715,-0.2352275,-0.06522649999999999,-0.0007874999999999965,0.0044445,0.06522649999999999,0.0007875000000000035,-0.0044445,-0.1261795,-0.3263285,-0.0332885,0.1058705,-0.33231849999999996,-0.0447295,-0.12099950000000001,-0.6687385,0.010866500000000001,0.11237050000000001,-0.6826185,-0.0248925
134,0.0015315000000000016,0.7022955,-0.10763400000000001,-0.1310955,0.5063755,-0.049110999999999995,-0.2225155,0.7008455,-0.113944,0.1282745,0.5072655,-0.07072300000000001,0.2272945,0.6958655,-0.144034,-0.2487655,0.9157755,-0.194804,0.2390245,0.9062355,-0.232104,-0.06546350000000001,-0.0010115000000000055,0.004417000000000001,0.06546350000000001,0.0010114999999999985,-0.004417,-0.1279555,-0.32844450000000003,-0.020156,0.10265450000000001,-0.3354045,-0.030708000000000003,-0.12516549999999999,-0.6692745,0.026667,0.1096145,-0.6830145,-0.011578999999999999
135,0.002976999999999997,0.7023455,-0.0980975,-0.12976500000000002,0.5063755,-0.0435485,-0.227155,0.7008455,-0.1160775,0.130945,0.5072655,-0.06072249999999999,0.239175,0.6948155,-0.13593750000000002,-0.24854500000000002,0.9154655,-0.2028875,0.246505,0.8971455,-0.22904750000000001,-0.065736,-0.0010115000000000055,0.004272500000000002,0.065736,0.0010114999999999985,-0.0042724999999999985,-0.13031500000000001,-0.3326745,-0.008584499999999998,0.099305,-0.3394045,-0.0190595,-0.13089499999999998,-0.6692745,0.03850050000000001,0.105845,-0.6830945,0.0012155000000000013
136,0.004763000000000003,0.7023455,-0.0883305,-0.128466,0.5063755,-0.0376165,-0.233216,0.6979755,-0.1101705,0.134454,0.5072655,-0.0501525,0.25341400000000003,0.6911555,-0.1248805,-0.248946,0.9068755,-0.2117805,0.255964,0.8846455,-0.2246805,-0.065496,-0.0010115000000000055,0.004002499999999999,0.065496,0.0010114999999999985,-0.004002499999999999,-0.131876,-0.3376645,0.0036314999999999993,0.096844,-0.3452045,-0.006773500000000002,-0.136926,-0.6687745,0.0510635,0.101664,-0.6838145,0.0136345
137,0.0061545,0.7025094999999999,-0.085826,-0.1273325,0.49976950000000003,-0.038775000000000004,-0.2412445,0.6741695000000001,-0.111706,0.1366955,0.5060695,-0.045917,0.2653555,0.6696495,-0.120036,-0.2486145,0.8760794999999999,-0.217376,0.2653255,0.8536394999999999,-0.22165600000000002,-0.06508449999999999,-0.001175500000000003,0.003146999999999997,0.06508449999999999,0.001175499999999996,-0.003146999999999997,-0.1336045,-0.3410705,0.009441999999999999,0.0942055,-0.34954050000000003,-0.000892999999999998,-0.1455245,-0.6707704999999999,0.057408,0.0935455,-0.6836504999999999,0.019942
138,0.007102499999999998,0.7046024999999999,-0.0828785,-0.1262345,0.4954325,-0.0392875,-0.2512185,0.6418925,-0.11126849999999999,0.13858150000000002,0.5045124999999999,-0.04117749999999999,0.27358150000000003,0.6346124999999999,-0.11384849999999999,-0.24850850000000002,0.8325425,-0.2159485,0.27452150000000003,0.8092125,-0.21505849999999999,-0.0648415,-0.0007764999999999994,0.0027295000000000028,0.0648415,0.0007764999999999994,-0.002729499999999996,-0.1337715,-0.3408375,0.009488500000000004,0.0906115,-0.3523975,0.006727500000000004,-0.1530585,-0.6706475000000001,0.06465850000000001,0.0833615,-0.6815575,0.028097500000000004
139,0.009055000000000007,0.704428,-0.081798,-0.126921,0.49007799999999996,-0.038667999999999994,-0.254237,0.595628,-0.104788,0.138803,0.498798,-0.03580499999999999,0.27503299999999997,0.587338,-0.10148799999999998,-0.24523699999999998,0.762428,-0.202868,0.27625299999999997,0.726468,-0.201598,-0.064333,0.0002590000000000023,0.0017490000000000075,0.064333,-0.0002589999999999988,-0.0017490000000000006,-0.126516,-0.33724200000000004,-0.003905999999999993,0.084493,-0.356252,0.013614000000000008,-0.148003,-0.667082,0.05833700000000001,0.065783,-0.677962,0.043251000000000005
140,0.010748000000000008,0.70795,-0.0814955,-0.128276,0.48658,-0.04005550000000001,-0.25243899999999997,0.54539,-0.09597549999999999,0.138081,0.49588,-0.030115500000000003,0.270901,0.53976,-0.08619550000000001,-0.245499,0.66786,-0.18376550000000003,0.271771,0.64207,-0.1873055,-0.064631,0.0002349999999999991,0.000952499999999995,0.064631,-0.00023500000000000257,-0.0009525000000000089,-0.116379,-0.32778999999999997,-0.027425500000000005,0.074761,-0.35403999999999997,0.020391499999999993,-0.131832,-0.65914,0.032113499999999996,0.04469100000000001,-0.6658999999999999,0.0604745
141,0.012467000000000006,0.710897,-0.08183499999999999,-0.130035,0.48339699999999997,-0.04081499999999999,-0.250393,0.49449699999999996,-0.08549499999999999,0.13758700000000001,0.492607,-0.024554999999999993,0.265487,0.49215699999999996,-0.06765499999999999,-0.246863,0.5756169999999999,-0.164655,0.265787,0.556427,-0.17246499999999998,-0.065187,0.00039900000000000005,0.0006450000000000067,0.06518700000000001,-0.00039900000000000005,-0.0006449999999999928,-0.105987,-0.318083,-0.05072499999999999,0.06399700000000001,-0.349053,0.025507000000000002,-0.110454,-0.651113,0.0017449999999999966,0.021876999999999994,-0.651193,0.076781
142,0.0144455,0.7130599999999999,-0.08334999999999998,-0.1307455,0.4788,-0.043179999999999996,-0.2480645,0.44432,-0.07399999999999998,0.1372155,0.48853,-0.01923999999999998,0.2590855,0.44652000000000003,-0.04951999999999998,-0.2482545,0.48438000000000003,-0.14590999999999998,0.2616755,0.47100000000000003,-0.15752,-0.06545549999999999,0.0004859999999999999,5.000000000002225e-05,0.0654555,-0.0004860000000000003,-4.999999999999449e-05,-0.09548349999999999,-0.31318,-0.07430999999999999,0.05337550000000002,-0.345,0.032264000000000015,-0.0877625,-0.6433000000000001,-0.03312999999999999,-0.0009744999999999893,-0.63548,0.09412700000000002
143,0.015707499999999985,0.7152670000000001,-0.08548999999999998,-0.1314935,0.473637,-0.04643999999999998,-0.2453255,0.395347,-0.05501,0.13706749999999998,0.484237,-0.015859999999999985,0.2504775,0.404007,-0.026709999999999984,-0.2527925,0.395117,-0.12474000000000002,0.2583075,0.389357,-0.13545000000000001,-0.0658975,0.0004670000000000004,-0.0005199999999999927,0.0658975,-0.00046699999999999953,0.0005199999999999927,-0.0845125,-0.30878300000000003,-0.09811999999999999,0.038957500000000006,-0.341973,0.04346000000000001,-0.0640945,-0.636833,-0.06936,-0.027012499999999995,-0.6192129999999999,0.11463300000000001
144,0.01625999999999997,0.717994,-0.08757000000000001,-0.13571300000000003,0.47028400000000004,-0.04594999999999999,-0.24176300000000003,0.34901400000000005,-0.03420999999999999,0.13599999999999995,0.48116400000000004,-0.012880000000000003,0.24122999999999994,0.365074,-0.003610000000000002,-0.25516800000000006,0.305964,-0.09912000000000001,0.25525,0.313974,-0.10799,-0.06655000000000003,0.0012200000000000006,-0.0005799999999999972,0.06655,-0.0012199999999999989,0.0005799999999999972,-0.07132000000000002,-0.30604600000000004,-0.12117999999999998,0.024119999999999975,-0.34109599999999995,0.05955000000000002,-0.04226000000000002,-0.632516,-0.09923999999999997,-0.05289000000000002,-0.6085659999999999,0.141267
145,0.016609999999999986,0.719967,-0.08972500000000003,-0.13849900000000004,0.466757,-0.046515,-0.23574100000000003,0.30719700000000005,-0.01425499999999999,0.13496999999999998,0.477687,-0.009665000000000007,0.23119,0.326047,0.018135000000000012,-0.256347,0.225017,-0.07307499999999997,0.25265,0.239607,-0.08193500000000001,-0.06715000000000002,0.0009969999999999979,-0.0007550000000000057,0.06714999999999999,-0.0009970000000000014,0.0007550000000000057,-0.05498000000000003,-0.30516299999999996,-0.143255,0.011159999999999975,-0.339333,0.07380500000000001,-0.021110000000000018,-0.631483,-0.12818500000000002,-0.07755000000000001,-0.6008129999999999,0.16719499999999998
146,0.017405000000000004,0.7203809999999999,-0.09264,-0.141765,0.465771,-0.04632999999999998,-0.22584200000000001,0.274751,0.005290000000000017,0.133795,0.47448100000000004,-0.008709999999999996,0.22335499999999997,0.299871,0.036729999999999985,-0.256496,0.150891,-0.043779999999999986,0.251865,0.178641,-0.058130000000000015,-0.06800500000000001,0.0007890000000000015,-0.00046000000000001595,0.06800499999999998,-0.000788999999999998,0.00046000000000001595,-0.03959500000000002,-0.308079,-0.16174,-0.0009850000000000136,-0.336069,0.08526999999999998,0.00190499999999999,-0.6326390000000001,-0.15499000000000002,-0.098495,-0.591779,0.191078
147,0.01808000000000004,0.7202685,-0.09475,-0.14482999999999996,0.46448849999999997,-0.04622999999999999,-0.21522799999999997,0.2536485,0.02368999999999999,0.13264000000000004,0.47202849999999996,-0.006869999999999987,0.21682,0.28784849999999995,0.05163000000000001,-0.258078,0.0958505,-0.00829000000000002,0.24957000000000007,0.1314185,-0.03854000000000002,-0.06811999999999996,0.0005084999999999985,-0.0005100000000000104,0.06812000000000001,-0.000508500000000002,0.0005100000000000104,-0.031019999999999937,-0.31288150000000003,-0.17217,-0.015189999999999981,-0.3347915,0.09275,0.019570000000000032,-0.6351115,-0.17429999999999995,-0.11330999999999997,-0.5907815000000001,0.20750000000000002
148,0.017729999999999968,0.72093,-0.09367000000000003,-0.14631000000000002,0.46485,-0.045650000000000024,-0.21112400000000003,0.24825,0.034999999999999976,0.13257999999999998,0.47224,-0.0040600000000000636,0.21661999999999998,0.28803999999999996,0.05910999999999994,-0.261791,0.069794,0.012179999999999969,0.25470999999999994,0.12348300000000001,-0.026150000000000062,-0.06827000000000003,0.0004480000000000005,-0.00020000000000003348,0.06827,-0.0004480000000000005,0.00019999999999997797,-0.02746000000000004,-0.31918,-0.16639000000000004,-0.015670000000000017,-0.33372,0.08043999999999996,0.02244999999999997,-0.63815,-0.17591,-0.10919000000000001,-0.59033,0.19505999999999996
149,0.01739999999999997,0.720934,-0.09115499999999999,-0.14789000000000002,0.46567400000000003,-0.042464999999999975,-0.21127,0.24935400000000002,0.044804999999999984,0.13289999999999996,0.472414,-0.001585000000000003,0.21938000000000002,0.286564,0.05884499999999998,-0.262586,0.071015,0.026505,0.26317,0.12244,-0.02177499999999999,-0.06775000000000003,0.0007609999999999978,-0.0002849999999999797,0.06774999999999998,-0.0007610000000000013,0.0002849999999999797,-0.02807000000000004,-0.322586,-0.15278499999999995,-0.00658000000000003,-0.332076,0.06576500000000002,0.013389999999999957,-0.640326,-0.157845,-0.09822000000000003,-0.587606,0.178295
150,0.01710499999999998,0.7199369999999999,-0.08825000000000005,-0.14891500000000002,0.466177,-0.03973000000000004,-0.21174500000000002,0.251487,0.05076999999999998,0.13331499999999996,0.471887,0.0006399999999999739,0.218345,0.285227,0.05341999999999997,-0.260815,0.072864,0.037709999999999966,0.27095499999999995,0.123551,-0.019540000000000002,-0.06738500000000003,0.000893999999999999,-0.00024000000000001798,0.06738499999999997,-0.000893999999999999,0.00023999999999996247,-0.03095500000000001,-0.325533,-0.13878000000000001,0.005614999999999981,-0.330323,0.050839999999999996,-0.0010350000000000081,-0.641873,-0.13366,-0.08305500000000005,-0.585013,0.16468
151,0.017000000000000015,0.719139,-0.08449000000000007,-0.15034,0.466469,-0.03575000000000006,-0.21244,0.253979,0.04726999999999998,0.13365999999999995,0.472159,0.0019199999999999773,0.22185000000000005,0.284159,0.04575000000000001,-0.25880000000000003,0.075356,0.039339999999999986,0.27594,0.12604300000000002,-0.025430000000000064,-0.067,0.0012530000000000006,-0.00021999999999999797,0.067,-0.0012529999999999972,0.00021999999999999797,-0.03543000000000002,-0.327501,-0.12343000000000004,0.019469999999999987,-0.327381,0.03309000000000001,-0.01826,-0.642801,-0.10303000000000007,-0.06115999999999999,-0.582521,0.14781
152,0.01863999999999999,0.7193875,-0.08037499999999997,-0.15147,0.46761749999999996,-0.030335,-0.21308000000000002,0.2586775,0.04192499999999999,0.13535999999999998,0.47294749999999997,0.004734999999999934,0.22559,0.2836375,0.03550500000000001,-0.25565000000000004,0.0800105,0.015865000000000018,0.28067000000000003,0.1279815,-0.04296500000000003,-0.06642999999999999,0.001400499999999999,-7.500000000004725e-05,0.06642999999999999,-0.001400499999999999,7.499999999993623e-05,-0.043420000000000014,-0.3318525,-0.10551500000000003,0.03936999999999996,-0.32457250000000004,0.009784999999999933,-0.03950999999999999,-0.6432425,-0.06677500000000003,-0.02431,-0.5861125,0.10869499999999999
153,0.022220000000000018,0.7192189999999999,-0.07791500000000007,-0.15091,0.46808900000000003,-0.026314999999999977,-0.21317,0.263519,0.036004999999999954,0.13706999999999997,0.473459,0.007244999999999946,0.22747999999999996,0.284059,0.026364999999999972,-0.25511,0.087363,-0.016225000000000045,0.28457000000000005,0.132914,-0.06062500000000004,-0.06597000000000003,0.0013649999999999982,0.00011499999999997623,0.06597000000000003,-0.0013649999999999982,-0.00011499999999997623,-0.054930000000000034,-0.338921,-0.08754499999999998,0.060279999999999945,-0.322641,-0.01776500000000003,-0.059609999999999996,-0.6416010000000001,-0.03517500000000007,0.018089999999999995,-0.5931510000000001,0.06269499999999995
154,0.027305000000000024,0.7193814999999999,-0.07699,-0.14986499999999997,0.4699615,-0.02205999999999997,-0.21347499999999997,0.2674915,0.03129000000000004,0.14025500000000002,0.4742515,0.007460000000000022,0.23073500000000002,0.28629150000000003,0.016550000000000065,-0.253845,0.09574350000000001,-0.04455999999999993,0.29012499999999997,0.1388215,-0.07999999999999996,-0.065525,0.0016055000000000028,0.0005300000000000304,0.06552500000000006,-0.0016054999999999958,-0.0005299999999999194,-0.071625,-0.3419685,-0.0684499999999999,0.08141500000000002,-0.3205585,-0.04354999999999998,-0.08147499999999996,-0.6414385,-0.0008099999999999774,0.06369500000000006,-0.5950985,0.012709999999999999
155,0.031775,0.7189605,-0.07668499999999989,-0.148275,0.47182050000000003,-0.018954999999999944,-0.21340499999999996,0.2704305,0.025945000000000107,0.14348500000000008,0.4755305,0.0066350000000000575,0.23601500000000009,0.2885105,0.003925000000000067,-0.25353499999999995,0.09888150000000001,-0.0710249999999999,0.29766500000000007,0.1434305,-0.10162499999999997,-0.06499499999999997,0.001971500000000001,0.0009350000000000191,0.06499500000000002,-0.001971500000000001,-0.0009349999999999081,-0.08842499999999998,-0.3427595,-0.050794999999999924,0.101495,-0.3190395,-0.06611499999999992,-0.10515499999999994,-0.6402795,0.03224500000000008,0.10677500000000006,-0.6001995,-0.036414999999999975
156,0.036294999999999966,0.7170719999999999,-0.07887,-0.146005,0.474642,-0.017610000000000015,-0.21231500000000003,0.273022,0.022500000000000075,0.14720500000000003,0.476772,0.0031800000000000717,0.24096499999999998,0.291192,-0.006859999999999977,-0.250215,0.101576,-0.09290999999999994,0.30459499999999995,0.14696199999999998,-0.11920999999999993,-0.06500500000000003,0.0025599999999999998,0.0016100000000000003,0.06500499999999998,-0.0025599999999999998,-0.0016100000000000003,-0.10158500000000004,-0.341968,-0.03560999999999992,0.124915,-0.31836800000000004,-0.08672999999999997,-0.12637500000000002,-0.638748,0.06036000000000008,0.14431499999999997,-0.606228,-0.07911000000000001
157,0.041825,0.714559,-0.08428500000000005,-0.142625,0.478389,-0.01782499999999998,-0.21019500000000002,0.27547900000000003,0.02224499999999996,0.15097499999999997,0.47747900000000004,-0.003354999999999997,0.246185,0.293939,-0.01692500000000008,-0.247355,0.103743,-0.10542499999999999,0.31167500000000004,0.150959,-0.134795,-0.06481500000000001,0.003280999999999999,0.002595000000000014,0.06481499999999996,-0.003280999999999999,-0.002595000000000014,-0.11696500000000004,-0.339061,-0.024535000000000085,0.13666500000000004,-0.31598099999999996,-0.08964499999999997,-0.14641500000000002,-0.636581,0.08543499999999993,0.169095,-0.609931,-0.098105
158,0.04688000000000003,0.7116484999999999,-0.09145000000000003,-0.1388399999999999,0.48314850000000004,-0.019000000000000017,-0.20772999999999991,0.2788285,0.022649999999999948,0.15434000000000003,0.4780585,-0.011560000000000015,0.25202,0.2969385,-0.029349999999999987,-0.24388999999999994,0.1066155,-0.11116000000000004,0.31966000000000006,0.1538585,-0.14837999999999996,-0.06511999999999996,0.0040434999999999985,0.0043400000000000105,0.06512000000000007,-0.0040434999999999985,-0.0043400000000000105,-0.13137999999999994,-0.33534149999999996,-0.014759999999999995,0.1411300000000001,-0.31270149999999997,-0.09387999999999996,-0.16611999999999993,-0.6323615,0.10933000000000004,0.18859000000000004,-0.6117115000000001,-0.11597000000000002
159,0.05369499999999994,0.707081,-0.10039000000000009,-0.13276500000000008,0.486911,-0.022330000000000072,-0.2044350000000001,0.282511,0.023540000000000005,0.1578949999999999,0.477121,-0.021540000000000004,0.25856499999999993,0.29928099999999996,-0.042930000000000024,-0.2430350000000001,0.109518,-0.11177999999999999,0.32884499999999994,0.157391,-0.1612,-0.06525500000000006,0.004408000000000002,0.005799999999999916,0.06525499999999995,-0.004407999999999995,-0.005800000000000027,-0.14358500000000007,-0.332439,-0.0044600000000000195,0.14327499999999993,-0.309169,-0.09506000000000003,-0.18444500000000008,-0.627309,0.13186999999999993,0.20459499999999986,-0.610829,-0.1343700000000001
160,0.06076999999999999,0.7022200000000001,-0.11066000000000009,-0.12579,0.48994,-0.02638000000000007,-0.20014000000000004,0.28636,0.024929999999999897,0.1614,0.47639,-0.0327900000000001,0.26576,0.30262,-0.05783000000000005,-0.24052,0.111493,-0.10863000000000012,0.33818000000000004,0.16098,-0.17354000000000003,-0.06572,0.005509,0.007919999999999927,0.06572,-0.005509,-0.007920000000000038,-0.15333000000000002,-0.32924,0.005609999999999893,0.14352999999999994,-0.30699,-0.09383000000000008,-0.19969000000000003,-0.62046,0.15303999999999995,0.21362000000000003,-0.6091599999999999,-0.1463000000000001
161,0.06829999999999992,0.6979105,-0.123035,-0.1166600000000001,0.4919005,-0.03324500000000008,-0.19434000000000007,0.2892105,0.027314999999999978,0.16352,0.4756705,-0.04669500000000004,0.27088,0.30497050000000003,-0.07147500000000007,-0.23778000000000005,0.1138235,-0.09598499999999999,0.34470999999999996,0.1626505,-0.18183500000000008,-0.06610000000000005,0.006272499999999993,0.009865000000000013,0.06609999999999994,-0.0062725,-0.009865000000000013,-0.15940000000000004,-0.32690949999999996,0.014185000000000003,0.14159,-0.3060195,-0.09072500000000006,-0.21017000000000002,-0.6139095,0.17047499999999993,0.21007999999999993,-0.6076395,-0.145385
162,0.07581000000000004,0.6940759999999999,-0.13494000000000006,-0.10856999999999994,0.493266,-0.040180000000000105,-0.18762,0.290666,0.02843999999999991,0.16503,0.475066,-0.06117000000000006,0.27596,0.306586,-0.08690000000000009,-0.23348999999999998,0.11071600000000001,-0.0831900000000001,0.34907,0.163936,-0.19202000000000008,-0.06630000000000003,0.0069200000000000025,0.01154999999999995,0.06630000000000003,-0.006919999999999996,-0.01155000000000006,-0.16314,-0.324464,0.022619999999999862,0.13893,-0.305394,-0.08745000000000014,-0.21736,-0.6081239999999999,0.18594999999999995,0.20115000000000005,-0.606314,-0.13985000000000014
163,0.08335499999999996,0.690048,-0.1463899999999999,-0.10142499999999999,0.49414800000000003,-0.0472499999999999,-0.18119500000000005,0.290138,0.028590000000000115,0.16444499999999995,0.475478,-0.07467999999999997,0.27915499999999993,0.307798,-0.10184999999999989,-0.230605,0.10550000000000001,-0.07334999999999992,0.3504149999999999,0.16483799999999998,-0.19880999999999993,-0.06665500000000002,0.007241000000000004,0.013360000000000039,0.06665500000000002,-0.0072409999999999974,-0.013359999999999927,-0.163945,-0.322422,0.02976000000000012,0.13450499999999999,-0.30453199999999997,-0.08362999999999998,-0.22008500000000003,-0.602642,0.19750000000000012,0.18815499999999996,-0.605552,-0.12991999999999992
164,0.09458,0.6862705,-0.16173500000000007,-0.09116999999999997,0.4951705,-0.05809500000000001,-0.17428,0.2919405,0.027554999999999996,0.16071999999999997,0.4749705,-0.09124500000000002,0.27814000000000005,0.3141205,-0.11426500000000006,-0.22710000000000002,0.1005065,-0.06261499999999998,0.34516,0.1672305,-0.20513499999999996,-0.06699999999999995,0.007212500000000004,0.015754999999999963,0.06699999999999995,-0.007212499999999997,-0.015754999999999963,-0.16312000000000004,-0.32007949999999996,0.03748499999999999,0.13043000000000005,-0.3037895,-0.08019500000000002,-0.21764,-0.5965695000000001,0.20735499999999996,0.17532000000000003,-0.6051695,-0.119425
165,0.10488999999999993,0.6833475,-0.17524000000000006,-0.08247000000000004,0.49677750000000004,-0.06718000000000002,-0.16806,0.2914975,0.026370000000000005,0.15606999999999993,0.4730975,-0.10645000000000004,0.27945999999999993,0.3204475,-0.12736999999999998,-0.22559,0.09747049999999999,-0.05252000000000001,0.34073,0.1693275,-0.21253999999999995,-0.06724000000000008,0.007242499999999999,0.017850000000000033,0.06723999999999997,-0.007242499999999999,-0.017850000000000033,-0.16027000000000002,-0.3176525,0.04478000000000004,0.12593999999999994,-0.3029725,-0.07538,-0.21323000000000003,-0.5906025,0.2157,0.16369,-0.6048125000000001,-0.10899000000000003
