sb224sc-HT22-VT27/4dt907/src/data/kinect_good_vs_bad_not_preprocessed_A13_mediapipe/W41.csv
FrameNo,nose_3d_x,nose_3d_y,nose_3d_z,left_shoulder_3d_x,left_shoulder_3d_y,left_shoulder_3d_z,left_elbow_3d_x,left_elbow_3d_y,left_elbow_3d_z,right_shoulder_3d_x,right_shoulder_3d_y,right_shoulder_3d_z,right_elbow_3d_x,right_elbow_3d_y,right_elbow_3d_z,left_wrist_3d_x,left_wrist_3d_y,left_wrist_3d_z,right_wrist_3d_x,right_wrist_3d_y,right_wrist_3d_z,left_hip_3d_x,left_hip_3d_y,left_hip_3d_z,right_hip_3d_x,right_hip_3d_y,right_hip_3d_z,left_knee_3d_x,left_knee_3d_y,left_knee_3d_z,right_knee_3d_x,right_knee_3d_y,right_knee_3d_z,left_ankle_3d_x,left_ankle_3d_y,left_ankle_3d_z,right_ankle_3d_x,right_ankle_3d_y,right_ankle_3d_z
0,0.011897,0.7216495,-0.019102999999999995,-0.13350499999999998,0.44186949999999997,0.019312000000000003,-0.182415,0.1922295,0.06481300000000001,0.154335,0.4468295,0.014199000000000003,0.189415,0.1957595,0.036437000000000004,-0.22246500000000002,-0.019540500000000002,0.002075000000000004,0.209785,-0.008730499999999999,-0.010394999999999995,-0.065566,0.0017854999999999998,-0.000891999999999997,0.065566,-0.0017854999999999998,0.0008920000000000039,-0.217735,-0.3039005,0.0424,0.198745,-0.3115105,0.022148,-0.346055,-0.5991805,0.083442,0.333905,-0.6028405,0.031616000000000005
1,0.0119455,0.7225395,-0.017313500000000002,-0.1326875,0.4426395,0.0207315,-0.1830075,0.1935795,0.0634195,0.1538825,0.4461795,0.016372499999999998,0.1940625,0.19248949999999998,0.0307825,-0.2284375,-0.0189665,-0.005691500000000002,0.2071625,-0.0132445,-0.012545500000000001,-0.0654815,0.0017034999999999997,-0.0009925000000000003,0.0654815,-0.0017035000000000002,0.0009925000000000003,-0.2177475,-0.3034705,0.0420355,0.1988525,-0.3119705,0.022170500000000003,-0.3454875,-0.5977605,0.08300450000000001,0.3347825,-0.6058205,0.0309215
2,0.011799500000000003,0.7235105000000001,-0.0162425,-0.1326725,0.44267049999999997,0.0208705,-0.1859425,0.1936005,0.0602875,0.1534775,0.4465205,0.016102500000000002,0.1942475,0.20779050000000002,0.0301065,-0.23179249999999998,-0.0213005,-0.011993499999999997,0.2172775,-0.0109865,-0.0196545,-0.0654995,0.0017175000000000003,-0.0009954999999999964,0.0654995,-0.0017174999999999994,0.0009955000000000033,-0.2175625,-0.3033795,0.042176500000000006,0.1987275,-0.3117895,0.022267500000000003,-0.3455525,-0.5979994999999999,0.0832405,0.3304375,-0.6006794999999999,0.030073500000000003
3,0.012017499999999999,0.7239194999999999,-0.015584999999999995,-0.1322975,0.4426895,0.020975000000000008,-0.1886375,0.1966795,0.055908000000000006,0.1536725,0.44671950000000005,0.016071000000000005,0.1963625,0.2078295,0.028488000000000006,-0.2357475,0.0013404999999999997,-0.010637999999999995,0.2299425,0.006115499999999999,-0.023605999999999995,-0.0656745,0.0016885,-0.001003999999999998,0.0656745,-0.0016885,0.0010040000000000049,-0.21679749999999998,-0.3030905,0.042258000000000004,0.1989325,-0.31179049999999997,0.022511000000000003,-0.34505749999999996,-0.5979905,0.08304600000000001,0.3286025,-0.5990605,0.029817000000000007
4,0.012690499999999997,0.724558,-0.014384500000000001,-0.1327085,0.442818,0.023182499999999998,-0.19622850000000003,0.214998,0.0482425,0.15340150000000002,0.449328,0.016181499999999998,0.2061115,0.22885799999999998,0.0181495,-0.2535585,0.026965999999999997,-0.03174350000000001,0.2397315,0.028128,-0.038586499999999996,-0.0656245,0.0016909999999999998,-0.000505499999999999,0.0656245,-0.0016910000000000007,0.000505499999999999,-0.21421849999999998,-0.303832,0.0420365,0.19843149999999998,-0.312772,0.0228575,-0.34105850000000004,-0.591162,0.0815625,0.3268815,-0.5995820000000001,0.0291065
5,0.0127055,0.7241225,-0.013255499999999996,-0.1317635,0.4430725,0.022401500000000005,-0.2047435,0.2239725,0.0400835,0.1527965,0.4493025,0.014968500000000003,0.2168165,0.2419525,0.0020685000000000044,-0.2811835,0.0565395,-0.0674525,0.2631265,0.0541455,-0.08586250000000001,-0.06569249999999999,0.0015815000000000004,-0.0002564999999999998,0.06569249999999999,-0.0015814999999999996,0.0002564999999999998,-0.2136235,-0.3036975,0.0417415,0.19757650000000002,-0.3120075,0.0231825,-0.3416735,-0.5916775,0.0813315,0.32700650000000003,-0.5990675,0.029219500000000002
6,0.013259000000000002,0.7238325,-0.011421999999999995,-0.129701,0.4438125,0.021682000000000003,-0.215181,0.24004250000000002,0.026174000000000003,0.152079,0.4491925,0.013436000000000003,0.222179,0.24587250000000002,-0.007641999999999996,-0.285031,0.0647865,-0.07253,0.270449,0.0601295,-0.10669000000000001,-0.065827,0.0015495,-0.00011699999999999905,0.065827,-0.0015494999999999997,0.00011700000000000599,-0.213041,-0.3036575,0.041612,0.19746899999999998,-0.3115675,0.023305000000000006,-0.334381,-0.5733075,0.07863500000000001,0.326869,-0.5977075000000001,0.029317000000000003
7,0.014565999999999996,0.722519,-0.009193,-0.129309,0.445429,0.021323,-0.23224899999999998,0.260149,0.0056250000000000015,0.150181,0.451399,0.011712,0.236601,0.267519,-0.035455999999999994,-0.311199,0.126139,-0.122274,0.297181,0.11371899999999999,-0.154164,-0.06587599999999999,0.0015580000000000001,0.00036800000000000027,0.06587599999999999,-0.0015580000000000004,-0.0003679999999999968,-0.212679,-0.30361099999999996,0.040891000000000004,0.197521,-0.312141,0.022451000000000002,-0.335839,-0.576541,0.079954,0.330931,-0.602201,0.028981
8,0.014943999999999999,0.7220615,-0.007558499999999996,-0.128671,0.4462915,0.0212255,-0.244861,0.27898150000000005,-0.0082155,0.148979,0.45275150000000003,0.010617500000000002,0.24729900000000002,0.28681150000000005,-0.0522745,-0.328101,0.1669415,-0.1499965,0.31216900000000003,0.1504115,-0.1869965,-0.06590299999999999,0.0014774999999999999,0.0007785000000000014,0.06590299999999999,-0.0014774999999999996,-0.0007784999999999979,-0.21188099999999999,-0.3036885,0.040524500000000005,0.197269,-0.31250849999999997,0.022226500000000003,-0.334331,-0.5729285,0.0792785,0.331239,-0.6032285,0.028333500000000005
9,0.015221999999999996,0.7214984999999999,-0.005981499999999997,-0.128307,0.4470785,0.021039500000000003,-0.258347,0.29979849999999997,-0.021239499999999998,0.148363,0.4540285,0.009159500000000001,0.25896299999999994,0.30734849999999997,-0.06713849999999999,-0.34293700000000005,0.21216849999999998,-0.17656149999999998,0.32561300000000004,0.1924785,-0.2160915,-0.065926,0.0013855,0.0012665000000000003,0.065926,-0.0013855,-0.0012665000000000003,-0.211347,-0.3038015,0.0401565,0.197063,-0.31282150000000003,0.0219365,-0.333097,-0.5697715,0.0785575,0.331423,-0.6040015,0.0276685
10,0.0153945,0.7206305,-0.0045499999999999985,-0.1281295,0.4477605,0.02068,-0.2711795,0.3228605,-0.033904000000000004,0.14798050000000001,0.4555405,0.007723999999999998,0.2695105,0.3300305,-0.079294,-0.35390950000000004,0.2597705,-0.198014,0.33643049999999997,0.2389705,-0.240564,-0.0659515,0.0012745,0.0018119999999999976,0.0659515,-0.0012745,-0.0018120000000000011,-0.2109295,-0.3041295,0.039688,0.1968805,-0.3134495,0.02153,-0.3330195,-0.5706995,0.077709,0.3315805,-0.6056395000000001,0.026942999999999998
11,0.015453499999999998,0.7195010000000001,-0.003381499999999999,-0.1281515,0.44872100000000004,0.019811500000000003,-0.2834015,0.350341,-0.0455955,0.1477985,0.456801,0.0063175,0.2795185,0.355151,-0.0902965,-0.3631915,0.315591,-0.2162565,0.3460685,0.291721,-0.2616765,-0.0659135,0.001199,0.002409500000000002,0.0659135,-0.001199,-0.0024094999999999984,-0.2106015,-0.304639,0.0391835,0.1966785,-0.31426899999999997,0.0211175,-0.3324715,-0.568259,0.0765985,0.3318985,-0.607689,0.0261755
12,0.015538499999999997,0.7175855000000001,-0.0025850000000000005,-0.1282015,0.4494955,0.01862,-0.2952215,0.3836355,-0.0556,0.1477085,0.4588955,0.004758000000000002,0.2875185,0.3859955,-0.09863599999999999,-0.3701415,0.3808955,-0.22862600000000002,0.35290849999999996,0.3541655,-0.27644599999999997,-0.0658405,0.0011305,0.0029180000000000005,0.0658405,-0.0011305,-0.0029180000000000005,-0.2102715,-0.3057645,0.038576,0.19640849999999999,-0.3155845,0.020613,-0.33251149999999996,-0.5685644999999999,0.075511,0.33244850000000004,-0.6104544999999999,0.025177
13,0.015601500000000003,0.715536,-0.0022135000000000037,-0.1282475,0.45028599999999996,0.0174905,-0.3020375,0.41896599999999995,-0.0621835,0.1476325,0.46133599999999997,0.0032874999999999988,0.29479249999999996,0.41987599999999997,-0.1034115,-0.37239750000000005,0.44740599999999997,-0.2316315,0.35602249999999996,0.419116,-0.28001149999999997,-0.0657735,0.001006,0.0034164999999999994,0.0657735,-0.001006,-0.003416500000000003,-0.20994749999999998,-0.307084,0.0378745,0.1960725,-0.316964,0.020111499999999997,-0.3324975,-0.5692740000000001,0.0744715,0.3329025,-0.613424,0.024183499999999997
14,0.015659500000000003,0.7134215,-0.0029555000000000033,-0.1282955,0.4513515,0.017024499999999998,-0.3028955,0.4531915,-0.0629985,0.14739449999999998,0.46374150000000003,0.0024284999999999966,0.29591449999999997,0.4546615,-0.1043655,-0.37243550000000003,0.5095315,-0.2325055,0.3559845,0.4831315,-0.2808855,-0.0657295,0.0009125000000000001,0.003698499999999997,0.0657295,-0.0009125000000000001,-0.0036985000000000004,-0.2097355,-0.30873849999999997,0.0371765,0.1957645,-0.3184385,0.019756499999999996,-0.3325855,-0.5708285,0.0737955,0.3333845,-0.6163985,0.023310499999999998
15,0.0157005,0.7110855,-0.003755999999999999,-0.1284875,0.4526955,0.016572,-0.3029675,0.4902855,-0.063791,0.14712250000000002,0.4662055,0.0016499999999999987,0.29584249999999995,0.4880555,-0.105158,-0.37250750000000005,0.5700355,-0.233298,0.35591249999999997,0.5474855000000001,-0.281678,-0.0656275,0.0008555000000000004,0.0038639999999999994,0.0656275,-0.0008555000000000004,-0.0038639999999999994,-0.20958749999999998,-0.3105945,0.036545,0.19547250000000002,-0.3203145,0.019452,-0.3327675,-0.5732944999999999,0.073274,0.3337825,-0.6197045,0.022498
16,0.0156815,0.7083095,-0.0044925,-0.1288145,0.4548995,0.0162745,-0.3030545,0.5260795,-0.0645225,0.1465255,0.4685995,0.0009545000000000005,0.29575549999999995,0.5237295,-0.1058895,-0.37259450000000005,0.6294095,-0.2340295,0.35582549999999996,0.6073695,-0.2824095,-0.0654775,0.0008404999999999992,0.003863499999999999,0.0654775,-0.000840500000000001,-0.003863499999999999,-0.2093845,-0.3127005,0.035888500000000004,0.1951655,-0.3226605,0.0192115,-0.3331445,-0.5762005,0.0728275,0.3341455,-0.6235905,0.0217165
17,0.015573,0.704796,-0.005092500000000003,-0.129207,0.45811599999999997,0.0159095,-0.302997,0.562946,-0.0625525,0.146323,0.471196,0.0005714999999999991,0.295993,0.559646,-0.1014085,-0.365707,0.691176,-0.22125850000000002,0.349883,0.6705559999999999,-0.27132850000000003,-0.06525500000000001,0.0008800000000000006,0.0037894999999999977,0.06525500000000001,-0.0008800000000000006,-0.003789500000000001,-0.20907699999999999,-0.315894,0.0352675,0.194823,-0.326214,0.0190275,-0.33375699999999997,-0.5801540000000001,0.0725055,0.334283,-0.6280140000000001,0.0210775
18,0.015358499999999997,0.701287,-0.0059775,-0.1294665,0.461347,0.0156605,-0.29973649999999996,0.598357,-0.058082499999999995,0.1461835,0.473437,0.00030050000000000215,0.2927135,0.595697,-0.09128649999999999,-0.3542065,0.748117,-0.2011765,0.3399535,0.730357,-0.2502665,-0.0650125,0.0009479999999999975,0.0036915000000000003,0.0650125,-0.0009480000000000009,-0.0036915000000000003,-0.2087765,-0.319283,0.0347065,0.19449349999999999,-0.32987299999999997,0.0188715,-0.3342265,-0.584063,0.0722275,0.33441350000000003,-0.632453,0.020490500000000002
19,0.015167499999999999,0.6972795,-0.007383000000000001,-0.1296765,0.46402950000000004,0.015393,-0.2941965,0.6298695,-0.050728,0.1461935,0.47593950000000007,0.00037699999999999886,0.28849349999999996,0.6271095,-0.079741,-0.34126650000000003,0.7988795000000001,-0.177261,0.3296135,0.7826795,-0.223551,-0.0647905,0.0009634999999999991,0.003387000000000001,0.0647905,-0.0009634999999999991,-0.003387000000000001,-0.2083865,-0.3232905,0.034106,0.19422350000000002,-0.3341305,0.018586000000000002,-0.33460650000000003,-0.5885705,0.07187,0.3346135,-0.6374905,0.019854
20,0.014938000000000002,0.693476,-0.008879499999999999,-0.129957,0.466446,0.0151455,-0.287387,0.655596,-0.0424565,0.14630300000000002,0.478716,0.0007745000000000009,0.281903,0.655636,-0.06818850000000001,-0.327987,0.8405659999999999,-0.1511965,0.319343,0.828816,-0.1945365,-0.064549,0.0009300000000000003,0.0029654999999999994,0.064549,-0.0009300000000000003,-0.0029654999999999994,-0.208007,-0.327084,0.0336205,0.193913,-0.33822399999999997,0.0183115,-0.335037,-0.5931240000000001,0.07162550000000001,0.33476300000000003,-0.642324,0.0193985
21,0.014743000000000003,0.6902355,-0.010488500000000001,-0.130164,0.4689355,0.0149615,-0.27862400000000004,0.6737854999999999,-0.034368499999999996,0.14630600000000002,0.4802755,0.0012505000000000016,0.272916,0.6770955000000001,-0.0571355,-0.314624,0.8693455000000001,-0.1256245,0.308706,0.8644354999999999,-0.1663345,-0.064245,0.0009324999999999958,0.0026265000000000004,0.064245,-0.0009325000000000028,-0.0026265000000000004,-0.20763399999999999,-0.33044450000000003,0.0332005,0.19373600000000002,-0.3421045,0.017916500000000002,-0.335704,-0.5978045000000001,0.0714165,0.33493599999999996,-0.6467944999999999,0.0189805
22,0.014574499999999997,0.6871160000000001,-0.012301999999999997,-0.1303115,0.471406,0.014721,-0.2690715,0.689226,-0.026557,0.1463285,0.48127600000000004,0.0016590000000000008,0.2636285,0.694446,-0.04612100000000001,-0.3016915,0.893436,-0.09955900000000001,0.2977985,0.893086,-0.137939,-0.0639505,0.0009639999999999996,0.002241,0.0639505,-0.0009639999999999996,-0.002241,-0.2072515,-0.333744,0.032681,0.1936385,-0.34610399999999997,0.017462,-0.3360915,-0.6024539999999999,0.071015,0.3351185,-0.651224,0.018535
23,0.014277000000000001,0.683774,-0.014225500000000002,-0.13036399999999998,0.472824,0.014117500000000002,-0.25892400000000004,0.702084,-0.017285500000000002,0.14633600000000002,0.48140399999999994,0.0019235000000000016,0.254136,0.707274,-0.0353495,-0.289914,0.912124,-0.0757995,0.287016,0.914884,-0.11011049999999999,-0.06373200000000001,0.0009419999999999984,0.001750500000000002,0.06373200000000001,-0.0009419999999999984,-0.0017504999999999986,-0.206904,-0.33739600000000003,0.0319535,0.19323600000000002,-0.349926,0.0169855,-0.33663400000000004,-0.607376,0.0704915,0.335246,-0.655986,0.017944500000000002
24,0.013934000000000002,0.6807015000000001,-0.016082000000000003,-0.130377,0.47397149999999993,0.01369,-0.24930699999999997,0.7097315000000001,-0.008792000000000001,0.145903,0.4812215,0.002293,0.24538300000000002,0.7170515000000001,-0.025301,-0.278577,0.9268915000000001,-0.055108000000000004,0.276773,0.9321515,-0.08490700000000001,-0.063519,0.0009214999999999987,0.0010669999999999985,0.063519,-0.0009214999999999987,-0.0010669999999999985,-0.20654699999999998,-0.3407485,0.03116,0.19298300000000002,-0.3536085,0.016652,-0.337117,-0.6119884999999999,0.069967,0.335433,-0.6604285,0.01725
25,0.013603000000000004,0.6782024999999999,-0.017601,-0.130405,0.47433249999999993,0.013512,-0.242335,0.7151325,-0.002191000000000002,0.145205,0.4808825,0.002765,0.23661500000000002,0.7225625,-0.01706,-0.269445,0.9371725,-0.040229,0.268435,0.9453625,-0.066455,-0.063382,0.0008624999999999952,0.0004469999999999995,0.063382,-0.0008625000000000022,-0.0004469999999999995,-0.206345,-0.3437875,0.030542,0.19268500000000002,-0.3566575,0.016396,-0.337125,-0.6155575,0.069593,0.33558499999999997,-0.6642675,0.016663
26,0.0133855,0.6765815000000001,-0.018488499999999998,-0.1303415,0.4734315,0.0134355,-0.23831149999999998,0.7170615,0.0011595000000000008,0.1445785,0.4801715,0.0028365000000000005,0.23187850000000002,0.7239915,-0.0129855,-0.26452149999999996,0.9380415,-0.0324835,0.2634985,0.9501915,-0.0561425,-0.0632965,0.0007715000000000014,-0.00016149999999999845,0.0632965,-0.0007715000000000014,0.00016150000000000192,-0.20628149999999998,-0.3456385,0.0299325,0.1924485,-0.3584485,0.0162085,-0.3375815,-0.6182485,0.06902849999999999,0.3356985,-0.6668085,0.0160325
27,0.013246,0.6749855,-0.019068,-0.13018500000000002,0.4725555,0.013305,-0.235995,0.7163455,0.002785000000000001,0.14399499999999998,0.4796355,0.002936000000000001,0.229815,0.7220354999999999,-0.011539999999999998,-0.262325,0.9364454999999999,-0.029884,0.261255,0.9503554999999999,-0.051986,-0.063231,0.0006724999999999995,-0.0007549999999999987,0.063231,-0.0006725000000000064,0.0007550000000000022,-0.206205,-0.3473045,0.029330000000000002,0.192265,-0.3601145,0.016022,-0.33780499999999997,-0.6205145,0.068634,0.335895,-0.6691845000000001,0.015412000000000002
28,0.013098499999999999,0.674217,-0.0194685,-0.1300675,0.472427,0.0132315,-0.2343175,0.7162869999999999,0.004118500000000001,0.1437925,0.478577,0.002861500000000001,0.22829249999999998,0.720907,-0.0102415,-0.2604375,0.935367,-0.027922500000000003,0.25944249999999996,0.9506169999999999,-0.048950499999999994,-0.06319749999999999,0.0006480000000000027,-0.001170499999999998,0.06319749999999999,-0.0006480000000000027,0.0011705000000000014,-0.2061775,-0.348173,0.0288915,0.19196249999999998,-0.360803,0.016001500000000002,-0.3380275,-0.6218130000000001,0.06827949999999999,0.33615249999999997,-0.6707230000000001,0.0149105
29,0.012886000000000002,0.673466,-0.019895,-0.130046,0.47222600000000003,0.013160000000000002,-0.232956,0.715876,0.0049960000000000004,0.14363399999999998,0.477456,0.0027610000000000013,0.22772399999999998,0.719716,-0.009756999999999998,-0.258836,0.934306,-0.026871000000000003,0.258264,0.9502259999999999,-0.04768599999999999,-0.063166,0.0006499999999999978,-0.0015200000000000005,0.063166,-0.0006500000000000047,0.0015200000000000005,-0.20617600000000003,-0.349054,0.028518,0.191654,-0.361454,0.015925,-0.33843599999999996,-0.623344,0.067867,0.336414,-0.671994,0.014508
30,0.012715500000000003,0.6730365,-0.0202725,-0.1299215,0.47254650000000004,0.0133945,-0.23184149999999998,0.7154965000000001,0.0055005,0.1435085,0.4766565,0.0026835,0.22755850000000002,0.7186065,-0.009526499999999999,-0.2574915,0.9335365,-0.026578499999999998,0.2574685,0.9493564999999999,-0.0472535,-0.0631705,0.000615499999999998,-0.0017704999999999995,0.0631705,-0.000615499999999998,0.0017704999999999995,-0.2061915,-0.3496735,0.0281065,0.19141850000000002,-0.3619635,0.0158415,-0.3383715,-0.6240935,0.0673715,0.3366485,-0.6728535,0.0141495
31,0.012562,0.672672,-0.020297,-0.12978900000000002,0.47282199999999996,0.013668999999999999,-0.230859,0.714802,0.005632999999999999,0.143451,0.475912,0.002691999999999998,0.227611,0.717472,-0.009526,-0.256399,0.933002,-0.027001,0.257071,0.9486619999999999,-0.047571,-0.063187,0.0006139999999999965,-0.0019650000000000015,0.063187,-0.0006140000000000034,0.0019649999999999997,-0.20616900000000002,-0.350188,0.027745,0.191251,-0.362378,0.015745,-0.338499,-0.624848,0.066872,0.33692099999999997,-0.673508,0.013862
32,0.012545,0.672818,-0.020065000000000003,-0.129561,0.47369799999999995,0.014099,-0.229991,0.714728,0.005731,0.143529,0.47586799999999996,0.002875000000000001,0.227669,0.717348,-0.009616,-0.255271,0.933238,-0.027256,0.256989,0.9485879999999999,-0.047740000000000005,-0.063194,0.0006619999999999959,-0.0020069999999999984,0.063194,-0.0006620000000000029,0.002007,-0.20611100000000002,-0.350092,0.027566,0.191309,-0.362452,0.015566,-0.338781,-0.625132,0.066389,0.337229,-0.673532,0.013711000000000001
33,0.0125335,0.672997,-0.019693000000000002,-0.1292855,0.47475700000000004,0.014659,-0.2294455,0.7147669999999999,0.005644,0.14360450000000002,0.475867,0.0031230000000000008,0.22772450000000002,0.717297,-0.009668,-0.25449550000000004,0.933367,-0.027360000000000002,0.2570445,0.9479369999999999,-0.047792,-0.0631845,0.0007049999999999973,-0.001964999999999998,0.0631845,-0.0007050000000000042,0.0019649999999999997,-0.2060955,-0.350093,0.027429000000000002,0.19136450000000002,-0.36250299999999996,0.015514,-0.3391255,-0.6256130000000001,0.066101,0.33748449999999997,-0.673633,0.013645000000000001
34,0.012488000000000003,0.673254,-0.019437,-0.129046,0.475804,0.015175999999999999,-0.22926600000000003,0.714804,0.005578999999999999,0.143644,0.475854,0.003349999999999999,0.228074,0.717484,-0.009744,-0.253946,0.933354,-0.027758,0.257064,0.947284,-0.047905,-0.06318,0.0007390000000000035,-0.001915,0.06318,-0.0007389999999999966,0.001915,-0.20611600000000002,-0.350146,0.027172,0.191384,-0.362556,0.015460999999999999,-0.339406,-0.6260560000000001,0.06577,0.337674,-0.673686,0.013578999999999999
35,0.012508000000000003,0.6734644999999999,-0.019395500000000003,-0.128854,0.4768545,0.0156935,-0.229164,0.7150145,0.005520499999999999,0.14383600000000002,0.4757845,0.003558499999999999,0.228726,0.7177745,-0.0098415,-0.253634,0.9333045,-0.0290905,0.25712599999999997,0.9465345000000001,-0.0484985,-0.063207,0.0007715000000000014,-0.0018934999999999994,0.063207,-0.0007715000000000014,0.0018934999999999994,-0.20607399999999998,-0.3501955,0.0267825,0.191676,-0.3630155,0.0152965,-0.340864,-0.6296155,0.0654985,0.337956,-0.6738455000000001,0.0135015
36,0.012599999999999998,0.673701,-0.0194375,-0.12870399999999999,0.477921,0.0162295,-0.229074,0.715001,0.005095500000000003,0.144016,0.475771,0.0037415000000000018,0.229516,0.7181209999999999,-0.010487499999999997,-0.25359400000000004,0.9336709999999999,-0.030978499999999996,0.257606,0.945121,-0.04986650000000001,-0.06323899999999999,0.0008039999999999992,-0.0018554999999999995,0.06323899999999999,-0.0008039999999999992,0.0018555000000000012,-0.206084,-0.350209,0.0262755,0.19195600000000002,-0.363429,0.014916500000000003,-0.34168400000000004,-0.631789,0.0650265,0.33816599999999997,-0.6738390000000001,0.013363500000000002
37,0.012648999999999999,0.6740105,-0.019479999999999997,-0.128553,0.4789405,0.016763,-0.229023,0.7151305,0.004270999999999999,0.144157,0.47578049999999994,0.0037920000000000002,0.230267,0.7184505,-0.011233,-0.253623,0.9338905,-0.033088,0.258167,0.9437705,-0.051297,-0.06328,0.0007715000000000014,-0.0018130000000000021,0.06328,-0.0007715000000000014,0.0018130000000000004,-0.20616299999999999,-0.3501695,0.025717,0.192277,-0.3638695,0.0143,-0.342513,-0.6336095,0.06429699999999999,0.338327,-0.6738895,0.013080999999999999
38,0.0127675,0.674263,-0.019623499999999995,-0.1283115,0.48011300000000007,0.0170965,-0.22899150000000001,0.7151529999999999,0.0030065000000000005,0.1443685,0.475763,0.0037255000000000014,0.2310785,0.718853,-0.0121885,-0.25360150000000004,0.933703,-0.035679499999999996,0.2588785,0.9423829999999999,-0.05303349999999999,-0.0633185,0.0007759999999999989,-0.0016845000000000002,0.0633185,-0.0007759999999999989,0.0016845000000000002,-0.2062715,-0.35018699999999997,0.0249205,0.1926685,-0.364297,0.013253500000000001,-0.34374150000000003,-0.6370570000000001,0.0635305,0.3385585,-0.6741670000000001,0.012521500000000001
39,0.012957500000000004,0.6742935,-0.0201965,-0.1279085,0.4805435,0.0168465,-0.2289385,0.7151135,0.0011415000000000002,0.14476150000000002,0.47575350000000005,0.0033745000000000008,0.23207150000000001,0.7195135,-0.0136155,-0.2534385,0.9336135,-0.0392355,0.2598715,0.9410635,-0.0555145,-0.0633755,0.0007985000000000006,-0.0014745000000000001,0.0633755,-0.0007984999999999937,0.0014745000000000001,-0.2064285,-0.3502165,0.023703500000000002,0.1933115,-0.3647465,0.0112165,-0.3448485,-0.6409765,0.0623185,0.3390515,-0.6743465,0.0113435
40,0.012974499999999998,0.674422,-0.021057999999999997,-0.1275175,0.480912,0.016373000000000002,-0.2290175,0.7151919999999999,-0.001174999999999999,0.1451725,0.47583200000000003,0.0028460000000000013,0.2329725,0.719642,-0.015389999999999997,-0.2534375,0.933622,-0.043370000000000006,0.2609625,0.9398219999999999,-0.058511999999999995,-0.0634005,0.0008900000000000019,-0.0011609999999999988,0.0634005,-0.0008900000000000019,0.0011610000000000006,-0.2065975,-0.35011800000000004,0.022245,0.1941025,-0.364868,0.008709000000000001,-0.3461875,-0.643148,0.061015,0.3395725,-0.674328,0.009778000000000002
41,0.012904000000000002,0.674565,-0.022068,-0.12711699999999998,0.481155,0.015816,-0.22911700000000002,0.715285,-0.003588000000000001,0.14559300000000003,0.47592499999999993,0.0022819999999999993,0.233873,0.7197049999999999,-0.017261000000000002,-0.25372700000000004,0.933605,-0.047962000000000005,0.26193299999999997,0.938335,-0.061587,-0.063419,0.0009759999999999977,-0.0008840000000000011,0.063419,-0.0009760000000000046,0.0008839999999999994,-0.20686700000000002,-0.349955,0.020585,0.19494299999999998,-0.364885,0.005996999999999999,-0.346217,-0.641655,0.059906,0.340063,-0.674345,0.007762999999999999
42,0.012634500000000003,0.674944,-0.0240465,-0.12680750000000002,0.481614,0.0147375,-0.22935750000000002,0.715394,-0.006933499999999999,0.1459025,0.476224,0.0011855000000000008,0.2345325,0.720004,-0.019874499999999996,-0.2543175,0.932874,-0.053441499999999996,0.2628825,0.9363739999999999,-0.0655455,-0.0633855,0.0010840000000000016,-0.0006575000000000001,0.0633855,-0.0010840000000000016,0.0006575000000000001,-0.2077575,-0.34948599999999996,0.018291500000000002,0.19629249999999998,-0.364426,0.002342500000000001,-0.34788749999999996,-0.643246,0.0579005,0.3406325,-0.673996,0.0050755
43,0.012316500000000001,0.6753395,-0.026492500000000002,-0.1265935,0.48228950000000004,0.013385500000000002,-0.2297535,0.7155995,-0.010635499999999999,0.1461465,0.47667950000000003,-9.149999999999957e-05,0.2350865,0.7204995000000001,-0.0228345,-0.2551335,0.9319795000000001,-0.0592755,0.2637465,0.9346195,-0.06991149999999999,-0.0632945,0.001174500000000002,-0.0004304999999999986,0.0632945,-0.001174500000000002,0.0004305000000000003,-0.20903349999999998,-0.34881049999999997,0.015634500000000003,0.19796650000000002,-0.3637505,-0.0018374999999999989,-0.3496535,-0.6444105,0.0551935,0.34115650000000003,-0.6732104999999999,0.002120500000000001
44,0.011949500000000002,0.675769,-0.029321999999999997,-0.1264865,0.483279,0.011713,-0.2303865,0.715599,-0.015125,0.1463135,0.477449,-0.0017400000000000002,0.23549350000000002,0.721399,-0.026182,-0.25617650000000003,0.931199,-0.06534999999999999,0.2644835,0.933129,-0.074596,-0.0631535,0.001230999999999996,-3.300000000000004e-05,0.0631535,-0.001231000000000003,3.299999999999831e-05,-0.2109265,-0.347621,0.012525999999999999,0.20021350000000002,-0.362761,-0.006540000000000001,-0.3500865,-0.642941,0.051886,0.3418235,-0.672051,-0.0014000000000000002
45,0.011439,0.6753385,-0.0327895,-0.126502,0.48403850000000004,0.0096655,-0.231152,0.7146985,-0.0202925,0.14638800000000002,0.4780985,-0.0036595000000000004,0.23569800000000002,0.7213985,-0.0297435,-0.257522,0.9303885,-0.0724025,0.265068,0.9318885,-0.0797515,-0.063097,0.0013465000000000005,0.00017949999999999997,0.063097,-0.0013464999999999935,-0.00017949999999999997,-0.213332,-0.3459315,0.0088815,0.202968,-0.3615315,-0.0119825,-0.352192,-0.6418215,0.048327499999999995,0.342548,-0.6707915,-0.0051624999999999996
46,0.010670000000000002,0.675017,-0.036851,-0.12701400000000002,0.4833970000000001,0.006624999999999999,-0.232124,0.713047,-0.026358,0.145926,0.478977,-0.006070000000000001,0.23565599999999998,0.721387,-0.034026,-0.259114,0.9304870000000001,-0.080176,0.265366,0.931647,-0.085468,-0.062957,0.001341999999999996,0.00048599999999999945,0.062957,-0.001342000000000003,-0.0004860000000000003,-0.21656399999999998,-0.34258299999999997,0.004356,0.20605600000000002,-0.358993,-0.018257000000000002,-0.353794,-0.639483,0.044236,0.343246,-0.668443,-0.009448
47,0.009908000000000002,0.673812,-0.0407625,-0.12735000000000002,0.482692,0.0035225000000000005,-0.23295000000000002,0.710782,-0.032309500000000005,0.14556,0.479942,-0.0084925,0.23574,0.720532,-0.038407500000000004,-0.26076,0.9273819999999999,-0.0890685,0.2658,0.931582,-0.0913185,-0.062775,0.001353,0.0006825000000000002,0.062775,-0.001353,-0.0006825,-0.22022,-0.339098,-0.0005024999999999999,0.20976,-0.355968,-0.024861499999999998,-0.35598,-0.6369480000000001,0.039716499999999995,0.34432999999999997,-0.665908,-0.0138735
48,0.008187999999999997,0.670741,-0.0461645,-0.12892099999999998,0.482111,-0.0011514999999999997,-0.23530099999999998,0.7048610000000001,-0.0426405,0.14446900000000001,0.47907099999999997,-0.012446500000000001,0.235619,0.718361,-0.0445815,-0.264131,0.9242210000000001,-0.1044995,0.266499,0.9266610000000001,-0.1011445,-0.062763,0.0011099999999999999,0.0007785000000000001,0.062763,-0.0011099999999999999,-0.0007784999999999999,-0.227431,-0.331079,-0.0079945,0.214449,-0.34625900000000004,-0.0334155,-0.360661,-0.631439,0.0332125,0.346299,-0.6570889999999999,-0.0206435
49,0.006548499999999996,0.667833,-0.0519745,-0.1295905,0.4813529999999999,-0.0061375,-0.2376405,0.699303,-0.052928499999999996,0.1432695,0.478363,-0.0166115,0.2352995,0.7158629999999999,-0.0515735,-0.2680805,0.914513,-0.1197385,0.2671295,0.9218729999999999,-0.1108885,-0.0627245,0.0008799999999999988,0.0007474999999999999,0.0627245,-0.0008800000000000058,-0.0007474999999999999,-0.2355205,-0.32122700000000004,-0.0160125,0.2192095,-0.335557,-0.0419695,-0.3647305,-0.6222770000000001,0.0263115,0.3485295,-0.6480170000000001,-0.0278475
50,0.004900499999999998,0.6649404999999999,-0.058037500000000006,-0.13052850000000002,0.47953049999999997,-0.011441499999999999,-0.2402285,0.6930005,-0.0634425,0.14151149999999998,0.4762805,-0.0208355,0.23498149999999998,0.7138205,-0.059330499999999994,-0.2720685,0.9064605,-0.1347445,0.26749150000000005,0.9180105,-0.1208345,-0.0627935,0.0006934999999999997,0.0009055000000000001,0.0627935,-0.0006934999999999997,-0.0009054999999999983,-0.24387850000000003,-0.30949950000000004,-0.0241615,0.2238615,-0.32337950000000004,-0.050626500000000005,-0.3686385,-0.6122095000000001,0.0190295,0.3508815,-0.6376895,-0.034701499999999996
51,0.003178,0.663271,-0.0680075,-0.131626,0.47829099999999997,-0.020908500000000003,-0.243036,0.688021,-0.0775425,0.13950400000000002,0.47590099999999996,-0.0293015,0.23442400000000002,0.7128610000000001,-0.0712015,-0.276266,0.901251,-0.1532615,0.267584,0.916421,-0.1347915,-0.06288,0.00036299999999999874,0.0011924999999999991,0.06288,-0.0003630000000000005,-0.0011925000000000026,-0.256186,-0.295339,-0.0375335,0.228194,-0.308979,-0.0629275,-0.372826,-0.6014889999999999,0.008085499999999999,0.353224,-0.6257189999999999,-0.0452105
52,0.0023035000000000017,0.662423,-0.078482,-0.1319215,0.473773,-0.031188,-0.2454315,0.684743,-0.092951,0.13726850000000002,0.473383,-0.0381,0.2346785,0.711433,-0.083374,-0.28007150000000003,0.897813,-0.17263099999999998,0.2683485,0.917303,-0.149841,-0.0633385,0.0003510000000000002,0.0014750000000000006,0.0633385,-0.0003510000000000002,-0.0014750000000000006,-0.2675815,-0.277577,-0.0513,0.2371085,-0.28907700000000003,-0.077726,-0.37621150000000003,-0.588887,-0.0029630000000000004,0.3562885,-0.611307,-0.055702
53,0.0009295000000000015,0.66098,-0.09161,-0.1327685,0.47024,-0.043737,-0.2486885,0.67924,-0.11136599999999999,0.1345915,0.47204999999999997,-0.049063999999999997,0.2344715,0.71045,-0.09887399999999999,-0.28496849999999996,0.89251,-0.195856,0.26892150000000004,0.91797,-0.169086,-0.06377350000000001,0.00015300000000000036,0.001568,0.06377350000000001,-0.00015300000000000036,-0.001568,-0.27891849999999996,-0.25870000000000004,-0.067233,0.2450415,-0.26768000000000003,-0.09418399999999999,-0.3799085,-0.5722200000000001,-0.016010999999999997,0.3587115,-0.59467,-0.067721
54,-0.00017299999999999694,0.65927,-0.1051045,-0.133399,0.46571999999999997,-0.0572525,-0.251129,0.67467,-0.1301775,0.13171100000000002,0.46832,-0.0608235,0.234491,0.708,-0.1148435,-0.289639,0.88683,-0.2200745,0.269911,0.91838,-0.1894845,-0.06435,-0.0002160000000000009,0.0018384999999999999,0.06435,0.0002160000000000009,-0.0018384999999999999,-0.290089,-0.24107,-0.08356050000000001,0.253171,-0.24659999999999999,-0.1108335,-0.38359899999999997,-0.55478,-0.029487500000000003,0.361361,-0.57726,-0.0800605
55,-0.0012719999999999997,0.6575495,-0.118639,-0.133621,0.46346950000000003,-0.070861,-0.253681,0.6698695,-0.14945,0.129079,0.4657895,-0.072542,0.234509,0.7037895,-0.13103199999999998,-0.294291,0.8761795,-0.245062,0.271439,0.9146695,-0.211642,-0.064945,-3.550000000000081e-05,0.001918000000000003,0.064945,3.550000000000081e-05,-0.001917999999999996,-0.301211,-0.2204505,-0.099836,0.261039,-0.2230705,-0.126874,-0.387241,-0.5361205,-0.042432,0.363769,-0.5568805,-0.09201999999999999
56,-0.0019805000000000005,0.6575285,-0.132452,-0.13360750000000002,0.46158849999999996,-0.0847,-0.2560475,0.6673385,-0.168873,0.1267325,0.4642585,-0.084573,0.23520249999999998,0.7011985,-0.147505,-0.29826749999999996,0.8698085,-0.269155,0.2733125,0.9119085,-0.233905,-0.0653665,-0.0005955000000000127,0.0018800000000000067,0.0653665,0.0005954999999999988,-0.0018799999999999928,-0.31197749999999996,-0.1983715,-0.11582599999999998,0.26906250000000004,-0.1987515,-0.142494,-0.3898875,-0.5170015,-0.05512199999999999,0.3662725,-0.5354915,-0.103907
57,-0.001818000000000002,0.6590315,-0.1446265,-0.133633,0.45883150000000006,-0.0971565,-0.256933,0.6632215,-0.1834905,0.125177,0.46478149999999996,-0.0954415,0.23632699999999998,0.6991115,-0.1636175,-0.300313,0.8641715,-0.2886765,0.275237,0.9131215,-0.2529665,-0.065765,-0.0005184999999999912,0.001840499999999995,0.065765,0.0005185000000000051,-0.0018405000000000088,-0.320693,-0.17966849999999998,-0.1291245,0.276767,-0.17887849999999997,-0.15526050000000002,-0.390023,-0.5009985,-0.0654585,0.367867,-0.5178685,-0.1139535
58,-0.0014195000000000006,0.660875,-0.15675899999999998,-0.1335545,0.455775,-0.10980899999999999,-0.2574845,0.660835,-0.19794799999999999,0.1239155,0.464155,-0.10633399999999998,0.2380055,0.6968449999999999,-0.178886,-0.3012245,0.866795,-0.30890799999999996,0.2775655,0.915865,-0.272538,-0.0660295,-0.0005050000000000054,0.0018510000000000054,0.0660295,0.0005050000000000054,-0.0018509999999999915,-0.3286345,-0.15996500000000002,-0.141736,0.2849855,-0.157655,-0.167821,-0.3895245,-0.48324500000000004,-0.07507499999999999,0.3694455,-0.49916499999999997,-0.12364699999999999
59,-0.0009944999999999989,0.6616299999999999,-0.168587,-0.1336935,0.45424,-0.122282,-0.2580835,0.65907,-0.212205,0.1229965,0.46526,-0.11709,0.2398665,0.6939200000000001,-0.193917,-0.3019735,0.86747,-0.329455,0.2800465,0.91753,-0.29256499999999996,-0.0662775,-0.0005000000000000004,0.0017149999999999943,0.0662775,0.0005000000000000004,-0.0017150000000000082,-0.3367535,-0.14176,-0.154085,0.2932965,-0.1367,-0.180122,-0.3889635,-0.46483,-0.084428,0.3708265,-0.48146000000000005,-0.132839
60,0.00033000000000000043,0.660265,-0.176025,-0.132269,0.45201499999999994,-0.1303,-0.25826899999999997,0.655735,-0.222655,0.122561,0.46326500000000004,-0.124356,0.242381,0.689675,-0.20500000000000002,-0.301749,0.864535,-0.345825,0.283011,0.917145,-0.308975,-0.066532,-0.00027499999999999747,0.0015050000000000063,0.066532,0.00027499999999999747,-0.0015050000000000063,-0.340199,-0.12535500000000002,-0.160641,0.301651,-0.11687499999999998,-0.187959,-0.387319,-0.44828499999999993,-0.088978,0.372521,-0.466175,-0.136539
61,0.0014190000000000019,0.6578200000000001,-0.18329499999999999,-0.13141599999999998,0.45187,-0.13803,-0.25858600000000004,0.6511800000000001,-0.2328,0.122514,0.46314,-0.131619,0.244784,0.68638,-0.21677000000000002,-0.301456,0.85867,-0.36149,0.28687399999999996,0.9092800000000001,-0.32472999999999996,-0.06633700000000001,-0.0003499999999999892,0.0014799999999999952,0.06633700000000001,0.00035000000000001696,-0.0014799999999999952,-0.344416,-0.10814999999999997,-0.167084,0.30564399999999997,-0.09681999999999996,-0.193469,-0.385906,-0.43217,-0.092923,0.373924,-0.44995999999999997,-0.139674
62,0.0023890000000000005,0.65538,-0.187884,-0.130583,0.45091,-0.143259,-0.259123,0.64874,-0.239695,0.122417,0.46232,-0.136515,0.247167,0.67826,-0.225025,-0.301103,0.8546199999999999,-0.373315,0.290487,0.90199,-0.336515,-0.06596099999999999,-0.0002600000000000102,0.001454999999999998,0.06596099999999999,0.00025999999999998247,-0.0014550000000000118,-0.34876300000000005,-0.09211000000000003,-0.17108700000000002,0.309397,-0.07849,-0.196754,-0.384483,-0.41736000000000006,-0.094378,0.37510699999999997,-0.43474,-0.140789
63,0.0030900000000000025,0.6535249999999999,-0.192173,-0.130057,0.450615,-0.147756,-0.25947699999999996,0.645755,-0.246195,0.122423,0.462275,-0.14119800000000002,0.249193,0.6715549999999999,-0.23272500000000002,-0.301007,0.851105,-0.38387499999999997,0.29363300000000003,0.8949149999999999,-0.347895,-0.065889,-7.50000000000195e-05,0.0013649999999999912,0.065889,7.499999999999174e-05,-0.001365000000000005,-0.352847,-0.07210500000000003,-0.174566,0.31233299999999997,-0.06035499999999999,-0.199743,-0.383327,-0.402125,-0.09563100000000001,0.37593299999999996,-0.41877500000000006,-0.141408
64,0.0035505000000000016,0.65141,-0.195784,-0.1302835,0.44936,-0.151344,-0.25971350000000004,0.64331,-0.25117,0.1222165,0.46213000000000004,-0.145466,0.2511565,0.66777,-0.23963,-0.30084350000000004,0.85067,-0.39357000000000003,0.2961165,0.89063,-0.35698,-0.0655975,-0.0005799999999999972,0.0013199999999999878,0.0655975,0.0005799999999999972,-0.0013200000000000017,-0.3566235,-0.06106,-0.17724700000000002,0.3147265,-0.04897999999999997,-0.20234400000000002,-0.3827435,-0.38981000000000005,-0.096351,0.37638649999999996,-0.40540000000000004,-0.142239
65,0.0038959999999999984,0.648785,-0.199605,-0.130501,0.447905,-0.155174,-0.259801,0.639445,-0.25588500000000003,0.121989,0.459565,-0.149785,0.252869,0.664105,-0.246575,-0.300271,0.8488549999999999,-0.40342500000000003,0.298699,0.880655,-0.365795,-0.06517099999999999,-0.00015500000000001624,0.001354999999999995,0.06517099999999999,0.00015499999999996072,-0.001355000000000009,-0.359221,-0.04934500000000003,-0.180343,0.316759,-0.03705500000000006,-0.20494,-0.382151,-0.376305,-0.096769,0.376889,-0.39112500000000006,-0.143734
66,0.0037075000000000007,0.645375,-0.20379000000000003,-0.1312275,0.447055,-0.159027,-0.2604075,0.6384449999999999,-0.26129,0.1212125,0.45735499999999996,-0.15415,0.2539625,0.658145,-0.25215,-0.2998675,0.843515,-0.41061000000000003,0.3009325,0.868875,-0.37366,-0.06519950000000001,-0.0002850000000000352,0.0014099999999999946,0.06519950000000001,0.0002849999999999797,-0.0014100000000000085,-0.36043749999999997,-0.03712500000000002,-0.183709,0.3175325,-0.025495000000000045,-0.20770100000000002,-0.3818375,-0.363475,-0.09726000000000001,0.3766625,-0.37651500000000004,-0.14536100000000002
67,0.0030105000000000028,0.64143,-0.207379,-0.1324275,0.44688000000000005,-0.162437,-0.2610975,0.6358900000000001,-0.26726500000000003,0.1200725,0.45546000000000003,-0.158716,0.2544525,0.65351,-0.256655,-0.3000975,0.83619,-0.416655,0.3026325,0.85658,-0.380505,-0.0649065,-0.00040999999999996595,0.001454999999999998,0.0649065,0.00041000000000002146,-0.001454999999999998,-0.3615275,-0.025870000000000004,-0.186944,0.3173725,-0.01466999999999996,-0.21041900000000002,-0.3817575,-0.35187,-0.097613,0.3761525,-0.36241999999999996,-0.14688800000000002
68,0.0025689999999999984,0.63788,-0.211078,-0.133366,0.44562999999999997,-0.166024,-0.261506,0.6323099999999999,-0.273525,0.119464,0.45294999999999996,-0.163181,0.255184,0.6467799999999999,-0.26049500000000003,-0.300476,0.82468,-0.42201500000000003,0.304664,0.84365,-0.38644500000000004,-0.064909,-0.0005500000000000504,0.0014250000000000096,0.064909,0.0005499999999999949,-0.0014249999999999957,-0.361866,-0.013430000000000053,-0.190135,0.317174,-0.0026700000000000057,-0.213169,-0.381006,-0.3391700000000001,-0.09819,0.375874,-0.34687,-0.14840599999999998
69,0.0021204999999999974,0.63507,-0.21500599999999997,-0.13430250000000002,0.44352,-0.169738,-0.2626825,0.62903,-0.27915,0.1189875,0.4516800000000001,-0.16752099999999998,0.2563075,0.64096,-0.26419,-0.3008025,0.8149900000000001,-0.42727,0.30694750000000004,0.83165,-0.39136,-0.0649595,-0.0008599999999999719,0.0013900000000000023,0.0649595,0.0008600000000000274,-0.0013900000000000023,-0.3620425,-0.0007399999999999629,-0.193255,0.3170275,0.009650000000000047,-0.215949,-0.3800125,-0.32609,-0.09888,0.37543750000000004,-0.33085999999999993,-0.150334
70,0.0016514999999999967,0.6313,-0.21885699999999997,-0.1350665,0.44306999999999996,-0.172616,-0.2638565,0.62494,-0.283355,0.1186835,0.4501,-0.17109,0.2573735,0.63225,-0.26651499999999995,-0.3011565,0.80661,-0.432135,0.30831349999999996,0.8242700000000001,-0.395565,-0.0652385,-0.0010100000000000109,0.0011850000000000194,0.0652385,0.0010100000000000109,-0.0011849999999999916,-0.3622165,0.009909999999999974,-0.195569,0.3168935,0.01973999999999998,-0.21776799999999996,-0.3790965,-0.31406999999999996,-0.09985699999999999,0.3748235,-0.31772999999999996,-0.151741
71,0.0009675000000000031,0.62793,-0.22263700000000003,-0.1358045,0.441814,-0.175544,-0.2652045,0.62103,-0.28702000000000005,0.1182155,0.44720799999999994,-0.174705,0.2584355,0.6278699999999999,-0.26853000000000005,-0.30191450000000003,0.79854,-0.43663,0.3095555,0.8166,-0.39925,-0.0655125,-0.0011900000000000244,0.0009699999999999986,0.0655125,0.0011899999999999689,-0.0009699999999999986,-0.3625645,0.020549999999999957,-0.197553,0.3165455,0.029269999999999963,-0.21919100000000002,-0.3782445,-0.3024,-0.10078800000000002,0.3739055,-0.30510000000000004,-0.153229
72,0.00019750000000000323,0.62456,-0.22589299999999998,-0.1365265,0.44134399999999996,-0.17804599999999998,-0.26654649999999996,0.61678,-0.2899,0.1177135,0.44635899999999995,-0.17723799999999998,0.2598035,0.6251,-0.27014,-0.3031465,0.79036,-0.44048,0.3110335,0.8060499999999999,-0.40173,-0.0658455,-0.0013299999999999979,0.0008400000000000074,0.0658455,0.0013299999999999979,-0.0008399999999999797,-0.3623665,0.030179999999999985,-0.198635,0.31604350000000003,0.0383,-0.21992699999999998,-0.3774165,-0.29153,-0.10128599999999999,0.3727935,-0.29334,-0.15434399999999998
73,-0.0010229999999999979,0.62115,-0.22952899999999998,-0.137574,0.440427,-0.180248,-0.268524,0.6127,-0.29307,0.116856,0.443411,-0.179735,0.260406,0.62199,-0.2717,-0.30522400000000005,0.78318,-0.44319,0.312056,0.79704,-0.4041,-0.066085,-0.0011700000000000044,0.0007800000000000029,0.066085,0.0011700000000000044,-0.0007800000000000029,-0.36189400000000005,0.039419999999999955,-0.19938899999999998,0.314526,0.04681999999999997,-0.220426,-0.37694399999999995,-0.28147,-0.10170799999999999,0.37120600000000004,-0.28232999999999997,-0.15546
74,-0.0019159999999999976,0.61755,-0.23272500000000002,-0.138437,0.440082,-0.181856,-0.270007,0.60881,-0.295465,0.116233,0.44268599999999997,-0.181965,0.261593,0.6182099999999999,-0.273455,-0.307517,0.77645,-0.44352499999999995,0.313033,0.79442,-0.406195,-0.066273,-0.0012099999999999889,0.0007149999999999934,0.066273,0.0012099999999999889,-0.0007149999999999934,-0.361127,0.047119999999999995,-0.199944,0.312933,0.053279999999999994,-0.221019,-0.376507,-0.27364,-0.102009,0.369613,-0.27359,-0.156453
75,-0.002866999999999998,0.61609,-0.23531000000000002,-0.139293,0.43999099999999997,-0.18300000000000002,-0.270903,0.60796,-0.29623,0.115767,0.441285,-0.183648,0.262187,0.61702,-0.27627,-0.310263,0.77434,-0.44368,0.313667,0.79569,-0.40844,-0.066469,-0.0011400000000000299,0.0007199999999999984,0.066469,0.0011399999999999744,-0.0007200000000000262,-0.359933,0.05290999999999996,-0.20038100000000003,0.31121699999999997,0.057579999999999965,-0.22149800000000003,-0.376443,-0.26807000000000003,-0.10219800000000001,0.368017,-0.26757,-0.157231
76,-0.0034924999999999973,0.614385,-0.23805500000000002,-0.13973950000000002,0.439461,-0.183945,-0.2712795,0.605835,-0.29661499999999996,0.1156605,0.44054299999999996,-0.184912,0.2628805,0.616435,-0.278725,-0.3132295,0.7733049999999999,-0.443885,0.3147405,0.7953250000000001,-0.41103500000000004,-0.0665935,-0.0009149999999999991,0.0007449999999999957,0.0665935,0.0009149999999999991,-0.0007449999999999957,-0.3583195,0.056064999999999976,-0.200909,0.3098705,0.059014999999999984,-0.22203499999999998,-0.3762995,-0.265265,-0.102441,0.3667705,-0.26461500000000004,-0.158035
77,-0.004138499999999998,0.613405,-0.240705,-0.14034449999999998,0.439274,-0.184651,-0.27200450000000004,0.605875,-0.297165,0.1158155,0.440068,-0.186345,0.26402549999999997,0.616475,-0.28129499999999996,-0.3165945,0.773345,-0.444175,0.31547549999999996,0.7953650000000001,-0.413945,-0.0666385,-0.0008749999999999591,0.0007949999999999902,0.0666385,0.0008750000000000147,-0.0007949999999999902,-0.3573945,0.056105000000000016,-0.200742,0.3085555,0.057585,-0.222646,-0.3764945,-0.265875,-0.102766,0.3656455,-0.264965,-0.158586
78,-0.0049999999999999975,0.613405,-0.24278499999999997,-0.140959,0.439274,-0.185266,-0.272809,0.605875,-0.297675,0.115801,0.440068,-0.187465,0.264491,0.616475,-0.283705,-0.320229,0.773345,-0.443775,0.314591,0.7953650000000001,-0.416205,-0.066628,-0.0008749999999999591,0.0007950000000000179,0.066628,0.0008750000000000147,-0.0007949999999999902,-0.356839,0.056105000000000016,-0.199867,0.307141,0.05649500000000002,-0.223217,-0.377079,-0.26619499999999996,-0.10323399999999999,0.364481,-0.26534499999999994,-0.159098
79,-0.005752999999999999,0.613405,-0.24433499999999997,-0.141637,0.439274,-0.18613999999999997,-0.274237,0.605875,-0.29784499999999997,0.116193,0.440068,-0.18885199999999996,0.264233,0.616475,-0.285895,-0.323947,0.773345,-0.44204499999999997,0.313153,0.7953650000000001,-0.41816499999999995,-0.066414,-0.0008749999999999591,0.0009050000000000169,0.066414,0.0008750000000000147,-0.0009049999999999891,-0.356737,0.056105000000000016,-0.19880299999999998,0.305793,0.055925,-0.22394499999999998,-0.378017,-0.26627499999999993,-0.10333399999999998,0.363203,-0.265455,-0.159652
80,-0.005585500000000002,0.61332,-0.24522000000000002,-0.14131950000000001,0.439189,-0.18639700000000003,-0.27485950000000003,0.6069,-0.2965,0.1171805,0.439983,-0.18960900000000003,0.2638105,0.62063,-0.28711000000000003,-0.3258495,0.78049,-0.44016000000000005,0.3127605,0.79854,-0.41923000000000005,-0.0661185,-0.0007899999999999574,0.0009299999999999864,0.0661185,0.0007900000000000129,-0.0009300000000000141,-0.35678950000000004,0.05623,-0.19704100000000002,0.3054305,0.05584,-0.22429900000000003,-0.3783095,-0.26635999999999993,-0.10270400000000002,0.3627105,-0.26554,-0.15954500000000002
81,-0.0053355000000000034,0.613405,-0.24596500000000002,-0.1406665,0.43922300000000003,-0.18662600000000001,-0.27559649999999997,0.607305,-0.294755,0.1182435,0.439894,-0.19071300000000002,0.2643035,0.6229450000000001,-0.288995,-0.3274665,0.786805,-0.43857500000000005,0.3123435,0.8034950000000001,-0.419875,-0.06572449999999999,-0.0007249999999999757,0.0009549999999999836,0.06572449999999999,0.0007250000000000312,-0.0009550000000000114,-0.3570465,0.05396500000000004,-0.19515200000000002,0.30500350000000004,0.053095,-0.22480500000000003,-0.3786565,-0.2691049999999999,-0.10215300000000002,0.3623035,-0.268285,-0.159396
82,-0.0050875000000000035,0.61425,-0.246015,-0.14009749999999999,0.438924,-0.18691000000000002,-0.27603750000000005,0.60901,-0.292835,0.1193125,0.440242,-0.19092,0.26375249999999995,0.6269100000000001,-0.289955,-0.32915750000000005,0.79329,-0.43666499999999997,0.31177249999999995,0.80828,-0.41983499999999996,-0.0651335,-0.0007300000000000084,0.0009149999999999991,0.0651335,0.0007300000000000084,-0.0009149999999999991,-0.3572175,0.049460000000000004,-0.193333,0.3043825,0.047839999999999994,-0.225404,-0.37920750000000003,-0.27435999999999994,-0.101791,0.36173249999999996,-0.27354,-0.159305
83,-0.004543500000000001,0.61693,-0.24585,-0.1393575,0.43926499999999996,-0.18685100000000002,-0.27668750000000003,0.61054,-0.29022000000000003,0.1196925,0.44162199999999996,-0.19166700000000003,0.26294249999999997,0.6309899999999999,-0.28963000000000005,-0.3301775,0.7999099999999999,-0.43264,0.3109625,0.81742,-0.41951,-0.0648075,-0.00048000000000003595,0.0011199999999999821,0.0648075,0.00047999999999998044,-0.0011200000000000099,-0.3574775,0.041769999999999974,-0.19122300000000003,0.3035825,0.03921999999999998,-0.22584100000000001,-0.38042750000000003,-0.2833800000000001,-0.10119200000000002,0.3609225,-0.2829900000000001,-0.158927
84,-0.0040294999999999975,0.6204449999999999,-0.24529499999999999,-0.1385895,0.44059,-0.186255,-0.2769195,0.6142449999999999,-0.286945,0.1197405,0.44360099999999997,-0.192101,0.2619205,0.639305,-0.288965,-0.3309095,0.8079449999999999,-0.427425,0.3092005,0.828235,-0.418665,-0.0644855,-0.0002449999999999952,0.001375000000000015,0.0644855,0.0002449999999999952,-0.0013749999999999873,-0.3575895,0.032584999999999975,-0.189193,0.3023805,0.02919499999999997,-0.22572799999999998,-0.3820195,-0.294235,-0.100238,0.3599405,-0.294485,-0.158219
85,-0.0033999999999999968,0.62726,-0.242375,-0.137501,0.44427000000000005,-0.18356500000000003,-0.27625099999999997,0.62076,-0.28039500000000006,0.120249,0.44648800000000005,-0.19018600000000002,0.26061900000000005,0.64709,-0.28591500000000003,-0.331321,0.8186100000000001,-0.41792500000000005,0.30757900000000005,0.8372200000000001,-0.41225500000000004,-0.064157,-2.999999999997449e-05,0.0015949999999999853,0.064157,3.0000000000030003e-05,-0.001595000000000013,-0.35756099999999996,0.01821000000000006,-0.18467400000000003,0.30135900000000004,0.014020000000000032,-0.22342500000000004,-0.38375099999999995,-0.3113,-0.09710900000000003,0.359159,-0.31294,-0.15527100000000002
86,-0.002636000000000002,0.6335950000000001,-0.23813,-0.13653200000000001,0.4467150000000001,-0.179367,-0.27445200000000003,0.629055,-0.2716,0.12071799999999999,0.4490350000000001,-0.186688,0.258958,0.653915,-0.28129,-0.33153200000000005,0.8298350000000001,-0.40606,0.30564800000000003,0.848075,-0.40354,-0.063805,5.500000000002725e-05,0.0017399999999999916,0.063805,-5.499999999997174e-05,-0.0017399999999999916,-0.357372,0.00026500000000007073,-0.17857499999999998,0.30051799999999995,-0.004244999999999943,-0.219818,-0.38607199999999997,-0.33181499999999997,-0.092753,0.35857799999999995,-0.3356549999999999,-0.15107199999999998
87,-0.001791500000000004,0.63996,-0.23285499999999998,-0.1353355,0.45037,-0.174128,-0.2731555,0.63637,-0.26226499999999997,0.1213445,0.45079,-0.182078,0.2573745,0.6620699999999999,-0.273695,-0.33163549999999997,0.84481,-0.39288500000000004,0.3034545,0.85973,-0.391655,-0.0635465,0.00031999999999998696,0.0018550000000000094,0.0635465,-0.00032000000000004247,-0.0018549999999999955,-0.35754549999999996,-0.017340000000000022,-0.171481,0.29981450000000004,-0.022350000000000037,-0.215077,-0.3882255,-0.35270999999999997,-0.087449,0.3580245,-0.35833000000000004,-0.145946
88,-0.0011704999999999966,0.64679,-0.226115,-0.1343405,0.45358999999999994,-0.16784,-0.27269049999999995,0.64503,-0.251235,0.1214395,0.45441999999999994,-0.176007,0.2558095,0.66883,-0.264665,-0.33160049999999996,0.85737,-0.378845,0.3015295,0.8758699999999999,-0.37829499999999994,-0.0630805,0.00023999999999996247,0.0020050000000000068,0.0630805,-0.00024000000000001798,-0.002004999999999993,-0.35756049999999995,-0.03441000000000005,-0.163258,0.29905950000000003,-0.04034000000000004,-0.20913199999999998,-0.3903605,-0.3738600000000001,-0.08101899999999998,0.35750950000000004,-0.3809100000000001,-0.139701
89,-0.0002705000000000012,0.653995,-0.21826,-0.1335385,0.457885,-0.160629,-0.2720585,0.6515150000000001,-0.23961,0.1217615,0.45738500000000004,-0.169182,0.2557015,0.6743950000000001,-0.25407,-0.3307785,0.8681650000000001,-0.36241999999999996,0.30023150000000004,0.887875,-0.36356999999999995,-0.0623885,0.0003049999999999997,0.00204,0.0623885,-0.0003049999999999997,-0.00204,-0.3569885,-0.05156499999999997,-0.154003,0.2979815,-0.05838500000000002,-0.20196,-0.3920185,-0.394715,-0.073845,0.3570915,-0.40321500000000005,-0.132575
90,0.0009960000000000014,0.6602,-0.209656,-0.13267400000000001,0.46184000000000003,-0.152661,-0.270324,0.6621900000000001,-0.227586,0.12249600000000001,0.45885,-0.161465,0.256276,0.68014,-0.242726,-0.329264,0.87896,-0.344746,0.300376,0.89672,-0.347996,-0.062266,0.0004599999999999882,0.0021779999999999994,0.062266,-0.00046000000000001595,-0.0021779999999999994,-0.355014,-0.06834000000000001,-0.14400000000000002,0.296886,-0.07649,-0.19398100000000001,-0.392434,-0.41538,-0.066309,0.35703599999999996,-0.42539,-0.12496
91,0.002689500000000002,0.66792,-0.20048850000000001,-0.1314045,0.46692,-0.14429150000000002,-0.2680345,0.6727,-0.2152585,0.12347549999999999,0.46257000000000004,-0.1532435,0.2563455,0.68924,-0.2306385,-0.3271945,0.89048,-0.3259085,0.3010755,0.90644,-0.3308085,-0.062266499999999995,0.0005499999999999949,0.002194500000000002,0.062266499999999995,-0.0005499999999999949,-0.002194500000000002,-0.3520845,-0.08398999999999998,-0.1335025,0.2956055,-0.09356,-0.18558449999999999,-0.39255450000000003,-0.43467999999999996,-0.0587645,0.3572255,-0.44626,-0.1174125
92,0.0037634999999999977,0.6734850000000001,-0.1916915,-0.1304955,0.470495,-0.1363915,-0.2656555,0.682175,-0.2032915,0.12449450000000001,0.466105,-0.14531149999999998,0.2557745,0.6979949999999999,-0.2186515,-0.3256155,0.9005749999999999,-0.3074215,0.3018445,0.910555,-0.31326149999999997,-0.0622505,0.0004949999999999954,0.0020445000000000046,0.0622505,-0.0004949999999999954,-0.0020444999999999908,-0.3479555,-0.098325,-0.1232735,0.2930845,-0.10938500000000001,-0.1774775,-0.3925055,-0.451965,-0.05178649999999999,0.3573045,-0.464915,-0.11043049999999999
93,0.005061499999999998,0.67787,-0.1817955,-0.1296805,0.47189000000000003,-0.1269615,-0.2636305,0.68797,-0.1886055,0.1255595,0.46690000000000004,-0.13575150000000002,0.2559195,0.7001299999999999,-0.2052155,-0.3240605,0.90757,-0.28634550000000003,0.30249950000000003,0.9129400000000001,-0.2932155,-0.062102500000000005,0.0004300000000000137,0.0018055000000000015,0.062102500000000005,-0.00042999999999998595,-0.0018055000000000015,-0.34115049999999997,-0.11487999999999998,-0.11156150000000001,0.28890950000000004,-0.12762999999999997,-0.16780650000000003,-0.39238049999999997,-0.47091,-0.043757500000000005,0.3572695,-0.48535,-0.1028415
94,0.006135999999999998,0.680015,-0.1737655,-0.129202,0.471125,-0.1192245,-0.261732,0.691675,-0.1756255,0.126238,0.466725,-0.1279835,0.255808,0.7018850000000001,-0.1935655,-0.322832,0.913735,-0.2678755,0.302688,0.916385,-0.2781455,-0.062084,0.0003449999999999981,0.001632500000000009,0.062084,-0.0003449999999999981,-0.001632499999999995,-0.334032,-0.127455,-0.1022635,0.283858,-0.14148500000000003,-0.1599835,-0.392482,-0.484725,-0.037592499999999994,0.356778,-0.499785,-0.0971235
95,0.007003500000000001,0.68284,-0.1664515,-0.1287455,0.47103,-0.1119045,-0.2600655,0.69324,-0.1645915,0.1269045,0.46548,-0.1210195,0.2561345,0.70385,-0.1830315,-0.3220055,0.91909,-0.2521015,0.3028345,0.9179700000000001,-0.2638815,-0.0621035,0.0002500000000000002,0.001619499999999996,0.0621035,-0.0002500000000000002,-0.0016195000000000029,-0.3263755,-0.13730000000000003,-0.0945685,0.2781245,-0.15278999999999998,-0.1526785,-0.3926055,-0.49556999999999995,-0.032093500000000004,0.3561045,-0.51058,-0.09219050000000001
96,0.007842,0.684656,-0.1596235,-0.12827000000000002,0.470426,-0.1051915,-0.25891000000000003,0.694466,-0.1537135,0.12802,0.46704599999999996,-0.1147035,0.25594,0.706036,-0.1735135,-0.32107,0.9216260000000001,-0.2364535,0.30289,0.924826,-0.2512935,-0.062142,5.8000000000002494e-05,0.0015195,0.062142,-5.8000000000002494e-05,-0.0015195,-0.31799,-0.148194,-0.0875405,0.27213,-0.16468400000000002,-0.1454725,-0.39211,-0.506384,-0.026795499999999996,0.35533,-0.5218539999999999,-0.0875895
97,0.008624000000000003,0.685831,-0.15321200000000001,-0.12791,0.47236100000000003,-0.099177,-0.25796,0.693601,-0.143652,0.12896000000000002,0.468961,-0.10956099999999999,0.25561999999999996,0.707981,-0.16420200000000001,-0.32024,0.9242710000000001,-0.221482,0.30274999999999996,0.926011,-0.238882,-0.062184,-5.099999999999549e-05,0.0015060000000000004,0.062184,5.099999999999549e-05,-0.0015060000000000004,-0.30922,-0.15996900000000003,-0.080981,0.26544,-0.17679899999999998,-0.138383,-0.39078,-0.517439,-0.021974,0.3538,-0.533019,-0.083244
98,0.0094385,0.6871585,-0.147125,-0.12727349999999998,0.47314849999999997,-0.09382099999999999,-0.2578935,0.6930985,-0.133704,0.1300365,0.4713885,-0.10442799999999999,0.2556065,0.7088385,-0.155495,-0.3194935,0.9254585,-0.208045,0.3028465,0.9284285,-0.227005,-0.0620395,-0.00016350000000000392,0.0015200000000000005,0.0620395,0.00016349999999999698,-0.0015200000000000005,-0.3004835,-0.1712315,-0.074762,0.2587365,-0.1881415,-0.131615,-0.3885535,-0.5280415,-0.017545999999999996,0.3521765,-0.5434815,-0.079424
99,0.010157500000000002,0.689131,-0.141235,-0.1267765,0.475091,-0.08879100000000001,-0.25801650000000004,0.6953710000000001,-0.12386,0.1308935,0.474801,-0.09936500000000001,0.25574349999999996,0.7129810000000001,-0.146485,-0.3186465,0.9281710000000001,-0.194365,0.3031735,0.932061,-0.21446500000000002,-0.0617895,-0.00032000000000000084,0.0014869999999999953,0.0617895,0.00032000000000000084,-0.0014870000000000022,-0.2919165,-0.182199,-0.068685,0.2513235,-0.19903900000000002,-0.12452,-0.38550650000000003,-0.538149,-0.013168000000000003,0.35006349999999997,-0.553399,-0.075091
100,0.011168,0.690264,-0.1358745,-0.12612299999999999,0.47560399999999997,-0.0837195,-0.257643,0.696804,-0.1144805,0.132217,0.476524,-0.0945935,0.25626699999999997,0.7154739999999999,-0.13773449999999998,-0.317303,0.930154,-0.18140450000000002,0.30382699999999996,0.935244,-0.20283450000000003,-0.06197999999999999,-0.00047600000000000073,0.001527500000000001,0.06197999999999999,0.00047600000000000073,-0.001527500000000001,-0.28282300000000005,-0.196386,-0.0629865,0.244117,-0.21322600000000003,-0.1173645,-0.381603,-0.552336,-0.0089195,0.34796699999999997,-0.5661660000000001,-0.07041449999999999
101,0.0122105,0.6918655,-0.1308415,-0.12549949999999999,0.47779550000000004,-0.0788935,-0.2573095,0.6996955,-0.1056575,0.1336405,0.4778255,-0.0901845,0.2569305,0.7180355,-0.1293915,-0.31581950000000003,0.9327955,-0.1693715,0.3046905,0.9395555,-0.19149149999999998,-0.0623035,-0.0007585000000000005,0.0016145000000000014,0.0623035,0.0007585000000000005,-0.0016144999999999979,-0.2739495,-0.2087645,-0.057652499999999995,0.2374305,-0.2256045,-0.1104705,-0.3777295,-0.5647145,-0.004973499999999999,0.3457105,-0.5779145,-0.06603049999999999
102,0.012794000000000003,0.6940014999999999,-0.1270735,-0.12516499999999997,0.4805215,-0.0754295,-0.256615,0.7046215,-0.09990450000000001,0.134905,0.4815615,-0.08704049999999999,0.257535,0.7227915,-0.1229105,-0.314505,0.9369315,-0.1600935,0.30506500000000003,0.9466615,-0.18269349999999998,-0.062557,-0.0011095000000000002,0.0016525000000000012,0.062557,0.0011094999999999998,-0.0016524999999999977,-0.26680499999999996,-0.2167285,-0.0539805,0.23128500000000002,-0.2335685,-0.1045375,-0.374615,-0.5726785000000001,-0.0022234999999999963,0.342955,-0.5853984999999999,-0.0629045
103,0.0134685,0.6931984999999999,-0.117937,-0.12468849999999998,0.48289849999999995,-0.066701,-0.2560085,0.7073085,-0.089429,0.13630150000000002,0.4840885,-0.078755,0.2581215,0.7258585,-0.111447,-0.3127685,0.9386785,-0.145764,0.3050815,0.9508485,-0.16897399999999999,-0.0630725,-0.0009194999999999993,0.0014260000000000002,0.0630725,0.0009195000000000002,-0.0014260000000000002,-0.2570385,-0.23090149999999998,-0.042763,0.2247715,-0.2466715,-0.090503,-0.37114850000000005,-0.5824015,0.008060999999999999,0.3404615,-0.5949515,-0.05353000000000001
104,0.0141245,0.6919775,-0.1090815,-0.12420050000000002,0.48473750000000004,-0.0582405,-0.2553905,0.7100175,-0.0794755,0.1377195,0.4872375,-0.0703195,0.2585195,0.7291775,-0.1007025,-0.3110605,0.9402875,-0.1322565,0.3047495,0.9531775,-0.1558465,-0.06353149999999999,-0.0006084999999999997,0.0010865000000000007,0.06353149999999999,0.0006085000000000014,-0.0010865000000000007,-0.2478805,-0.2454225,-0.0317775,0.2186395,-0.2601925,-0.07678850000000001,-0.3677005,-0.5925525,0.0183335,0.3379495,-0.6041624999999999,-0.043914499999999995
105,0.014696499999999998,0.6906019999999999,-0.1004275,-0.12384250000000001,0.48573199999999994,-0.0499535,-0.25472249999999996,0.712982,-0.0702095,0.1387375,0.488522,-0.0620725,0.2590675,0.730712,-0.0901615,-0.3093825,0.938842,-0.1198495,0.3045775,0.9480919999999999,-0.1431395,-0.0637065,-0.0003259999999999999,0.0006684999999999998,0.0637065,0.0003259999999999999,-0.0006685000000000003,-0.2399325,-0.260168,-0.0210215,0.2131075,-0.273718,-0.0635385,-0.3638325,-0.599168,0.0286335,0.3355075,-0.612878,-0.033627500000000005
106,0.015237999999999998,0.6895315,-0.092238,-0.12347999999999999,0.4847015,-0.042016,-0.25412999999999997,0.7164615,-0.06138300000000001,0.13962000000000002,0.48749149999999997,-0.054201,0.25963,0.7323215,-0.080323,-0.30759,0.9371415,-0.107676,0.30452,0.9447515,-0.130796,-0.06378,8.550000000000224e-05,0.0002409999999999999,0.06378,-8.549999999999877e-05,-0.0002409999999999999,-0.23321999999999998,-0.2731885,-0.010803,0.20852,-0.28608849999999997,-0.05064,-0.3608,-0.6048385000000001,0.038775,0.33396000000000003,-0.6203385,-0.023542
107,0.0157915,0.688097,-0.0845,-0.12307649999999998,0.483867,-0.034451,-0.2539565,0.7205870000000001,-0.05272400000000001,0.1405535,0.486867,-0.046466,0.2604735,0.7338370000000001,-0.07104200000000001,-0.3057065,0.935727,-0.095929,0.30449350000000003,0.941837,-0.11882899999999999,-0.06381049999999999,0.0004249999999999948,-0.00019300000000000046,0.06381049999999999,-0.00042500000000000177,0.00019300000000000046,-0.22709649999999998,-0.28569300000000003,-0.0010229999999999996,0.20426350000000001,-0.298083,-0.037533000000000004,-0.3574065,-0.6093930000000001,0.048736999999999996,0.3326735,-0.6276330000000001,-0.013304000000000002
108,0.016440499999999997,0.6859394999999999,-0.077012,-0.12271949999999998,0.48263949999999994,-0.027237,-0.25365950000000004,0.7185794999999999,-0.044212,0.1415505,0.4862895,-0.039220000000000005,0.2610805,0.7327395000000001,-0.062774,-0.3039095,0.9334095,-0.085477,0.30463049999999997,0.9386295,-0.108447,-0.0639315,0.0008535000000000001,-0.0004949999999999989,0.0639315,-0.0008535000000000001,0.0004949999999999989,-0.2217495,-0.2978405,0.008312,0.2007005,-0.3097105,-0.024519000000000003,-0.35473950000000004,-0.6137005,0.058684,0.3319005,-0.6347605000000001,-0.003032
109,0.0171875,0.6834790000000001,-0.0694785,-0.12256349999999999,0.481419,-0.0199275,-0.2532335,0.716299,-0.035803499999999995,0.1425865,0.48513899999999993,-0.0319295,0.26190650000000004,0.730939,-0.054453499999999995,-0.3019035,0.9307190000000001,-0.0756925,0.3051665,0.9352790000000001,-0.09835250000000001,-0.0641285,0.0012579999999999952,-0.0007744999999999974,0.0641285,-0.0012580000000000022,0.0007745000000000009,-0.2168935,-0.30984100000000003,0.0177565,0.1978265,-0.321481,-0.011782499999999994,-0.3522335,-0.618131,0.0692305,0.3317665,-0.6423209999999999,0.007384500000000002
110,0.017794499999999998,0.6810320000000001,-0.061982999999999996,-0.12247449999999999,0.47979199999999994,-0.012734000000000002,-0.25273450000000003,0.713542,-0.028027999999999997,0.1438355,0.48404200000000003,-0.024731000000000003,0.2628755,0.729642,-0.046273999999999996,-0.30020450000000004,0.928802,-0.067689,0.3060555,0.9318420000000001,-0.089069,-0.0643955,0.0017549999999999996,-0.0010949999999999988,0.0643955,-0.0017549999999999996,0.0010949999999999988,-0.2129145,-0.321438,0.026854,0.19560550000000002,-0.332808,0.0004159999999999997,-0.34976450000000003,-0.6229279999999999,0.079102,0.33185549999999997,-0.649818,0.017477
111,0.0182215,0.6788995,-0.054743,-0.12255650000000001,0.4784995,-0.005705999999999996,-0.2521365,0.7105395000000001,-0.021279,0.1449335,0.4823795,-0.017849999999999998,0.2638535,0.7278495,-0.03834499999999999,-0.2986665,0.9263695000000001,-0.06132499999999999,0.3070235,0.9288194999999999,-0.080135,-0.0647335,0.002311500000000001,-0.0013139999999999957,0.0647335,-0.002311499999999994,0.0013140000000000027,-0.2099665,-0.3323105,0.035505,0.1941235,-0.3433905,0.011520000000000002,-0.3473865,-0.6266105,0.08856,0.3324135,-0.6566805,0.026870000000000005
112,0.018509,0.6788075,-0.0530625,-0.122579,0.47790750000000004,-0.004551500000000007,-0.251819,0.7098075,-0.0203785,0.14580100000000001,0.4828675,-0.016409500000000007,0.264691,0.7272575,-0.036139500000000005,-0.29761899999999997,0.9256375,-0.06048450000000001,0.30776099999999995,0.9280875,-0.0773045,-0.065083,0.0023385000000000003,-0.0013215000000000032,0.065083,-0.0023385000000000003,0.0013214999999999963,-0.209369,-0.3332625,0.036385499999999994,0.193311,-0.34460250000000003,0.014192499999999997,-0.346129,-0.6272225,0.09014549999999999,0.33274099999999995,-0.6584625000000001,0.029631499999999998
113,0.018992499999999995,0.6787935,-0.051883,-0.12253349999999999,0.47765350000000006,-0.003837,-0.2515335,0.7095035000000001,-0.019778999999999998,0.14656650000000002,0.48324350000000005,-0.015392000000000003,0.26572650000000003,0.7269535,-0.033928,-0.2964235,0.9253335,-0.059951000000000004,0.3085065,0.9277835,-0.075551,-0.0654305,0.0023584999999999995,-0.001459000000000002,0.0654305,-0.0023584999999999995,0.001459000000000002,-0.2087135,-0.3336665,0.036959,0.1923965,-0.34535649999999996,0.016453,-0.3463635,-0.6296864999999999,0.091665,0.3331165,-0.6597765,0.031717
114,0.019792999999999998,0.6788835,-0.051548500000000004,-0.12215599999999999,0.47765350000000006,-0.003647499999999998,-0.250986,0.7095035000000001,-0.0196015,0.147414,0.48370350000000006,-0.0148275,0.266884,0.7269535,-0.032264499999999995,-0.295186,0.9253335,-0.0600805,0.309414,0.9277835,-0.0749705,-0.06566,0.0023584999999999995,-0.0013755000000000017,0.06566,-0.0023584999999999995,0.0013755000000000017,-0.207926,-0.33376649999999997,0.0371195,0.191504,-0.34581649999999997,0.0180545,-0.346976,-0.6327165,0.09274850000000001,0.333634,-0.6608364999999999,0.033009500000000004
115,0.0208295,0.6788835,-0.0516225,-0.12111949999999999,0.47765350000000006,-0.0037214999999999956,-0.2502495,0.7087035,-0.020218499999999993,0.1485205,0.48370350000000006,-0.014906499999999996,0.2685605,0.7269535,-0.0316415,-0.29394950000000003,0.9229535,-0.0627645,0.3114905,0.9267635000000001,-0.0751145,-0.0656845,0.0023584999999999995,-0.0013734999999999997,0.0656845,-0.0023584999999999995,0.0013735000000000067,-0.2077995,-0.33376649999999997,0.0370245,0.1917605,-0.3464465,0.018036500000000004,-0.3456895,-0.6302165,0.0926565,0.3346905,-0.6617065,0.0332565
116,0.021938000000000003,0.6788835,-0.05170150000000001,-0.12001099999999998,0.47765350000000006,-0.0038005000000000053,-0.24967099999999998,0.7070735,-0.02196150000000001,0.149699,0.48370350000000006,-0.014990500000000004,0.271059,0.7251335,-0.0308205,-0.29279099999999997,0.9196635,-0.0669735,0.314649,0.9248935,-0.07534350000000001,-0.06562899999999999,0.0023584999999999995,-0.0013775000000000037,0.06562899999999999,-0.0023584999999999995,0.0013774999999999968,-0.207681,-0.33376649999999997,0.036845499999999996,0.192869,-0.3470665,0.017957499999999994,-0.34458099999999997,-0.6302165,0.0925775,0.335859,-0.6627865,0.033173499999999995
117,0.022698000000000003,0.6789795,-0.0517625,-0.119432,0.4774695,-0.004068500000000003,-0.25058199999999997,0.7045895,-0.024900500000000006,0.150378,0.48379950000000005,-0.015046499999999997,0.274668,0.7208695,-0.0297805,-0.292302,0.9159095,-0.0734125,0.318488,0.9227595,-0.0756225,-0.065418,0.0023794999999999997,-0.0013854999999999978,0.065418,-0.0023794999999999997,0.0013854999999999978,-0.208162,-0.3336705,0.0366635,0.19345800000000002,-0.3478505,0.0179085,-0.34399199999999996,-0.6292205,0.0925285,0.336818,-0.6644504999999999,0.0330975
118,0.0251455,0.679234,-0.055940500000000004,-0.11897849999999999,0.475744,-0.009885500000000005,-0.2585085,0.690764,-0.03571350000000001,0.1519115,0.484084,-0.017369500000000003,0.2847215,0.7011240000000001,-0.0309715,-0.2917985,0.897794,-0.0920505,0.3336515,0.900074,-0.0822205,-0.06542049999999999,0.0026279999999999984,-0.001416500000000001,0.06542049999999999,-0.0026279999999999984,0.0014164999999999942,-0.2096485,-0.331426,0.0331135,0.19330150000000001,-0.347036,0.015695499999999998,-0.3444985,-0.6267659999999999,0.0894375,0.33702150000000003,-0.6635559999999999,0.0315875
119,0.028978499999999997,0.6786355000000001,-0.06043799999999999,-0.1180745,0.47355549999999996,-0.015934999999999998,-0.2620345,0.6752255,-0.04604,0.1539555,0.4831855,-0.020377999999999993,0.2970155,0.6777255000000001,-0.03192099999999999,-0.2893945,0.8765355,-0.11390299999999999,0.3521355,0.8721255,-0.088633,-0.0654155,0.0027215000000000017,-0.001347999999999995,0.0654155,-0.0027215000000000017,0.001348000000000002,-0.2099445,-0.3284045,0.028993000000000005,0.1932355,-0.3450945,0.012467000000000006,-0.3451345,-0.6231844999999999,0.086249,0.3372655,-0.6610744999999999,0.029932000000000007
120,0.034074499999999994,0.678412,-0.0649315,-0.11554550000000001,0.47029200000000004,-0.0220435,-0.2626255,0.653352,-0.0542465,0.15703450000000002,0.482232,-0.022752500000000002,0.31190450000000003,0.650852,-0.03152050000000001,-0.28577549999999996,0.848272,-0.13586150000000002,0.3744845,0.839522,-0.0949715,-0.0654145,0.0028810000000000016,-0.0013374999999999984,0.0654145,-0.0028809999999999947,0.0013374999999999984,-0.2102255,-0.32362799999999997,0.0250155,0.1950345,-0.341738,0.007710499999999999,-0.34700549999999997,-0.622208,0.0828965,0.3375645,-0.657028,0.028097499999999997
121,0.042918,0.679029,-0.071467,-0.110589,0.466989,-0.02996499999999999,-0.264729,0.622439,-0.060828999999999994,0.164221,0.480019,-0.025363999999999998,0.328611,0.621239,-0.029219999999999996,-0.279769,0.804889,-0.159887,0.402501,0.797449,-0.10204699999999998,-0.06499200000000001,0.003356000000000005,-0.0014359999999999998,0.06499200000000001,-0.003355999999999998,0.0014359999999999998,-0.21226899999999999,-0.317851,0.019302000000000003,0.196881,-0.337741,0.0006960000000000022,-0.34823899999999997,-0.617041,0.078532,0.335971,-0.652351,0.025049000000000002
122,0.0523505,0.6796335,-0.07902799999999999,-0.1040925,0.46284349999999996,-0.038786999999999995,-0.2689025,0.5857034999999999,-0.061571999999999995,0.1696375,0.47748349999999995,-0.028639999999999992,0.3443675,0.5896534999999999,-0.02611399999999999,-0.2727225,0.7517735,-0.180578,0.4308175,0.7519735,-0.109568,-0.0646935,0.003868499999999997,-0.001569000000000001,0.0646935,-0.003868500000000004,0.001569000000000001,-0.21633249999999998,-0.3135565,0.013454000000000004,0.19724750000000002,-0.3345465,-0.007040999999999999,-0.3533425,-0.6147665,0.07455,0.33169750000000003,-0.6491965000000001,0.021966000000000003
123,0.06179050000000001,0.6805215,-0.0874485,-0.09793349999999999,0.4583815,-0.0485155,-0.2751285,0.5446915,-0.0609985,0.17701150000000002,0.4749215,-0.03271650000000001,0.3594315,0.5567415,-0.021983500000000003,-0.2653985,0.6925515,-0.20288850000000003,0.4557915,0.7003615,-0.1154585,-0.0639865,0.004402499999999997,-0.001753500000000005,0.0639865,-0.0044025,0.0017534999999999981,-0.22246849999999999,-0.3100085,0.007806499999999994,0.19530150000000002,-0.3312985,-0.0157435,-0.3615985,-0.6112185,0.0707505,0.3236715,-0.6466385,0.019065499999999996
124,0.07139749999999999,0.681671,-0.096279,-0.09122250000000001,0.454481,-0.05837,-0.2736015,0.500371,-0.060639000000000005,0.1843985,0.471441,-0.03691099999999999,0.3794185,0.521301,-0.018066,-0.2542315,0.627321,-0.209149,0.4841785,0.643741,-0.122119,-0.0636795,0.005239000000000001,-0.0016460000000000016,0.0636795,-0.005238999999999997,0.0016460000000000016,-0.2293715,-0.308789,0.0023309999999999997,0.1925985,-0.33007899999999996,-0.02454,-0.37299150000000003,-0.609999,0.066353,0.3134385,-0.646379,0.016591
125,0.07972149999999999,0.68218,-0.10504349999999998,-0.0845065,0.45076,-0.06758349999999999,-0.2699185,0.4553,-0.05961350000000001,0.1897915,0.46802,-0.0406495,0.3946415,0.48572000000000004,-0.0125515,-0.2475785,0.55966,-0.21045350000000002,0.5074814999999999,0.58173,-0.1251535,-0.0628315,0.005747999999999996,-0.0019155000000000005,0.0628315,-0.005748,0.0019155000000000005,-0.2392085,-0.30769,-0.002184500000000006,0.1872315,-0.32957,-0.03144550000000001,-0.3889285,-0.60926,0.0621275,0.29950150000000003,-0.6469,0.015248499999999998
126,0.08705299999999999,0.682375,-0.113624,-0.079942,0.447925,-0.07591400000000001,-0.267497,0.410535,-0.05791400000000001,0.195143,0.464505,-0.044693,0.405093,0.450135,-0.007672000000000005,-0.242227,0.480845,-0.208654,0.527433,0.513585,-0.129364,-0.062293,0.005953,-0.001909000000000001,0.062293,-0.005953,0.001908999999999994,-0.243897,-0.302325,-0.010174000000000002,0.181273,-0.329375,-0.036872,-0.403027,-0.601375,0.056313999999999996,0.283703,-0.6473150000000001,0.015392999999999997
127,0.09119500000000001,0.6823825,-0.11983250000000001,-0.07625199999999999,0.4479325,-0.0794925,-0.263745,0.3783025,-0.0537425,0.19837500000000002,0.46332249999999997,-0.047546500000000005,0.40171500000000004,0.4251825,0.0012005000000000002,-0.24160500000000001,0.4116325,-0.2048425,0.524885,0.4578725,-0.1259425,-0.06204499999999999,0.005999499999999998,-0.0015514999999999973,0.062045,-0.005999499999999998,0.0015515000000000043,-0.24599500000000002,-0.2977675,-0.020039500000000002,0.173165,-0.3287475,-0.0381755,-0.41250499999999996,-0.5959275,0.0531905,0.26267500000000005,-0.6473075,0.0183925
128,0.09281600000000001,0.683358,-0.12515800000000002,-0.07420399999999999,0.447888,-0.08199800000000002,-0.259934,0.348838,-0.047487999999999995,0.20025600000000002,0.46222799999999997,-0.048478,0.39384600000000003,0.403578,0.006733999999999997,-0.245624,0.345588,-0.199558,0.513926,0.407148,-0.122668,-0.061776,0.006593999999999999,-0.001131,0.061776,-0.006593999999999999,0.001131,-0.247604,-0.29732200000000003,-0.029921999999999997,0.162266,-0.330272,-0.035667,-0.41961400000000004,-0.592742,0.051586,0.238136,-0.647652,0.024183999999999997
129,0.09349249999999998,0.685003,-0.129857,-0.07350250000000003,0.447703,-0.08373699999999998,-0.2554175,0.326913,-0.038657,0.20121249999999996,0.459893,-0.04894699999999999,0.3823525,0.385133,0.013445000000000012,-0.2526875,0.288073,-0.19021699999999997,0.49624250000000003,0.356503,-0.11804699999999999,-0.06187250000000001,0.006924,-0.0006459999999999938,0.0618725,-0.006924,0.0006460000000000077,-0.24661750000000002,-0.297147,-0.040156999999999984,0.14888249999999997,-0.331767,-0.031553999999999985,-0.4207775,-0.593577,0.05074500000000001,0.21182249999999997,-0.647767,0.03009300000000001
130,0.09126499999999999,0.6867165,-0.1311035,-0.075278,0.4466465,-0.0815835,-0.242029,0.3135965,-0.0206195,0.19843499999999997,0.4549665,-0.04698350000000001,0.367805,0.3670665,0.023363499999999995,-0.260749,0.24550650000000002,-0.1608335,0.47127499999999994,0.3141865,-0.11001350000000001,-0.061965000000000006,0.007342500000000002,-0.0002565000000000067,0.06196499999999999,-0.007342500000000002,0.00025649999999999284,-0.239763,-0.2979135,-0.048753500000000005,0.13487500000000002,-0.3339535,-0.02415350000000001,-0.416255,-0.5974735000000001,0.0523535,0.18404500000000001,-0.6500435,0.0392295
131,0.08779499999999998,0.6889325000000001,-0.132197,-0.079005,0.4459725,-0.079677,-0.230813,0.30379249999999997,-0.001024000000000011,0.19575499999999998,0.4497025,-0.045987,0.3490150000000001,0.3478825,0.033755999999999994,-0.268843,0.2117525,-0.117147,0.44052500000000006,0.2666125,-0.09944700000000001,-0.06206500000000001,0.007492499999999999,-0.0004270000000000107,0.06206500000000001,-0.007492499999999999,0.0004269999999999968,-0.228266,-0.2934375,-0.06109700000000001,0.119505,-0.3368475,-0.015057000000000015,-0.39532500000000004,-0.5949074999999999,0.05066099999999999,0.153025,-0.6532374999999999,0.052564999999999994
132,0.08438499999999999,0.690222,-0.13416,-0.08297500000000002,0.445732,-0.07780000000000001,-0.218782,0.29737199999999997,0.013932,0.19000499999999998,0.443982,-0.046119999999999994,0.328105,0.328392,0.03931299999999999,-0.273762,0.18279199999999998,-0.06804000000000002,0.41276499999999994,0.22145199999999998,-0.08971000000000001,-0.062835,0.0073609999999999995,-0.00018000000000001348,0.06283499999999997,-0.007361000000000003,0.0001799999999999996,-0.20889000000000002,-0.293138,-0.07748,0.10705500000000001,-0.33906800000000004,-0.0037900000000000017,-0.35474500000000003,-0.595178,0.034927,0.123975,-0.6559879999999999,0.06587099999999999
133,0.08061000000000001,0.690545,-0.13563999999999998,-0.08809,0.44550500000000004,-0.07514,-0.21444600000000003,0.291725,0.027964000000000003,0.18396,0.440935,-0.04654000000000001,0.301,0.308035,0.043141,-0.280439,0.15648499999999999,-0.017560000000000006,0.38420000000000004,0.179365,-0.08261,-0.06325,0.0069149999999999975,-0.00014999999999999736,0.06324999999999997,-0.006915000000000001,0.00014999999999999736,-0.187173,-0.29401499999999997,-0.09230999999999999,0.09619,-0.343435,0.008580000000000004,-0.307777,-0.595035,0.012810000000000002,0.09548000000000001,-0.659015,0.081062
134,0.07699499999999998,0.6903305000000001,-0.136695,-0.09399500000000002,0.44516049999999996,-0.07306499999999999,-0.212229,0.2871105,0.043120000000000006,0.178875,0.4389105,-0.047054999999999986,0.27753500000000003,0.28841049999999996,0.043724,-0.28123200000000004,0.1320305,0.02959500000000001,0.358905,0.14260050000000002,-0.07553499999999999,-0.064115,0.0060604999999999964,0.0005850000000000022,0.06411499999999998,-0.006060500000000003,-0.0005850000000000022,-0.162395,-0.2943595,-0.108265,0.08568499999999996,-0.3452095,0.021955000000000002,-0.255832,-0.5962695,-0.015605000000000008,0.06872499999999998,-0.6585295,0.09534700000000002
135,0.07258999999999999,0.690212,-0.136855,-0.09895000000000001,0.445332,-0.07044500000000001,-0.20871,0.282822,0.06350499999999999,0.17194000000000004,0.437832,-0.04675499999999999,0.25506999999999996,0.269712,0.041685,-0.281273,0.11970200000000002,0.07329,0.33110999999999996,0.11392200000000001,-0.07452500000000001,-0.065,0.004963000000000002,0.0010949999999999849,0.065,-0.004962999999999995,-0.0010950000000000126,-0.14739,-0.29425799999999996,-0.115095,0.07250000000000001,-0.345948,0.041755,-0.20472,-0.597438,-0.046454999999999996,0.03889999999999999,-0.653888,0.115171
136,0.06835999999999998,0.6899219999999999,-0.135915,-0.10466999999999999,0.444852,-0.06751499999999999,-0.20656,0.27940200000000004,0.084595,0.16552,0.436632,-0.045444999999999985,0.23768999999999996,0.258512,0.037525,-0.278821,0.114902,0.09954,0.30526,0.094632,-0.07630500000000001,-0.0655,0.004679000000000003,0.0011250000000000149,0.0655,-0.004679000000000003,-0.0011249999999999871,-0.13522,-0.29497799999999996,-0.115975,0.06002000000000002,-0.34621799999999997,0.060055,-0.15804,-0.6009880000000001,-0.076295,0.014569999999999972,-0.653528,0.135495
137,0.06412499999999999,0.6898645,-0.13319500000000004,-0.11012499999999997,0.44473450000000003,-0.06297500000000003,-0.205425,0.27599450000000003,0.10114499999999998,0.15911499999999995,0.4345445,-0.042665000000000036,0.22224499999999997,0.2482245,0.033495,-0.275005,0.1103945,0.12462399999999998,0.27770500000000004,0.07829449999999999,-0.078875,-0.065865,0.004001499999999998,0.0016049999999999953,0.065865,-0.004001500000000005,-0.0016049999999999953,-0.12284499999999998,-0.29592549999999995,-0.11535500000000001,0.04735499999999998,-0.34618550000000003,0.07857499999999998,-0.111315,-0.6041755000000001,-0.10255500000000004,-0.008494999999999975,-0.6473555000000001,0.15928199999999998
138,0.060165000000000024,0.6915545,-0.129785,-0.11527499999999996,0.44714449999999994,-0.05802500000000002,-0.20307499999999998,0.27272450000000004,0.113035,0.153825,0.4341045,-0.03994499999999998,0.208125,0.24188449999999997,0.028774999999999995,-0.26751499999999995,0.1060245,0.151802,0.24894499999999997,0.07091449999999999,-0.08380499999999999,-0.06600499999999998,0.004001499999999998,0.0018549999999999955,0.06600500000000004,-0.004001500000000005,-0.0018549999999999955,-0.10996499999999998,-0.3020655,-0.112065,0.03576500000000005,-0.3454355,0.097225,-0.06823499999999999,-0.6165455000000001,-0.12720499999999998,-0.030154999999999987,-0.6388055,0.18465399999999998
139,0.056745000000000045,0.6929835,-0.124755,-0.11892499999999995,0.4499335,-0.051985,-0.20020499999999994,0.2728835,0.12382499999999999,0.1494850000000001,0.4337535,-0.037105,0.195805,0.2388535,0.024424999999999975,-0.25920499999999996,0.10419350000000001,0.18222,0.222835,0.0653735,-0.08715499999999998,-0.06636499999999995,0.0028064999999999965,0.0018650000000000055,0.06636500000000001,-0.0028065000000000034,-0.0018650000000000055,-0.09539499999999995,-0.3107565,-0.10546500000000003,0.026875000000000038,-0.3475665,0.113535,-0.026364999999999972,-0.6281365,-0.15053500000000003,-0.05015499999999995,-0.6360365,0.210822
140,0.050905000000000034,0.6941265,-0.11904500000000007,-0.125695,0.45290650000000005,-0.04531500000000005,-0.200405,0.2743665,0.13197499999999995,0.14343500000000003,0.43480650000000004,-0.03234500000000007,0.188405,0.23863650000000003,0.022394999999999943,-0.254505,0.1066065,0.20877499999999996,0.20427500000000004,0.06751650000000001,-0.09602500000000003,-0.06671500000000002,0.0017825000000000063,0.002664999999999973,0.06671500000000002,-0.0017824999999999994,-0.0026650000000000285,-0.08275500000000002,-0.31881349999999997,-0.10669500000000004,0.018274999999999986,-0.3470735,0.12611499999999995,-0.0024049999999999905,-0.6347335,-0.16837500000000005,-0.06450499999999998,-0.6342035,0.23019999999999996
141,0.046140000000000014,0.693289,-0.11162500000000003,-0.13105,0.45492900000000003,-0.03676499999999999,-0.2026,0.276579,0.133375,0.13984999999999997,0.436389,-0.025934999999999986,0.1849,0.23609899999999998,0.021175,-0.25454,0.110869,0.208865,0.19088999999999995,0.06939899999999999,-0.10557500000000003,-0.06629000000000002,0.0009539999999999965,0.002224999999999977,0.06629000000000002,-0.0009540000000000035,-0.0022250000000000325,-0.08030999999999999,-0.325611,-0.09569500000000003,0.01740999999999998,-0.34514100000000003,0.110625,-0.000130000000000019,-0.641181,-0.16276500000000005,-0.06586999999999998,-0.631491,0.234365
142,0.04164000000000001,0.692489,-0.104495,-0.13572,0.456819,-0.02886500000000003,-0.20471,0.27790899999999996,0.13067499999999999,0.13695000000000002,0.437889,-0.019705000000000028,0.18272999999999995,0.234069,0.019004999999999994,-0.25526,0.117179,0.195635,0.18565999999999994,0.07128899999999999,-0.11477500000000002,-0.06592999999999999,0.0003029999999999977,0.002464999999999995,0.06592999999999993,-0.00030300000000000465,-0.002464999999999995,-0.08037,-0.33194100000000004,-0.08547500000000002,0.021649999999999947,-0.343251,0.09319499999999997,-0.003210000000000046,-0.646551,-0.14803499999999997,-0.060439999999999994,-0.627561,0.221795
143,0.039184999999999914,0.6920585,-0.09823499999999996,-0.13925500000000002,0.45778850000000004,-0.020744999999999958,-0.20779500000000006,0.27906850000000005,0.12523500000000004,0.135305,0.4384485,-0.014564999999999939,0.18284499999999992,0.2356385,0.017215000000000036,-0.25800500000000004,0.1228985,0.16766500000000006,0.186415,0.07285849999999999,-0.12548499999999996,-0.06553500000000007,-0.00017550000000000204,0.002275000000000027,0.06553500000000001,0.0001754999999999951,-0.0022749999999999715,-0.08105500000000004,-0.33646149999999997,-0.07462499999999994,0.028834999999999944,-0.3405515,0.07253500000000007,-0.008335000000000092,-0.6521115000000001,-0.124645,-0.04925500000000005,-0.6234315,0.20746500000000004
144,0.03957500000000003,0.6911805000000001,-0.09264500000000003,-0.140685,0.4580805,-0.013434999999999975,-0.21248500000000003,0.2799705,0.11754500000000001,0.13666499999999993,0.4367205,-0.011044999999999972,0.186295,0.2362105,0.013155000000000028,-0.25966500000000003,0.12674049999999998,0.11721500000000001,0.19581499999999996,0.0761005,-0.14011500000000005,-0.06483500000000003,5.3499999999997994e-05,0.0021849999999999925,0.06483499999999998,-5.350000000000493e-05,-0.0021849999999999925,-0.07754500000000003,-0.34129950000000003,-0.066085,0.04249499999999995,-0.3374895,0.043155,-0.016915000000000013,-0.6547894999999999,-0.09230500000000003,-0.025434999999999985,-0.6230595,0.17295500000000003
145,0.041605,0.69023,-0.08811000000000002,-0.14109499999999997,0.45794999999999997,-0.006709999999999994,-0.216775,0.28107,0.10448000000000002,0.13788500000000004,0.4357,-0.008440000000000003,0.192295,0.23713999999999996,0.006279999999999952,-0.25976499999999997,0.13083,0.06824999999999998,0.20981499999999997,0.08048,-0.14888999999999997,-0.06422499999999998,0.0003380000000000015,0.0023199999999999887,0.06422499999999998,-0.0003380000000000015,-0.0023199999999999887,-0.07378499999999999,-0.34586,-0.058540000000000036,0.05679500000000004,-0.33483,0.014819999999999944,-0.02697499999999997,-0.65813,-0.05900000000000005,0.005964999999999998,-0.62045,0.13061
146,0.04640500000000003,0.688647,-0.08596000000000004,-0.13875500000000002,0.459017,-0.0014700000000000824,-0.220325,0.28309700000000004,0.09405999999999998,0.14171500000000004,0.43553699999999995,-0.00931000000000004,0.20111500000000004,0.238687,-0.0016700000000000603,-0.258525,0.136167,0.024459999999999926,0.22608499999999998,0.086797,-0.15680000000000005,-0.06384500000000004,0.0009479999999999975,0.0025600000000000067,0.06384500000000004,-0.0009480000000000009,-0.0025600000000000067,-0.07322499999999998,-0.35132300000000005,-0.049000000000000044,0.07449499999999998,-0.33271300000000004,-0.013639999999999985,-0.04076500000000005,-0.6618029999999999,-0.025129999999999986,0.041655,-0.6175229999999999,0.08131999999999995
147,0.05313500000000004,0.6875975,-0.08568500000000001,-0.13388499999999998,0.4627775,0.0024249999999998995,-0.22018499999999996,0.2886675,0.08999499999999994,0.14442500000000003,0.4376275,-0.013335000000000097,0.21209500000000003,0.2428775,-0.012615000000000043,-0.25696499999999994,0.13845749999999998,-0.007795000000000107,0.243815,0.0907175,-0.16335500000000003,-0.063585,0.0013825000000000018,0.0033849999999999714,0.063585,-0.0013824999999999983,-0.0033850000000000824,-0.07779499999999995,-0.35529249999999996,-0.03925500000000004,0.09233500000000006,-0.33055249999999997,-0.04296500000000003,-0.05850499999999992,-0.6627824999999999,0.011594999999999911,0.07677500000000004,-0.6196425,0.03387499999999999
148,0.059659999999999935,0.6864165,-0.08849499999999999,-0.12789000000000006,0.4673565,0.003154999999999908,-0.21875000000000006,0.2950465,0.086225,0.1461,0.4396665,-0.019284999999999997,0.22241,0.2477065,-0.024745000000000017,-0.25636000000000003,0.1419265,-0.037775,0.26369,0.09543650000000001,-0.173535,-0.06337999999999999,0.001905500000000001,0.004754999999999954,0.06337999999999999,-0.001905500000000001,-0.004755000000000065,-0.08756000000000008,-0.35289349999999997,-0.030895000000000006,0.10812999999999995,-0.3277535,-0.07191500000000006,-0.08004,-0.6604635000000001,0.04797499999999999,0.11170999999999998,-0.6224035,-0.014185000000000003
149,0.07004999999999995,0.685594,-0.0944299999999999,-0.11775000000000013,0.47033400000000003,0.0024100000000000232,-0.21211000000000008,0.30153399999999997,0.08291000000000004,0.15127999999999986,0.44185399999999997,-0.02833999999999992,0.23658999999999986,0.253694,-0.03988999999999998,-0.2513200000000001,0.146604,-0.06342999999999999,0.28693999999999986,0.099944,-0.18094,-0.06305000000000005,0.002898999999999999,0.005870000000000042,0.06304999999999994,-0.002898999999999999,-0.005869999999999931,-0.10011000000000014,-0.349916,-0.01087999999999989,0.12525999999999993,-0.324716,-0.1002599999999999,-0.09813000000000005,-0.657486,0.08288000000000006,0.14469999999999994,-0.626966,-0.05758999999999992
150,0.07979500000000006,0.6841360000000001,-0.10302,-0.10814499999999994,0.473126,-0.0013900000000000023,-0.20325499999999996,0.305506,0.08348,0.15446499999999996,0.44351599999999997,-0.040569999999999995,0.248255,0.259216,-0.05558999999999992,-0.24511499999999997,0.14776599999999998,-0.06455999999999995,0.310515,0.104586,-0.18457,-0.06320499999999996,0.003946999999999999,0.007950000000000013,0.06320500000000007,-0.003947000000000001,-0.007950000000000013,-0.10865499999999995,-0.347124,-0.00012000000000000899,0.13353499999999996,-0.321924,-0.10304999999999997,-0.11096499999999998,-0.654694,0.10771000000000008,0.16629499999999997,-0.626114,-0.08834999999999993
151,0.08999999999999997,0.682291,-0.11229999999999996,-0.09924,0.476141,-0.005730000000000013,-0.19438,0.308521,0.08416999999999997,0.15603,0.445071,-0.052059999999999995,0.25876999999999994,0.264901,-0.07274999999999998,-0.23959000000000003,0.150781,-0.05967,0.33102999999999994,0.10839099999999999,-0.18769999999999998,-0.06347000000000003,0.004789999999999999,0.009870000000000045,0.06347000000000003,-0.004790000000000001,-0.009870000000000045,-0.11653999999999998,-0.342999,0.00939000000000001,0.13537999999999994,-0.318739,-0.10579000000000005,-0.12283,-0.651009,0.13054999999999994,0.18235,-0.623099,-0.10370000000000001
152,0.09956500000000013,0.6779405000000001,-0.12440499999999999,-0.08954499999999987,0.4806305,-0.011135000000000006,-0.1844349999999999,0.3131005,0.08565499999999993,0.15764500000000004,0.4452605,-0.06813500000000006,0.2690650000000001,0.2697905,-0.09073500000000001,-0.2325549999999999,0.1545805,-0.04901500000000003,0.34484500000000007,0.11142049999999999,-0.18898500000000007,-0.06369499999999995,0.0059135,0.012114999999999987,0.06369500000000006,-0.005913500000000001,-0.012114999999999987,-0.12414499999999995,-0.3374895,0.018814999999999915,0.13613500000000012,-0.3161495,-0.10626500000000005,-0.1337449999999999,-0.6472294999999999,0.151455,0.19374500000000006,-0.6222095,-0.11639500000000003
153,0.1110500000000001,0.6706595000000001,-0.13922,-0.08068999999999993,0.4831295,-0.016250000000000098,-0.17193999999999998,0.31819949999999997,0.0872099999999999,0.15581,0.4433395,-0.08398000000000005,0.27758000000000016,0.27645949999999997,-0.11093000000000008,-0.22738999999999998,0.1582495,-0.030420000000000114,0.35007999999999995,0.1144695,-0.18176000000000003,-0.06379999999999997,0.0071585,0.014779999999999904,0.06380000000000008,-0.007158500000000001,-0.014780000000000015,-0.13246999999999998,-0.33056050000000003,0.026759999999999895,0.13343000000000005,-0.3127005,-0.10175000000000001,-0.14145999999999992,-0.6421804999999999,0.16843999999999992,0.19303000000000003,-0.6203605,-0.1132200000000001
154,0.12117999999999995,0.663254,-0.15326499999999998,-0.07244000000000006,0.484954,-0.021285,-0.15954999999999997,0.323104,0.094105,0.15306999999999993,0.440864,-0.09996499999999997,0.28381999999999996,0.283084,-0.128795,-0.22415000000000007,0.161934,-0.013554999999999984,0.35002,0.117484,-0.17664500000000005,-0.06374000000000002,0.008174,0.01739499999999994,0.06374000000000002,-0.008174,-0.01739500000000005,-0.13898,-0.323846,0.03397499999999998,0.13083999999999996,-0.308956,-0.09754499999999999,-0.14783000000000002,-0.636856,0.18342499999999995,0.18850999999999996,-0.6177860000000001,-0.10429500000000003
155,0.13014000000000014,0.65447,-0.17143000000000008,-0.06116999999999995,0.48545,-0.036230000000000095,-0.14619999999999989,0.32672,0.09516999999999998,0.1475700000000001,0.43668999999999997,-0.11748000000000003,0.28726000000000007,0.28798999999999997,-0.14701000000000009,-0.22094999999999987,0.16221000000000002,-0.0012700000000001044,0.34376000000000007,0.12025,-0.17293000000000003,-0.06355999999999995,0.00878,0.01961999999999997,0.06356000000000006,-0.00878,-0.019620000000000082,-0.14097999999999988,-0.31783,0.03911999999999993,0.12713000000000008,-0.3062,-0.09412000000000009,-0.15142999999999995,-0.63219,0.19370999999999994,0.1808700000000001,-0.61506,-0.09252000000000005
156,0.13670499999999997,0.644999,-0.18776499999999996,-0.052535,0.48534900000000003,-0.0499949999999999,-0.13712499999999994,0.328419,0.09292500000000004,0.141895,0.433159,-0.13204499999999997,0.2880149999999999,0.292209,-0.16281499999999993,-0.21799499999999994,0.159379,0.014155000000000029,0.33421499999999993,0.123029,-0.17046499999999998,-0.063195,0.009347000000000001,0.021495000000000042,0.063195,-0.009347000000000001,-0.02149499999999993,-0.141945,-0.31265099999999996,0.042915000000000036,0.12348500000000007,-0.304571,-0.09064499999999998,-0.15226499999999998,-0.6279710000000001,0.19991500000000006,0.17393500000000006,-0.6131810000000001,-0.08443499999999993
157,0.14183,0.635165,-0.20204,-0.04691000000000001,0.486695,-0.06113999999999997,-0.13012,0.331395,0.09010000000000007,0.13607000000000002,0.43020499999999995,-0.14546000000000003,0.28722000000000014,0.29645499999999997,-0.1786399999999999,-0.21531999999999996,0.153835,0.028830000000000022,0.32642000000000004,0.125285,-0.16645,-0.06255,0.00975,0.023009999999999975,0.06255,-0.00975,-0.023009999999999975,-0.14249999999999996,-0.30784500000000004,0.046699999999999964,0.12022,-0.303205,-0.08733000000000002,-0.1521,-0.6238549999999999,0.20501999999999998,0.16737000000000002,-0.613355,-0.07755999999999996
158,0.14626499999999998,0.6225785,-0.21259000000000006,-0.042385000000000006,0.48797850000000004,-0.07018999999999997,-0.125035,0.3328185,0.08744000000000007,0.12963500000000006,0.4276785,-0.15679999999999994,0.28447500000000003,0.30069850000000004,-0.19548999999999994,-0.21421499999999993,0.1501285,0.040140000000000065,0.319175,0.1265685,-0.16396,-0.06191499999999994,0.009992500000000001,0.02468999999999999,0.06191500000000005,-0.009992500000000001,-0.02468999999999999,-0.14214499999999997,-0.3033515,0.05036000000000007,0.11797500000000005,-0.30216149999999997,-0.0847,-0.150725,-0.6193115,0.20891000000000004,0.16198500000000005,-0.6138215,-0.07163999999999993
159,0.14822000000000002,0.6119945,-0.217395,-0.03964999999999996,0.4892245,-0.07724500000000001,-0.12200999999999995,0.3326245,0.08571499999999999,0.12209000000000003,0.4250345,-0.16529499999999997,0.2788299999999999,0.3047645,-0.21019500000000013,-0.2137,0.14858449999999998,0.04699500000000001,0.31223,0.1296145,-0.16149499999999994,-0.06127000000000005,0.010238500000000001,0.02621499999999999,0.06127000000000005,-0.010238500000000001,-0.02621499999999999,-0.14151999999999998,-0.2994255,0.054315,0.11602000000000001,-0.3011355,-0.08222499999999999,-0.14898999999999996,-0.6149955,0.21250499999999994,0.15715,-0.6139355,-0.065855
160,0.14796999999999993,0.6013655,-0.22030000000000005,-0.03810999999999998,0.49092549999999996,-0.08284000000000002,-0.12001000000000006,0.3326355,0.08496999999999999,0.11480000000000001,0.42238549999999997,-0.1735000000000001,0.27218999999999993,0.30958549999999996,-0.22309999999999997,-0.21397,0.1480455,0.05306999999999995,0.30359,0.1309055,-0.1571999999999999,-0.06018000000000001,0.010505500000000001,0.02732000000000001,0.06018000000000001,-0.0105055,-0.02732000000000001,-0.14093,-0.29582450000000005,0.058679999999999954,0.11402999999999996,-0.29987450000000004,-0.07987999999999995,-0.14776,-0.6108245,0.21628999999999998,0.15215999999999996,-0.6136045,-0.05991000000000002
161,0.14639000000000002,0.5923704999999999,-0.21953,-0.038250000000000006,0.4923405,-0.08695999999999993,-0.11857000000000006,0.3336805,0.08317000000000008,0.10871999999999993,0.4206605,-0.1760299999999999,0.2653500000000001,0.3133005,-0.23692999999999986,-0.21588000000000007,0.1488005,0.059190000000000076,0.29245,0.1353305,-0.15042999999999984,-0.05920000000000003,0.010630500000000001,0.028310000000000057,0.05920000000000003,-0.010630500000000001,-0.028309999999999946,-0.1402,-0.2928095,0.06295000000000006,0.11241000000000001,-0.2988795,-0.07790999999999992,-0.14697000000000005,-0.6069495,0.21987000000000012,0.14784999999999993,-0.6132195,-0.05406999999999995
162,0.14268500000000006,0.586428,-0.21543,-0.03896500000000003,0.492998,-0.09141999999999995,-0.11829499999999993,0.334378,0.08121999999999996,0.10463500000000003,0.419508,-0.17733,0.260695,0.31570800000000004,-0.24612999999999996,-0.217785,0.149498,0.06237999999999999,0.2779950000000001,0.141038,-0.15023000000000009,-0.05826500000000001,0.010298999999999999,0.028610000000000024,0.05826500000000001,-0.010298999999999999,-0.028610000000000024,-0.14008500000000002,-0.29065199999999997,0.06567,0.11123499999999997,-0.29842199999999997,-0.07694000000000001,-0.14737500000000003,-0.604592,0.22253999999999996,0.14478500000000005,-0.612692,-0.049699999999999966
163,0.13939000000000001,0.581144,-0.21165499999999993,-0.03967999999999994,0.493774,-0.09609499999999993,-0.11821000000000004,0.335174,0.07870500000000002,0.10006999999999999,0.418684,-0.17825500000000005,0.2564400000000001,0.318224,-0.255255,-0.21999999999999997,0.150324,0.06583499999999998,0.2644400000000001,0.146924,-0.14975500000000008,-0.05749000000000004,0.009935,0.028895000000000004,0.05749000000000004,-0.009935,-0.028895000000000004,-0.14012000000000002,-0.288636,0.06798500000000007,0.11004999999999998,-0.29797599999999996,-0.07606499999999994,-0.14793999999999996,-0.602236,0.22477500000000006,0.14188999999999996,-0.611866,-0.045825000000000005
164,0.13626500000000008,0.5785739999999999,-0.2075499999999999,-0.04278499999999996,0.49687400000000004,-0.0919899999999999,-0.11908499999999989,0.336314,0.07747000000000004,0.09379500000000007,0.419754,-0.17574999999999985,0.25041500000000005,0.321284,-0.2639499999999999,-0.22232499999999988,0.151614,0.06790000000000007,0.2540150000000001,0.153554,-0.14995000000000003,-0.05696499999999993,0.009693,0.029249999999999998,0.05696500000000004,-0.009692999999999998,-0.029249999999999998,-0.1405749999999999,-0.286516,0.06998000000000004,0.10897500000000004,-0.29763599999999996,-0.07514999999999994,-0.14904499999999987,-0.599426,0.2268,0.1390150000000001,-0.610566,-0.04249999999999998
165,0.13128499999999999,0.57653,-0.203685,-0.04577500000000001,0.5003,-0.08813500000000007,-0.12228499999999998,0.33801,0.07591499999999995,0.08876499999999998,0.42145,-0.173385,0.241525,0.32298,-0.2695850000000001,-0.22573500000000002,0.15331,0.06595499999999999,0.24922500000000003,0.1598,-0.15018500000000012,-0.05651499999999998,0.009354,0.029505000000000003,0.05651499999999998,-0.009354,-0.029505000000000003,-0.141135,-0.28416,0.07167499999999993,0.10801500000000008,-0.29722,-0.07426500000000003,-0.15052500000000002,-0.59629,0.22829499999999991,0.136185,-0.60894,-0.039435
166,0.12616499999999997,0.5740839999999999,-0.19996499999999995,-0.048595000000000055,0.502234,-0.084515,-0.12309500000000007,0.338704,0.07401500000000005,0.08550499999999994,0.422144,-0.17106500000000002,0.23240499999999997,0.324894,-0.27176500000000003,-0.22817500000000002,0.155784,0.06199500000000002,0.24410500000000002,0.166194,-0.15066500000000005,-0.056355000000000044,0.008764,0.030035000000000034,0.05635499999999993,-0.008764,-0.030035000000000034,-0.14185500000000006,-0.283076,0.07320499999999996,0.10686499999999999,-0.297236,-0.07323499999999994,-0.15210500000000005,-0.594226,0.22953500000000004,0.13349500000000003,-0.608346,-0.036555000000000004
167,0.12007999999999996,0.573425,-0.19162000000000012,-0.05402000000000007,0.5030549999999999,-0.08016000000000001,-0.12373,0.339645,0.07201999999999997,0.08026,0.423315,-0.1676200000000001,0.22378999999999993,0.327035,-0.26952,-0.2309,0.157815,0.05728,0.2380899999999999,0.171515,-0.1516200000000001,-0.05623,0.007933,0.030449999999999977,0.05623,-0.007933,-0.030450000000000088,-0.14271,-0.282045,0.07438,0.10550999999999999,-0.296915,-0.07214000000000009,-0.1537900000000001,-0.592095,0.23051,0.13080999999999998,-0.607485,-0.033970000000000056
168,0.11366500000000002,0.5739605,-0.18341499999999988,-0.060145000000000004,0.5048105,-0.07527499999999998,-0.12470499999999995,0.3405005,0.07082500000000003,0.074685,0.43123049999999996,-0.16471499999999994,0.21079499999999995,0.3286805,-0.269215,-0.23404500000000006,0.1597405,0.05269500000000005,0.234595,0.17546050000000002,-0.152215,-0.056355000000000044,0.007184499999999999,0.030855000000000077,0.056355000000000044,-0.0071845,-0.030854999999999966,-0.14395500000000006,-0.2808895,0.0755650000000001,0.10378500000000002,-0.29661950000000004,-0.07073499999999988,-0.15590499999999996,-0.5897995,0.23168500000000003,0.12785499999999994,-0.6064495,-0.031364999999999976
169,0.10717999999999994,0.5746560000000001,-0.17519000000000018,-0.06523999999999996,0.506536,-0.0710900000000001,-0.12375999999999998,0.341686,0.07094999999999985,0.06947000000000003,0.435656,-0.16139000000000014,0.1985999999999999,0.331176,-0.26819000000000015,-0.23513000000000006,0.161346,0.05065999999999993,0.23009999999999997,0.18078599999999997,-0.15449000000000002,-0.056050000000000044,0.006846,0.031359999999999943,0.05604999999999993,-0.006846,-0.031360000000000054,-0.14525,-0.279284,0.07673999999999992,0.10226000000000002,-0.296654,-0.06890000000000007,-0.15769,-0.587334,0.23248999999999986,0.1251,-0.604984,-0.029000000000000137
