sb224sc-HT22-VT27/4dt907/src/ml-research/a12/datafiles/kinect_good_preprocessed_A9_mediapipe/A109_kinect_mirrored.csv
FrameNo,nose_3d_x,nose_3d_y,nose_3d_z,left_shoulder_3d_x,left_shoulder_3d_y,left_shoulder_3d_z,left_elbow_3d_x,left_elbow_3d_y,left_elbow_3d_z,right_shoulder_3d_x,right_shoulder_3d_y,right_shoulder_3d_z,right_elbow_3d_x,right_elbow_3d_y,right_elbow_3d_z,left_wrist_3d_x,left_wrist_3d_y,left_wrist_3d_z,right_wrist_3d_x,right_wrist_3d_y,right_wrist_3d_z,left_hip_3d_x,left_hip_3d_y,left_hip_3d_z,right_hip_3d_x,right_hip_3d_y,right_hip_3d_z,left_knee_3d_x,left_knee_3d_y,left_knee_3d_z,right_knee_3d_x,right_knee_3d_y,right_knee_3d_z,left_ankle_3d_x,left_ankle_3d_y,left_ankle_3d_z,right_ankle_3d_x,right_ankle_3d_y,right_ankle_3d_z
73,1.021701,0.770752,0.048526,0.828103,0.547242,0.006025,0.610703,0.7091419999999999,-0.040524,1.201463,0.5339119999999999,0.009695,1.4188830000000001,0.6707719999999999,-0.040644,0.557713,0.969512,-0.092964,1.492023,0.878222,-0.117134,0.93972,0.00039,-0.000435,1.0602800000000001,-0.00039,0.000435,0.869983,-0.587028,0.005543,1.119423,-0.521168,-0.0063229999999999,0.846893,-0.925778,-0.0478139999999999,1.140843,-0.8711880000000001,-0.0173259999999999
74,1.0220894999999999,0.7704945,0.0469995,0.8284705,0.5479544999999999,0.0058035,0.6109705000000001,0.7091445,-0.0397464999999999,1.2017905,0.5339845,0.0089065,1.4190205,0.6702444999999999,-0.0414065,0.5579805,0.9691545,-0.0919865,1.4922205,0.8772645,-0.1201365,0.9397205,0.0003184999999999,-0.0004104999999999,1.0602795,-0.0003184999999999,0.0004105,0.8701805,-0.5860455,0.0050135,1.1196305,-0.5201055,-0.0074134999999999,0.8475604999999999,-0.9253655,-0.0470265,1.1412005,-0.8735155,-0.0179305
75,1.0225305,0.7702405,0.0451754999999999,0.8288605,0.5489204999999999,0.0052884999999999,0.6112905,0.7089004999999999,-0.0393555,1.2021105,0.5339705,0.0076414999999999,1.4193505,0.6696504999999999,-0.0425555,0.5583005,0.9684005,-0.0913755,1.4928205,0.8774905,-0.1232255,0.9396875,0.0002875,-0.0003095,1.0603125,-0.0002874999999999,0.0003094999999999,0.8704005000000001,-0.5846595,0.0041994999999999,1.1199605,-0.5193395,-0.0089625,0.8482205,-0.9250395,-0.0463955,1.1414005,-0.8681795,-0.0169465
76,1.02297,0.769985,0.0427755,0.8291999999999999,0.549705,0.0044335,0.6115999999999999,0.7086749999999999,-0.0393555,1.20243,0.533945,0.0060344999999999,1.41967,0.6690849999999999,-0.0444254999999999,0.5580499999999999,0.967375,-0.0911155,1.49319,0.876925,-0.1263355,0.939651,0.0002419999999999,-5.8500000000002994e-05,1.060349,-0.000242,5.8500000000002994e-05,0.87051,-0.582615,0.0027835,1.12028,-0.518305,-0.0107535,0.84878,-0.924715,-0.0459755,1.14171,-0.8660450000000001,-0.0171965
77,1.023402,0.7696594999999999,0.0393505,0.829629,0.5502794999999999,0.0028844999999999,0.611839,0.7086494999999999,-0.0399865,1.202739,0.5339195,0.0039754999999999,1.419989,0.6686495,-0.0470465,0.557499,0.9664495,-0.0916165,1.493419,0.8763995,-0.1299765,0.939612,0.0003014999999999,0.0002375,1.060388,-0.0003015,-0.0002375,0.870399,-0.5825205,0.0003014999999999,1.120599,-0.5178205,-0.0135215,0.8492890000000001,-0.9244205,-0.0458765,1.1422889999999999,-0.8660705000000001,-0.0178265
78,1.0239405,0.7690250000000001,0.0348655,0.8301305,0.550575,0.0007085,0.6120005,0.708665,-0.0409675,1.2030505,0.533935,0.0012405,1.4202805,0.668235,-0.0503875,0.5567605,0.962865,-0.0926075,1.4936605,0.875895,-0.1353475,0.9395295000000001,0.0003169999999999,0.0005325,1.0604704999999999,-0.0003169999999999,-0.0005325,0.8702705,-0.579685,-0.0030484999999999,1.1209405000000001,-0.517805,-0.0174674999999999,0.8492805,-0.924485,-0.0468574999999999,1.1429005,-0.866055,-0.0193694999999999
79,1.024422,0.7679385,0.0296635,0.830627,0.5505785,-0.0021584999999999,0.612147,0.7082485,-0.0422825,1.203247,0.5338185,-0.0022205,1.420697,0.6678284999999999,-0.0544125,0.555877,0.9599685,-0.0939325,1.493907,0.8754284999999999,-0.1409824999999999,0.93948,0.0003205,0.0006904999999999,1.06052,-0.0003204999999999,-0.0006904999999999,0.870077,-0.5761415000000001,-0.0074564999999999,1.121347,-0.5164715,-0.0238194999999999,0.849167,-0.9247315,-0.0483425,1.143437,-0.8660515000000001,-0.0206834999999999
80,1.0248424999999999,0.766106,0.0233729999999999,0.8311965,0.550586,-0.005597,0.6122965,0.707496,-0.0440239999999999,1.2034465,0.5335759999999999,-0.006403,1.4211965,0.6672159999999999,-0.0592139999999999,0.5549364999999999,0.956986,-0.0955139999999999,1.4941765,0.874536,-0.145654,0.9394365,0.0003079999999999,0.0007479999999999,1.0605635,-0.000308,-0.0007479999999999,0.8699265,-0.570524,-0.0132889999999999,1.1220465,-0.515034,-0.0303299999999999,0.8490365,-0.925484,-0.050704,1.1437165,-0.867094,-0.0226819999999999
81,1.0251195,0.7640335,0.016298,0.8316195,0.5507835000000001,-0.0094759999999999,0.6123795000000001,0.7062535000000001,-0.0465099999999999,1.2036095,0.5332035,-0.010955,1.4217495,0.6659835000000001,-0.06454,0.5540295,0.9503535,-0.09777,1.4942095,0.8731035,-0.15061,0.9394025,0.0004464999999999,0.000696,1.0605975,-0.0004465,-0.000696,0.8693495,-0.5643265,-0.0199779999999999,1.1227995,-0.5137565,-0.0373499999999999,0.8485095,-0.9245065,-0.05232,1.1442195,-0.8700065,-0.026178
82,1.0253475,0.7615384999999999,0.008879,0.8319235,0.5510685,-0.0136509999999999,0.6124035,0.7045085,-0.0496989999999999,1.2037135,0.5326884999999999,-0.0161609999999999,1.4219735,0.6646285000000001,-0.070419,0.5531335,0.9512485,-0.101259,1.4939935,0.8716385,-0.156289,0.9393585,0.0006195,0.000565,1.0606415,-0.0006194999999999,-0.0005649999999999,0.8685635,-0.5576615,-0.0272089999999999,1.1237735,-0.5120815000000001,-0.045029,0.8479135000000001,-0.9237215,-0.0547589999999999,1.1446335,-0.8725514999999999,-0.0297729999999999
83,1.02559,0.7584635,0.000781,0.832118,0.5512435,-0.0182349999999999,0.6124080000000001,0.7025334999999999,-0.05359,1.203808,0.5321334999999999,-0.021727,1.422208,0.6632635,-0.0769,0.5524979999999999,0.9481935,-0.10506,1.493278,0.8685134999999999,-0.16279,0.939286,0.0008114999999999,0.0004089999999999,1.060714,-0.0008114999999999,-0.0004089999999999,0.8674580000000001,-0.5499865,-0.0352769999999999,1.124858,-0.5100365,-0.0530799999999999,0.8469180000000001,-0.9230465,-0.05839,1.145058,-0.8743965,-0.033677
84,1.025758,0.7552685,-0.0081139999999999,0.832347,0.5510585,-0.023333,0.612367,0.7003085,-0.058161,1.203757,0.5310885,-0.027715,1.422437,0.6620785,-0.083931,0.5519769999999999,0.9430185,-0.109221,1.4925869999999999,0.8663084999999999,-0.170201,0.939209,0.0010395,0.0001849999999999,1.060791,-0.0010394999999999,-0.000185,0.865437,-0.5407315,-0.044301,1.1260270000000001,-0.5072415,-0.061171,0.846067,-0.9213215,-0.062281,1.145577,-0.8750915,-0.038056
85,1.02585,0.7516015,-0.0172589999999999,0.832709,0.5505515,-0.028774,0.612419,0.6976915,-0.063215,1.2037390000000001,0.5299615,-0.033863,1.422639,0.6600515,-0.091075,0.552039,0.9402015,-0.115465,1.491819,0.8630815,-0.178595,0.939111,0.0012304999999999,5.000000000000143e-05,1.060889,-0.0012305,-5.000000000000143e-05,0.863359,-0.5307284999999999,-0.0534349999999999,1.1275789999999999,-0.5030585000000001,-0.069885,0.845279,-0.9185985,-0.066245,1.146349,-0.8754985,-0.042821
86,1.0258034999999999,0.7480640000000001,-0.0261274999999999,0.8330885,0.549724,-0.0343995,0.6124485,0.694934,-0.0686965,1.2037385,0.528554,-0.0403035,1.4227884999999998,0.657874,-0.0984065,0.5521985,0.932344,-0.1216464999999999,1.4910185,0.8599640000000001,-0.1872465,0.9390185000000001,0.001514,-0.0001974999999999,1.0609814999999998,-0.001514,0.0001975,0.8610185,-0.520636,-0.0624964999999999,1.1295184999999999,-0.497876,-0.0791465,0.8448685,-0.914836,-0.0702765,1.1471585,-0.874986,-0.0474185
87,1.0255995,0.7444599999999999,-0.035114,0.8335125,0.54833,-0.040503,0.6124325000000002,0.69215,-0.074521,1.2037925,0.5270699999999999,-0.046798,1.4229825,0.65533,-0.106011,0.5525425000000002,0.92751,-0.127981,1.4900725000000001,0.8568899999999999,-0.194981,0.9389435,0.0018209999999999,-0.000493,1.0610565,-0.001821,0.000493,0.8587025,-0.51019,-0.071531,1.1316125,-0.49208,-0.087601,0.8445725,-0.90956,-0.072921,1.1483025,-0.8736900000000001,-0.052041
88,1.0252825,0.7400375,-0.0452205,0.8338795,0.5466775,-0.0469235,0.6124295,0.6899675000000001,-0.0810875,1.2035095,0.5250275,-0.0537255,1.4227794999999999,0.6529375000000001,-0.1141175,0.5529595,0.9212275,-0.1343675,1.4888495,0.8536075,-0.2039275,0.9388215,0.0019845,-0.0007495,1.0611785,-0.0019845,0.0007495,0.8562495,-0.4993025,-0.0810475,1.1341995,-0.4850724999999999,-0.0951175,0.8452195,-0.9037025,-0.0759475,1.1495194999999998,-0.8713425,-0.0568075
89,1.0248680000000001,0.735922,-0.055137,0.834296,0.544782,-0.053596,0.612546,0.687662,-0.087981,1.203356,0.523202,-0.0605309999999999,1.422596,0.650422,-0.122421,0.5536460000000001,0.914542,-0.141361,1.487676,0.8505619999999999,-0.2139209999999999,0.9386909999999999,0.002056,-0.000931,1.061309,-0.0020559999999999,0.000931,0.853826,-0.489708,-0.0901309999999999,1.1369259999999999,-0.478198,-0.102741,0.844826,-0.8984380000000001,-0.080381,1.151206,-0.8675480000000001,-0.0617509999999999
90,1.0244149999999999,0.7307985,-0.0650745,0.834696,0.5427685,-0.0604515,0.612776,0.6854685,-0.0950945,1.203196,0.5212285,-0.0673245,1.422906,0.6478885,-0.1308244999999999,0.5544560000000001,0.9089685,-0.1486144999999999,1.486516,0.8482685,-0.2239345,0.938626,0.0020734999999999,-0.0011714999999999,1.061374,-0.0020735,0.0011714999999999,0.8518060000000001,-0.4806615,-0.0991745,1.139956,-0.4713915,-0.1105744999999999,0.844996,-0.8921715,-0.0846145,1.152916,-0.8623615,-0.0664645
91,1.023719,0.7258789999999999,-0.075073,0.83495,0.539639,-0.067823,0.61273,0.683839,-0.1023129999999999,1.20298,0.5192089999999999,-0.074053,1.4234200000000001,0.645099,-0.139293,0.55531,0.907799,-0.156623,1.48516,0.846459,-0.234733,0.938593,0.001962,-0.0013319999999999,1.061407,-0.001962,0.0013319999999999,0.84952,-0.471771,-0.1085329999999999,1.14306,-0.467111,-0.118223,0.84544,-0.8859210000000001,-0.088813,1.15468,-0.856131,-0.071183
92,1.022406,0.721793,-0.0849505,0.834679,0.5369929999999999,-0.0753905,0.6126290000000001,0.682313,-0.1098904999999999,1.202179,0.5175029999999999,-0.0810205,1.423689,0.642173,-0.1478605,0.5557390000000001,0.907973,-0.1652205,1.482999,0.845783,-0.2460505,0.93915,0.001695,-0.0013224999999999,1.06085,-0.001695,0.0013224999999999,0.846689,-0.464057,-0.1176505,1.146069,-0.458997,-0.1263205,0.845459,-0.878557,-0.0924904999999999,1.155989,-0.8485670000000001,-0.0760405
93,1.021049,0.7174539999999999,-0.0946865,0.8347790000000002,0.5338339999999999,-0.0829365,0.612749,0.680514,-0.1174565,1.201449,0.5155639999999999,-0.0877065,1.4240089999999999,0.6367539999999999,-0.1562865,0.556119,0.908764,-0.1740965,1.480809,0.8450639999999999,-0.2576065,0.939759,0.001457,-0.0012925,1.060241,-0.001457,0.0012924999999999,0.8439390000000001,-0.452646,-0.1267565,1.149899,-0.4485159999999999,-0.1352665,0.8457390000000001,-0.868556,-0.0964465,1.157209,-0.839866,-0.0803565
94,1.01963,0.712608,-0.1045295,0.8349790000000001,0.530628,-0.0902594999999999,0.6129690000000001,0.679268,-0.1253595,1.2006890000000001,0.513248,-0.0944095,1.424639,0.6328779999999999,-0.1647595,0.5563990000000001,0.910138,-0.1816895,1.478499,0.8457979999999999,-0.2690795,0.940329,0.0012779999999999,-0.0013435,1.059671,-0.0012779999999999,0.0013435,0.840569,-0.441662,-0.1359395,1.1538689999999998,-0.437182,-0.1439794999999999,0.845809,-0.857822,-0.1000295,1.158399,-0.830412,-0.0847095
95,1.0181494999999998,0.70957,-0.121622,0.8353705000000001,0.53125,-0.104162,0.6132605,0.6791699999999999,-0.140202,1.1996905,0.51456,-0.107832,1.4250405,0.63144,-0.180772,0.5563605,0.91746,-0.197212,1.4757305,0.84885,-0.288292,0.9409535,0.0014629999999999,-0.0012829999999999,1.0590465,-0.0014629999999999,0.001283,0.8358605,-0.42777,-0.153642,1.1578405,-0.42242,-0.159462,0.8454705,-0.8441500000000001,-0.111132,1.1593705,-0.81815,-0.096062
96,1.0164755,0.7090744999999999,-0.1390345,0.8352265,0.5318345,-0.1189445,0.6129765,0.6817544999999999,-0.1559745,1.1971165,0.5145245,-0.1232245,1.4249165,0.6320945,-0.1977445,0.5557265,0.9196445,-0.2139545,1.4725765,0.8537245,-0.3087645,0.9418485,0.0013015,-0.0011345,1.0581515,-0.0013014999999999,0.0011345,0.8253465,-0.4065355,-0.1775145,1.1650865,-0.4030255,-0.1835445,0.8387865000000001,-0.8232955000000001,-0.1319745,1.1627665,-0.8004555,-0.1151145
97,1.014889,0.708572,-0.1553895,0.834763,0.532742,-0.1330795,0.6125229999999999,0.683162,-0.1714995,1.1946729999999999,0.515342,-0.1377295,1.424503,0.631602,-0.2146595,0.555173,0.920832,-0.2305695,1.4695230000000001,0.857672,-0.3285295,0.942566,0.0014049999999999,-0.0009684999999999,1.057434,-0.001405,0.0009685,0.814833,-0.386368,-0.2004995,1.171733,-0.385458,-0.2068395,0.8317530000000001,-0.802708,-0.1525795,1.1659629999999999,-0.7840579999999999,-0.1339195
98,1.0135459999999998,0.708513,-0.1716685,0.8344720000000001,0.532743,-0.1475585,0.611952,0.685303,-0.1871785,1.192062,0.515483,-0.1529885,1.423942,0.631203,-0.2316785,0.5539620000000001,0.923013,-0.2473385,1.466612,0.8618429999999999,-0.3488285,0.943287,0.0015309999999999,-0.0007344999999999,1.056713,-0.001531,0.0007344999999999,0.803632,-0.366757,-0.2224585,1.178552,-0.366747,-0.2310485,0.8247620000000001,-0.782327,-0.1709785,1.169122,-0.766277,-0.1533185
99,1.01284,0.709728,-0.187626,0.8345,0.533088,-0.161906,0.61162,0.688118,-0.202736,1.18987,0.515918,-0.168166,1.42379,0.630978,-0.248686,0.5529999999999999,0.926128,-0.264496,1.46407,0.865338,-0.369666,0.944288,0.001596,-0.000356,1.055712,-0.001596,0.0003559999999999,0.79208,-0.3474919999999999,-0.244526,1.18533,-0.348292,-0.2554659999999999,0.8176,-0.762282,-0.189486,1.17234,-0.747972,-0.172776
100,1.01228,0.7107,-0.2038065,0.834774,0.53507,-0.1757264999999999,0.6115539999999999,0.68998,-0.2184565,1.187764,0.51622,-0.1834464999999999,1.423754,0.63099,-0.2662665,0.552054,0.92904,-0.2819365,1.461374,0.8680100000000001,-0.3899465,0.945405,0.0017,-3.750000000000281e-05,1.054595,-0.0016999999999999,3.750000000000281e-05,0.780034,-0.32886,-0.2659765,1.1918639999999998,-0.33094,-0.2800265,0.810204,-0.74242,-0.2080665,1.1756739999999999,-0.72966,-0.1922365
101,1.011728,0.7109,-0.2193244999999999,0.835095,0.53651,-0.1892045,0.611695,0.69134,-0.2334844999999999,1.185625,0.51604,-0.1984044999999999,1.423885,0.63025,-0.2836745,0.551015,0.92741,-0.2988645,1.4585949999999999,0.86821,-0.4101145,0.946472,0.0020299999999999,0.0001854999999999,1.053528,-0.0020299999999999,-0.0001855,0.7682250000000002,-0.31158,-0.2866545,1.197875,-0.31429,-0.3043545,0.802955,-0.72371,-0.2253645,1.178685,-0.7120500000000001,-0.2112545
102,1.011117,0.7104250000000001,-0.2347734999999999,0.835535,0.538235,-0.2025635,0.611955,0.6930449999999999,-0.2483734999999999,1.1834850000000001,0.516995,-0.2133735,1.423575,0.632035,-0.3010735,0.5498149999999999,0.925635,-0.3153735,1.455575,0.868365,-0.4300635,0.9476,0.0023249999999999,0.0004425,1.0524,-0.0023249999999999,-0.0004424999999999,0.756505,-0.294325,-0.3059835,1.203025,-0.297295,-0.3278735,0.796265,-0.704755,-0.2409934999999999,1.1816550000000001,-0.694415,-0.2299935
103,1.0106075,0.7113499999999999,-0.2494795,0.8362805,0.5402100000000001,-0.2155995,0.6127405,0.6942299999999999,-0.2628895,1.1814405,0.51874,-0.2281295,1.4231705,0.63255,-0.3183095,0.5487204999999999,0.92133,-0.3318195,1.4526205,0.8674299999999999,-0.4498895,0.9486365,0.00261,0.0007274999999999,1.0513635,-0.00261,-0.0007275,0.7451405,-0.27701,-0.3245795,1.2078205,-0.28027,-0.3512295,0.7898405,-0.6856199999999999,-0.2561595,1.1847405,-0.6764000000000001,-0.2484795
104,1.0109195,0.70978,-0.2571345,0.8378235,0.53816,-0.2219045,0.6138334999999999,0.6947099999999999,-0.2700645,1.1803135,0.51502,-0.2361945,1.4233335,0.63013,-0.3279444999999999,0.5482635,0.91341,-0.3405945,1.4506435,0.86349,-0.4625645,0.9487335000000001,0.00259,0.0009445,1.0512664999999999,-0.00259,-0.0009445,0.7355435,-0.2617699999999999,-0.3337645,1.2127035,-0.26524,-0.3668245,0.7834734999999999,-0.6683,-0.2639345,1.1885935,-0.6607200000000001,-0.2596945
105,1.011577,0.7049050000000001,-0.263888,0.839149,0.5372049999999999,-0.226348,0.6149789999999999,0.6917150000000001,-0.276398,1.180399,0.513355,-0.241668,1.423589,0.6251450000000001,-0.336468,0.548009,0.909875,-0.3483279999999999,1.448769,0.8568450000000001,-0.474528,0.948931,0.002915,0.001141,1.051069,-0.002915,-0.001141,0.731039,-0.249205,-0.3360479999999999,1.213769,-0.252795,-0.373658,0.782759,-0.655095,-0.265148,1.1893690000000001,-0.6488750000000001,-0.2627379999999999
106,1.012584,0.70084,-0.2703855,0.84063,0.53682,-0.2307155,0.61633,0.68887,-0.2825055,1.18066,0.5119199999999999,-0.2471455,1.42383,0.61974,-0.3448455,0.5477799999999999,0.90606,-0.3566555,1.4469699999999999,0.84959,-0.4864755,0.9492750000000001,0.0031599999999999,0.0013335,1.050725,-0.00316,-0.0013335,0.72607,-0.23641,-0.3384755,1.21481,-0.24013,-0.3802555,0.78213,-0.64161,-0.2660355,1.1902,-0.63674,-0.2655655
107,1.0131504999999998,0.69754,-0.276747,0.8416635,0.53321,-0.235727,0.6176435,0.68682,-0.288567,1.1805235,0.5087200000000001,-0.252997,1.4235235,0.61537,-0.352997,0.5470835000000001,0.90301,-0.3646169999999999,1.4447735,0.8433599999999999,-0.4971569999999999,0.9492555,0.0030699999999999,0.0014979999999999,1.0507445,-0.00307,-0.001498,0.7203335,-0.22308,-0.341217,1.2153435,-0.2268,-0.386367,0.7812735,-0.6277299999999999,-0.266847,1.1908835,-0.6238300000000001,-0.267827
108,1.014241,0.69343,-0.2831625,0.843377,0.53024,-0.2402625,0.6193770000000001,0.68408,-0.2946125,1.180927,0.5059899999999999,-0.2583824999999999,1.423807,0.61092,-0.3611025,0.547037,0.89944,-0.3721624999999999,1.443467,0.83698,-0.5073925,0.94907,0.0031299999999999,0.0016435,1.05093,-0.0031299999999999,-0.0016434999999999,0.715367,-0.2153499999999999,-0.3434525,1.216307,-0.21699,-0.3918825,0.781317,-0.61764,-0.2640725,1.191617,-0.61282,-0.2687325
109,1.0152424999999998,0.688795,-0.289163,0.8451515,0.527365,-0.244433,0.6211815,0.6819649999999999,-0.300083,1.1815415,0.503845,-0.263163,1.4241614999999999,0.605785,-0.3681029999999999,0.5466314999999999,0.893085,-0.378963,1.4428614999999998,0.830295,-0.517503,0.9488885,0.0033049999999999,0.0018809999999999,1.0511115,-0.003305,-0.001881,0.7109814999999999,-0.208545,-0.3454129999999999,1.2173315,-0.207985,-0.396393,0.7814115,-0.608535,-0.261383,1.1926415,-0.602615,-0.269563
110,1.0165415,0.68451,-0.294809,0.8472955,0.52471,-0.2484989999999999,0.6230855,0.68068,-0.305599,1.1826455,0.50093,-0.268049,1.4249255,0.6016900000000001,-0.374919,0.5464855,0.89015,-0.3851489999999999,1.4426655,0.82465,-0.5274490000000001,0.9487565,0.00339,0.0021749999999999,1.0512435,-0.00339,-0.0021749999999999,0.7062755000000001,-0.1991,-0.347229,1.2186155,-0.19878,-0.400589,0.7825155,-0.59744,-0.259759,1.1937455,-0.59191,-0.270319
111,1.017919,0.680865,-0.300069,0.8494079999999999,0.521605,-0.2521989999999999,0.624958,0.679415,-0.310589,1.183668,0.496925,-0.272599,1.4257579999999999,0.5966450000000001,-0.381479,0.546438,0.8861950000000001,-0.390829,1.442608,0.8182550000000001,-0.537129,0.948573,0.003545,0.002272,1.051427,-0.0035449999999999,-0.0022719999999999,0.702358,-0.1901649999999999,-0.348739,1.219868,-0.190295,-0.4043289999999999,0.783848,-0.587095,-0.2586389999999999,1.1951379999999998,-0.582155,-0.271259
112,1.0193955,0.6772,-0.3054125,0.8513655,0.51936,-0.2560325,0.6265455,0.6788500000000001,-0.3152925,1.1847555,0.4932000000000001,-0.2768125,1.4265655,0.59235,-0.3875225,0.5465455,0.88412,-0.3961524999999999,1.4427955,0.81262,-0.5461825,0.9483165,0.00375,0.0022765,1.0516835,-0.0037499999999999,-0.0022765,0.6984855,-0.1801199999999999,-0.3505324999999999,1.2212355,-0.1811799999999999,-0.4080924999999999,0.7852955,-0.5761999999999999,-0.2580225,1.1965755,-0.57158,-0.2720925
113,1.020828,0.6741550000000001,-0.310197,0.853137,0.5170750000000001,-0.2595469999999999,0.628097,0.677365,-0.319637,1.185887,0.491935,-0.280327,1.427147,0.588285,-0.393277,0.546467,0.882465,-0.4009669999999999,1.442757,0.807515,-0.554517,0.948048,0.003885,0.0023399999999999,1.051952,-0.0038849999999999,-0.00234,0.695117,-0.1703349999999999,-0.3531769999999999,1.222837,-0.172035,-0.411917,0.785927,-0.5655249999999999,-0.257487,1.198067,-0.5611349999999999,-0.2724769999999999
114,1.0220915,0.673015,-0.3145179999999999,0.8549815000000001,0.512605,-0.263308,0.6298115,0.677325,-0.323138,1.1871415,0.490385,-0.284058,1.4276715,0.585315,-0.398408,0.5464415,0.882395,-0.405158,1.4428015,0.803855,-0.561688,0.9476955,0.003695,0.002473,1.0523045,-0.003695,-0.002473,0.6918515000000001,-0.159375,-0.356628,1.2249614999999998,-0.161225,-0.416048,0.7869415,-0.553445,-0.2570679999999999,1.1999315,-0.548995,-0.273438
115,1.023299,0.67272,-0.3188755,0.856888,0.50898,-0.2670355,0.631568,0.6783399999999999,-0.3260655,1.187778,0.4885899999999999,-0.2878954999999999,1.428128,0.58429,-0.4031855,0.546478,0.88324,-0.4085054999999999,1.4428779999999999,0.80218,-0.5681655,0.947337,0.0034299999999999,0.0025685,1.052663,-0.0034299999999999,-0.0025685,0.688798,-0.1474,-0.3607555,1.226958,-0.14943,-0.4203154999999999,0.788328,-0.5396700000000001,-0.2564754999999999,1.201738,-0.53549,-0.2741755
116,1.0242105,0.67164,-0.3224215,0.8586525,0.51013,-0.2686715,0.6332125,0.67795,-0.3279514999999999,1.1886225,0.48945,-0.2900715,1.4285025,0.58246,-0.4068615,0.5465025,0.88254,-0.4105815,1.4430125,0.79941,-0.5736715,0.9471015,0.00367,0.0027355,1.0528985,-0.00367,-0.0027355,0.6867425,-0.13748,-0.3636614999999999,1.2291525,-0.13916,-0.4238915,0.7896525,-0.52733,-0.2556414999999999,1.2039625,-0.52356,-0.2745315
117,1.024733,0.67169,-0.3248845,0.860371,0.511,-0.2699445,0.6346510000000001,0.67845,-0.3289245,1.189381,0.49015,-0.2918545,1.429181,0.58192,-0.4093045,0.546101,0.88112,-0.4114845,1.443081,0.79819,-0.5780545,0.946855,0.00363,0.0028525,1.053145,-0.0036299999999999,-0.0028524999999999,0.6848110000000001,-0.12693,-0.3668245,1.231281,-0.1282899999999999,-0.4273645,0.790841,-0.51377,-0.2547445,1.206271,-0.51059,-0.2745045
118,1.0252065,0.6715249999999999,-0.3265815,0.8620775,0.511245,-0.2708115,0.6356275,0.678875,-0.3292215,1.1899775,0.490805,-0.2931315,1.4297374999999999,0.581615,-0.4110215,0.5463374999999999,0.881695,-0.4113415,1.4429475,0.7972349999999999,-0.5812415,0.9466265,0.0036149999999999,0.0029654999999999,1.0533735,-0.0036149999999999,-0.0029655,0.6832275,-0.117215,-0.3698015,1.2334375,-0.117505,-0.4306815,0.7920475000000001,-0.501075,-0.2536815,1.2085875,-0.497805,-0.2740615
119,1.025919,0.6718649999999999,-0.3273715,0.863219,0.511355,-0.2706115,0.6364990000000001,0.679195,-0.3283215,1.190669,0.491975,-0.2930715,1.430849,0.5813550000000001,-0.4113215,0.546779,0.882615,-0.4103515,1.443049,0.797275,-0.5823615000000001,0.94639,0.0036349999999999,0.0031005,1.05361,-0.0036349999999999,-0.0031005,0.682239,-0.1072549999999999,-0.3726215,1.235379,-0.106285,-0.4332014999999999,0.793559,-0.488585,-0.2517415,1.209969,-0.484875,-0.2711215
120,1.0269849999999998,0.6730149999999999,-0.326844,0.864682,0.512005,-0.269484,0.637942,0.679325,-0.326434,1.191912,0.494105,-0.292014,1.432432,0.5825750000000001,-0.410354,0.547362,0.883035,-0.408524,1.443772,0.7983750000000001,-0.5818340000000001,0.946222,0.0036249999999999,0.0032729999999999,1.0537779999999999,-0.0036249999999999,-0.003273,0.6813020000000001,-0.0968049999999999,-0.375564,1.237392,-0.093915,-0.435324,0.795462,-0.475925,-0.250074,1.211712,-0.470985,-0.267824
121,1.028048,0.6741250000000001,-0.3255895,0.866051,0.512565,-0.2678295,0.639231,0.678965,-0.3239694999999999,1.193091,0.495465,-0.2906495,1.434081,0.583755,-0.4090195,0.547721,0.883135,-0.4059695,1.444691,0.7996050000000001,-0.5805595,0.946049,0.003505,0.0034155,1.053951,-0.0035049999999999,-0.0034154999999999,0.680821,-0.0870849999999999,-0.3780495,1.239261,-0.0820749999999999,-0.4366994999999999,0.797721,-0.4643849999999999,-0.2466694999999999,1.213521,-0.457885,-0.2655195
122,1.0289365,0.6751750000000001,-0.3238685,0.8672065,0.513715,-0.2658185,0.6403365,0.679255,-0.3213585,1.1939165,0.496835,-0.2891685,1.4358265000000001,0.5851550000000001,-0.4071385,0.5478565,0.8835250000000001,-0.4030885,1.4457365,0.8009950000000001,-0.5785985,0.9459255,0.003385,0.0035354999999999,1.0540745,-0.0033849999999999,-0.0035355,0.6801765,-0.0778449999999999,-0.3802785,1.2409365,-0.0716049999999999,-0.4379185,0.7998565,-0.453005,-0.2433485,1.2153865,-0.444855,-0.2632785
123,1.029514,0.674985,-0.3220969999999999,0.868202,0.516841,-0.263477,0.641092,0.678345,-0.3186469999999999,1.194502,0.497989,-0.287427,1.437522,0.585845,-0.405267,0.547362,0.882425,-0.400057,1.446632,0.801825,-0.5764670000000001,0.9458650000000001,0.0036249999999999,0.003741,1.054135,-0.0036249999999999,-0.003741,0.679412,-0.0696249999999999,-0.381797,1.242432,-0.0625149999999999,-0.4388269999999999,0.801542,-0.442805,-0.240077,1.217112,-0.433585,-0.261247
124,1.0299285,0.67441,-0.3202855,0.8690965000000002,0.5184489999999999,-0.2612055,0.6418665,0.67743,-0.3159055,1.1952665,0.498252,-0.2858954999999999,1.4389365,0.58597,-0.4030955,0.5466865000000001,0.88062,-0.3969055,1.4475265,0.8024499999999999,-0.5740855,0.9458065,0.0039099999999999,0.0040755,1.0541935,-0.00391,-0.0040754999999999,0.6788365000000001,-0.06229,-0.3827554999999999,1.2437265,-0.05408,-0.4397054999999999,0.8083865,-0.43356,-0.2334155,1.2185565,-0.42311,-0.2591555
125,1.0302325,0.67393,-0.3181965,0.8699025,0.519927,-0.2589365,0.6425825000000001,0.6769000000000001,-0.3128165,1.1959425,0.497987,-0.2844065,1.4400425000000001,0.58568,-0.4008265,0.5457825000000001,0.879,-0.3938365,1.4484625,0.80295,-0.5716165,0.9457125000000001,0.00401,0.0043004999999999,1.0542874999999998,-0.00401,-0.0043004999999999,0.6780325,-0.05484,-0.3836965,1.2448425,-0.04586,-0.4403865,0.8147625000000001,-0.42436,-0.2269965,1.2197025,-0.41314,-0.2568365
126,1.0309705,0.67316,-0.31659,0.8709264999999999,0.518898,-0.25698,0.6434664999999999,0.6757599999999999,-0.30996,1.1967665,0.4977169999999999,-0.28317,1.4411365,0.58483,-0.39923,0.5452865,0.8788199999999999,-0.39099,1.4497365,0.80263,-0.56965,0.9456465000000001,0.0041399999999999,0.0045529999999999,1.0543535,-0.00414,-0.004553,0.6776765,-0.04793,-0.3839,1.2461465,-0.03792,-0.44116,0.8213965000000001,-0.41649,-0.22024,1.2208364999999999,-0.40408,-0.25459
127,1.0315474999999998,0.6732349999999999,-0.31524,0.8717785,0.517501,-0.25532,0.6444985,0.674765,-0.3074,1.1974885,0.4976619999999999,-0.2822,1.4422985,0.583935,-0.39841,0.5445985,0.878595,-0.38836,1.4508485,0.8021449999999999,-0.5683100000000001,0.9455884999999999,0.0040549999999999,0.00478,1.0544114999999998,-0.004055,-0.0047799999999999,0.6772585,-0.040595,-0.38389,1.2470385,-0.030795,-0.44213,0.8280485000000001,-0.408335,-0.21341,1.2216385,-0.395285,-0.25231
128,1.031872,0.672335,-0.315067,0.8724810000000001,0.5166970000000001,-0.253967,0.645121,0.673595,-0.3053269999999999,1.197781,0.498434,-0.281487,1.443131,0.5825750000000001,-0.398507,0.543601,0.877435,-0.386047,1.4515609999999999,0.800435,-0.567967,0.945561,0.003935,0.005038,1.054439,-0.0039349999999999,-0.005038,0.676721,-0.0344149999999999,-0.383217,1.247191,-0.0252049999999999,-0.4432169999999999,0.8343010000000001,-0.4012549999999999,-0.207957,1.221941,-0.3878549999999999,-0.250407
129,1.0319315,0.671135,-0.316164,0.8728365000000001,0.516452,-0.253364,0.6454565,0.672945,-0.303584,1.1976165,0.499014,-0.281504,1.4434965,0.579675,-0.399984,0.5423465000000001,0.877235,-0.384104,1.4524565,0.796945,-0.569574,0.9455565,0.003815,0.005223,1.0544434999999999,-0.003815,-0.0052229999999999,0.6756765,-0.0292749999999999,-0.382064,1.2466365,-0.0207549999999999,-0.444504,0.8399965,-0.394915,-0.2034639999999999,1.2218865,-0.381375,-0.249184
130,1.0320255,0.66926,-0.3179114999999999,0.8727935,0.516335,-0.2531115,0.6457935,0.67207,-0.3019814999999999,1.1974035,0.499496,-0.2820515,1.4438535,0.575758,-0.4018515,0.5411435,0.8772599999999999,-0.3824114999999999,1.4539035,0.7925599999999999,-0.5718715,0.9455235,0.0039899999999999,0.0055645,1.0544765,-0.0039899999999999,-0.0055645,0.6744435000000001,-0.0256199999999999,-0.3813915,1.2457835,-0.0176899999999999,-0.4459415,0.8455735,-0.38969,-0.1990015,1.2217935,-0.37655,-0.2485015
131,1.032111,0.6669,-0.3201785,0.872927,0.515478,-0.2533785,0.646247,0.67139,-0.3005085,1.197347,0.49883,-0.2831885,1.444207,0.571047,-0.4045385,0.5401370000000001,0.87707,-0.3809085,1.455997,0.7869900000000001,-0.5752685,0.9454970000000001,0.00417,0.0056755,1.054503,-0.00417,-0.0056755,0.672857,-0.0220199999999999,-0.3812985,1.244717,-0.0145299999999999,-0.4470285,0.8514269999999999,-0.38593,-0.1943485,1.221637,-0.37292,-0.2479785
132,1.032266,0.6639999999999999,-0.322526,0.87317,0.512578,-0.253696,0.64674,0.67053,-0.298896,1.19726,0.496186,-0.284406,1.44448,0.564814,-0.407316,0.53938,0.8764099999999999,-0.3789059999999999,1.4582600000000001,0.7797499999999999,-0.578836,0.94547,0.00417,0.0056749999999999,1.05453,-0.00417,-0.005675,0.67094,-0.01954,-0.381226,1.24366,-0.01305,-0.447036,0.85141,-0.38435,-0.195566,1.22152,-0.3713599999999999,-0.2471459999999999
133,1.0324145,0.66088,-0.324633,0.8734745000000002,0.510658,-0.253773,0.6472445,0.66945,-0.297023,1.1972145,0.4938909999999999,-0.285253,1.4449345,0.558155,-0.410253,0.5386445,0.87571,-0.376303,1.4604445,0.77157,-0.5828329999999999,0.9454145,0.0044199999999999,0.0056749999999999,1.0545855,-0.00442,-0.0056749999999999,0.6689045,-0.01921,-0.380293,1.2424445,-0.0132299999999999,-0.447043,0.8517844999999999,-0.38468,-0.195533,1.2213645,-0.37173,-0.246213
134,1.032086,0.65943,-0.327403,0.87357,0.509221,-0.254083,0.64735,0.66945,-0.294873,1.19684,0.493282,-0.285953,1.4448999999999999,0.553895,-0.413543,0.5377799999999999,0.87571,-0.373543,1.4620499999999998,0.76503,-0.587333,0.94532,0.0044199999999999,0.005895,1.05468,-0.00442,-0.0058949999999999,0.66665,-0.01921,-0.378543,1.24076,-0.0132299999999999,-0.447273,0.85208,-0.38466,-0.195313,1.22112,-0.37199,-0.2465029999999999
135,1.0313455,0.65943,-0.331264,0.8733815,0.509108,-0.255394,0.6471215,0.66945,-0.293484,1.1961215,0.493282,-0.287584,1.4444115,0.551714,-0.417554,0.5367014999999999,0.87571,-0.371494,1.4631414999999999,0.76075,-0.5928640000000001,0.9452015,0.0044199999999999,0.006092,1.0547985,-0.00442,-0.006092,0.6642315000000001,-0.01921,-0.376664,1.2392615,-0.0132299999999999,-0.448524,0.8520015,-0.38426,-0.196424,1.2205815,-0.37209,-0.247764
136,1.030365,0.65943,-0.3357135,0.873201,0.509108,-0.2571235,0.646991,0.66945,-0.2922635,1.194901,0.493282,-0.2901135,1.443761,0.551714,-0.4216435,0.535571,0.87571,-0.3698135,1.463701,0.75922,-0.5986735000000001,0.945211,0.0044199999999999,0.0064175,1.054789,-0.00442,-0.0064175,0.6624410000000001,-0.0187,-0.3745035,1.238151,-0.01322,-0.4496735,0.846381,-0.38433,-0.2024935,1.219721,-0.37209,-0.2486835
137,1.028907,0.65746,-0.340763,0.872836,0.507138,-0.259943,0.646596,0.66854,-0.291823,1.193486,0.491312,-0.293713,1.442186,0.549744,-0.4264529999999999,0.534106,0.87431,-0.369243,1.4635259999999999,0.75725,-0.605473,0.9452160000000001,0.0043799999999999,0.0065539999999999,1.054784,-0.0043799999999999,-0.006554,0.660516,-0.0195,-0.3724229999999999,1.237296,-0.0148499999999999,-0.450563,0.8404060000000001,-0.3863,-0.209303,1.219306,-0.37406,-0.250703
138,1.0275195,0.654685,-0.3462544999999999,0.8722855,0.504964,-0.2633245,0.6463755,0.667485,-0.2924245,1.1924555,0.488086,-0.2980845,1.4408655000000001,0.545699,-0.4315445,0.5331155000000001,0.872915,-0.3696345,1.4635555,0.753205,-0.6120645,0.9452155,0.0044049999999999,0.0067324999999999,1.0547844999999998,-0.0044049999999999,-0.0067325,0.6595455,-0.0220749999999999,-0.3704745,1.2367955,-0.0182149999999999,-0.4511345,0.8348855,-0.390345,-0.2164944999999999,1.2189655,-0.378105,-0.2533945
139,1.0259195,0.650215,-0.352419,0.8716865,0.504207,-0.267619,0.6456865,0.666855,-0.294339,1.1905665,0.484116,-0.3035989999999999,1.4397365,0.53826,-0.437439,0.5317965,0.872065,-0.371259,1.4635665,0.745355,-0.619159,0.9451965,0.0048349999999999,0.007008,1.0548035,-0.004835,-0.007008,0.6587965,-0.028035,-0.368419,1.2363565,-0.0241149999999999,-0.4513089999999999,0.8293165,-0.3981950000000001,-0.223909,1.2187765,-0.385475,-0.257179
140,1.024069,0.6464000000000001,-0.3584315,0.870771,0.502251,-0.2719215,0.644861,0.66571,-0.2963814999999999,1.188361,0.480119,-0.3087215,1.438401,0.5322,-0.4428815,0.5301410000000001,0.87102,-0.3729415,1.463281,0.73755,-0.6256715,0.945211,0.00519,0.0072645,1.054789,-0.0051899999999999,-0.0072645,0.6583210000000002,-0.0352199999999999,-0.3659415,1.235481,-0.0309599999999999,-0.4512115,0.823081,-0.4073099999999999,-0.2311315,1.2179309999999999,-0.3945499999999999,-0.2610615
141,1.021683,0.64401,-0.3634095,0.869444,0.499535,-0.2763695,0.6435740000000001,0.66406,-0.2985395,1.1857739999999999,0.475006,-0.3136195,1.436434,0.526633,-0.4477795,0.5282640000000001,0.86934,-0.3748695,1.461844,0.7310300000000001,-0.6312695,0.945154,0.00561,0.0075014999999999,1.054846,-0.00561,-0.0075015,0.6575740000000001,-0.04392,-0.3634495,1.234264,-0.0398999999999999,-0.4508195,0.816254,-0.4185,-0.2389195,1.216714,-0.4059,-0.2650194999999999
142,1.0189674999999998,0.642105,-0.3685155,0.8680675,0.49587,-0.2807655,0.6415975,0.662725,-0.3006955,1.1827975,0.471585,-0.3187255,1.4340975,0.523378,-0.4528755,0.5262875,0.8689450000000001,-0.3770255,1.4597375,0.726775,-0.6363755,0.9451575,0.005545,0.0075005,1.0548425,-0.0055449999999999,-0.0075004999999999,0.6564475000000001,-0.0529049999999999,-0.3606955,1.2325475,-0.0495149999999999,-0.4501354999999999,0.8090575,-0.429925,-0.2461354999999999,1.2151375,-0.418405,-0.2686355
143,1.016282,0.640475,-0.3731755,0.8665309999999999,0.49173,-0.2842055,0.639591,0.660555,-0.3023755,1.179591,0.468265,-0.3233855,1.431741,0.5197670000000001,-0.4575355,0.5243710000000001,0.8670450000000001,-0.3787355,1.457401,0.722585,-0.6410355,0.9452210000000001,0.005485,0.0073834999999999,1.054779,-0.0054849999999999,-0.0073835,0.655181,-0.0640049999999999,-0.3573855,1.231001,-0.0615849999999999,-0.4486354999999999,0.802191,-0.443025,-0.2522855,1.213571,-0.432465,-0.2710655
144,1.0137049999999999,0.64068,-0.3770925,0.864906,0.489935,-0.2863925,0.637336,0.66045,-0.3029125,1.176386,0.46718,-0.3273025,1.429566,0.51922,-0.4612325,0.5221960000000001,0.86623,-0.3791225,1.455076,0.72126,-0.6449425,0.945326,0.00553,0.0072664999999999,1.054674,-0.0055299999999999,-0.0072664999999999,0.6543760000000001,-0.0753499999999999,-0.3536125,1.229496,-0.0731,-0.4467824999999999,0.800896,-0.45586,-0.2561925,1.212146,-0.44618,-0.2725725
145,1.0111375,0.6415,-0.3806395,0.8631885,0.486952,-0.2884095,0.6347985,0.66164,-0.3032795,1.1735385,0.465408,-0.3310695,1.4275785,0.52046,-0.4639995,0.5200184999999999,0.86563,-0.3790695,1.4527485,0.7229000000000001,-0.6483495,0.9456785,0.0050499999999999,0.0071644999999999,1.0543215,-0.0050499999999999,-0.0071645,0.6538085,-0.0868599999999999,-0.3500595,1.2283185,-0.0850199999999999,-0.4443295,0.7989885000000001,-0.46881,-0.2610195,1.2107385,-0.46001,-0.2754895
146,1.008838,0.641875,-0.3824545,0.861209,0.488015,-0.2890844999999999,0.6324390000000001,0.661265,-0.3029145,1.1705189999999999,0.466624,-0.3337245,1.426199,0.520785,-0.4652445,0.517789,0.863625,-0.3775644999999999,1.450939,0.723645,-0.6505945,0.9460110000000002,0.005195,0.0070865,1.0539889999999998,-0.005195,-0.0070864999999999,0.654169,-0.100285,-0.3457745,1.2275289999999999,-0.099675,-0.4416445,0.797079,-0.483815,-0.2658745,1.2093289999999999,-0.476105,-0.2763345
147,1.0065775,0.6438999999999999,-0.382521,0.8589795,0.4891799999999999,-0.289141,0.6300295,0.66282,-0.301241,1.1674995,0.46778,-0.335431,1.4246895,0.52262,-0.465561,0.5155495,0.8648199999999999,-0.374441,1.4493095,0.72636,-0.650861,0.9463995,0.00522,0.006985,1.0536005,-0.00522,-0.006985,0.6549695,-0.11471,-0.341311,1.2266095,-0.11459,-0.438171,0.7954295,-0.49967,-0.266501,1.2082895,-0.49274,-0.278811
148,1.004586,0.64649,-0.380888,0.856913,0.4922999999999999,-0.287398,0.627973,0.66286,-0.298408,1.165383,0.46796,-0.335128,1.423273,0.52529,-0.463908,0.5135230000000002,0.86433,-0.369938,1.447883,0.73017,-0.6486879999999999,0.94667,0.0055399999999999,0.006903,1.05333,-0.0055399999999999,-0.006903,0.656323,-0.1279699999999999,-0.3362779999999999,1.225783,-0.12833,-0.433968,0.7936030000000001,-0.51545,-0.268008,1.207493,-0.50928,-0.279158
149,1.0031925,0.64974,-0.3783285,0.8554575,0.49451,-0.2854784999999999,0.6264775,0.66393,-0.2947685,1.1638775,0.47095,-0.3345085,1.4229675,0.52815,-0.4600985,0.5121575,0.86621,-0.3646785,1.4469475,0.73431,-0.6448085,0.9469475,0.00531,0.0067725,1.0530525,-0.0053099999999999,-0.0067725,0.6581875000000001,-0.1415999999999999,-0.3314685,1.2253875,-0.1439799999999999,-0.4283985,0.7912175,-0.53209,-0.2699285,1.2072275,-0.5272399999999999,-0.2795585
150,1.002362,0.652795,-0.3743565,0.853856,0.497255,-0.2826865,0.6248760000000001,0.665975,-0.2905765,1.163136,0.473705,-0.3329765,1.423086,0.5325949999999999,-0.4558165,0.5109159999999999,0.8671850000000001,-0.3592365,1.446176,0.740425,-0.6394264999999999,0.947401,0.005195,0.0064425,1.052599,-0.005195,-0.0064424999999999,0.661366,-0.155825,-0.3263065,1.224736,-0.1585349999999999,-0.4222065,0.7894760000000001,-0.549425,-0.2714765,1.206766,-0.544845,-0.2790765
151,1.0018375,0.656255,-0.368919,0.8526025,0.5007550000000001,-0.279129,0.6240924999999999,0.667975,-0.285679,1.1626225,0.475765,-0.329679,1.4235025000000001,0.5364150000000001,-0.450639,0.5102125,0.8706550000000001,-0.353029,1.4460625,0.745445,-0.632409,0.9476635,0.005395,0.0061309999999999,1.0523365,-0.0053949999999999,-0.0061309999999999,0.6662125,-0.1710749999999999,-0.321329,1.2243225,-0.1743949999999999,-0.414579,0.7883125,-0.5679949999999999,-0.272209,1.2068125,-0.563365,-0.278459
152,1.001425,0.661545,-0.3628015,0.851415,0.505405,-0.2755714999999999,0.623305,0.6726449999999999,-0.2805415,1.162225,0.4781149999999999,-0.3258815,1.424115,0.542875,-0.4440815,0.509795,0.874725,-0.3463815,1.446845,0.7536849999999999,-0.6232215,0.948037,0.0054649999999999,0.0059074999999999,1.051963,-0.0054649999999999,-0.0059074999999999,0.671895,-0.185215,-0.3167115,1.223685,-0.188635,-0.4069215,0.787455,-0.5855650000000001,-0.2733215,1.206045,-0.5811550000000001,-0.2769915
153,1.0010165,0.665465,-0.356317,0.8502205,0.5100750000000001,-0.270747,0.6222105,0.674795,-0.275177,1.1621705,0.482275,-0.3204369999999999,1.4246604999999999,0.549995,-0.435477,0.5094605000000001,0.878055,-0.339227,1.4485005,0.7624949999999999,-0.613807,0.9483895,0.0054849999999999,0.005746,1.0516105,-0.005485,-0.005746,0.6788704999999999,-0.201075,-0.311867,1.2228505,-0.204355,-0.397727,0.7871005,-0.604495,-0.274337,1.2055505,-0.6001749999999999,-0.275177
154,1.0009549999999998,0.669995,-0.3492435,0.8492040000000001,0.5157050000000001,-0.2655634999999999,0.6210439999999999,0.675465,-0.2695735,1.162724,0.486235,-0.3146135,1.425284,0.556925,-0.4266835,0.509584,0.8809850000000001,-0.3318434999999999,1.450314,0.7711350000000001,-0.6031735,0.948707,0.005815,0.0056735,1.051293,-0.0058149999999999,-0.0056734999999999,0.687604,-0.2181249999999999,-0.3071935,1.222524,-0.2208149999999999,-0.3878535,0.786944,-0.624695,-0.2767735,1.205654,-0.620225,-0.2734735
155,1.0013619999999999,0.67684,-0.341037,0.848637,0.52173,-0.260327,0.620077,0.68076,-0.263797,1.1635069999999998,0.4906399999999999,-0.308157,1.424827,0.5671999999999999,-0.417617,0.5098870000000001,0.8867,-0.324687,1.451487,0.7836099999999999,-0.591127,0.949013,0.0057899999999999,0.005638,1.050987,-0.00579,-0.005638,0.6970270000000001,-0.2326099999999999,-0.303237,1.222377,-0.23495,-0.377647,0.787187,-0.64229,-0.2791869999999999,1.2061069999999998,-0.6378999999999999,-0.271977
156,1.00193,0.68035,-0.3320635,0.8481780000000001,0.52812,-0.2546835,0.619618,0.68494,-0.2583535,1.164448,0.49561,-0.3012835,1.4253580000000001,0.57781,-0.4067035,0.509908,0.8916499999999999,-0.3173935,1.452688,0.79677,-0.5775135,0.949318,0.0059299999999999,0.0053735,1.050682,-0.0059299999999999,-0.0053735,0.707598,-0.24731,-0.2995735,1.221878,-0.2502,-0.3668935,0.787778,-0.66013,-0.2803735,1.205668,-0.65639,-0.2697635
157,1.003086,0.6852199999999999,-0.321564,0.847702,0.53156,-0.248974,0.6191420000000001,0.6918799999999999,-0.252064,1.165892,0.5036499999999999,-0.293344,1.425872,0.59101,-0.396464,0.509952,0.89865,-0.3099739999999999,1.453832,0.81264,-0.563194,0.949696,0.0053499999999999,0.005275,1.050304,-0.00535,-0.005275,0.7190719999999999,-0.26224,-0.296674,1.2213720000000001,-0.26516,-0.355424,0.789102,-0.6772400000000001,-0.2806039999999999,1.205222,-0.67388,-0.268564
158,1.0046279999999999,0.69008,-0.310357,0.847456,0.53589,-0.243757,0.618706,0.69922,-0.246817,1.167876,0.50971,-0.285367,1.4263659999999998,0.60912,-0.387077,0.509896,0.90832,-0.302777,1.454856,0.82989,-0.5483870000000001,0.950101,0.00526,0.0050629999999999,1.049899,-0.00526,-0.0050629999999999,0.732356,-0.27686,-0.294157,1.220896,-0.2785,-0.344427,0.790776,-0.69336,-0.280327,1.204806,-0.6896899999999999,-0.265877
159,1.006185,0.693863,-0.2978155,0.8472310000000001,0.537473,-0.2379755,0.619001,0.705443,-0.2403055,1.170151,0.517783,-0.2753855,1.426891,0.6238630000000001,-0.3740255,0.5108010000000001,0.919513,-0.2944555,1.455771,0.845963,-0.5314955,0.950618,0.0042569999999999,0.0048705,1.049382,-0.0042569999999999,-0.0048705,0.746801,-0.291297,-0.2912755,1.218831,-0.293427,-0.3301855,0.793491,-0.709027,-0.2789155,1.204171,-0.705757,-0.2607155
160,1.0079319999999998,0.6972780000000001,-0.284949,0.8474740000000001,0.538208,-0.232239,0.619144,0.7122679999999999,-0.2337489999999999,1.172424,0.5261979999999999,-0.265339,1.428054,0.6395580000000001,-0.359869,0.5124139999999999,0.927148,-0.285379,1.456404,0.865448,-0.512599,0.951071,0.0032179999999999,0.004308,1.048929,-0.0032179999999999,-0.0043079999999999,0.761764,-0.304712,-0.287719,1.215474,-0.3097519999999999,-0.3161389999999999,0.798184,-0.7234320000000001,-0.2772989999999999,1.202704,-0.720102,-0.254259
161,1.008161,0.703917,-0.2705505,0.846231,0.535697,-0.2246505,0.617991,0.714717,-0.2252805,1.173051,0.532177,-0.2538205,1.425751,0.653597,-0.3433604999999999,0.5135810000000001,0.932987,-0.2737505,1.455021,0.882537,-0.4922505,0.950803,0.0019129999999999,0.0037814999999999,1.049197,-0.0019129999999999,-0.0037815,0.776761,-0.322393,-0.2798805,1.208921,-0.327423,-0.2978205,0.803381,-0.741113,-0.2710605,1.198831,-0.736133,-0.2440605
162,1.0077165,0.709284,-0.254097,0.8445605,0.540534,-0.211417,0.6169505,0.718494,-0.213147,1.1734205,0.534544,-0.238927,1.4228105,0.6628539999999999,-0.324687,0.5145204999999999,0.940464,-0.258797,1.4524005,0.895574,-0.468107,0.9501065,0.0014469999999999,0.003432,1.0498935,-0.001447,-0.003432,0.7921405,-0.341756,-0.266167,1.2004705,-0.346786,-0.275657,0.8100705,-0.760476,-0.258967,1.1928305,-0.7554960000000001,-0.229157
163,1.0077209999999999,0.71511,-0.2370725,0.8427709999999999,0.5449,-0.1988125,0.616181,0.72385,-0.2013025,1.173821,0.53862,-0.2241625,1.420031,0.67299,-0.3056325,0.516061,0.94841,-0.2441225,1.4494209999999998,0.90904,-0.4424725,0.949412,0.000931,0.0031425,1.0505879999999999,-0.000931,-0.0031425,0.806451,-0.35853,-0.2520125,1.1896309999999999,-0.36356,-0.2514425,0.816171,-0.77725,-0.2465125,1.186221,-0.7722399999999999,-0.2134325
164,1.007202,0.7187665,-0.213903,0.840805,0.5456065,-0.179463,0.6152949999999999,0.7253765,-0.182883,1.173725,0.5401665,-0.202533,1.417125,0.6845065,-0.279043,0.5175350000000001,0.9546965,-0.222693,1.445905,0.9203865,-0.410243,0.948186,0.0004324999999999,0.002901,1.051814,-0.0004324999999999,-0.002901,0.820515,-0.3768635,-0.227443,1.178415,-0.3811835,-0.221173,0.8223150000000001,-0.7960435,-0.224133,1.179195,-0.7875235,-0.191153
165,1.0067615,0.723576,-0.190608,0.8392185,0.5456660000000001,-0.1589479999999999,0.6145185,0.7251660000000001,-0.163398,1.1765385,0.5428360000000001,-0.177398,1.4143885,0.691836,-0.252898,0.5199885,0.959476,-0.200698,1.4426785,0.928876,-0.3774679999999999,0.9467355,-0.0001879999999999,0.002783,1.0532645,0.000188,-0.002783,0.8328685,-0.406024,-0.199658,1.1674285,-0.405634,-0.189348,0.8276685,-0.8149139999999999,-0.201288,1.1719985,-0.802514,-0.167578
166,1.0063289999999998,0.7292584999999999,-0.1682664999999999,0.8375900000000001,0.5457084999999999,-0.1390965,0.61357,0.7227184999999999,-0.1444265,1.1789,0.5435685,-0.1534365,1.41218,0.6961284999999999,-0.2260965,0.5224500000000001,0.9584485,-0.1796164999999999,1.4396799999999998,0.9302485,-0.3450365,0.945253,-0.0006164999999999,0.0026814999999999,1.054747,0.0006165,-0.0026815,0.84348,-0.4341315,-0.1720065,1.15644,-0.4294015,-0.1587365,0.83217,-0.8345115000000001,-0.1786565,1.16505,-0.8166115,-0.1441465
167,1.0061785,0.7338545,-0.1467055,0.8359475000000001,0.5465745,-0.1193555,0.6127375000000002,0.7188045,-0.1256955,1.1810475,0.5432245,-0.1301555,1.4099175,0.6928445,-0.1998755,0.5240275,0.9560745,-0.1609955,1.4366575,0.9270645,-0.3137655,0.9437985,-0.0008035,0.0025134999999999,1.0562015,0.0008034999999999,-0.0025135,0.8523075,-0.4616355,-0.1438255,1.1456375,-0.4524054999999999,-0.1294955,0.8358775,-0.8547555,-0.1550155,1.1579975,-0.8298455,-0.1203755
168,1.0064095,0.7385010000000001,-0.1255075,0.8342505,0.549901,-0.0986035,0.6109605,0.713931,-0.1079075,1.1832705,0.541181,-0.1073974999999999,1.4085804999999998,0.690391,-0.1753275,0.5242705,0.946791,-0.1441875,1.4339005,0.921581,-0.2841475,0.9422985,-0.000218,0.0021565,1.0577015,0.0002179999999999,-0.0021565,0.8588805000000002,-0.4869489999999999,-0.1163474999999999,1.1365405,-0.4737789999999999,-0.1029075,0.8383205,-0.872799,-0.1327875,1.1511205,-0.8405889999999999,-0.0986885
169,1.0065594999999998,0.7430515,-0.1047279999999999,0.8324085,0.5527615,-0.077801,0.6088184999999999,0.7069415,-0.0901879999999999,1.1853285,0.5380015,-0.08553,1.4074084999999998,0.6845815000000001,-0.151108,0.5229185000000001,0.9363415,-0.129618,1.4321785,0.9113015,-0.2564079999999999,0.9408215000000001,0.0003434999999999,0.0018169999999999,1.0591784999999998,-0.0003435,-0.001817,0.8633385,-0.5125885,-0.089248,1.1280385,-0.4947884999999999,-0.077236,0.8396885000000001,-0.8907484999999999,-0.1111979999999999,1.1442685,-0.8502784999999999,-0.077321
170,1.008676,0.74312,-0.085035,0.832128,0.5584699999999999,-0.058976,0.607408,0.6997599999999999,-0.074885,1.188948,0.53735,-0.065767,1.408028,0.6774,-0.129655,0.521408,0.92916,-0.118095,1.433498,0.90412,-0.233895,0.940051,0.001273,0.0015039999999999,1.059949,-0.0012729999999999,-0.001504,0.866948,-0.5349200000000001,-0.06646,1.123158,-0.51231,-0.056244,0.841468,-0.90541,-0.094465,1.140528,-0.85824,-0.060499
171,1.0115575,0.7450954999999999,-0.067918,0.8324405,0.5565754999999999,-0.0468499999999999,0.6063905,0.6978655,-0.063456,1.1923305,0.5382655000000001,-0.049301,1.4086105,0.6755055000000001,-0.1120479999999999,0.5204005,0.9264955,-0.109428,1.4360205,0.9022255,-0.216728,0.9397695,0.0013754999999999,0.0012229999999999,1.0602305,-0.0013755,-0.001223,0.8687205,-0.5517445000000001,-0.049744,1.1199605,-0.5244445,-0.040407,0.8417305000000002,-0.9141045,-0.084198,1.1381904999999999,-0.8608145,-0.048309
172,1.014019,0.745692,-0.051505,0.8329730000000001,0.554882,-0.034315,0.6042430000000001,0.696172,-0.052698,1.195653,0.538842,-0.032468,1.4082729999999999,0.6738120000000001,-0.095351,0.519333,0.924762,-0.100891,1.439893,0.900532,-0.205311,0.939462,0.0015539999999999,0.0008809999999999,1.060538,-0.0015539999999999,-0.0008809999999999,0.8696630000000001,-0.567638,-0.0332609999999999,1.118433,-0.533998,-0.028195,0.8417130000000002,-0.922488,-0.074181,1.136503,-0.862158,-0.03752
