sb224sc-HT22-VT27/4dt907/src/ml-research/a12/datafiles/kinect_good_preprocessed_A9_mediapipe/A115_kinect_mirrored.csv
FrameNo,nose_3d_x,nose_3d_y,nose_3d_z,left_shoulder_3d_x,left_shoulder_3d_y,left_shoulder_3d_z,left_elbow_3d_x,left_elbow_3d_y,left_elbow_3d_z,right_shoulder_3d_x,right_shoulder_3d_y,right_shoulder_3d_z,right_elbow_3d_x,right_elbow_3d_y,right_elbow_3d_z,left_wrist_3d_x,left_wrist_3d_y,left_wrist_3d_z,right_wrist_3d_x,right_wrist_3d_y,right_wrist_3d_z,left_hip_3d_x,left_hip_3d_y,left_hip_3d_z,right_hip_3d_x,right_hip_3d_y,right_hip_3d_z,left_knee_3d_x,left_knee_3d_y,left_knee_3d_z,right_knee_3d_x,right_knee_3d_y,right_knee_3d_z,left_ankle_3d_x,left_ankle_3d_y,left_ankle_3d_z,right_ankle_3d_x,right_ankle_3d_y,right_ankle_3d_z
65,1.0164385,0.7120154999999999,-0.005447,0.8662915000000001,0.5308155000000001,-0.040186,0.7863115,0.8101555,-0.101687,1.1849915,0.5268155000000001,-0.011838,1.2838915,0.7722655,-0.073831,0.7938215,1.0815355,-0.127637,1.2915015,1.0513355,-0.121167,0.9303775,0.0041785,0.000996,1.0696225,-0.0041785,-0.000996,0.8488515,-0.5240345,-0.066991,1.1591815,-0.5415145,-0.048109,0.8119315,-0.8974745,-0.08702,1.2043915,-0.9133245,-0.0681119999999999
66,1.020034,0.710042,-0.0127105,0.868452,0.528012,-0.0472795,0.7863519999999999,0.805042,-0.1106434999999999,1.185492,0.527372,-0.0175185,1.285262,0.769652,-0.0837285,0.795022,1.077612,-0.1380134999999999,1.292912,1.048112,-0.1344634999999999,0.93034,0.0036539999999999,-0.0005675,1.06966,-0.003654,0.0005675,0.848522,-0.5204679999999999,-0.0820274999999999,1.160962,-0.5270079999999999,-0.0625555,0.8127920000000001,-0.893028,-0.0922385,1.205822,-0.899848,-0.0723345
67,1.023563,0.709361,-0.019636,0.870752,0.5244310000000001,-0.054695,0.786422,0.803241,-0.118822,1.185702,0.5262610000000001,-0.0238379999999999,1.2866520000000001,0.7685310000000001,-0.093233,0.796792,1.077301,-0.147572,1.294442,1.048501,-0.146632,0.930158,0.0033369999999999,-0.0013839999999999,1.069842,-0.0033369999999999,0.001384,0.847602,-0.506579,-0.096054,1.163682,-0.513119,-0.076626,0.812882,-0.879039,-0.095389,1.207372,-0.8859589999999999,-0.07596
68,1.026858,0.706576,-0.0268415,0.872806,0.520956,-0.0618815,0.786946,0.801566,-0.1274565,1.1858659999999999,0.524726,-0.0301365,1.288026,0.765846,-0.1027445,0.798536,1.075386,-0.1574065,1.296096,1.048186,-0.1588065,0.930013,0.003313,-0.0024174999999999,1.069987,-0.003313,0.0024175,0.846486,-0.492994,-0.1110265,1.166996,-0.499534,-0.0907675,0.813236,-0.8654540000000001,-0.0983525,1.208926,-0.872374,-0.0801765
69,1.02858,0.7036815,-0.0330005,0.87477,0.5176915,-0.0677575,0.7872,0.7967915,-0.1358925,1.1859899999999999,0.5215015,-0.0360525,1.28949,0.7635115,-0.1117525,0.8002500000000001,1.0735915,-0.1664925,1.2977699999999999,1.0494915,-0.1706125,0.92975,0.0030394999999999,-0.0031735,1.07025,-0.0030395,0.0031734999999999,0.8446300000000001,-0.4778885,-0.1261624999999999,1.17109,-0.4844285,-0.1039345,0.81342,-0.8503485000000001,-0.1006215,1.21069,-0.8572685,-0.0835535
70,1.0302425,0.699176,-0.0377825,0.8764535,0.514566,-0.0721535,0.7878335,0.791686,-0.1428205,1.1861435,0.518316,-0.0404805,1.2909735,0.758726,-0.1196605,0.8020035,1.0715059999999998,-0.1737505,1.2993035,1.045106,-0.1817405,0.9294065,0.002972,-0.0040835,1.0705935,-0.0029719999999999,0.0040835,0.8422335,-0.468274,-0.1394205,1.1769235,-0.472434,-0.1156205,0.8129135000000001,-0.840104,-0.1019855,1.2136235,-0.8447739999999999,-0.0859585
71,1.0319985,0.6968095,-0.0434775,0.8778684999999999,0.5101295,-0.0782605,0.7887085,0.7881895,-0.1497995,1.1863785,0.5130495,-0.0460275,1.2924185000000001,0.7584895,-0.1278294999999999,0.8045185,1.0718394999999998,-0.1814494999999999,1.3008885000000001,1.0421395,-0.1929294999999999,0.9290035,0.0032324999999999,-0.0046854999999999,1.0709965,-0.0032324999999999,0.0046855,0.8399885,-0.4577405,-0.1535794999999999,1.1843185,-0.4618405,-0.1281095,0.8135885,-0.8283105,-0.1065545,1.2174085,-0.8332505,-0.0897285
72,1.033733,0.6938635,-0.0496895,0.878653,0.5062335,-0.0842445,0.790403,0.7853034999999999,-0.1572545,1.186533,0.5085235,-0.0513315,1.293583,0.7566735,-0.1359545,0.807123,1.0656435,-0.1891645,1.302083,1.0375235,-0.2036745,0.928589,0.0032724999999999,-0.0053265,1.071411,-0.0032725,0.0053265,0.837673,-0.4447965,-0.1675445,1.191953,-0.4462565,-0.1406045,0.813193,-0.8134465000000001,-0.1130745,1.222133,-0.8153565,-0.0937114999999999
73,1.0349645,0.6922945,-0.0554765,0.8796465,0.5019645,-0.0904095,0.7918864999999999,0.7814145,-0.1645165,1.1866065,0.5060045,-0.0561925,1.2948265,0.7554645000000001,-0.1438165,0.8097965,1.0608045,-0.1963865,1.3030265,1.0325645,-0.2146865,0.9283075,0.0032495,-0.0060165,1.0716925,-0.0032495,0.0060165,0.8353965,-0.4310555,-0.1828765,1.2005964999999998,-0.4300655,-0.1540265,0.8125964999999999,-0.7975255,-0.1239265,1.2280464999999998,-0.7966854999999999,-0.0987715
74,1.0358195,0.6914525,-0.0647325,0.8805965,0.4995625,-0.1004805,0.7926965,0.7810725000000001,-0.1756724999999999,1.1867265,0.5042424999999999,-0.0653035,1.2958865,0.7554624999999999,-0.1552425,0.8122665,1.0585025,-0.2073424999999999,1.3039165,1.0286825,-0.2289525,0.9281385,0.0032805,-0.0062715,1.0718615,-0.0032804999999999,0.0062714999999999,0.8329565000000001,-0.4141075,-0.2019024999999999,1.2094765,-0.4117875,-0.1735425,0.8119665,-0.7782674999999999,-0.1399625,1.2341765,-0.7757674999999999,-0.1080494999999999
75,1.0365495,0.69164,-0.077076,0.8815405000000001,0.49749,-0.113779,0.7934505000000001,0.7839499999999999,-0.18896,1.1872305,0.50198,-0.077796,1.2971705,0.7579899999999999,-0.16846,0.8145005,1.05997,-0.22058,1.3047505,1.03332,-0.24352,0.9277934999999999,0.00375,-0.006083,1.0722065,-0.00375,0.0060829999999999,0.8307305,-0.39472,-0.2313899999999999,1.2214105,-0.39119,-0.20156,0.8110105,-0.75665,-0.16115,1.2416005,-0.75263,-0.12605
76,1.0366705,0.688585,-0.089649,0.8815775000000001,0.496805,-0.125362,0.7934075,0.783485,-0.202862,1.1872475,0.500375,-0.088976,1.2977475,0.7542550000000001,-0.181972,0.8157775,1.054695,-0.234532,1.3047775,1.025605,-0.259042,0.9276015,0.003935,-0.0057869999999999,1.0723985,-0.0039349999999999,0.005787,0.8286575,-0.376505,-0.259282,1.2310675,-0.3706449999999999,-0.228142,0.8097675,-0.736855,-0.183562,1.2472775,-0.7320249999999999,-0.144592
77,1.036814,0.6904049999999999,-0.103188,0.881698,0.496755,-0.139106,0.793278,0.781075,-0.218384,1.187378,0.497465,-0.102542,1.298398,0.755085,-0.196284,0.8167680000000002,1.054775,-0.249714,1.304948,1.0240049999999998,-0.275154,0.927476,0.0042649999999999,-0.005385,1.072524,-0.004265,0.005385,0.826658,-0.353425,-0.288634,1.2411780000000001,-0.345245,-0.256614,0.808838,-0.712165,-0.206164,1.252688,-0.706245,-0.164374
78,1.0377095,0.69021,-0.1165445,0.8826685000000001,0.4989599999999999,-0.1520475,0.7937585,0.7805000000000001,-0.2332475,1.1877985,0.49596,-0.1156025,1.2994284999999999,0.75356,-0.2110475,0.8178785,1.05272,-0.2653375,1.3052685,1.02106,-0.2908775,0.9274755,0.0047999999999999,-0.0050344999999999,1.0725245,-0.0047999999999999,0.0050345,0.8254885000000001,-0.3311999999999999,-0.3161775,1.2509085,-0.3221299999999999,-0.2842175,0.8081685000000001,-0.68946,-0.2283875,1.2586685,-0.68263,-0.1840775
79,1.0385695,0.69301,-0.1295975,0.8832595000000001,0.50031,-0.1648795,0.7937795,0.78073,-0.2479694999999999,1.1879895,0.49496,-0.1289785,1.3003295,0.75536,-0.2252694999999999,0.8189095,1.05428,-0.2806095,1.3056495,1.02488,-0.3063695,0.9274425,0.00475,-0.0039895,1.0725575,-0.0047499999999999,0.0039895,0.8240095000000001,-0.30623,-0.3436595,1.2601095,-0.2964799999999999,-0.3109495,0.8078595,-0.66394,-0.2510795,1.2643295,-0.6545799999999999,-0.2038395
80,1.0392795,0.6934899999999999,-0.143558,0.8837815000000001,0.5035999999999999,-0.1771339999999999,0.7941515,0.77882,-0.263544,1.1881815,0.4959399999999999,-0.142423,1.3013215,0.75437,-0.240704,0.8201215,1.052,-0.297374,1.3059515,1.02581,-0.3237939999999999,0.9274035,0.0045499999999999,-0.0033659999999999,1.0725965,-0.0045499999999999,0.003366,0.8233315,-0.28571,-0.369824,1.2680315,-0.2753300000000001,-0.336714,0.8082615,-0.6427200000000001,-0.2736039999999999,1.2694815,-0.63126,-0.223634
81,1.039965,0.694215,-0.157049,0.88387,0.507115,-0.189543,0.7944,0.776755,-0.278443,1.18906,0.495425,-0.156382,1.30227,0.754215,-0.256703,0.82124,1.055855,-0.3140929999999999,1.3062,1.028785,-0.3417829999999999,0.92744,0.0049849999999999,-0.0030879999999999,1.07256,-0.004985,0.003088,0.82365,-0.265775,-0.3950629999999999,1.27534,-0.253365,-0.3619529999999999,0.80889,-0.620605,-0.294023,1.27359,-0.607125,-0.243053
82,1.040755,0.694445,-0.1706905,0.883805,0.507895,-0.2020405,0.794665,0.7763249999999999,-0.2933705,1.190095,0.495065,-0.1711225,1.303475,0.7536149999999999,-0.2732105,0.8224250000000001,1.058455,-0.3313205,1.306765,1.031545,-0.3602805,0.927505,0.0049249999999999,-0.0029745,1.072495,-0.004925,0.0029745,0.824215,-0.246735,-0.4194305,1.281465,-0.231985,-0.3861105,0.8098850000000001,-0.5995550000000001,-0.3102105,1.276445,-0.583755,-0.2623505
83,1.041312,0.69589,-0.179944,0.883814,0.5062800000000001,-0.20977,0.7943440000000002,0.7728200000000001,-0.3030699999999999,1.190674,0.49295,-0.180788,1.304664,0.75124,-0.2853,0.823304,1.05747,-0.34412,1.307394,1.0268000000000002,-0.37432,0.927494,0.00467,-0.0026259999999999,1.072506,-0.00467,0.002626,0.825204,-0.2284699999999999,-0.43826,1.287124,-0.21092,-0.4022099999999999,0.810724,-0.57946,-0.3204,1.279014,-0.56098,-0.27668
84,1.04201,0.694025,-0.1863905,0.8838090000000001,0.504735,-0.2138685,0.794219,0.767835,-0.3098885,1.191019,0.491675,-0.1870865,1.305799,0.7455050000000001,-0.2950085,0.8240190000000001,1.057945,-0.3527485,1.307849,1.018205,-0.3853785,0.927719,0.0043549999999999,-0.0027014999999999,1.072281,-0.0043549999999999,0.0027014999999999,0.825859,-0.2153849999999999,-0.4451585,1.289029,-0.1978349999999999,-0.4085285,0.811529,-0.566375,-0.3244785,1.279939,-0.547895,-0.2821185
85,1.042656,0.6931700000000001,-0.191531,0.883722,0.50368,-0.217702,0.794162,0.76249,-0.316082,1.191312,0.49092,-0.19322,1.3068819999999999,0.74361,-0.304142,0.824582,1.06028,-0.360922,1.308272,1.0167000000000002,-0.395792,0.927862,0.0042099999999999,-0.0028279999999999,1.072138,-0.0042099999999999,0.002828,0.826402,-0.2021499999999999,-0.451002,1.290632,-0.1846,-0.414252,0.811962,-0.55314,-0.326982,1.280842,-0.53436,-0.285672
86,1.042987,0.68912,-0.1950065,0.8833260000000001,0.50221,-0.2191995,0.794036,0.75917,-0.3198795,1.191306,0.49079,-0.1969665,1.307646,0.73793,-0.3121195,0.824926,1.05828,-0.3675495,1.3084259999999999,1.01005,-0.4048695,0.927746,0.0039,-0.0030304999999999,1.072254,-0.0038999999999999,0.0030305,0.826616,-0.1938099999999999,-0.4539495,1.290846,-0.1762599999999999,-0.4165295,0.8121160000000001,-0.5448,-0.3279395,1.281006,-0.52565,-0.2867495
87,1.043282,0.686085,-0.1982265,0.882928,0.5009349999999999,-0.2207505,0.793828,0.7572949999999999,-0.3237505,1.1914779999999998,0.490625,-0.2007585,1.308228,0.734405,-0.3189905,0.825148,1.057775,-0.3735905,1.308558,1.004085,-0.4135505,0.927908,0.0037249999999999,-0.0032294999999999,1.072092,-0.003725,0.0032294999999999,0.827468,-0.188275,-0.4568105,1.290918,-0.1688050000000001,-0.4185505,0.8134080000000001,-0.5379550000000001,-0.3286505,1.280738,-0.517445,-0.2881205
88,1.043705,0.6809799999999999,-0.2012419999999999,0.882505,0.50021,-0.22225,0.793595,0.75457,-0.32746,1.191535,0.48978,-0.204054,1.308645,0.72966,-0.32564,0.8252349999999999,1.05459,-0.37983,1.308645,0.99734,-0.42122,0.927995,0.0040099999999999,-0.0032299999999999,1.072005,-0.00401,0.0032299999999999,0.828465,-0.18441,-0.45862,1.290925,-0.1633799999999999,-0.41966,0.8147750000000001,-0.53308,-0.3297,1.280855,-0.51169,-0.28978
89,1.044416,0.6764749999999999,-0.203849,0.8823150000000001,0.499145,-0.22392,0.7937550000000001,0.753735,-0.33083,1.192005,0.488825,-0.2075,1.309495,0.7268749999999999,-0.33135,0.8256450000000001,1.053305,-0.38543,1.309215,0.991625,-0.42811,0.928335,0.004195,-0.00321,1.071665,-0.004195,0.0032099999999999,0.830365,-0.180195,-0.4599,1.291325,-0.1579549999999999,-0.42082,0.816585,-0.528465,-0.33059,1.280945,-0.506175,-0.29046
90,1.044856,0.67459,-0.206635,0.8821820000000001,0.49648,-0.225885,0.7939220000000001,0.7524,-0.334325,1.192542,0.4879,-0.210805,1.310322,0.7241599999999999,-0.336495,0.8261820000000001,1.05195,-0.391075,1.309782,0.98483,-0.434595,0.928682,0.0039399999999999,-0.003145,1.071318,-0.0039399999999999,0.0031449999999999,0.8325819999999999,-0.17684,-0.461345,1.291672,-0.15419,-0.422325,0.818602,-0.52464,-0.331535,1.281232,-0.5021800000000001,-0.291965
91,1.045198,0.67123,-0.2095,0.8825070000000002,0.4968599999999999,-0.2274199999999999,0.794097,0.7497499999999999,-0.33758,1.193187,0.48631,-0.2131699999999999,1.310967,0.72124,-0.34094,0.826577,1.04886,-0.39646,1.3102369999999999,0.97617,-0.4402399999999999,0.928957,0.0041499999999999,-0.0031599999999999,1.071043,-0.0041499999999999,0.00316,0.835197,-0.17629,-0.4627799999999999,1.291727,-0.15363,-0.42374,0.820577,-0.52393,-0.33163,1.2813970000000001,-0.50208,-0.29296
92,1.045484,0.6675500000000001,-0.21237,0.8827390000000002,0.4967,-0.22943,0.794219,0.74794,-0.3412,1.193769,0.485,-0.21587,1.311529,0.71946,-0.3453,0.8269190000000001,1.04718,-0.4018199999999999,1.310799,0.97355,-0.44549,0.929119,0.00419,-0.0030799999999999,1.070881,-0.0041899999999999,0.0030799999999999,0.837379,-0.1763799999999999,-0.46472,1.291509,-0.15359,-0.42543,0.8220390000000001,-0.52416,-0.33225,1.281619,-0.50232,-0.29467
93,1.045595,0.6657900000000001,-0.215525,0.8828360000000001,0.4967,-0.231765,0.794206,0.7476,-0.344865,1.194056,0.48385,-0.218325,1.311976,0.71946,-0.349455,0.827026,1.0467,-0.407355,1.3110659999999998,0.97355,-0.451075,0.929136,0.00419,-0.003005,1.070864,-0.0041899999999999,0.0030049999999999,0.838996,-0.1763799999999999,-0.466495,1.291146,-0.15364,-0.426355,0.8230459999999999,-0.52416,-0.332955,1.281416,-0.50257,-0.296305
94,1.04565,0.6655200000000001,-0.21888,0.882878,0.4967,-0.2343599999999999,0.7942080000000001,0.7476,-0.34878,1.194278,0.48306,-0.22092,1.312408,0.71946,-0.35318,0.826778,1.0467,-0.41303,1.311228,0.97355,-0.45606,0.9291780000000001,0.00419,-0.0029599999999999,1.070822,-0.0041899999999999,0.00296,0.8404380000000001,-0.1763799999999999,-0.4670299999999999,1.290678,-0.15364,-0.42682,0.8238380000000001,-0.52416,-0.33387,1.280848,-0.50288,-0.2966999999999999
95,1.045829,0.6653800000000001,-0.22242,0.882788,0.49656,-0.23711,0.7940780000000001,0.74746,-0.35263,1.1943679999999999,0.48292,-0.22371,1.312708,0.71932,-0.35643,0.8261780000000001,1.04656,-0.41861,1.311288,0.97341,-0.46077,0.929408,0.00433,-0.0028799999999999,1.070592,-0.00433,0.00288,0.841708,-0.17652,-0.46715,1.289958,-0.1537499999999999,-0.42718,0.8244279999999999,-0.5243,-0.33484,1.279958,-0.50302,-0.2974299999999999
96,1.045937,0.664255,-0.225405,0.882646,0.4954949999999999,-0.239975,0.793866,0.746335,-0.356415,1.194126,0.481795,-0.226675,1.313126,0.718815,-0.359375,0.825246,1.045435,-0.424095,1.311336,0.976365,-0.465535,0.929746,0.0045449999999999,-0.0028549999999999,1.070254,-0.004545,0.0028549999999999,0.842686,-0.176975,-0.467235,1.289086,-0.154225,-0.4272849999999999,0.824796,-0.525135,-0.336315,1.278756,-0.503505,-0.297865
97,1.0459135,0.661965,-0.2282799999999999,0.8823765,0.493765,-0.24296,0.7934365,0.745035,-0.36009,1.1936764999999998,0.479505,-0.22974,1.3134565,0.718575,-0.3624699999999999,0.8240465,1.043675,-0.429,1.3111964999999999,0.980005,-0.47002,0.9299965,0.004635,-0.0028399999999999,1.0700034999999999,-0.004635,0.00284,0.8432665,-0.177885,-0.46708,1.2879965,-0.1554749999999999,-0.4269699999999999,0.8246964999999999,-0.5265949999999999,-0.33791,1.2771965,-0.505285,-0.29902
98,1.0459015,0.66003,-0.230585,0.8820955,0.49141,-0.245735,0.7929655,0.74363,-0.363645,1.1929755,0.47677,-0.232395,1.3138455,0.71885,-0.365455,0.8228255,1.04163,-0.433575,1.3109655,0.98363,-0.473705,0.9301655,0.00461,-0.002845,1.0698345,-0.00461,0.0028449999999999,0.8437255,-0.1799099999999999,-0.466425,1.2868955,-0.1577299999999999,-0.426305,0.8244955,-0.52918,-0.339075,1.2755855,-0.50786,-0.299725
99,1.0456275,0.65952,-0.23317,0.8818155,0.48884,-0.24825,0.7925155,0.74239,-0.3669,1.1923355,0.4741499999999999,-0.23472,1.3142055,0.71926,-0.3682,0.8217155,1.03956,-0.43761,1.3107655,0.98727,-0.47686,0.9302665,0.0045,-0.0029,1.0697335,-0.0045,0.0028999999999999,0.8439955,-0.18144,-0.46547,1.2856655,-0.1608899999999999,-0.42527,0.8241855,-0.53145,-0.3401,1.2738654999999999,-0.51115,-0.30022
100,1.0449655,0.660015,-0.235895,0.8814425,0.486035,-0.250645,0.7920225,0.741305,-0.369945,1.1918225,0.471475,-0.236835,1.3145025000000001,0.719855,-0.370385,0.8207225,1.0387149999999998,-0.441325,1.3105025000000001,0.990915,-0.479535,0.9302765,0.0043349999999999,-0.003045,1.0697235,-0.0043349999999999,0.0030449999999999,0.8439425,-0.183875,-0.464365,1.2843125,-0.164545,-0.424215,0.8237025,-0.534535,-0.341395,1.2719825,-0.515075,-0.300735
101,1.04441,0.661105,-0.2381599999999999,0.88137,0.484195,-0.2525199999999999,0.79155,0.740095,-0.37248,1.19129,0.469055,-0.2380799999999999,1.31473,0.720025,-0.37181,0.82003,1.037225,-0.44433,1.31034,0.994475,-0.48179,0.930204,0.004225,-0.0032499999999999,1.069796,-0.0042249999999999,0.00325,0.8434699999999999,-0.1870549999999999,-0.4632199999999999,1.2829,-0.1683949999999999,-0.42321,0.82302,-0.538235,-0.34216,1.27037,-0.519195,-0.30139
102,1.0441145,0.660775,-0.2401749999999999,0.8814145,0.482545,-0.2540949999999999,0.7911445,0.7388950000000001,-0.3747549999999999,1.1908145,0.466845,-0.238975,1.3150645,0.720105,-0.372795,0.8193345000000001,1.035625,-0.446965,1.3103544999999999,0.998175,-0.483795,0.9300865,0.0041249999999999,-0.0034749999999999,1.0699135,-0.0041249999999999,0.003475,0.8427344999999999,-0.1906949999999999,-0.461835,1.2815345,-0.172165,-0.422305,0.8222345,-0.542285,-0.342085,1.2689345,-0.523495,-0.302025
103,1.044172,0.66048,-0.2418349999999999,0.8816270000000002,0.48091,-0.255465,0.791017,0.73751,-0.376635,1.190527,0.46487,-0.239695,1.315507,0.7196,-0.3733649999999999,0.8188070000000001,1.03373,-0.449125,1.3107769999999999,1.00209,-0.485495,0.929971,0.0039899999999999,-0.0037349999999999,1.070029,-0.0039899999999999,0.003735,0.842097,-0.19422,-0.4605349999999999,1.280307,-0.17583,-0.421255,0.8216270000000001,-0.54612,-0.341785,1.267517,-0.52756,-0.302335
104,1.0446965,0.66061,-0.243095,0.8820465,0.47976,-0.256635,0.7912465,0.73641,-0.3782149999999999,1.1904964999999998,0.46322,-0.240255,1.3162065,0.7191700000000001,-0.373415,0.8185365,1.03218,-0.450995,1.3115665,1.00664,-0.486485,0.9298165,0.00395,-0.0039549999999999,1.0701835,-0.00395,0.003955,0.8417365,-0.19686,-0.459485,1.2793865,-0.17888,-0.4202849999999999,0.8212165,-0.54918,-0.341725,1.2665165,-0.53139,-0.302555
105,1.0454695,0.6607449999999999,-0.243265,0.8826215,0.4791249999999999,-0.257335,0.7917715000000001,0.735865,-0.379235,1.1906515,0.4621349999999999,-0.240381,1.3169515,0.718715,-0.372895,0.8187015000000001,1.030885,-0.452145,1.3126715,1.005265,-0.486815,0.9297265,0.0039449999999999,-0.004155,1.0702735,-0.003945,0.0041549999999999,0.8416115,-0.198715,-0.458685,1.2788115,-0.181255,-0.419425,0.8210015000000002,-0.5514450000000001,-0.341945,1.2659415,-0.5342950000000001,-0.302615
106,1.0462395,0.66083,-0.242895,0.8831875,0.47882,-0.257585,0.7923575,0.73552,-0.379695,1.1908175,0.46151,-0.240112,1.3176875,0.71817,-0.372035,0.8192075,1.03012,-0.452635,1.3138475,1.00311,-0.486615,0.9297124999999999,0.0039299999999999,-0.0043549999999999,1.0702875,-0.0039299999999999,0.0043549999999999,0.8414575,-0.2001799999999999,-0.458015,1.2784075,-0.1829599999999999,-0.418685,0.8207775000000002,-0.5531600000000001,-0.341885,1.2655875,-0.5362800000000001,-0.302425
107,1.0467715,0.660785,-0.242195,0.8837205,0.478995,-0.257485,0.7929705,0.735665,-0.379715,1.1910105,0.461205,-0.23953,1.3184505,0.7178249999999999,-0.370905,0.8199105000000001,1.029805,-0.452685,1.3150405,1.001685,-0.486045,0.9297055,0.0040149999999999,-0.004425,1.0702945,-0.0040149999999999,0.0044249999999999,0.8409705000000001,-0.2009249999999999,-0.457495,1.2780805,-0.184055,-0.418325,0.8204005,-0.554135,-0.341885,1.2652605000000001,-0.537595,-0.302315
108,1.0472215,0.661305,-0.241665,0.8841595,0.479435,-0.2573499999999999,0.7935395000000001,0.736035,-0.37967,1.1911995,0.461195,-0.2390189999999999,1.3191795,0.717375,-0.36998,0.8208695,1.029975,-0.45261,1.3164595000000001,1.001025,-0.48479,0.9295675,0.0041749999999999,-0.0044299999999999,1.0704325,-0.0041749999999999,0.0044299999999999,0.8402695,-0.2010749999999999,-0.45736,1.2778395,-0.184185,-0.41833,0.8199895,-0.5545249999999999,-0.3419,1.2652195,-0.5382549999999999,-0.30232
109,1.0475945,0.662165,-0.241364,0.8845895000000001,0.479935,-0.257255,0.7941294999999999,0.736495,-0.3796049999999999,1.1913895,0.4612349999999999,-0.238619,1.3198995,0.717195,-0.369135,0.8219095,1.030185,-0.452485,1.3183595000000001,0.997375,-0.481715,0.9293965,0.0043549999999999,-0.0044349999999999,1.0706035,-0.0043549999999999,0.0044349999999999,0.8393295000000001,-0.2008649999999999,-0.457385,1.2776395,-0.184365,-0.418335,0.8197194999999999,-0.554605,-0.341905,1.2649395,-0.538435,-0.3023249999999999
110,1.0477725,0.662875,-0.24122,0.8846625000000001,0.479935,-0.25725,0.7947025,0.736495,-0.37956,1.1916125,0.4612349999999999,-0.238608,1.3204725,0.717195,-0.36848,0.8229025,1.030185,-0.4522799999999999,1.3200625000000001,0.993405,-0.4789,0.9292235000000001,0.0043549999999999,-0.0044499999999999,1.0707764999999998,-0.0043549999999999,0.00445,0.8382425,-0.2006649999999999,-0.45742,1.2775625,-0.184365,-0.41834,0.8192325,-0.554605,-0.34192,1.2651325,-0.538555,-0.3026999999999999
111,1.047843,0.662885,-0.240949,0.884733,0.479935,-0.25695,0.795273,0.736495,-0.37911,1.191823,0.4612349999999999,-0.238331,1.320993,0.717195,-0.36757,0.8238030000000001,1.030185,-0.45163,1.321553,0.989285,-0.47585,0.929086,0.0043549999999999,-0.0044299999999999,1.070914,-0.0043549999999999,0.00443,0.8370230000000001,-0.2006649999999999,-0.4572,1.277673,-0.184365,-0.41849,0.8187330000000002,-0.554605,-0.34203,1.2654130000000001,-0.538635,-0.30311
112,1.0480035,0.662885,-0.2402,0.8848975,0.479935,-0.256245,0.7958875,0.736495,-0.378295,1.1921275,0.4612349999999999,-0.237667,1.3214975,0.716835,-0.3663849999999999,0.8247575,1.030185,-0.450455,1.3228075,0.984805,-0.472555,0.9290445,0.0043549999999999,-0.0043249999999999,1.0709555,-0.0043549999999999,0.0043249999999999,0.8359075,-0.2006649999999999,-0.456865,1.2778875,-0.184365,-0.418705,0.8184175,-0.554625,-0.3423549999999999,1.2658875,-0.538635,-0.3033949999999999
113,1.048145,0.6635949999999999,-0.2389029999999999,0.885044,0.4796249999999999,-0.255055,0.796394,0.736895,-0.376765,1.192374,0.4612849999999999,-0.2365339999999999,1.321914,0.716105,-0.364375,0.825584,1.030135,-0.448405,1.323714,0.980655,-0.4689049999999999,0.928938,0.0044549999999999,-0.0042549999999999,1.071062,-0.004455,0.004255,0.8348940000000001,-0.199955,-0.456875,1.278084,-0.184555,-0.4188949999999999,0.817994,-0.553915,-0.342765,1.266134,-0.5385150000000001,-0.303355
114,1.0481825,0.665225,-0.237235,0.8850945,0.479765,-0.253535,0.7968045,0.737365,-0.374705,1.1926245,0.461905,-0.235144,1.3222144999999998,0.715935,-0.361915,0.8263245,1.030675,-0.445825,1.3244544999999999,0.977415,-0.464865,0.9288105,0.0045449999999999,-0.004165,1.0711895,-0.004545,0.0041649999999999,0.8340445,-0.198305,-0.457225,1.2782845,-0.1839049999999999,-0.419225,0.8177045000000001,-0.552265,-0.343005,1.2667745,-0.537545,-0.303085
115,1.0481525,0.66714,-0.235388,0.8851015,0.48044,-0.251845,0.7971815000000001,0.7381599999999999,-0.3723849999999999,1.1928715,0.46297,-0.2335499999999999,1.3224315,0.7162599999999999,-0.359255,0.8269715,1.03161,-0.442905,1.3251015,0.97472,-0.460565,0.9286115,0.0047499999999999,-0.004055,1.0713885,-0.00475,0.004055,0.8334115,-0.19608,-0.457855,1.2787315,-0.18242,-0.419815,0.8174515,-0.5499,-0.343145,1.2671815,-0.5358700000000001,-0.302645
116,1.04792,0.66928,-0.233586,0.885067,0.48151,-0.250185,0.797457,0.73895,-0.370095,1.193077,0.46447,-0.2319069999999999,1.3225069999999999,0.71665,-0.356515,0.827377,1.03269,-0.4399349999999999,1.325517,0.97205,-0.456315,0.928442,0.00494,-0.0039649999999999,1.071558,-0.00494,0.0039649999999999,0.833187,-0.1936399999999999,-0.458445,1.279167,-0.18056,-0.420625,0.817227,-0.5471999999999999,-0.3427449999999999,1.267317,-0.5338499999999999,-0.3021749999999999
117,1.047532,0.6712849999999999,-0.232025,0.884912,0.4825649999999999,-0.24867,0.797562,0.739525,-0.36799,1.193152,0.4660849999999999,-0.230449,1.322452,0.717055,-0.35392,0.827482,1.033685,-0.4372,1.3255219999999999,0.969895,-0.45226,0.928392,0.0050949999999999,-0.00383,1.071608,-0.005095,0.00383,0.832912,-0.191155,-0.45891,1.279512,-0.178835,-0.4215,0.817002,-0.544425,-0.34233,1.2673320000000001,-0.531725,-0.30182
118,1.0473305,0.6738899999999999,-0.2307489999999999,0.8847495,0.4832999999999999,-0.247465,0.7975795,0.73986,-0.3662649999999999,1.1932095,0.46756,-0.2293599999999999,1.3224195,0.71943,-0.351495,0.8273895,1.03501,-0.434975,1.3254295,0.97192,-0.450335,0.9283605,0.0051299999999999,-0.0036849999999999,1.0716395,-0.00513,0.003685,0.8326895,-0.1890400000000001,-0.459285,1.2795895,-0.17748,-0.422635,0.8167195,-0.5420200000000001,-0.341865,1.2674395,-0.52993,-0.302245
119,1.0472495,0.675635,-0.230093,0.8846645,0.483615,-0.24681,0.7975845,0.740415,-0.3651,1.1932645,0.468415,-0.228848,1.3223745,0.720785,-0.34955,0.8272745,1.036365,-0.43345,1.3253245,0.973275,-0.44889,0.9282995,0.005025,-0.0036299999999999,1.0717005,-0.005025,0.0036299999999999,0.8324545000000001,-0.187955,-0.45941,1.2796145,-0.176665,-0.4236799999999999,0.8166945000000001,-0.540665,-0.34137,1.2676545,-0.5290250000000001,-0.30328
120,1.047002,0.676085,-0.229588,0.8844260000000002,0.483605,-0.24638,0.7974559999999999,0.740415,-0.36426,1.193196,0.468415,-0.228497,1.322136,0.720785,-0.34761,0.8270060000000001,1.036365,-0.43224,1.325026,0.973275,-0.44703,0.9280740000000001,0.005025,-0.0036,1.071926,-0.005025,0.0035999999999999,0.832126,-0.187955,-0.45918,1.2793759999999998,-0.1769949999999999,-0.42402,0.816336,-0.540665,-0.34115,1.267666,-0.5294350000000001,-0.30411
121,1.046392,0.676545,-0.229012,0.883826,0.483605,-0.24616,0.797086,0.740415,-0.36339,1.192836,0.468415,-0.228284,1.321536,0.720785,-0.34518,0.826346,1.036365,-0.43098,1.3237459999999999,0.973275,-0.4443899999999999,0.927812,0.005025,-0.00361,1.072188,-0.005025,0.00361,0.831536,-0.187955,-0.4592,1.278756,-0.177055,-0.42404,0.815746,-0.540635,-0.34117,1.267086,-0.529935,-0.30423
122,1.045134,0.677095,-0.2272489999999999,0.882465,0.483605,-0.245745,0.796095,0.740415,-0.361975,1.191805,0.468415,-0.227901,1.320185,0.7216549999999999,-0.342565,0.824685,1.036365,-0.429635,1.321785,0.979795,-0.441435,0.927699,0.005025,-0.003615,1.072301,-0.005025,0.003615,0.830195,-0.187955,-0.459245,1.277415,-0.177055,-0.424085,0.814435,-0.5406150000000001,-0.341035,1.265755,-0.529935,-0.304855
123,1.0438685,0.67805,-0.224631,0.8806975,0.4831999999999999,-0.2451249999999999,0.7947474999999999,0.74098,-0.360155,1.1903975,0.4685699999999999,-0.227243,1.3184575,0.7236899999999999,-0.339545,0.8224575000000001,1.03684,-0.427905,1.3197575,0.98689,-0.438615,0.9276314999999999,0.0048199999999999,-0.003615,1.0723685,-0.00482,0.003615,0.8281175000000001,-0.18819,-0.458985,1.2756075,-0.17746,-0.424145,0.8124775,-0.5407000000000001,-0.3403549999999999,1.2636475,-0.53034,-0.305045
124,1.0423785,0.6788099999999999,-0.222096,0.8796635,0.48633,-0.24251,0.7931635000000001,0.74134,-0.35792,1.1895035,0.47169,-0.223895,1.3164535,0.72571,-0.3359999999999999,0.8197135,1.03666,-0.42565,1.3174635000000001,0.99227,-0.4353399999999999,0.9276185,0.0046299999999999,-0.00361,1.0723815,-0.00463,0.00361,0.8257035,-0.19062,-0.4573399999999999,1.2734035,-0.18049,-0.42393,0.8099135,-0.54306,-0.3394399999999999,1.2614835,-0.53337,-0.30569
125,1.040934,0.678455,-0.2190059999999999,0.878116,0.487705,-0.240375,0.7910460000000001,0.741285,-0.355635,1.188236,0.473115,-0.22094,1.313936,0.7274750000000001,-0.3324749999999999,0.8163460000000001,1.035485,-0.423805,1.314576,0.996225,-0.432175,0.927887,0.004325,-0.003695,1.072113,-0.0043249999999999,0.003695,0.822766,-0.194775,-0.454585,1.270236,-0.1848149999999999,-0.423675,0.806736,-0.547285,-0.338645,1.258386,-0.538395,-0.306685
126,1.0393135,0.67733,-0.214218,0.8771665,0.49057,-0.237135,0.7894265,0.74367,-0.352145,1.1876465,0.47605,-0.21679,1.3122965,0.73289,-0.327735,0.8133565,1.0345,-0.420505,1.3121365,1.00075,-0.427415,0.9289045,0.0040499999999999,-0.003665,1.0710955,-0.0040499999999999,0.003665,0.8205965,-0.1992399999999999,-0.450415,1.2673265,-0.1886299999999999,-0.421805,0.8042965,-0.55242,-0.336385,1.2554465000000001,-0.54327,-0.306715
127,1.038191,0.676495,-0.208775,0.876348,0.495425,-0.2336949999999999,0.787858,0.746965,-0.348445,1.187028,0.482005,-0.212688,1.310778,0.738555,-0.323565,0.8106880000000001,1.033405,-0.416965,1.309818,1.005455,-0.422295,0.930028,0.003645,-0.0036049999999999,1.069972,-0.003645,0.003605,0.817978,-0.204525,-0.445835,1.264208,-0.193425,-0.419475,0.8015280000000001,-0.558825,-0.334155,1.2525979999999999,-0.549415,-0.3071049999999999
128,1.037602,0.67455,-0.20336,0.8756510000000001,0.49817,-0.230522,0.786591,0.75004,-0.34416,1.186491,0.48641,-0.208774,1.309361,0.7432799999999999,-0.31885,0.808281,1.03063,-0.41308,1.307941,1.01417,-0.41589,0.930951,0.00295,-0.00359,1.069049,-0.00295,0.0035899999999999,0.8157610000000001,-0.21162,-0.44079,1.260931,-0.2000299999999999,-0.4165,0.799211,-0.56724,-0.3314,1.249871,-0.55693,-0.30712
129,1.037567,0.670685,-0.1972239999999999,0.875588,0.500525,-0.2268319999999999,0.785908,0.751605,-0.33911,1.186268,0.486855,-0.20464,1.3083179999999999,0.745775,-0.31321,0.8060780000000001,1.023555,-0.4082099999999999,1.306648,1.017485,-0.40958,0.931935,0.002805,-0.00358,1.068065,-0.002805,0.00358,0.813778,-0.224575,-0.43259,1.257618,-0.212425,-0.41095,0.7966680000000002,-0.581755,-0.3286099999999999,1.247158,-0.570525,-0.30552
130,1.0378235,0.66701,-0.191176,0.8758285,0.50301,-0.223099,0.7854285,0.75529,-0.33398,1.1863285000000001,0.48724,-0.200528,1.3076185,0.7471399999999999,-0.30781,0.8041685000000001,1.02402,-0.40211,1.3060085,1.02315,-0.40309,0.9327995,0.0028599999999999,-0.0035,1.0672005,-0.00286,0.0035,0.8120985000000001,-0.23656,-0.42464,1.2547185,-0.22452,-0.40506,0.7946584999999999,-0.59546,-0.32548,1.2452285,-0.58426,-0.3042
131,1.038688,0.664435,-0.185271,0.876873,0.505735,-0.2186479999999999,0.785523,0.7590250000000001,-0.3283,1.187233,0.4911149999999999,-0.194929,1.307823,0.749125,-0.3016,0.803973,1.028095,-0.39479,1.306213,1.022835,-0.3958899999999999,0.9334850000000001,0.0028449999999999,-0.0034799999999999,1.0665149999999999,-0.002845,0.00348,0.811063,-0.250835,-0.41452,1.251763,-0.238845,-0.3967799999999999,0.793823,-0.6115950000000001,-0.32182,1.243473,-0.600155,-0.3020199999999999
132,1.0388695000000001,0.66177,-0.179494,0.8780935000000001,0.51091,-0.214036,0.7857635000000001,0.7646,-0.322345,1.1882635,0.49473,-0.189503,1.3083635,0.7519500000000001,-0.295265,0.8041435,1.03376,-0.3877549999999999,1.3070235000000001,1.02413,-0.387345,0.9339185,0.00307,-0.0034649999999999,1.0660815,-0.0030699999999999,0.0034649999999999,0.8102535000000001,-0.26514,-0.4036849999999999,1.2488934999999999,-0.25325,-0.3878749999999999,0.7932935,-0.62801,-0.317915,1.2417435000000001,-0.61601,-0.298705
133,1.0390575,0.6621,-0.173376,0.8785594999999999,0.51405,-0.211268,0.7861295,0.77165,-0.31625,1.1886895,0.49683,-0.186587,1.3091295,0.75731,-0.28889,0.8047595000000001,1.04046,-0.38066,1.3084995,1.02762,-0.37878,0.9342685,0.00328,-0.00349,1.0657315,-0.00328,0.0034899999999999,0.8099095000000001,-0.27821,-0.39322,1.2463795,-0.26581,-0.37927,0.7931695,-0.64302,-0.31377,1.2402695,-0.63021,-0.29449
134,1.038371,0.65954,-0.166905,0.8787130000000001,0.51605,-0.207198,0.786363,0.77515,-0.30903,1.1885729999999999,0.49706,-0.182655,1.309703,0.7597400000000001,-0.28147,0.8048830000000001,1.04644,-0.37117,1.309643,1.03207,-0.36843,0.934152,0.00347,-0.00362,1.065848,-0.00347,0.00362,0.8103230000000001,-0.29437,-0.37982,1.242253,-0.2818199999999999,-0.36649,0.7923930000000001,-0.66113,-0.30739,1.2378230000000001,-0.64765,-0.28776
135,1.0377025,0.65959,-0.160754,0.8789375,0.5174799999999999,-0.203092,0.7866175,0.78072,-0.30121,1.1883875,0.49908,-0.178327,1.3098175,0.75963,-0.27363,0.8049775,1.05208,-0.36178,1.3105475,1.03543,-0.35835,0.9341665,0.0034899999999999,-0.00368,1.0658335,-0.0034899999999999,0.0036799999999999,0.8109475000000002,-0.31043,-0.36604,1.2378575,-0.30058,-0.35311,0.7919075000000001,-0.67883,-0.30114,1.2352775,-0.66779,-0.27952
136,1.037012,0.659225,-0.154853,0.879151,0.516215,-0.199346,0.787141,0.7849649999999999,-0.29344,1.1883110000000001,0.497905,-0.173794,1.309491,0.760185,-0.2648,0.805051,1.058045,-0.35183,1.311541,1.039685,-0.34786,0.934378,0.0036049999999999,-0.00368,1.065622,-0.0036049999999999,0.0036799999999999,0.811751,-0.329185,-0.35219,1.2334109999999998,-0.320335,-0.33884,0.791521,-0.699025,-0.29432,1.232741,-0.6888650000000001,-0.27133
137,1.036923,0.659075,-0.1476849999999999,0.880247,0.5146850000000001,-0.19504,0.788527,0.787745,-0.28495,1.188747,0.497815,-0.168592,1.3093569999999999,0.761145,-0.2557,0.805407,1.064275,-0.34121,1.312867,1.039625,-0.33762,0.935152,0.003295,-0.0033899999999999,1.064848,-0.003295,0.00339,0.813097,-0.348755,-0.33708,1.228917,-0.341295,-0.32325,0.791587,-0.719905,-0.28715,1.230747,-0.711045,-0.26125
138,1.036611,0.660405,-0.141379,0.880997,0.512785,-0.191898,0.790557,0.791295,-0.276295,1.189087,0.5009250000000001,-0.16391,1.309187,0.766095,-0.247405,0.8056070000000001,1.074245,-0.331565,1.313917,1.045215,-0.327245,0.935858,0.002515,-0.003085,1.064142,-0.002515,0.003085,0.8152370000000001,-0.364105,-0.323835,1.223557,-0.357395,-0.306355,0.792707,-0.736415,-0.280175,1.228297,-0.728405,-0.249875
139,1.03599,0.6611435000000001,-0.134745,0.882045,0.5112734999999999,-0.18839,0.792745,0.7928835000000001,-0.26751,1.189425,0.5042635,-0.159191,1.308895,0.7702435000000001,-0.23891,0.805495,1.0764835,-0.32272,1.314825,1.0491935,-0.31761,0.935711,0.0022095,-0.0028099999999999,1.064289,-0.0022095,0.00281,0.819605,-0.3806565,-0.3041,1.218145,-0.3739465,-0.28856,0.795345,-0.7529665000000001,-0.2675499999999999,1.225825,-0.7449565,-0.23826
140,1.036096,0.660547,-0.128109,0.882699,0.509717,-0.184824,0.793609,0.7938369999999999,-0.25834,1.189509,0.504317,-0.155226,1.3097590000000001,0.773687,-0.23015,0.8065990000000001,1.074827,-0.31356,1.315679,1.053277,-0.30738,0.935619,0.001896,-0.0022599999999999,1.064381,-0.0018959999999999,0.0022599999999999,0.824109,-0.394013,-0.28498,1.213309,-0.387303,-0.27005,0.797979,-0.7663230000000001,-0.25466,1.2223389999999998,-0.758313,-0.22623
141,1.03677,0.660468,-0.122066,0.8828210000000001,0.506288,-0.18195,0.793971,0.792718,-0.249445,1.189051,0.504768,-0.151675,1.309891,0.776378,-0.221595,0.807321,1.072788,-0.303815,1.315891,1.056708,-0.2976649999999999,0.934938,0.0014199999999999,-0.0017249999999999,1.065062,-0.00142,0.001725,0.827981,-0.406362,-0.264965,1.207811,-0.399652,-0.251835,0.8000510000000001,-0.778672,-0.241885,1.218471,-0.771342,-0.215446
142,1.036633,0.6572895,-0.109759,0.882117,0.5012095000000001,-0.172691,0.793647,0.7903895,-0.234375,1.187837,0.5035995,-0.141855,1.309397,0.7765595,-0.206414,0.806957,1.0715595,-0.287185,1.314737,1.0598595,-0.281005,0.934024,0.0010235,-0.001915,1.065976,-0.0010234999999999,0.001915,0.830857,-0.4198705,-0.236675,1.199527,-0.4152105,-0.222635,0.799377,-0.7928305,-0.225025,1.213717,-0.7882205,-0.198698
143,1.0351735,0.6636625,-0.09389,0.8807445,0.5064125,-0.154648,0.7927845,0.7928125,-0.215767,1.1879045,0.5087125,-0.123858,1.3083445,0.7763825,-0.1879009999999999,0.8055145000000001,1.0719125,-0.265797,1.3128845,1.0574125,-0.258997,0.9334455,0.0014035,-0.0013019999999999,1.0665545,-0.0014034999999999,0.0013019999999999,0.8325545,-0.4405675,-0.204417,1.1909345,-0.4401075,-0.190257,0.7984245,-0.8143975,-0.206007,1.2096045,-0.8135275,-0.180567
144,1.0332615,0.668628,-0.078381,0.8791935,0.510518,-0.136742,0.7918635,0.7912180000000001,-0.197873,1.1878635,0.510228,-0.106534,1.3070335,0.775308,-0.170037,0.8040835,1.072058,-0.244743,1.3108435,1.056558,-0.236683,0.9329075,0.001931,-0.000838,1.0670925,-0.0019309999999999,0.0008379999999999,0.8341335000000001,-0.466092,-0.172116,1.1823435,-0.459332,-0.158737,0.7975135,-0.835892,-0.187323,1.2052034999999999,-0.8329519999999999,-0.162614
145,1.031774,0.6741670000000001,-0.0631475,0.8777150000000001,0.514877,-0.1187145,0.7906850000000001,0.7900870000000001,-0.1796525,1.187765,0.5115770000000001,-0.0892145,1.305635,0.773247,-0.1524195,0.8027150000000001,1.071927,-0.2241125,1.308625,1.055327,-0.2144225,0.932419,0.002393,-0.0004945,1.0675810000000001,-0.002393,0.0004944999999999,0.8354750000000001,-0.490623,-0.1397385,1.173895,-0.479673,-0.1278915,0.796525,-0.859713,-0.1690825,1.200945,-0.853193,-0.1445875
146,1.0300945,0.68048,-0.0488549999999999,0.8758195,0.52088,-0.10095,0.7889395,0.79103,-0.162411,1.1875695,0.51316,-0.07235,1.3040295,0.77181,-0.135435,0.8009895,1.07302,-0.204151,1.3070994999999999,1.04832,-0.192681,0.9320155,0.003495,-0.0003099999999999,1.0679845000000001,-0.003495,0.00031,0.8366395,-0.51113,-0.1101689999999999,1.1661595,-0.5014500000000001,-0.0987619999999999,0.7948895,-0.87941,-0.1529309999999999,1.1970895,-0.87478,-0.127862
147,1.0297575,0.6874135,-0.0348509999999999,0.8741645,0.5274435,-0.083393,0.7874045000000001,0.7926235,-0.1464099999999999,1.1875445,0.5152735,-0.0556079999999999,1.3024845,0.7686935,-0.11896,0.7995745000000001,1.0745335,-0.184386,1.3056645,1.0447335,-0.171726,0.9313945,0.0042815,-0.0002539999999999,1.0686055,-0.0042815,0.000254,0.8380145,-0.5321265,-0.0823779999999999,1.1605945,-0.5228465,-0.074016,0.7939944999999999,-0.8995665,-0.1359369999999999,1.1938245,-0.8958865,-0.114634
148,1.030049,0.6948325,-0.0209724999999999,0.872528,0.5336225,-0.0658755,0.785908,0.7949324999999999,-0.1305365,1.187618,0.5178925,-0.0386915,1.301118,0.7665624999999999,-0.1026395,0.798648,1.0758025,-0.1649775,1.304358,1.0429025,-0.1506875,0.930929,0.0049844999999999,-8.149999999999824e-05,1.069071,-0.0049845,8.149999999999824e-05,0.8372980000000001,-0.5536975000000001,-0.0607225,1.1554280000000001,-0.5433475,-0.0503275,0.792278,-0.9200975,-0.1235284999999999,1.190998,-0.9160175,-0.1022625
149,1.0308305,0.7025655,-0.0071395,0.8711405,0.5409255,-0.0482165,0.7845805000000001,0.7973555,-0.1155705,1.1880405,0.5208955,-0.0218495,1.3001205,0.7646155,-0.0870045,0.7983705,1.0770755,-0.1466945,1.3033705,1.0404755,-0.1306245,0.9303764999999999,0.0056305,-0.0001615,1.0696235,-0.0056304999999999,0.0001614999999999,0.8364905,-0.5747045,-0.0406845,1.1501705,-0.5628245,-0.0299925,0.7913705,-0.9400145,-0.1112665,1.1892405,-0.9347945,-0.0900285
150,1.0317875,0.7106480000000001,0.0063725,0.8699425000000001,0.5482480000000001,-0.0305054999999999,0.7826124999999999,0.799648,-0.1013955,1.1886525,0.5238780000000001,-0.0049074999999999,1.2997125,0.761548,-0.0719205,0.7984825,1.077808,-0.1294415,1.3026125,1.037308,-0.1110215,0.9296605,0.006306,-0.0002854999999999,1.0703395,-0.0063059999999999,0.0002855,0.8358025,-0.5940219999999999,-0.0232435,1.1453625,-0.581622,-0.0107335,0.7900725,-0.958182,-0.0989935,1.1879125,-0.952852,-0.0784725
151,1.033352,0.718958,0.0141395,0.8691600000000002,0.5549080000000001,-0.0189235,0.78098,0.8018580000000001,-0.0936325,1.18984,0.527468,0.0061665,1.30038,0.7584380000000001,-0.0633845,0.79933,1.077028,-0.1192975,1.3023799999999999,1.033728,-0.0980055,0.929468,0.006926,0.0003185,1.070532,-0.006926,-0.0003185,0.83565,-0.6109519999999999,-0.0143395,1.14351,-0.599542,-0.0022385,0.78948,-0.974342,-0.0926465,1.18709,-0.970212,-0.0732645
152,1.0337839999999998,0.7201380000000001,0.0171979999999999,0.8685970000000001,0.5549080000000001,-0.017249,0.779937,0.802058,-0.090825,1.1890869999999998,0.527468,0.00817,1.300017,0.7584380000000001,-0.059432,0.798477,1.077028,-0.116559,1.302007,1.038128,-0.092357,0.929603,0.006926,0.0002359999999999,1.070397,-0.006926,-0.000236,0.835247,-0.6154919999999999,-0.012714,1.142317,-0.605042,-0.000563,0.787827,-0.977822,-0.094392,1.1860369999999998,-0.974892,-0.071399
153,1.034184,0.720518,0.020522,0.867687,0.5549080000000001,-0.01545,0.7789070000000001,0.802058,-0.08793,1.1883569999999999,0.527468,0.010413,1.299737,0.7584380000000001,-0.054545,0.797547,1.077028,-0.113915,1.3013569999999999,1.038428,-0.087078,0.929705,0.006926,0.0001809999999999,1.070295,-0.006926,-0.000181,0.8349170000000001,-0.617642,-0.011018,1.141027,-0.609142,0.0010139999999999,0.786597,-0.980382,-0.095594,1.185057,-0.978352,-0.069886
154,1.0340365,0.720538,0.023321,0.8666385,0.554998,-0.013725,0.7776885,0.802058,-0.0855409999999999,1.1875585,0.527468,0.012502,1.2993785,0.7584380000000001,-0.0500629999999999,0.7965485,1.077028,-0.111582,1.3006085,1.038428,-0.082693,0.9298665,0.006926,0.0001539999999999,1.0701335,-0.006926,-0.000154,0.8341885,-0.620722,-0.009246,1.1396785,-0.611872,0.0024699999999999,0.7854885,-0.983782,-0.095871,1.1841885,-0.981162,-0.068777
155,1.0341179999999999,0.7218585,0.0264635,0.866317,0.5541385,-0.0119035,0.776957,0.8033685,-0.0834755,1.186997,0.5276885,0.0145875,1.299277,0.7591885,-0.0458285,0.795817,1.0758385,-0.1096434999999999,1.300287,1.0397385,-0.0788585,0.929878,0.0068555,0.0001475,1.070122,-0.0068555,-0.0001475,0.834167,-0.6158615,-0.0083605,1.139277,-0.6118015,0.0036065,0.7847770000000001,-0.9824715,-0.0945334999999999,1.183807,-0.9810015,-0.0682504999999999
156,1.0340494999999998,0.723163,0.0292424999999999,0.8660155,0.553493,-0.0102515,0.7763755,0.8045629999999999,-0.0817205,1.1865955,0.5279130000000001,0.0164904999999999,1.2993255,0.7596829999999999,-0.0422055,0.7952455,1.074943,-0.1080525,1.3004354999999999,1.039843,-0.0754775,0.9298955,0.006801,9.549999999999988e-05,1.0701045,-0.006801,-9.55000000000001e-05,0.8340555000000001,-0.614557,-0.0081444999999999,1.1392255,-0.6128370000000001,0.0045935,0.7842155,-0.981167,-0.0933625,1.1836555,-0.981577,-0.0680395
157,1.0340325,0.7245444999999999,0.031727,0.8658764999999999,0.5533745,-0.008728,0.7760865,0.8053845,-0.080149,1.1864765,0.5282844999999999,0.0182069999999999,1.2996064999999999,0.7601145,-0.039159,0.7948565,1.0744245,-0.1068839999999999,1.3011165,1.0391245,-0.0727179999999999,0.9299285,0.0068244999999999,-7.900000000000008e-05,1.0700715,-0.0068244999999999,7.900000000000008e-05,0.8346165,-0.6096855,-0.008114,1.1392665,-0.6134255000000001,0.004945,0.7852565,-0.9764755,-0.092431,1.1835365,-0.9820555,-0.068092
158,1.034084,0.725826,0.0340045,0.865811,0.553646,-0.0072845,0.775751,0.805526,-0.0786915,1.186521,0.5286759999999999,0.0197935,1.300061,0.760286,-0.0364205,0.7945409999999999,1.073916,-0.1057945,1.301451,1.038416,-0.0702935,0.929931,0.006841,-0.0002915,1.070069,-0.006841,0.0002914999999999,0.835021,-0.6051340000000001,-0.0075445,1.139091,-0.6113540000000001,0.0051885,0.7867109999999999,-0.972614,-0.0909265,1.183281,-0.980344,-0.0671794999999999
159,1.0340145,0.72684,0.0361235,0.8657655000000001,0.55416,-0.0058924999999999,0.7752955,0.8055599999999999,-0.0774115,1.1865555,0.52903,0.0211975,1.3004955,0.76001,-0.0341265,0.7940155,1.0727799999999998,-0.1050335,1.3018355,1.03798,-0.0690715,0.9299385,0.0069039999999999,-0.0005244999999999,1.0700615,-0.006904,0.0005245,0.8353555,-0.60088,-0.0068374999999999,1.1394455,-0.613,0.0057315,0.7872455,-0.96863,-0.0898255,1.1835155,-0.9811,-0.0673025
160,1.033955,0.7276865,0.037922,0.86571,0.5545565,-0.004453,0.7746500000000001,0.8053665,-0.076168,1.18656,0.5294265,0.0224359999999999,1.3008199999999999,0.7588865,-0.032941,0.79323,1.0719865,-0.104369,1.3021,1.0382865,-0.068308,0.929948,0.0069695,-0.000812,1.070052,-0.0069695,0.0008119999999999,0.83533,-0.5990435000000001,-0.006101,1.13983,-0.6146235,0.0061499999999999,0.78739,-0.9670135,-0.088987,1.18356,-0.9807035,-0.066668
161,1.033904,0.728292,0.039477,0.865669,0.554792,-0.0030589999999999,0.7734989999999999,0.804502,-0.0755499999999999,1.186539,0.529712,0.023566,1.301079,0.757592,-0.0322789999999999,0.792279,1.070982,-0.1039559999999999,1.302219,1.039482,-0.06765,0.929957,0.007023,-0.0010869999999999,1.070043,-0.007023,0.001087,0.834389,-0.600858,-0.005346,1.140169,-0.616318,0.006568,0.787569,-0.969038,-0.087407,1.183569,-0.980298,-0.066024
162,1.034032,0.7285205,0.040637,0.865239,0.5547305,-0.001281,0.7716890000000001,0.8025505,-0.07496,1.1866889999999999,0.5300005,0.0245099999999999,1.301599,0.7572205000000001,-0.031612,0.790909,1.0696405,-0.1035809999999999,1.302679,1.0385405,-0.0669849999999999,0.9298960000000001,0.0070785,-0.001354,1.070104,-0.0070785,0.0013539999999999,0.833959,-0.6042194999999999,-0.004711,1.140339,-0.6162694999999999,0.0070049999999999,0.788099,-0.9724695,-0.0857889999999999,1.183619,-0.9806895,-0.065372
163,1.0342915,0.7287899999999999,0.0418155,0.8651215000000001,0.55457,0.0002944999999999,0.7687915000000001,0.7989999999999999,-0.0744205,1.1872115,0.53035,0.0254275,1.3035415000000001,0.7554,-0.0309135,0.7897715000000001,1.06828,-0.1033684999999999,1.3042815,1.03248,-0.0689645,0.9297765,0.0071429999999999,-0.0015325,1.0702235,-0.007143,0.0015325,0.8349315000000002,-0.59984,-0.0042045,1.1405215,-0.6128300000000001,0.0074684999999999,0.7897515000000002,-0.96814,-0.0827344999999999,1.1839615000000001,-0.97945,-0.0640345
164,1.0345295,0.729169,0.0431229999999999,0.8651115,0.5546690000000001,0.0019229999999999,0.7630515,0.7910090000000001,-0.073934,1.1879114999999998,0.530859,0.026394,1.3069315,0.7520690000000001,-0.030532,0.7889615,1.064079,-0.10342,1.3061415,1.026779,-0.071357,0.9296805,0.007272,-0.001745,1.0703195,-0.0072719999999999,0.0017449999999999,0.8363015,-0.594171,-0.003622,1.1414914999999999,-0.615091,0.008176,0.7915814999999999,-0.963281,-0.080315,1.1847215,-0.979011,-0.062863
165,1.034607,0.729197,0.044531,0.865011,0.5550970000000001,0.003639,0.755501,0.7820870000000001,-0.074113,1.188601,0.531497,0.027433,1.313971,0.745537,-0.031976,0.787911,1.053767,-0.106565,1.308721,1.019367,-0.076113,0.929652,0.0073479999999999,-0.002023,1.070348,-0.007348,0.002023,0.8377810000000001,-0.588783,-0.0029599999999999,1.142601,-0.6170629999999999,0.008973,0.792281,-0.958413,-0.077751,1.1856309999999999,-0.978873,-0.062208
166,1.0347709999999999,0.7297145,0.046119,0.864741,0.5561945,0.005341,0.744121,0.7698245,-0.074958,1.189441,0.5322445,0.028501,1.323191,0.7381545,-0.03231,0.786941,1.0404345,-0.111248,1.312271,1.0082345,-0.084105,0.929679,0.0073835,-0.00233,1.070321,-0.0073834999999999,0.00233,0.839361,-0.5831355,-0.002928,1.143541,-0.6165055,0.009254,0.793091,-0.9531955,-0.0764509999999999,1.186551,-0.9770055,-0.061391
167,1.034802,0.7313850000000001,0.0480185,0.863031,0.553415,0.0072164999999999,0.730981,0.752475,-0.0761835,1.189711,0.531765,0.0305325,1.334051,0.722905,-0.0323245,0.782761,1.016605,-0.1176784999999999,1.318351,0.989405,-0.0940184999999999,0.9297660000000001,0.0071689999999999,-0.0026665,1.070234,-0.007169,0.0026664999999999,0.8398310000000001,-0.580955,-0.0022635,1.144551,-0.615835,0.0095675,0.794411,-0.949325,-0.0733245,1.187561,-0.973855,-0.0613134999999999
168,1.0347979999999999,0.733246,0.0502134999999999,0.861422,0.550486,0.0089454999999999,0.7171719999999999,0.728716,-0.0754865,1.189982,0.530386,0.0323775,1.343442,0.702876,-0.0312055,0.777672,0.985346,-0.1258294999999999,1.3272719999999998,0.959846,-0.1050095,0.92981,0.0070569999999999,-0.0029825,1.07019,-0.007057,0.0029824999999999,0.8402620000000001,-0.578864,-0.0016715,1.145792,-0.615414,0.0099354999999999,0.795282,-0.945974,-0.0698475,1.188622,-0.971004,-0.0611765
