sb224sc-HT22-VT27/4dt907/src/ml-research/a12/datafiles/kinect_good_preprocessed_A9_mediapipe/A15_kinect_mirrored.csv
FrameNo,nose_3d_x,nose_3d_y,nose_3d_z,left_shoulder_3d_x,left_shoulder_3d_y,left_shoulder_3d_z,left_elbow_3d_x,left_elbow_3d_y,left_elbow_3d_z,right_shoulder_3d_x,right_shoulder_3d_y,right_shoulder_3d_z,right_elbow_3d_x,right_elbow_3d_y,right_elbow_3d_z,left_wrist_3d_x,left_wrist_3d_y,left_wrist_3d_z,right_wrist_3d_x,right_wrist_3d_y,right_wrist_3d_z,left_hip_3d_x,left_hip_3d_y,left_hip_3d_z,right_hip_3d_x,right_hip_3d_y,right_hip_3d_z,left_knee_3d_x,left_knee_3d_y,left_knee_3d_z,right_knee_3d_x,right_knee_3d_y,right_knee_3d_z,left_ankle_3d_x,left_ankle_3d_y,left_ankle_3d_z,right_ankle_3d_x,right_ankle_3d_y,right_ankle_3d_z
12,1.0090675,0.7283855,0.06093,0.8402665,0.5000055,0.070833,0.6651065,0.6951055,0.082675,1.1719365,0.4854555,0.0601849999999999,1.3755765,0.6311955,0.0522099999999999,0.5536665000000001,0.8825155,0.0695959999999999,1.4983265000000001,0.7866255000000001,0.0053979999999999,0.9287815000000001,-0.0006135,-0.00033,1.0712184999999999,0.0006134999999999,0.0003299999999999,0.8798065,-0.4270845,0.0138599999999999,1.1279865,-0.3883645,-0.008507,0.8636965,-0.7854245,-0.007339,1.1315465,-0.7752644999999999,0.0016779999999999
13,1.0095205,0.7283935,0.0610254999999999,0.8403385000000001,0.5000034999999999,0.0708715,0.6650885,0.6951035,0.0826995,1.1719785,0.4854535,0.0602244999999999,1.3761585,0.6311935,0.0522224999999999,0.5539285,0.8824835,0.0692474999999999,1.4989685,0.7866434999999999,0.0054064999999999,0.9287805000000001,-0.0006144999999999,-0.0003375,1.0712195,0.0006145,0.0003374999999999,0.8798085,-0.4270865,0.0138844999999999,1.1279885,-0.3883665,-0.0084575,0.8637085000000001,-0.7854265,-0.0072105,1.1316085,-0.7751665,0.0021694999999999
14,1.0097805,0.7284134999999999,0.0612324999999999,0.8403125000000001,0.5000034999999999,0.0708824999999999,0.6648025,0.6951035,0.0827245,1.1719025,0.4854535,0.0602385,1.3766124999999998,0.6311935,0.0522094999999999,0.5541425,0.8815435,0.0689785,1.4994425,0.7866434999999999,0.0055414999999999,0.9287585,-0.0006144999999999,-0.0003415,1.0712415,0.0006145,0.0003414999999999,0.8797825,-0.4270865,0.0138614999999999,1.1279925,-0.3883665,-0.0084475,0.8638224999999999,-0.7854265,-0.0072055,1.1315325,-0.7749165,0.0026364999999999
15,1.009982,0.7284309999999999,0.0614239999999999,0.8402670000000001,0.5000009999999999,0.070886,0.6644570000000001,0.695101,0.082743,1.171877,0.485541,0.0602409999999999,1.377067,0.631191,0.052261,0.554207,0.8805609999999999,0.068802,1.499887,0.7866409999999999,0.0058939999999999,0.9287370000000001,-0.0006169999999999,-0.00034,1.0712629999999999,0.0006169999999999,0.00034,0.8797570000000001,-0.427089,0.0138259999999999,1.127977,-0.3883689999999999,-0.008446,0.863957,-0.785429,-0.007212,1.131397,-0.7749090000000001,0.0027149999999999
16,1.0100045,0.728987,0.0622005,0.8401495,0.499727,0.0709505,0.6637895,0.694677,0.0827395,1.1717795,0.485637,0.0604465,1.3772995,0.6311370000000001,0.0530705,0.5539895,0.8783770000000001,0.0687385,1.5001795,0.7866270000000001,0.0072034999999999,0.9287165,-0.000642,-0.0003365,1.0712835,0.000642,0.0003364999999999,0.8799595,-0.4271629999999999,0.0136984999999999,1.1280895,-0.3882629999999999,-0.0085044999999999,0.8643595,-0.785323,-0.0075124999999999,1.1315395,-0.774493,0.0024164999999999
17,1.009888,0.72935,0.062987,0.839852,0.49943,0.071016,0.663002,0.69413,0.082786,1.171622,0.48587,0.060741,1.377402,0.6310600000000001,0.054009,0.553682,0.87597,0.068717,1.500312,0.78663,0.008561,0.928701,-0.000691,-0.0003259999999999,1.071299,0.000691,0.0003259999999999,0.8801420000000001,-0.4276999999999999,0.0135659999999999,1.128102,-0.38826,-0.0085669999999999,0.864682,-0.7852899999999999,-0.007883,1.131662,-0.77423,0.001854
18,1.0096565,0.729665,0.0636915,0.8395005,0.4991649999999999,0.0710975,0.6621305,0.6936450000000001,0.0828505,1.1714505,0.486125,0.0611945,1.3774905,0.631055,0.0549215,0.5533305,0.873645,0.0686745,1.5003805,0.786735,0.0098895,0.9286905,-0.000738,-0.0003344999999999,1.0713095,0.0007379999999999,0.0003345,0.8803005,-0.428235,0.0134285,1.1279805,-0.3882549999999999,-0.0086574999999999,0.8649005,-0.785255,-0.0082774999999999,1.1317504999999999,-0.773925,0.0014185
19,1.00935,0.7299260000000001,0.064235,0.839136,0.498906,0.071136,0.661096,0.693156,0.082905,1.171196,0.486366,0.06154,1.3774359999999999,0.6311060000000001,0.055684,0.552926,0.871426,0.068471,1.500366,0.786876,0.011067,0.928664,-0.0007889999999999,-0.0003189999999999,1.071336,0.0007889999999999,0.0003189999999999,0.880386,-0.428774,0.012772,1.127786,-0.388314,-0.008994,0.865086,-0.785284,-0.009034,1.1318659999999998,-0.773784,0.000993
20,1.009008,0.7302195,0.06464,0.838819,0.4986395,0.071293,0.6599189999999999,0.6926395,0.0830249999999999,1.170919,0.4866695,0.062074,1.377309,0.6312495,0.056227,0.552369,0.8692995,0.068184,1.500239,0.7870995,0.0120459999999999,0.928636,-0.0008275,-0.000343,1.071364,0.0008275,0.0003429999999999,0.880439,-0.4293605,0.0112499999999999,1.127569,-0.3883605,-0.009649,0.8652690000000001,-0.7852605,-0.010125,1.132019,-0.7735705,0.0002309999999999
21,1.0087875,0.7303959999999999,0.0649465,0.8385675,0.498346,0.0714605,0.6587575,0.692116,0.0831705,1.1707175,0.486816,0.0625395,1.3772275,0.631396,0.0566155,0.5517475000000001,0.867266,0.0679325,1.5001875,0.7873359999999999,0.0128265,0.9286035,-0.000869,-0.0003344999999999,1.0713965,0.000869,0.0003345,0.8804575,-0.4298639999999999,0.0093285,1.1272375000000001,-0.389074,-0.0106364999999999,0.8652275,-0.7854140000000001,-0.0113644999999999,1.1319575,-0.773244,-0.0003454999999999
22,1.0086275,0.7305155,0.064951,0.8383475,0.4981155,0.071489,0.6576575,0.6914155000000001,0.083265,1.1705275,0.4869555,0.0628259999999999,1.3772075,0.6315155,0.056537,0.5509975,0.8653955,0.0674869999999999,1.5001275,0.7875655,0.012931,0.9285734999999999,-0.0009065,-0.0003089999999999,1.0714265,0.0009064999999999,0.000309,0.8804775,-0.4301445,0.006703,1.1269675,-0.3898945,-0.012184,0.8652275,-0.7855945,-0.0130549999999999,1.1320675,-0.7731144999999999,-0.0014759999999999
23,1.008476,0.730555,0.064304,0.8382350000000001,0.498095,0.071215,0.656895,0.690915,0.08291,1.170405,0.486825,0.062787,1.377275,0.6315449999999999,0.05593,0.550215,0.8652449999999999,0.066818,1.500165,0.7875949999999999,0.012158,0.928542,-0.000908,-0.000309,1.071458,0.000908,0.000309,0.880275,-0.4307149999999999,0.003358,1.126755,-0.391385,-0.0143169999999999,0.865015,-0.785845,-0.0151349999999999,1.131885,-0.7743450000000001,-0.0037909999999999
24,1.0082754999999999,0.7307295,0.0638645,0.8380875,0.4981994999999999,0.0710285,0.6561874999999999,0.6906995,0.0826565,1.1703075,0.4868694999999999,0.0627845,1.3773975,0.6315795000000001,0.0553095,0.5493875000000001,0.8653195,0.0661565,1.5002775,0.7875895,0.0112715,0.9285135,-0.0008714999999999,-0.0004334999999999,1.0714865,0.0008714999999999,0.0004334999999999,0.8800775,-0.4314605,-0.0005775,1.1265375,-0.3927305,-0.0169455,0.8648075,-0.7860205,-0.0177935,1.1317875,-0.7755004999999999,-0.0069814999999999
25,1.0080624999999999,0.7308995,0.063313,0.8378965,0.4983395,0.070851,0.6554765,0.6903495,0.082323,1.1700965,0.4869895,0.062714,1.3774465,0.6316195,0.054486,0.5484565,0.8653895,0.065373,1.5001965,0.7875895,0.010163,0.9284755,-0.0008554999999999,-0.0004889999999999,1.0715245,0.0008555,0.0004889999999999,0.8798665,-0.4321805,-0.004812,1.1262865,-0.3945905,-0.019953,0.8645865,-0.7862005,-0.0207189999999999,1.1316465,-0.7767205,-0.0107339999999999
26,1.007951,0.731171,0.0626755,0.8377829999999999,0.498471,0.0705855,0.654803,0.689901,0.0818385,1.170003,0.487281,0.0624684999999999,1.377603,0.631721,0.0534064999999999,0.5474129999999999,0.865461,0.0643924999999999,1.500253,0.7876610000000001,0.0088345,0.928453,-0.000887,-0.0004984999999999,1.071547,0.0008869999999999,0.0004984999999999,0.879713,-0.4329389999999999,-0.0093625,1.125823,-0.396649,-0.0232605,0.864233,-0.786409,-0.0238934999999999,1.131493,-0.777979,-0.0146714999999999
27,1.007828,0.7314155,0.0616865,0.837639,0.4987155,0.0701995,0.6540889999999999,0.6895555,0.0811415,1.169899,0.4876155,0.0618445,1.377459,0.6319855,0.0520464999999999,0.546389,0.8655855,0.0629305,1.500089,0.7878955,0.0070314999999999,0.928431,-0.0008894999999999,-0.0005814999999999,1.071569,0.0008895,0.0005814999999999,0.8795189999999999,-0.4336345,-0.0145955,1.125349,-0.3989645,-0.0273675,0.863829,-0.7864845,-0.0276345,1.131289,-0.7793645,-0.0198345
28,1.007692,0.7317125000000001,0.0606695,0.837513,0.4990325,0.0697405,0.653443,0.6893025,0.0802985,1.1698330000000001,0.4880025,0.0611295,1.377353,0.6323725,0.0507675,0.5454830000000002,0.8659025,0.0613455,1.499953,0.7882225,0.0050915,0.928395,-0.0009225,-0.0006185,1.071605,0.0009224999999999,0.0006185,0.879303,-0.4340775,-0.0198615,1.124943,-0.4011975,-0.0317675,0.863413,-0.7862475,-0.0314465,1.131113,-0.7803374999999999,-0.0252325
29,1.0074475,0.731914,0.0596635,0.8372505,0.499254,0.0691555,0.6528705,0.688794,0.0794415,1.1697104999999999,0.488354,0.0602095,1.3772305,0.632964,0.0493945,0.5445305,0.866154,0.0596855,1.4998005,0.788784,0.0030834999999999,0.9283485,-0.001011,-0.0005284999999999,1.0716515,0.001011,0.0005284999999999,0.8790005000000001,-0.433766,-0.0248284999999999,1.1245505,-0.404526,-0.0368705,0.8629405,-0.785716,-0.0354895,1.1309005,-0.781086,-0.0310744999999999
30,1.007164,0.732043,0.058591,0.83693,0.499483,0.068471,0.6524300000000001,0.688503,0.078344,1.1694499999999999,0.488483,0.059311,1.37668,0.632293,0.048449,0.54366,0.866293,0.0579,1.4997,0.788593,0.0009949999999999,0.9282950000000001,-0.001019,-0.000661,1.071705,0.001019,0.000661,0.87869,-0.432627,-0.0301789999999999,1.12424,-0.4067469999999999,-0.042304,0.86248,-0.784847,-0.039839,1.13061,-0.781427,-0.0371089999999999
31,1.0068685,0.7318884999999999,0.057712,0.8366895,0.4994584999999999,0.067897,0.6523895,0.6885085,0.077154,1.1692295,0.4884785,0.058631,1.3761295,0.6313785,0.047836,0.5431295,0.8660085,0.056308,1.4998194999999999,0.7885085,-0.0008459999999999,0.9282675,-0.0010495,-0.0006999999999999,1.0717325,0.0010495,0.0007,0.8784495,-0.4310415,-0.035403,1.1239895,-0.4083415,-0.047762,0.8622395,-0.7838215000000001,-0.044123,1.1302195,-0.7811715,-0.042843
32,1.006607,0.731515,0.0569345,0.836492,0.499225,0.0674975,0.6524019999999999,0.6876950000000001,0.0760905,1.169032,0.488025,0.0579505,1.375882,0.6302650000000001,0.0471905,0.542462,0.864245,0.0550115,1.499962,0.788555,-0.0027075,0.9282239999999999,-0.0009849999999999,-0.0008164999999999,1.071776,0.000985,0.0008165,0.878112,-0.428455,-0.0407445,1.123752,-0.407985,-0.0534945,0.8621120000000001,-0.781975,-0.0481795,1.130042,-0.779635,-0.0481645
33,1.006368,0.7307535000000001,0.055739,0.836318,0.4986735,0.066849,0.652468,0.6858935,0.074785,1.168908,0.4874235,0.0571119999999999,1.375808,0.6290735,0.046054,0.541858,0.8615935,0.0527679999999999,1.5001280000000001,0.7889735,-0.005519,0.9281270000000001,-0.0009575,-0.000762,1.0718729999999999,0.0009575,0.000762,0.8776079999999999,-0.4261065,-0.046966,1.123618,-0.4070365,-0.060166,0.862038,-0.7796265,-0.052351,1.129958,-0.7772865,-0.053438
34,1.0062039999999999,0.729559,0.0539985,0.835962,0.498029,0.0660205,0.652862,0.682419,0.0728035,1.168812,0.486509,0.0557644999999999,1.375972,0.6278889999999999,0.0441865,0.541262,0.858439,0.0496475,1.500762,0.7899689999999999,-0.0091995,0.927941,-0.0008909999999999,-0.0007535,1.072059,0.000891,0.0007534999999999,0.876822,-0.422481,-0.0552655,1.1237219999999999,-0.404451,-0.0688935,0.8620220000000001,-0.776001,-0.0572575,1.129992,-0.773661,-0.0592055
35,1.006016,0.728073,0.051973,0.8356380000000001,0.497163,0.0650029999999999,0.6532979999999999,0.6790729999999999,0.0704559999999999,1.168748,0.485633,0.054155,1.376248,0.6267429999999999,0.042049,0.5407580000000001,0.855703,0.046213,1.501968,0.791153,-0.012903,0.927803,-0.000733,-0.000883,1.072197,0.0007329999999999,0.000883,0.875748,-0.418307,-0.064608,1.123958,-0.400447,-0.078627,0.861908,-0.771997,-0.062269,1.1300080000000001,-0.769657,-0.065075
36,1.005823,0.7263825,0.050292,0.8352729999999999,0.4966124999999999,0.064034,0.653543,0.6752425000000001,0.0682069999999999,1.168663,0.4844024999999999,0.05283,1.376283,0.6253725,0.0400429999999999,0.5403530000000001,0.8528625000000001,0.043051,1.503353,0.7922625,-0.016355,0.927666,-0.0006335,-0.000875,1.072334,0.0006334999999999,0.0008749999999999,0.874763,-0.4144075,-0.073826,1.124363,-0.3961975,-0.088228,0.862303,-0.7674875,-0.066799,1.130173,-0.7652375,-0.069821
37,1.005623,0.7266365,0.0470575,0.834858,0.4973665,0.0614955,0.653498,0.6737465,0.0643905,1.168558,0.4850264999999999,0.0500725,1.376198,0.6259565,0.0363885,0.539908,0.8521164999999999,0.0381905,1.504848,0.7955465,-0.0214435,0.927512,-0.0004945,-0.0005734999999999,1.0724879999999999,0.0004944999999999,0.0005735,0.8735780000000001,-0.4082435,-0.0848215,1.124718,-0.3901935,-0.0994085,0.862878,-0.7605535,-0.0730015,1.1301979999999998,-0.7584235,-0.0756935
38,1.005505,0.7267405,0.0434855,0.834622,0.4979905,0.0585605,0.653312,0.6722905,0.0599195,1.168252,0.4847505,0.0470255,1.376232,0.6263505,0.0324524999999999,0.539192,0.8518005000000001,0.0330005,1.506432,0.7976305,-0.0267515,0.927398,-0.0001875,-1.8500000000001154e-05,1.072602,0.0001875,1.8500000000001154e-05,0.872132,-0.3998294999999999,-0.0973835,1.125052,-0.3833895,-0.1118904999999999,0.863122,-0.7528895,-0.0794835,1.130372,-0.7511995,-0.0814305
39,1.005434,0.7262975,0.039911,0.8343630000000001,0.4980575,0.055465,0.653223,0.6705375,0.055479,1.1679629999999999,0.4843575,0.043765,1.3763429999999999,0.6270575,0.028038,0.538583,0.8511275,0.027981,1.5081630000000001,0.8004875,-0.031891,0.927211,-2.2500000000001685e-05,0.0005109999999999,1.072789,2.2500000000001685e-05,-0.000511,0.870653,-0.3933625,-0.109555,1.125353,-0.3778825,-0.123983,0.863733,-0.7451825,-0.085735,1.130413,-0.7438525,-0.087151
40,1.005453,0.7263335,0.036064,0.834209,0.4984935,0.052063,0.654109,0.6696135,0.05074,1.167749,0.4845135,0.040076,1.376589,0.6283335,0.023203,0.537989,0.8513035,0.022865,1.509049,0.8040535,-0.03684,0.927032,0.0002004999999999,0.0008939999999999,1.072968,-0.0002004999999999,-0.0008939999999999,0.869089,-0.3838365,-0.123218,1.125729,-0.3698665,-0.137045,0.8643689999999999,-0.7370365,-0.091971,1.130599,-0.7358765,-0.093146
41,1.005519,0.7262785,0.0327815,0.834098,0.4988885,0.0490865,0.654868,0.6690085,0.0463465,1.167328,0.4838785,0.0368815,1.376768,0.6300685,0.0188705,0.538258,0.8533885,0.0182664999999999,1.509558,0.8073485,-0.0410755,0.926885,0.0005375,0.0011825,1.073115,-0.0005374999999999,-0.0011825,0.867848,-0.3760915,-0.1360925,1.126058,-0.3620215,-0.1493525,0.8651880000000001,-0.7282314999999999,-0.0978305,1.130878,-0.7269215,-0.0984235
42,1.005555,0.7265675,0.029986,0.834005,0.4994475,0.046511,0.655505,0.6697375,0.042776,1.166965,0.4840474999999999,0.033988,1.3776950000000001,0.6316075,0.015285,0.5386949999999999,0.8563975,0.014077,1.510325,0.8109575,-0.0448909999999999,0.926836,0.0007454999999999,0.001331,1.073164,-0.0007454999999999,-0.0013309999999999,0.866725,-0.3686925,-0.147507,1.126345,-0.3540225,-0.160387,0.866105,-0.7193625,-0.102797,1.131275,-0.7177825,-0.103056
43,1.0055064999999999,0.7268859999999999,0.027681,0.8340325,0.500346,0.044176,0.6557925,0.6692659999999999,0.040123,1.1666125,0.484326,0.031745,1.3785725,0.633006,0.0126029999999999,0.5391425000000001,0.8599760000000001,0.010332,1.5106625,0.809426,-0.047979,0.9268065,0.001094,0.0014489999999999,1.0731935,-0.0010939999999999,-0.0014489999999999,0.8658825,-0.362234,-0.156977,1.1264025,-0.346834,-0.169007,0.8670725,-0.711204,-0.106771,1.1316225,-0.709524,-0.1067009999999999
44,1.005504,0.7268695,0.0256104999999999,0.833973,0.5004395,0.0420885,0.656023,0.6690395,0.0378135,1.166253,0.4841995,0.0297734999999999,1.3790930000000001,0.6335095,0.0102775,0.539593,0.8580895,0.0063785,1.5110329999999998,0.8073994999999999,-0.0506935,0.9267390000000001,0.0011835,0.0016644999999999,1.0732609999999998,-0.0011835,-0.0016644999999999,0.865183,-0.3560205,-0.1651564999999999,1.126373,-0.3403905,-0.1764065,0.867973,-0.7035905,-0.1104685,1.131933,-0.7018105,-0.1098715
45,1.0053595,0.726695,0.0234024999999999,0.8338295,0.499735,0.0399685,0.6560695000000001,0.669755,0.0350095,1.1658995,0.483925,0.0277044999999999,1.3794595,0.633895,0.0077174999999999,0.5394795,0.856825,0.0025204999999999,1.5113595,0.805505,-0.0533915,0.9266315,0.0012069999999999,0.0018504999999999,1.0733685,-0.0012069999999999,-0.0018505,0.8644495,-0.350155,-0.1731194999999999,1.1263195,-0.334125,-0.1833495,0.8687895,-0.695955,-0.1142135,1.1323095,-0.694295,-0.1130725
46,1.0051269999999999,0.7240165000000001,0.0227619999999999,0.833514,0.4974065,0.039502,0.655354,0.6684365,0.033576,1.165514,0.4815165,0.027096,1.379754,0.6319165,0.0066039999999999,0.539024,0.8536065,0.0001229999999999,1.511654,0.8011965,-0.054641,0.92655,0.0011974999999999,0.0017539999999999,1.07345,-0.0011975,-0.0017539999999999,0.863644,-0.3468135,-0.179056,1.126304,-0.3302935,-0.188376,0.869484,-0.6903935,-0.115964,1.132644,-0.6889935,-0.114762
47,1.004908,0.721415,0.0219515,0.833206,0.495335,0.0388904999999999,0.6545460000000001,0.667125,0.0316935,1.165306,0.480065,0.0262745,1.379866,0.629565,0.0051845,0.538796,0.8499450000000001,-0.0026535,1.511756,0.797835,-0.0561895,0.92643,0.0010789999999999,0.0016134999999999,1.07357,-0.0010789999999999,-0.0016134999999999,0.863076,-0.3437949999999999,-0.1838645,1.126406,-0.3273649999999999,-0.1918545,0.870046,-0.684805,-0.1176375,1.132966,-0.683405,-0.1167335
48,1.0045735,0.71946,0.0212045,0.8328405,0.4939099999999999,0.0382575,0.6537505,0.66626,0.0297804999999999,1.1650405,0.47916,0.0255234999999999,1.3799105,0.62828,0.0036425,0.5384405,0.8469,-0.0055655,1.5117005,0.7942699999999999,-0.0578115,0.9263215,0.0010099999999999,0.0017765,1.0736785,-0.0010099999999999,-0.0017765,0.8624305,-0.33984,-0.1886034999999999,1.1264405,-0.3237799999999999,-0.1954334999999999,0.8705404999999999,-0.67844,-0.1192925,1.1332205,-0.67708,-0.1185664999999999
49,1.0042924999999998,0.71669,0.0212185,0.8323625,0.49191,0.0382825,0.6526925,0.66414,0.0284584999999999,1.1647425,0.4782,0.0255385,1.3798124999999999,0.62639,0.0027345,0.5378825,0.8429199999999999,-0.0080584999999999,1.5107325,0.7897000000000001,-0.0588355,0.9262495,0.0008099999999999,0.0017805,1.0737505,-0.00081,-0.0017804999999999,0.8618825,-0.33696,-0.1910075,1.1267425,-0.32069,-0.1972275,0.8710725,-0.6727000000000001,-0.1202115,1.1335925,-0.67137,-0.1195524999999999
50,1.0038485,0.7144250000000001,0.0205705,0.8316605,0.490445,0.0376475,0.6516905,0.662575,0.0264835,1.1645205,0.477635,0.0246935,1.3795705,0.6240950000000001,0.0010065,0.5373705,0.8387450000000001,-0.0109855,1.5095105000000002,0.786085,-0.0610384999999999,0.9261455000000001,0.000535,0.0015975,1.0738545,-0.0005349999999999,-0.0015975,0.8617505,-0.331175,-0.1938975,1.1266405,-0.317685,-0.1995575,0.8715705,-0.666585,-0.1211715,1.1340404999999998,-0.6649349999999999,-0.1212405
51,1.0033554999999998,0.712205,0.019113,0.8310035,0.489025,0.036434,0.6506535,0.660535,0.023887,1.1642934999999999,0.4765049999999999,0.0232829999999999,1.3793935,0.622275,-0.0012119999999999,0.5368035,0.834415,-0.014349,1.5079734999999999,0.782195,-0.0640719999999999,0.9260505,0.0003149999999999,0.001848,1.0739495,-0.0003149999999999,-0.0018479999999999,0.8611835,-0.325215,-0.197361,1.1268135,-0.314135,-0.2022209999999999,0.8718935,-0.660255,-0.122962,1.1347235,-0.6580050000000001,-0.123976
52,1.0028305,0.7101600000000001,0.0184145,0.8304525,0.48708,0.0360925,0.6504425,0.66123,0.0219634999999999,1.1639425,0.47536,0.0227215,1.3792024999999999,0.62022,-0.0029155,0.5363325,0.8298000000000001,-0.0170595,1.5069124999999999,0.7795799999999999,-0.0665165,0.9259875,2.000000000002e-05,0.0018514999999999,1.0740125,-1.999999999999225e-05,-0.0018514999999999,0.8607025,-0.31714,-0.1995335,1.1272125,-0.30629,-0.2038535,0.8720725,-0.6524099999999999,-0.1234595,1.1352025000000001,-0.6499999999999999,-0.1250285
53,1.002028,0.70884,0.015696,0.830272,0.48617,0.0336279999999999,0.6501319999999999,0.66196,0.0180049999999999,1.163372,0.47453,0.020067,1.378642,0.619,-0.006502,0.535922,0.8305,-0.021759,1.505762,0.7776000000000001,-0.070845,0.925806,-8.999999999997899e-05,0.001485,1.074194,9.000000000000674e-05,-0.001485,0.8604620000000001,-0.30876,-0.203025,1.127012,-0.29791,-0.206485,0.8721019999999999,-0.64403,-0.125213,1.135352,-0.64168,-0.127301
54,1.0011985,0.7095400000000001,0.011071,0.8299755,0.48731,0.0295319999999999,0.6498455000000001,0.66387,0.01222,1.1626155,0.47586,0.015591,1.3779255,0.6201,-0.011853,0.5353055,0.83213,-0.028173,1.5046355,0.77779,-0.076689,0.9256535,-0.0001499999999999,0.0018869999999999,1.0743465,0.00015,-0.0018869999999999,0.8594655,-0.29508,-0.209114,1.1272955,-0.28717,-0.212034,0.8720755,-0.63344,-0.128784,1.1352055,-0.63122,-0.131341
55,1.000127,0.709735,0.004767,0.829423,0.488375,0.023604,0.648863,0.661845,0.004858,1.161713,0.477555,0.009423,1.3769529999999999,0.620865,-0.0189099999999999,0.534653,0.833445,-0.036123,1.503563,0.7777149999999999,-0.0844439999999999,0.925416,-0.0002049999999999,0.0019959999999999,1.074584,0.000205,-0.0019959999999999,0.858753,-0.285935,-0.2181529999999999,1.127343,-0.277595,-0.2208029999999999,0.871873,-0.622285,-0.133526,1.134803,-0.620975,-0.136627
56,0.9989640000000001,0.710205,-0.002345,0.828816,0.488015,0.0164639999999999,0.6478360000000001,0.660925,-0.002658,1.160636,0.477955,0.0024929999999999,1.3761459999999999,0.622455,-0.026459,0.532536,0.832735,-0.04426,1.503216,0.7781849999999999,-0.092529,0.925173,-0.000115,0.0022469999999999,1.074827,0.000115,-0.0022469999999999,0.857216,-0.272755,-0.229771,1.128076,-0.265835,-0.232641,0.8715760000000001,-0.610595,-0.139444,1.134266,-0.610555,-0.142857
57,0.997753,0.71079,-0.0099344999999999,0.828382,0.4878699999999999,0.0089835,0.646722,0.66001,-0.0104654999999999,1.159432,0.47827,-0.0048094999999999,1.3754119999999999,0.62409,-0.0344124999999999,0.530402,0.8323699999999999,-0.0526254999999999,1.502942,0.77913,-0.1007164999999999,0.925098,-7.00000000000145e-05,0.0026175,1.074902,6.999999999998674e-05,-0.0026174999999999,0.855602,-0.26031,-0.2419484999999999,1.128942,-0.25415,-0.2451285,0.871202,-0.59834,-0.1458034999999999,1.133692,-0.59961,-0.1493815
58,0.9964255000000001,0.7115250000000001,-0.018073,0.8282175,0.488415,0.0006619999999999,0.6454774999999999,0.659635,-0.018685,1.1581875,0.478445,-0.0127759999999999,1.3747775,0.626305,-0.042938,0.5284275,0.833635,-0.060763,1.5026975,0.7813950000000001,-0.109288,0.9249815,-1.4999999999987246e-05,0.0028809999999999,1.0750185,1.4999999999987246e-05,-0.0028809999999999,0.8537675,-0.246065,-0.25433,1.1299475,-0.241065,-0.25847,0.8708275,-0.583925,-0.1523709999999999,1.1331475,-0.586395,-0.156183
59,0.9951040000000001,0.7121,-0.0263295,0.828279,0.48759,-0.0078685,0.644799,0.65957,-0.0267484999999999,1.157039,0.47937,-0.0206554999999999,1.3738190000000001,0.62896,-0.0512324999999999,0.526349,0.83537,-0.0690134999999999,1.5014690000000002,0.78359,-0.1174854999999999,0.924838,-0.0001099999999999,0.0032115,1.075162,0.0001099999999999,-0.0032114999999999,0.851699,-0.23258,-0.2666475,1.130819,-0.22862,-0.2720575,0.8704890000000001,-0.5697399999999999,-0.1588975,1.132609,-0.57338,-0.1626325
60,0.9939055000000001,0.711985,-0.0346595,0.8285184999999999,0.487885,-0.0163394999999999,0.6443285000000001,0.658895,-0.0349795,1.1559985,0.479365,-0.0287375,1.3728985,0.631205,-0.0597575,0.5240184999999999,0.837085,-0.0774195,1.5001885000000001,0.7851549999999999,-0.1256405,0.9246615,0.000115,0.0033485,1.0753385,-0.000115,-0.0033485,0.8495585,-0.219035,-0.2787815,1.1315485,-0.216185,-0.2856815,0.8702485,-0.555475,-0.1653305,1.1320385,-0.560135,-0.1689935
61,0.992744,0.7121,-0.0431725,0.828811,0.48735,-0.0251285,0.6439509999999999,0.65936,-0.0430555,1.1551809999999998,0.47997,-0.0368065,1.371961,0.63431,-0.0679125,0.521461,0.83941,-0.0854585,1.498611,0.79057,-0.1334355,0.924473,4.000000000001225e-05,0.0036184999999999,1.075527,-3.999999999998449e-05,-0.0036185,0.8472310000000001,-0.2050699999999999,-0.2906115,1.1318409999999999,-0.2034499999999999,-0.2989414999999999,0.869931,-0.54109,-0.1717605,1.131281,-0.54681,-0.1751895
62,0.9916355,0.71184,-0.05206,0.8291535,0.48702,-0.034008,0.6436035,0.65689,-0.051428,1.1544535,0.48043,-0.045106,1.3711735,0.63568,-0.076461,0.5188535000000001,0.84202,-0.0936,1.4971535,0.79245,-0.141509,0.9243275,-1.000000000001e-05,0.0037599999999999,1.0756725,1.000000000001e-05,-0.0037599999999999,0.8447534999999999,-0.19073,-0.30243,1.1317035,-0.19041,-0.31236,0.8696235,-0.52628,-0.177926,1.1300135,-0.53274,-0.180949
63,0.9908020000000001,0.70975,-0.05688,0.829896,0.48494,-0.0387109999999999,0.6435660000000001,0.65326,-0.055264,1.154026,0.4794699999999999,-0.0489459999999999,1.3707259999999999,0.6350899999999999,-0.080591,0.516676,0.84341,-0.097865,1.496366,0.79257,-0.145287,0.92426,9.99999999995449e-06,0.00382,1.07574,-1.000000000001e-05,-0.00382,0.842706,-0.17815,-0.30992,1.131636,-0.17895,-0.3212,0.869606,-0.5132,-0.17975,1.128846,-0.5205000000000001,-0.182075
64,0.9901095000000001,0.70865,-0.0623009999999999,0.8306875000000001,0.48295,-0.044001,0.6438075,0.65371,-0.059614,1.1534675,0.4783,-0.0535109999999999,1.3701474999999999,0.63556,-0.0850829999999999,0.5150375,0.8452999999999999,-0.102902,1.4958274999999999,0.7937,-0.149463,0.9241565,-6.0000000000004494e-05,0.00383,1.0758435,6.0000000000004494e-05,-0.00383,0.8412275000000001,-0.16459,-0.31473,1.1312975,-0.16568,-0.32674,0.8698475000000001,-0.49964,-0.181633,1.1279474999999999,-0.50749,-0.183384
65,0.989456,0.70652,-0.068437,0.831064,0.48251,-0.049551,0.643864,0.6526799999999999,-0.065643,1.152914,0.47794,-0.058901,1.369624,0.63554,-0.090915,0.513544,0.84945,-0.109837,1.495904,0.7941,-0.155229,0.923997,-0.0002099999999999,0.00386,1.076003,0.0002099999999999,-0.00386,0.840124,-0.15027,-0.3195099999999999,1.130984,-0.15136,-0.33209,0.8702840000000001,-0.48532,-0.183873,1.127024,-0.49382,-0.185143
66,0.9891015,0.704225,-0.074757,0.8314064999999999,0.481765,-0.055299,0.6438865,0.651755,-0.07189,1.1523865,0.4775049999999999,-0.064349,1.3690465,0.635515,-0.096733,0.5131465,0.8497549999999999,-0.117065,1.4958865000000001,0.794845,-0.161285,0.9239415,-0.000335,0.0037849999999999,1.0760585,0.0003349999999999,-0.003785,0.8394665,-0.135885,-0.324095,1.1306965,-0.137505,-0.337115,0.8708265,-0.470935,-0.185414,1.1263765000000001,-0.480155,-0.186896
67,0.9887435000000001,0.701285,-0.081283,0.8317235000000001,0.480365,-0.06096,0.6435335,0.6493950000000001,-0.078386,1.1519835,0.475585,-0.069871,1.3681735,0.633125,-0.102829,0.5129435,0.8491350000000001,-0.124433,1.4954035,0.7943850000000001,-0.167692,0.9238945000000001,-0.0002949999999999,0.0037599999999999,1.0761055,0.000295,-0.0037599999999999,0.8392335000000001,-0.1248449999999999,-0.32818,1.1301835,-0.1269749999999999,-0.3414899999999999,0.8714835,-0.457465,-0.186654,1.1262635,-0.4671849999999999,-0.188641
68,0.9883060000000001,0.69828,-0.087436,0.831751,0.47968,-0.06618,0.643181,0.64724,-0.084695,1.151591,0.47408,-0.075185,1.367661,0.63095,-0.108564,0.512211,0.84806,-0.131298,1.494811,0.7944800000000001,-0.17432,0.923755,-0.0002599999999999,0.0036449999999999,1.076245,0.00026,-0.003645,0.838911,-0.1124399999999999,-0.332135,1.129331,-0.11578,-0.345325,0.871711,-0.44389,-0.188366,1.126071,-0.4539099999999999,-0.190006
69,0.9876625,0.695355,-0.093163,0.8317325,0.477585,-0.07198,0.6434625,0.644775,-0.090854,1.1510525,0.472885,-0.080711,1.3670225,0.627785,-0.114143,0.5111924999999999,0.846015,-0.137584,1.4942825,0.792465,-0.180393,0.9234715,-0.000485,0.0036699999999999,1.0765285,0.000485,-0.00367,0.8383525000000001,-0.092955,-0.33613,1.1280725,-0.0975349999999999,-0.3491,0.8717525,-0.423875,-0.190279,1.1256525,-0.4338349999999999,-0.191456
70,0.9873185,0.69147,-0.098305,0.8321165,0.475835,-0.0765859999999999,0.6440265000000001,0.64077,-0.096353,1.1507165,0.4710089999999999,-0.085482,1.3665565,0.62444,-0.1194679999999999,0.5100165,0.84442,-0.143064,1.4937965,0.7875099999999999,-0.185867,0.9229735,-0.00054,0.0036199999999999,1.0770265,0.0005399999999999,-0.0036199999999999,0.8384265000000001,-0.07308,-0.33947,1.1266665,-0.079,-0.35239,0.8714065,-0.4044999999999999,-0.191686,1.1254564999999999,-0.41372,-0.1930859999999999
71,0.9871700000000001,0.687565,-0.102697,0.832596,0.4740959999999999,-0.080692,0.644536,0.640095,-0.101085,1.150386,0.469313,-0.089677,1.366056,0.6228549999999999,-0.124435,0.509586,0.843205,-0.147859,1.493296,0.786305,-0.1908699999999999,0.922478,-0.000585,0.003595,1.077522,0.000585,-0.003595,0.8389260000000001,-0.052245,-0.342225,1.125146,-0.059365,-0.355265,0.870916,-0.385145,-0.195427,1.126866,-0.393335,-0.196342
72,0.986882,0.683865,-0.106262,0.832901,0.4723719999999999,-0.0840819999999999,0.644821,0.638965,-0.105355,1.150021,0.4673159999999999,-0.093347,1.365311,0.6210549999999999,-0.1289,0.509641,0.842095,-0.15168,1.492551,0.7842549999999999,-0.195413,0.921941,-0.000645,0.003625,1.078059,0.0006449999999999,-0.003625,0.839501,-0.031745,-0.344285,1.1235009999999999,-0.039635,-0.357715,0.8702110000000001,-0.366145,-0.199166,1.129681,-0.374755,-0.200977
73,0.9870075,0.68001,-0.108979,0.8335445,0.470765,-0.086372,0.6454845,0.63717,-0.108416,1.1499645,0.4654049999999999,-0.096163,1.3646844999999999,0.61835,-0.132843,0.5103745,0.84102,-0.154649,1.4919045,0.78169,-0.199616,0.9214515,-0.00059,0.0036549999999999,1.0785485,0.0005899999999999,-0.003655,0.8404145000000001,-0.0107,-0.346045,1.1219644999999998,-0.01921,-0.359815,0.8695645,-0.34655,-0.202368,1.1330144999999998,-0.35568,-0.205771
74,0.9872335,0.676995,-0.11087,0.8342425,0.469012,-0.088103,0.6461825,0.636105,-0.110097,1.1500325,0.463706,-0.098193,1.3645225,0.6151150000000001,-0.135823,0.5114225,0.836325,-0.15575,1.4921925,0.779485,-0.202978,0.9209435,-0.0005849999999999,0.0036749999999999,1.0790565,0.000585,-0.0036749999999999,0.8414225000000001,0.009275,-0.347635,1.1206725,0.000655,-0.361795,0.8697525,-0.3284049999999999,-0.205846,1.1365925,-0.3380649999999999,-0.210697
75,0.9874850000000001,0.67428,-0.11234,0.834906,0.467605,-0.0895229999999999,0.6470660000000001,0.63487,-0.111298,1.149996,0.461883,-0.099965,1.364496,0.61198,-0.138478,0.512486,0.83543,-0.156406,1.492216,0.77685,-0.2059949999999999,0.920503,-0.00056,0.0037,1.079497,0.00056,-0.0036999999999999,0.842176,0.02914,-0.34886,1.119396,0.02044,-0.36363,0.869776,-0.31124,-0.2101989999999999,1.140376,-0.32083,-0.215702
76,0.9877495000000001,0.672195,-0.112033,0.8356215000000001,0.466736,-0.089516,0.6479515,0.6326350000000001,-0.110816,1.1500815,0.46153,-0.1002309999999999,1.3643215,0.610005,-0.139183,0.5134715000000001,0.834125,-0.155802,1.4920215,0.771345,-0.206814,0.9200435,-0.0005749999999999,0.0037,1.0799565,0.0005749999999999,-0.0036999999999999,0.8427915,0.048655,-0.3488099999999999,1.1182015,0.0397549999999999,-0.36406,0.8682415,-0.294635,-0.213826,1.1443815,-0.303805,-0.22032
77,0.988016,0.6702950000000001,-0.110691,0.83647,0.466175,-0.088454,0.64881,0.630595,-0.109514,1.15016,0.4607530000000001,-0.09935,1.36398,0.6073930000000001,-0.138956,0.5146999999999999,0.8320350000000001,-0.154509,1.49182,0.7648050000000001,-0.205834,0.919592,-0.0005849999999999,0.003705,1.080408,0.000585,-0.003705,0.8432999999999999,0.066805,-0.347485,1.1172,0.058105,-0.363245,0.86572,-0.2792949999999999,-0.217955,1.14886,-0.2878249999999999,-0.224115
78,0.9882365000000001,0.66885,-0.1091179999999999,0.8372495,0.4659419999999999,-0.0869089999999999,0.6492495,0.629091,-0.108097,1.1504895,0.4604979999999999,-0.0977949999999999,1.3639095,0.6060989999999999,-0.1380269999999999,0.5161295,0.83084,-0.153036,1.4916795,0.76091,-0.204332,0.9193025,-0.00058,0.00377,1.0806975,0.0005799999999999,-0.0037699999999999,0.8435495,0.0780999999999999,-0.34591,1.1164095,0.0692899999999999,-0.36162,0.8631295,-0.2707900000000001,-0.2217799999999999,1.1535795,-0.279,-0.2279499999999999
79,0.9884290000000001,0.66828,-0.107382,0.83786,0.466575,-0.0851949999999999,0.64971,0.628305,-0.106776,1.15092,0.460672,-0.096072,1.36449,0.6047210000000001,-0.13631,0.51721,0.8291,-0.151346,1.49135,0.75979,-0.20257,0.919122,-0.0006099999999999,0.003725,1.080878,0.0006099999999999,-0.003725,0.84344,0.08831,-0.344165,1.11578,0.07945,-0.359835,0.86037,-0.2624299999999999,-0.225265,1.15745,-0.27107,-0.230945
80,0.9885605,0.668035,-0.105811,0.8382415,0.467014,-0.083746,0.6500915,0.6269690000000001,-0.105492,1.1511715,0.4609730000000001,-0.094616,1.3646615,0.6034510000000001,-0.13485,0.5181915,0.8259350000000001,-0.149547,1.4908815,0.758295,-0.201077,0.9190235,-0.0006549999999999,0.0037849999999999,1.0809765,0.000655,-0.003785,0.8432315,0.096995,-0.342505,1.1154715,0.088135,-0.358355,0.8570115,-0.2547349999999999,-0.226175,1.1596515,-0.2642749999999999,-0.232005
81,0.9888030000000001,0.6678250000000001,-0.10393,0.8386210000000001,0.467891,-0.081687,0.650371,0.6259640000000001,-0.103742,1.151391,0.461345,-0.092748,1.3648209999999998,0.602746,-0.13335,0.5189510000000002,0.8229350000000001,-0.147795,1.4910109999999999,0.7575550000000001,-0.199323,0.918978,-0.0006849999999999,0.0037149999999999,1.081022,0.000685,-0.0037149999999999,0.843051,0.105535,-0.340165,1.115251,0.096485,-0.356725,0.853621,-0.2471649999999999,-0.2263049999999999,1.160281,-0.2560249999999999,-0.2305249999999999
82,0.9888860000000002,0.6679710000000001,-0.101604,0.8388040000000001,0.469175,-0.0796399999999999,0.650354,0.625483,-0.102146,1.151454,0.460785,-0.090891,1.364854,0.6026410000000001,-0.131743,0.5210440000000001,0.8169550000000001,-0.146286,1.491434,0.7570650000000001,-0.1979659999999999,0.9189130000000001,-0.0006049999999999,0.00353,1.081087,0.000605,-0.0035299999999999,0.8428640000000001,0.114185,-0.33728,1.115074,0.104905,-0.3544199999999999,0.850534,-0.239475,-0.22629,1.160504,-0.247965,-0.22904
83,0.9888375000000001,0.668627,-0.09845,0.8387344999999999,0.47128,-0.07696,0.6510545,0.623792,-0.0997609999999999,1.1513245,0.46053,-0.0883979999999999,1.3649745,0.60369,-0.129134,0.5229745,0.81558,-0.144089,1.4918445,0.75711,-0.196342,0.9189855,-0.00056,0.00337,1.0810145,0.00056,-0.0033699999999999,0.8423245,0.12372,-0.3337099999999999,1.1147645,0.11401,-0.35096,0.8494045,-0.22955,-0.22305,1.1601245,-0.23934,-0.2269
84,0.9887815,0.668754,-0.095317,0.8386935,0.4730449999999999,-0.074345,0.6519634999999999,0.6227759999999999,-0.097504,1.1512835,0.4600949999999999,-0.085963,1.3655035,0.603367,-0.126702,0.5249635,0.8140949999999999,-0.14192,1.4929235,0.7565149999999999,-0.194849,0.9190535,-0.000415,0.003154,1.0809465,0.0004149999999999,-0.003154,0.8417535,0.1338149999999999,-0.329586,1.1147935,0.1234449999999999,-0.347166,0.8487735000000001,-0.2191050000000001,-0.219746,1.1591035,-0.230845,-0.223406
85,0.988812,0.669399,-0.092836,0.83873,0.474755,-0.072636,0.6525099999999999,0.624293,-0.09592,1.1512099999999998,0.459505,-0.084068,1.36623,0.603169,-0.124736,0.52683,0.812915,-0.140305,1.49446,0.758555,-0.193691,0.9191549999999999,-0.000275,0.0029629999999999,1.080845,0.000275,-0.002963,0.84119,0.142025,-0.325877,1.11493,0.1313849999999999,-0.343867,0.84933,-0.211165,-0.218297,1.15875,-0.2238449999999999,-0.220347
86,0.9888105,0.670037,-0.090682,0.8387335,0.4766,-0.070967,0.6529935,0.62542,-0.094563,1.1511735,0.45893,-0.082378,1.3671335,0.603366,-0.122821,0.5283135,0.81272,-0.139111,1.4960535,0.76031,-0.19263,0.9192205,-9.00000000000345e-05,0.0027829999999999,1.0807795,9.00000000000345e-05,-0.002783,0.8406435000000001,0.14986,-0.3222669999999999,1.1151235,0.13898,-0.340567,0.8491335,-0.20267,-0.215707,1.1585035,-0.2173699999999999,-0.217897
87,0.9888885,0.670633,-0.0885165,0.8387935,0.47848,-0.0692065,0.6534435000000001,0.6269190000000001,-0.0931745,1.1512635,0.45833,-0.0806435,1.3681535,0.6034780000000001,-0.1209335,0.5298335000000001,0.8126200000000001,-0.1378865,1.4976734999999999,0.7617800000000001,-0.1913985,0.9192585,0.00011,0.0026395,1.0807415,-0.0001099999999999,-0.0026395,0.8402335,0.15727,-0.3185905,1.1153835,0.14614,-0.3373105,0.8488935,-0.1943199999999999,-0.2128205,1.1583135,-0.2113599999999998,-0.2162605
88,0.9889610000000001,0.671322,-0.0865949999999999,0.8389190000000001,0.48017,-0.06745,0.654119,0.6285099999999999,-0.0920629999999999,1.151399,0.4575499999999999,-0.0789639999999999,1.369089,0.603112,-0.1192449999999999,0.531389,0.81233,-0.1367439999999999,1.499199,0.7628299999999999,-0.190224,0.919321,0.00039,0.002558,1.080679,-0.00039,-0.0025579999999999,0.8397990000000001,0.1644199999999999,-0.315202,1.115659,0.1524599999999999,-0.334322,0.850639,-0.1864,-0.2103419999999999,1.157569,-0.20603,-0.2142119999999999
89,0.9890885,0.6721750000000001,-0.0848235,0.8390635,0.4816150000000001,-0.0657374999999999,0.6548134999999999,0.6299230000000001,-0.0909555,1.1515235,0.4565950000000001,-0.0774044999999999,1.3701534999999998,0.6026620000000001,-0.1177775,0.5328435,0.8125150000000001,-0.1356965,1.5012135,0.7635750000000001,-0.1891344999999999,0.9193515,0.000635,0.0024295,1.0806485,-0.0006349999999999,-0.0024295,0.8393835000000001,0.170945,-0.3120405,1.1159135,0.158075,-0.3316205,0.8506335,-0.1778249999999999,-0.2052804999999999,1.1564535,-0.2011349999999999,-0.2124505
90,0.9894035,0.6731469999999999,-0.08333,0.8392965,0.4823449999999999,-0.064053,0.6556765,0.630478,-0.090086,1.1517164999999998,0.4551749999999999,-0.075966,1.3713165,0.6015969999999999,-0.116473,0.5342665000000001,0.8117249999999999,-0.134787,1.5034865000000002,0.7634449999999999,-0.187896,0.9193185,0.0008849999999999,0.002407,1.0806815,-0.000885,-0.0024069999999999,0.8390365000000001,0.1760949999999999,-0.309488,1.1161465,0.1622849999999999,-0.3296679999999999,0.8507665,-0.170895,-0.200288,1.1551064999999998,-0.197545,-0.211048
91,0.989825,0.673866,-0.082087,0.839569,0.4826049999999999,-0.062469,0.656569,0.630283,-0.089303,1.151929,0.454385,-0.074694,1.372409,0.60003,-0.11548,0.534339,0.814665,-0.134021,1.5058989999999999,0.762855,-0.186777,0.9192740000000001,0.0010449999999999,0.0024669999999999,1.0807259999999999,-0.0010449999999999,-0.002467,0.838739,0.1793849999999999,-0.307795,1.116279,0.164495,-0.3284249999999999,0.851979,-0.165865,-0.195615,1.153889,-0.195575,-0.210025
92,0.9903575000000001,0.6738859999999999,-0.0816689999999999,0.8398055,0.4822499999999999,-0.061695,0.6569955000000001,0.631138,-0.089432,1.1521655,0.4531899999999999,-0.0742449999999999,1.3734855000000001,0.598042,-0.115252,0.5343355000000001,0.8155199999999999,-0.134017,1.5083055,0.76106,-0.186414,0.9192745,0.0012599999999999,0.002492,1.0807255,-0.00126,-0.0024919999999999,0.8384955000000001,0.1805499999999999,-0.307305,1.1162855,0.1649999999999999,-0.328275,0.8533355,-0.1629100000000001,-0.191912,1.1527655,-0.1947200000000001,-0.2098249999999999
93,0.990783,0.6738859999999999,-0.081275,0.840122,0.4822499999999999,-0.060883,0.657562,0.631138,-0.089402,1.152342,0.4531899999999999,-0.073869,1.374182,0.598042,-0.114955,0.534332,0.8155199999999999,-0.134038,1.5093619999999999,0.7604899999999999,-0.186115,0.919277,0.0012599999999999,0.0025419999999999,1.080723,-0.00126,-0.002542,0.838162,0.1808199999999999,-0.307157,1.116292,0.1648599999999999,-0.3281469999999999,0.853132,-0.1629100000000001,-0.191773,1.152002,-0.1948,-0.209657
94,0.9912510000000001,0.6738859999999999,-0.0809795,0.840422,0.4822499999999999,-0.0604784999999999,0.6581520000000001,0.631138,-0.0894964999999999,1.152512,0.4531899999999999,-0.0736584999999999,1.374822,0.598042,-0.1148235,0.534332,0.81573,-0.1343585,1.510122,0.7604899999999999,-0.1861535,0.919287,0.0012599999999999,0.0025415,1.080713,-0.00126,-0.0025414999999999,0.837752,0.1808999999999999,-0.3071375,1.116292,0.1643899999999999,-0.3284175,0.852742,-0.16292,-0.1917525,1.151372,-0.1948,-0.2096175
95,0.9919555,0.6738859999999999,-0.0805665,0.8408685000000001,0.4822499999999999,-0.0605935,0.6583785000000001,0.6319889999999999,-0.0897085,1.1528685,0.4531899999999999,-0.0736415,1.3754885,0.598042,-0.1147985,0.5345385,0.817,-0.1349595,1.5107985,0.7604899999999999,-0.1862805,0.9191855,0.0012599999999999,0.0025084999999999,1.0808145,-0.00126,-0.0025084999999999,0.8375085,0.1805599999999999,-0.3072215,1.1164785,0.1638599999999999,-0.3285315,0.8549685000000001,-0.16104,-0.1886515,1.1508384999999999,-0.1948,-0.2083915
96,0.9926575,0.6737489999999999,-0.080007,0.8412395,0.4813249999999999,-0.060625,0.6590395,0.631644,-0.089755,1.1536895,0.4540049999999999,-0.07361,1.3757195,0.5966509999999999,-0.114676,0.5343195000000001,0.819225,-0.135155,1.5113795,0.7584249999999999,-0.186097,0.9192105000000002,0.0012049999999999,0.002519,1.0807894999999998,-0.001205,-0.0025189999999999,0.8373395,0.1781749999999999,-0.308216,1.1162395,0.1612349999999999,-0.329796,0.8575495,-0.161935,-0.185533,1.1502995,-0.196165,-0.208166
97,0.9932535,0.673319,-0.0801855,0.8415005,0.4795699999999999,-0.0613485,0.6592205,0.631589,-0.0905065,1.1544505,0.4537099999999999,-0.0742545,1.3758905000000001,0.5957479999999999,-0.1149805,0.5339505,0.82095,-0.1359105,1.5120205,0.75522,-0.1859575,0.9193565,0.0011899999999999,0.0025274999999999,1.0806435,-0.00119,-0.0025275,0.8371105,0.1732399999999999,-0.3104945,1.1159705,0.1560899999999999,-0.3316745,0.8578304999999999,-0.16646,-0.1859855,1.1498005,-0.1998000000000001,-0.2088145
98,0.9940055,0.674057,-0.0822705,0.8417355,0.477715,-0.0640745,0.6594955,0.6297389999999999,-0.0930975,1.1553155,0.453465,-0.0767295,1.3761355,0.595693,-0.1166385,0.5335155,0.819105,-0.1384985,1.5124955,0.753595,-0.1865025,0.9194964999999999,0.001305,0.0025614999999999,1.0805035,-0.001305,-0.0025615,0.8369455,0.160385,-0.3153185,1.1154955,0.143235,-0.3355985,0.8600955,-0.178745,-0.1861355,1.1467155,-0.209725,-0.2090185
99,0.9947775,0.675902,-0.0843255,0.8418945,0.47613,-0.0672185,0.6596045000000001,0.629333,-0.0963055,1.1563245,0.45435,-0.0793175,1.3766545,0.595601,-0.1180684999999999,0.5312045000000001,0.82392,-0.1413375,1.5135245,0.7544500000000001,-0.1858975,0.9196795000000001,0.00129,0.0025634999999999,1.0803205,-0.00129,-0.0025634999999999,0.8367445,0.14058,-0.3202965,1.1147745,0.12362,-0.3394565,0.8621945,-0.1978399999999999,-0.1868905,1.1419044999999999,-0.22592,-0.2083364999999999
100,0.9954520000000001,0.677936,-0.086466,0.842009,0.47439,-0.0706229999999999,0.659709,0.631323,-0.099662,1.157309,0.4547699999999999,-0.082062,1.3770989999999999,0.595406,-0.119227,0.528929,0.82788,-0.144448,1.514739,0.7545,-0.1852869999999999,0.91984,0.0013099999999999,0.00249,1.08016,-0.00131,-0.0024899999999999,0.8365790000000001,0.1181499999999999,-0.32499,1.114049,0.1011799999999999,-0.34286,0.863989,-0.21972,-0.188088,1.137269,-0.24466,-0.20783
101,0.9961565000000001,0.67991,-0.08842,0.8422495,0.4735709999999999,-0.073766,0.6599595,0.632477,-0.102628,1.1582895,0.4555809999999999,-0.084589,1.3779795,0.5942149999999999,-0.119844,0.5263595000000001,0.83163,-0.147034,1.5160195,0.7536099999999999,-0.184043,0.9200645000000001,0.0014299999999999,0.0024099999999999,1.0799355,-0.00143,-0.0024099999999999,0.8365295,0.0940099999999999,-0.32907,1.1134695,0.0775699999999999,-0.3459,0.8656895,-0.24326,-0.189274,1.1330495,-0.26563,-0.2064409999999999
102,0.996801,0.6826899999999999,-0.090172,0.842522,0.4723349999999999,-0.076589,0.659732,0.6368999999999999,-0.105354,1.159272,0.4571389999999999,-0.086759,1.3782919999999999,0.597101,-0.120222,0.5248619999999999,0.8357399999999999,-0.149165,1.5165220000000001,0.75435,-0.182695,0.920239,0.0013199999999999,0.0022249999999999,1.079761,-0.00132,-0.002225,0.836792,0.0694399999999999,-0.331995,1.112912,0.0530299999999999,-0.348775,0.867332,-0.26785,-0.190252,1.129092,-0.28758,-0.205024
103,0.997563,0.685445,-0.0914609999999999,0.84279,0.472591,-0.0791309999999999,0.65911,0.640775,-0.1079939999999999,1.16029,0.458988,-0.0885789999999999,1.3789799999999999,0.598957,-0.120317,0.5243599999999999,0.839275,-0.150578,1.51814,0.758345,-0.1808429999999999,0.92049,0.001325,0.002035,1.07951,-0.001325,-0.0020349999999999,0.8369800000000001,0.043325,-0.334685,1.11245,0.027115,-0.351435,0.8688400000000001,-0.294115,-0.191141,1.1252499999999999,-0.3113249999999999,-0.2032959999999999
104,0.9984965,0.68963,-0.0920199999999999,0.8431545,0.472331,-0.0810269999999999,0.6587945,0.6444,-0.110049,1.1611645,0.461699,-0.0894659999999999,1.3798745000000001,0.60215,-0.1194799999999999,0.5246145,0.8445400000000001,-0.1510989999999999,1.5196245,0.76076,-0.1783259999999999,0.9208315,0.00123,0.001935,1.0791685,-0.00123,-0.0019349999999999,0.8375144999999999,0.0141,-0.3367949999999999,1.1122545,-0.0019,-0.353075,0.8706045,-0.32347,-0.1911959999999999,1.1217745,-0.3383899999999999,-0.200591
105,0.999426,0.694075,-0.092479,0.843306,0.473257,-0.082845,0.659446,0.649855,-0.111192,1.161946,0.4624769999999999,-0.089704,1.380566,0.601475,-0.117993,0.5238160000000001,0.846555,-0.151001,1.520896,0.7619849999999999,-0.174923,0.921232,0.0014049999999999,0.00179,1.078768,-0.001405,-0.00179,0.838126,-0.018665,-0.33808,1.1122759999999998,-0.033045,-0.3529,0.872296,-0.356185,-0.190936,1.1184059999999998,-0.368715,-0.197448
106,1.0003295,0.699415,-0.090807,0.8434315,0.475276,-0.083097,0.6588315,0.654485,-0.110499,1.1626515,0.464642,-0.088239,1.3812215,0.605395,-0.1147,0.5231715,0.848605,-0.148807,1.5224315,0.767085,-0.170806,0.9217165,0.001535,0.00161,1.0782835,-0.001535,-0.00161,0.8388615,-0.050925,-0.33713,1.1127615,-0.062975,-0.35083,0.8744715000000001,-0.388515,-0.1884569999999999,1.1154715,-0.399035,-0.19218
107,1.000809,0.70389,-0.0886899999999999,0.843215,0.47794,-0.082212,0.658995,0.6597200000000001,-0.108954,1.163115,0.46658,-0.0863449999999999,1.381405,0.60846,-0.111161,0.522535,0.8529599999999999,-0.145845,1.5236450000000001,0.77172,-0.166717,0.92218,0.0017099999999999,0.00159,1.07782,-0.0017099999999999,-0.0015899999999999,0.839515,-0.0792499999999999,-0.3344,1.113315,-0.08964,-0.34722,0.875175,-0.41815,-0.1870609999999999,1.115025,-0.4273399999999999,-0.1902539999999999
108,1.001181,0.707595,-0.086855,0.8428820000000001,0.4799049999999999,-0.081253,0.658202,0.662625,-0.107058,1.163292,0.467645,-0.08455,1.381422,0.611615,-0.108134,0.5221720000000001,0.855615,-0.143182,1.524332,0.773045,-0.163886,0.922662,0.001865,0.0015649999999999,1.077338,-0.001865,-0.001565,0.840122,-0.101445,-0.330905,1.113822,-0.109925,-0.342825,0.8758120000000001,-0.440865,-0.18554,1.115352,-0.450305,-0.189297
109,1.001485,0.71143,-0.0848009999999999,0.84243,0.4823,-0.0799369999999999,0.65752,0.66517,-0.104789,1.16333,0.46932,-0.0826339999999999,1.38127,0.61575,-0.1055729999999999,0.52084,0.85678,-0.140474,1.52468,0.7799400000000001,-0.16107,0.9232,0.00208,0.001535,1.0768,-0.0020799999999999,-0.0015349999999999,0.8408599999999999,-0.1229199999999999,-0.3263049999999999,1.11426,-0.1292299999999999,-0.338045,0.8763400000000001,-0.46404,-0.1840359999999999,1.1156,-0.47361,-0.188319
110,1.001714,0.71536,-0.080941,0.841925,0.48409,-0.076359,0.657055,0.66743,-0.1003059999999999,1.163295,0.47073,-0.078762,1.380915,0.62076,-0.101516,0.519925,0.8579300000000001,-0.136096,1.523955,0.7865900000000001,-0.156711,0.923587,0.0022,0.00132,1.076413,-0.0021999999999999,-0.00132,0.841655,-0.1419099999999999,-0.31921,1.114855,-0.1462099999999999,-0.33138,0.875875,-0.4865799999999999,-0.18218,1.115755,-0.4959,-0.1858699999999999
111,1.0020304999999998,0.71883,-0.07594,0.8416315,0.4866399999999999,-0.071933,0.6566715000000001,0.6687,-0.094906,1.1632514999999999,0.47089,-0.074331,1.3806615,0.6224999999999999,-0.096621,0.5204314999999999,0.85914,-0.130969,1.5234815,0.79152,-0.151732,0.9238995000000001,0.0026199999999999,0.0011349999999999,1.0761005,-0.00262,-0.0011349999999999,0.8426815,-0.15989,-0.311515,1.1160515,-0.16185,-0.324335,0.8754115000000001,-0.50915,-0.180405,1.1170114999999998,-0.5174300000000001,-0.183067
112,1.0022034999999998,0.7219549999999999,-0.070542,0.8410755,0.488135,-0.0668069999999999,0.6561455,0.669605,-0.088895,1.1629055,0.472005,-0.0693449999999999,1.3816555,0.6252949999999999,-0.091208,0.5208055,0.8633149999999999,-0.125381,1.5238455,0.792285,-0.14636,0.9242045,0.0025949999999999,0.00093,1.0757955,-0.002595,-0.00093,0.8437455,-0.177195,-0.30329,1.1171455,-0.176895,-0.31667,0.8751655,-0.530845,-0.177827,1.1180355,-0.5388850000000001,-0.179697
113,1.002047,0.72444,-0.065004,0.840249,0.49001,-0.061547,0.655829,0.6695899999999999,-0.082532,1.162299,0.47328,-0.064305,1.381689,0.6267199999999999,-0.085624,0.520849,0.86466,-0.119541,1.524679,0.7950200000000001,-0.140513,0.924594,0.0026699999999999,0.0008699999999999,1.075406,-0.00267,-0.00087,0.844619,-0.19173,-0.29481,1.117739,-0.19005,-0.30892,0.874679,-0.55054,-0.174412,1.118539,-0.55809,-0.176494
114,1.002123,0.7279599999999999,-0.057896,0.839653,0.49271,-0.055257,0.656413,0.6703,-0.07489,1.161863,0.47325,-0.058447,1.381143,0.6294500000000001,-0.077913,0.520613,0.8664499999999999,-0.11175,1.5252029999999999,0.79691,-0.132649,0.9249360000000001,0.0029,0.0007599999999999,1.0750639999999998,-0.0028999999999999,-0.00076,0.8457330000000001,-0.2045799999999999,-0.28496,1.118093,-0.2026699999999999,-0.2996999999999999,0.874233,-0.5693299999999999,-0.169272,1.118773,-0.5767499999999999,-0.171403
115,1.002152,0.730175,-0.05095,0.838935,0.494365,-0.048448,0.6562250000000001,0.669065,-0.066281,1.161425,0.4744649999999999,-0.052111,1.380625,0.630485,-0.06981,0.5201550000000001,0.868035,-0.102387,1.5252249999999998,0.800505,-0.123376,0.925529,0.002865,0.0005409999999999,1.074471,-0.002865,-0.0005409999999999,0.846805,-0.225215,-0.273293,1.118195,-0.2208149999999999,-0.287973,0.8735450000000001,-0.589615,-0.161486,1.118705,-0.596055,-0.1651409999999999
116,1.00216,0.732475,-0.04377,0.8381950000000001,0.4956149999999999,-0.042442,0.6556649999999999,0.668285,-0.057937,1.161225,0.476125,-0.045981,1.379645,0.631045,-0.061834,0.5200549999999999,0.8711450000000001,-0.093172,1.5251350000000001,0.802575,-0.113961,0.926264,0.0025449999999999,0.000236,1.073736,-0.002545,-0.000236,0.847775,-0.244005,-0.261689,1.118145,-0.237155,-0.275929,0.8726849999999999,-0.607475,-0.153809,1.118535,-0.6126849999999999,-0.158575
117,1.002028,0.7351500000000001,-0.0365554999999999,0.837415,0.4966399999999999,-0.0363474999999999,0.655385,0.66847,-0.0498914999999999,1.1610649999999998,0.47755,-0.0399044999999999,1.379585,0.6316,-0.0537104999999999,0.518575,0.86911,-0.0834765,1.5254050000000001,0.80543,-0.1044045,0.926915,0.0023199999999999,7.500000000007501e-06,1.073085,-0.0023199999999999,-7.499999999993623e-06,0.8489450000000001,-0.26319,-0.2494865,1.1183049999999999,-0.2537,-0.2631865,0.871905,-0.62574,-0.1460865,1.118415,-0.6296999999999999,-0.1517124999999999
118,1.0018725,0.7377400000000001,-0.0253629999999999,0.8366435,0.49789,-0.0257639999999999,0.6545735000000001,0.6675300000000001,-0.037357,1.1611035,0.47889,-0.029363,1.3787535,0.6298400000000001,-0.041059,0.5171435000000001,0.8667400000000001,-0.069323,1.5247435,0.80134,-0.090342,0.9273835,0.00201,-0.0002609999999999,1.0726165,-0.0020099999999999,0.0002609999999999,0.8516635000000001,-0.28157,-0.227196,1.1186535,-0.2709,-0.241386,0.8712835,-0.64351,-0.13378,1.1185634999999998,-0.64687,-0.139428
119,1.0017995,0.73958,-0.0143835,0.8358715,0.4990799999999999,-0.0153275,0.6530315,0.66881,-0.0254075,1.1613515,0.48033,-0.0189785,1.3782615,0.6281899999999999,-0.0284665,0.5158115,0.8640599999999999,-0.0555385,1.5241715,0.7978799999999999,-0.0765215,0.9277475,0.0016299999999999,-0.0004854999999999,1.0722525,-0.00163,0.0004854999999999,0.8544015,-0.29955,-0.2051965,1.1190515,-0.28768,-0.2196665,0.8706415000000001,-0.6616000000000001,-0.1217645,1.1187615,-0.6638000000000001,-0.1272115
120,1.001657,0.740898,-0.0039719999999999,0.8350780000000001,0.5001979999999999,-0.0049979999999999,0.6510680000000001,0.668598,-0.0136229999999999,1.161358,0.482818,-0.008575,1.377428,0.625788,-0.0158839999999999,0.514318,0.861728,-0.042161,1.523578,0.794568,-0.062615,0.928053,0.0011479999999999,-0.0007459999999999,1.071947,-0.0011479999999999,0.000746,0.857128,-0.317402,-0.182788,1.119088,-0.304602,-0.197108,0.8699080000000001,-0.679772,-0.109794,1.118908,-0.680972,-0.115011
121,1.0016165,0.7426630000000001,0.006088,0.8345495,0.501073,0.004703,0.6493595,0.669613,-0.0022659999999999,1.1614795,0.484503,0.001213,1.3767595,0.623813,-0.0037869999999999,0.5136895,0.8555630000000001,-0.0295319999999999,1.5227295,0.7920830000000001,-0.049411,0.9282575,0.000951,-0.0010159999999999,1.0717425,-0.0009509999999999,0.001016,0.8599295,-0.335687,-0.160441,1.1187495,-0.3202669999999999,-0.174671,0.8687595000000001,-0.6971369999999999,-0.099064,1.1188895,-0.6969270000000001,-0.1032899999999999
122,1.0017145,0.744002,0.01592,0.8340735,0.501962,0.0139919999999999,0.6472534999999999,0.6708820000000001,0.008617,1.1616735,0.4853119999999999,0.010584,1.3765435,0.6218520000000001,0.007837,0.5131435,0.8503320000000001,-0.017201,1.5214835,0.789782,-0.036819,0.9284025,0.0006629999999999,-0.0013629999999999,1.0715975,-0.000663,0.001363,0.8627535,-0.353498,-0.138259,1.1184034999999999,-0.335378,-0.152259,0.8677635,-0.713988,-0.088781,1.1190235,-0.712028,-0.091458
123,1.0015764999999999,0.744465,0.0244589999999999,0.8333655,0.501275,0.021897,0.6450655000000001,0.670095,0.0177709999999999,1.1617155,0.487615,0.0185419999999999,1.3757055,0.622805,0.0169479999999999,0.5126055,0.8467950000000001,-0.006825,1.5203855000000002,0.790485,-0.026425,0.9285725,0.000124,-0.001566,1.0714275,-0.0001239999999999,0.0015659999999999,0.8653655,-0.3678249999999999,-0.11763,1.1179055,-0.346755,-0.131667,0.8669155,-0.727165,-0.080062,1.1189455,-0.723205,-0.080312
124,1.001287,0.7451855,0.0321695,0.832756,0.5010555,0.0288075,0.642916,0.6708955,0.0256435,1.162146,0.4885555,0.0259105,1.374786,0.6213155,0.0250584999999999,0.511986,0.8431855,0.0015175,1.519556,0.7861454999999999,-0.0177835,0.928694,-0.0002585,-0.0016755,1.071306,0.0002585,0.0016755,0.867936,-0.3796545,-0.0988574999999999,1.117456,-0.3557945,-0.1134805,0.866286,-0.7370845,-0.0725485,1.118886,-0.7318345,-0.0703604999999999
125,1.0010035,0.745346,0.039168,0.8321765,0.500686,0.035417,0.6410965,0.672026,0.032993,1.1623965,0.4890859999999999,0.032715,1.3740765,0.619996,0.032722,0.5116265000000001,0.839106,0.009359,1.5188964999999999,0.7822359999999999,-0.0098129999999999,0.9288895,-0.0004959999999999,-0.0018349999999999,1.0711105,0.0004959999999999,0.0018349999999999,0.8704965,-0.390544,-0.0811689999999999,1.1172165,-0.363364,-0.096438,0.8657165,-0.745814,-0.065224,1.1189165,-0.739264,-0.060336
126,1.000684,0.744734,0.0458795,0.831573,0.500764,0.0420785,0.6397130000000001,0.672794,0.0403185,1.162483,0.489624,0.0395305,1.374183,0.618614,0.0399395,0.511483,0.834964,0.0168015,1.5190329999999999,0.778114,-0.0019075,0.9289910000000001,-0.000701,-0.0020234999999999,1.0710089999999999,0.000701,0.0020235,0.872913,-0.4021659999999999,-0.0639275,1.117243,-0.371426,-0.0798875,0.865163,-0.753056,-0.0567245,1.119093,-0.745846,-0.0498025
127,1.0000755,0.743773,0.047644,0.8309995,0.500303,0.043701,0.6375695,0.672403,0.042826,1.1623295,0.490033,0.04134,1.3731494999999998,0.618623,0.042739,0.5111295,0.833303,0.019455,1.5168195,0.776153,0.001402,0.9290135,-0.000963,-0.002118,1.0709865,0.000963,0.002118,0.8736695,-0.406657,-0.0578199999999999,1.1173495,-0.375917,-0.073077,0.8645395,-0.7586970000000001,-0.054262,1.1190395,-0.750107,-0.045897
128,0.9995015,0.7432105,0.049598,0.8304875,0.4996705,0.045594,0.6364175000000001,0.6708004999999999,0.045201,1.1622275,0.4901705,0.043401,1.3723475,0.6183004999999999,0.045692,0.5111574999999999,0.8320504999999999,0.022274,1.5147175000000002,0.7747305,0.004902,0.9288645,-0.0011654999999999,-0.002274,1.0711355,0.0011654999999999,0.002274,0.8745975,-0.4102895,-0.050977,1.1175575,-0.3795495,-0.065162,0.8639875000000001,-0.7634195,-0.0517129999999999,1.1190674999999999,-0.7534095000000001,-0.041477
129,0.9987465000000001,0.7425735,0.0514159999999999,0.8299765,0.4990235,0.047524,0.6358365,0.6686835,0.047588,1.1620565,0.4900735,0.045343,1.3712564999999999,0.6178135,0.0484109999999999,0.5109465,0.8303135,0.025026,1.5128665,0.7734935000000001,0.008158,0.9287855,-0.0013345,-0.002266,1.0712145,0.0013344999999999,0.002266,0.8753065,-0.4130365,-0.044638,1.1177065,-0.3822965,-0.057848,0.8636865,-0.7673465,-0.049285,1.1190665,-0.7559965,-0.037115
130,0.9979805,0.7418345000000001,0.053387,0.8293455000000001,0.4983045,0.04937,0.6354355,0.6668545,0.049911,1.1616655,0.4898045,0.047182,1.3698055,0.6171645,0.051007,0.5105855,0.8285845000000001,0.027662,1.5113055,0.7723745,0.01134,0.9284545,-0.0015075,-0.0023499999999999,1.0715455,0.0015074999999999,0.00235,0.8756355000000001,-0.4139454999999999,-0.03873,1.1178655,-0.3825555,-0.051265,0.8631155,-0.7703055,-0.0471179999999999,1.1191555,-0.7576255,-0.032713
131,0.9971155000000002,0.740963,0.0550974999999999,0.8286145,0.497563,0.0511495,0.6349145,0.6653530000000001,0.0523545,1.1611445,0.489713,0.0491435,1.3683345,0.616403,0.0535425,0.5100945,0.827133,0.0302885,1.5097445,0.771243,0.0144435,0.9281604999999999,-0.001634,-0.0025225,1.0718395,0.001634,0.0025225,0.8757345000000001,-0.414467,-0.0330655,1.1180045,-0.382687,-0.0450605,0.8625345,-0.772737,-0.0447344999999999,1.1190845,-0.759137,-0.0290395
132,0.9962795,0.7403295,0.0564305,0.8279035,0.4970994999999999,0.0525655,0.6342734999999999,0.6645695,0.0545515,1.1605035,0.4894995,0.0508405,1.3667635,0.6157195,0.0557515,0.5095135,0.8263495,0.0326115,1.5085935,0.7706295,0.0169375,0.9280125,-0.0017085,-0.0026184999999999,1.0719875,0.0017085,0.0026185,0.8755535000000001,-0.4145105,-0.0282095,1.1183035000000001,-0.3820505,-0.0397475,0.8618935,-0.7743505,-0.0424735,1.1188734999999999,-0.7599205,-0.0263404999999999
133,0.9955175,0.7396635,0.057742,0.8271755000000001,0.4965535,0.054161,0.6338055,0.6636435,0.056716,1.1598355,0.4892135,0.052543,1.3652755,0.6150135,0.057869,0.5092055,0.8256435,0.034924,1.5075555,0.7699235,0.019317,0.9279545,-0.0017375,-0.0027119999999999,1.0720455,0.0017375,0.002712,0.8752655,-0.4147165,-0.023346,1.1187855,-0.3813765,-0.0347569999999999,0.8612655000000001,-0.7758665,-0.039934,1.1187055,-0.7606265,-0.023685
134,0.994808,0.739113,0.0590365,0.826505,0.496043,0.0558105,0.633435,0.6626730000000001,0.0588475,1.159225,0.488933,0.0541455,1.363855,0.614453,0.0598965,0.508965,0.8247730000000001,0.0372975,1.506645,0.769363,0.0215805,0.927893,-0.0018179999999999,-0.0027685,1.072107,0.001818,0.0027685,0.8749750000000001,-0.414817,-0.0186535,1.119295,-0.380727,-0.0301525,0.860705,-0.7771969999999999,-0.0372925,1.1187649999999998,-0.761187,-0.0214775
