sb224sc-HT22-VT27/4dt907/src/ml-research/a12/datafiles/kinect_good_preprocessed_A9_mediapipe/A27_kinect.csv
FrameNo,nose_3d_x,nose_3d_y,nose_3d_z,left_shoulder_3d_x,left_shoulder_3d_y,left_shoulder_3d_z,left_elbow_3d_x,left_elbow_3d_y,left_elbow_3d_z,right_shoulder_3d_x,right_shoulder_3d_y,right_shoulder_3d_z,right_elbow_3d_x,right_elbow_3d_y,right_elbow_3d_z,left_wrist_3d_x,left_wrist_3d_y,left_wrist_3d_z,right_wrist_3d_x,right_wrist_3d_y,right_wrist_3d_z,left_hip_3d_x,left_hip_3d_y,left_hip_3d_z,right_hip_3d_x,right_hip_3d_y,right_hip_3d_z,left_knee_3d_x,left_knee_3d_y,left_knee_3d_z,right_knee_3d_x,right_knee_3d_y,right_knee_3d_z,left_ankle_3d_x,left_ankle_3d_y,left_ankle_3d_z,right_ankle_3d_x,right_ankle_3d_y,right_ankle_3d_z
38,-0.0026534999999999987,0.7334324999999999,0.04563,-0.1553835,0.5105925,0.047058,-0.2682335,0.7570425,0.0036699999999999997,0.1459565,0.49907250000000003,0.057916999999999996,0.2518165,0.7462325,0.037757,-0.3171735,0.9588024999999999,-0.03573400000000001,0.2864865,0.9563024999999999,-0.0005390000000000013,-0.0735925,0.001062500000000001,0.00026299999999999935,0.0735925,-0.001062500000000001,-0.0002630000000000028,-0.1178435,-0.4237675,-0.026812000000000002,0.1150965,-0.4421375,-0.010114999999999999,-0.1233935,-0.7845975000000001,-0.022059000000000002,0.1189465,-0.7889575,-0.016767000000000004
39,-0.0022260000000000005,0.733457,0.0440595,-0.154693,0.510227,0.0470665,-0.26664299999999996,0.757647,0.002944499999999999,0.146057,0.49811700000000003,0.0575035,0.252267,0.745557,0.0370455,-0.31443299999999996,0.9594069999999999,-0.035517499999999994,0.286207,0.956007,-0.00017549999999999857,-0.073706,0.001015000000000002,0.0004254999999999988,0.073706,-0.001015000000000002,-0.0004254999999999988,-0.117353,-0.426133,-0.0295015,0.115997,-0.441643,-0.014634500000000002,-0.123613,-0.785463,-0.023378499999999997,0.118547,-0.790263,-0.0183255
40,-0.0015540000000000016,0.733158,0.041868,-0.15393,0.509858,0.046862,-0.26471,0.7584380000000001,0.0007230000000000014,0.14621,0.497078,0.056917999999999996,0.25285,0.744738,0.035573,-0.31122,0.959898,-0.03747399999999999,0.28651,0.9555980000000001,-0.001728999999999998,-0.073866,0.001017999999999998,0.0005710000000000021,0.073866,-0.001018000000000005,-0.0005709999999999986,-0.11695,-0.42777200000000004,-0.033951999999999996,0.11703,-0.440122,-0.020044,-0.12382,-0.7855719999999999,-0.024807999999999997,0.11815,-0.790982,-0.019804999999999996
41,-0.0008155000000000007,0.7324225,0.0394255,-0.15309050000000002,0.5092425,0.046385499999999996,-0.2625205,0.7590525,-0.0023035,0.1463895,0.4961225,0.0562525,0.25410950000000004,0.7441125000000001,0.0328275,-0.30773049999999996,0.9594225000000001,-0.0402855,0.2871195,0.9553425,-0.004451499999999997,-0.07404350000000001,0.0009445000000000009,0.0006934999999999997,0.07404350000000001,-0.0009445000000000009,-0.0006934999999999997,-0.11656050000000001,-0.4288975,-0.0391615,0.11813950000000001,-0.4382675,-0.025889499999999996,-0.12409049999999999,-0.7849275,-0.026717499999999998,0.11780950000000001,-0.7910874999999999,-0.021270499999999998
42,3.750000000000324e-05,0.731414,0.036569000000000004,-0.15192150000000001,0.508574,0.045102,-0.2590215,0.7556740000000001,-0.005631999999999998,0.1468585,0.49455400000000005,0.054314,0.2554485,0.742684,0.029815,-0.3039215,0.958684,-0.043879,0.2880185,0.955004,-0.007889,-0.07428950000000001,0.0008550000000000016,0.0007440000000000016,0.07428950000000001,-0.0008550000000000016,-0.0007439999999999981,-0.11626149999999999,-0.428836,-0.045554,0.11938850000000001,-0.43580599999999997,-0.032043,-0.12444150000000001,-0.7837959999999999,-0.02955,0.1175985,-0.7905059999999999,-0.022731
43,0.000896500000000001,0.7296404999999999,0.033457,-0.1503505,0.5077605000000001,0.042756,-0.2555705,0.7528904999999999,-0.009305999999999995,0.1472095,0.49280050000000003,0.05147500000000001,0.2566195,0.7411304999999999,0.025873000000000004,-0.2998505,0.9588705,-0.04926699999999999,0.2889995,0.9547805,-0.013477999999999997,-0.0745995,0.0008605000000000002,0.0006200000000000025,0.0745995,-0.0008605000000000002,-0.000619999999999999,-0.1161505,-0.4258595,-0.053813,0.1212295,-0.4310795,-0.040439,-0.12492049999999999,-0.7797495000000001,-0.032573,0.1172395,-0.7869595,-0.023965
44,0.0018099999999999987,0.7270274999999999,0.02969,-0.148964,0.5075675,0.040275000000000005,-0.252604,0.7493875000000001,-0.013523,0.147476,0.49096749999999995,0.048334,0.258076,0.7388874999999999,0.021011000000000002,-0.29631399999999997,0.9602774999999999,-0.056129,0.290016,0.9555374999999999,-0.020349,-0.07489699999999999,0.0009284999999999988,0.0006460000000000007,0.07489699999999999,-0.0009285000000000022,-0.0006459999999999973,-0.11616399999999999,-0.4209525,-0.064833,0.122996,-0.4251025,-0.049853999999999996,-0.12515400000000002,-0.7732625,-0.035429,0.116986,-0.7810824999999999,-0.024959999999999996
45,0.0024615,0.724453,0.025784500000000002,-0.1478495,0.508113,0.0377735,-0.2499795,0.745963,-0.0177765,0.1475905,0.490373,0.0453875,0.2592605,0.736143,0.0159415,-0.2934295,0.9617330000000001,-0.0633955,0.2909805,0.9562430000000001,-0.0276405,-0.0749625,0.0010030000000000004,0.0005915000000000017,0.0749625,-0.0010030000000000004,-0.0005915000000000017,-0.1162795,-0.41503700000000004,-0.0762525,0.1245505,-0.41851700000000003,-0.059654500000000006,-0.1254795,-0.765737,-0.037384499999999994,0.1166605,-0.773837,-0.025828499999999997
46,0.0029824999999999973,0.7217275,0.02172,-0.14680949999999998,0.5079475,0.034843,-0.24788949999999998,0.7417075,-0.022398,0.1477505,0.4895075,0.041818,0.2604005,0.7334674999999999,0.010426999999999999,-0.29095950000000004,0.9634775,-0.07125599999999999,0.2921105,0.9572575,-0.035379,-0.0749575,0.0010685,0.0005389999999999978,0.0749575,-0.0010685,-0.0005389999999999978,-0.11645950000000001,-0.4086225,-0.08798600000000001,0.1260905,-0.41159250000000003,-0.06975600000000001,-0.1258595,-0.7575325,-0.039057,0.1164405,-0.7657425,-0.026597999999999997
47,0.0033305000000000023,0.7187724999999999,0.017910500000000003,-0.1459545,0.5078024999999999,0.0319105,-0.2458445,0.7373824999999999,-0.026854499999999996,0.1477155,0.48858250000000003,0.0382845,0.2613555,0.7303624999999999,0.004968500000000001,-0.2886845,0.9654425,-0.0790675,0.2930755,0.9587424999999999,-0.04343949999999999,-0.0749855,0.0010765000000000002,0.0004704999999999987,0.0749855,-0.0010764999999999998,-0.0004704999999999987,-0.1167145,-0.4005775,-0.09955750000000001,0.1280355,-0.4036075,-0.0805475,-0.1263445,-0.7481475000000001,-0.04020649999999999,0.1160655,-0.7563575,-0.0273575
48,0.0036340000000000014,0.7157835,0.014489499999999999,-0.14505099999999999,0.5080435,0.029075499999999997,-0.24372100000000002,0.7327835,-0.031322499999999996,0.147459,0.4879435,0.0347825,0.26204900000000003,0.7285435,-0.0005845000000000017,-0.28657099999999996,0.9639135,-0.08704049999999999,0.294119,0.9610835,-0.0512915,-0.075118,0.0010305000000000002,0.0003604999999999997,0.075118,-0.0010305000000000002,-0.0003604999999999997,-0.117091,-0.3909265,-0.11109050000000001,0.12992900000000002,-0.3945065,-0.09158050000000001,-0.12693100000000002,-0.7374865,-0.04079850000000001,0.115909,-0.7457465,-0.0268735
49,0.0039065000000000055,0.7124925,0.012070500000000001,-0.1441645,0.5072125,0.025953500000000004,-0.24189449999999998,0.7290825,-0.0351905,0.1473355,0.48647250000000003,0.0310155,0.26279549999999996,0.7274025000000001,-0.005531499999999995,-0.2850645,0.9644825,-0.0936655,0.2951155,0.9581625,-0.05832849999999999,-0.07552249999999999,0.0009625000000000015,0.00021750000000000241,0.07552249999999999,-0.0009624999999999981,-0.00021749999999999547,-0.1177745,-0.3772375,-0.1229955,0.1327355,-0.3811675,-0.1045755,-0.1276145,-0.7204975,-0.0403405,0.1157655,-0.7288775,-0.025814500000000004
50,0.004482499999999999,0.7091395,0.006780500000000002,-0.14301550000000002,0.5070895,0.020072500000000004,-0.2399755,0.7251595,-0.041734499999999994,0.1474145,0.4854195,0.0243095,0.2638345,0.7266895,-0.012858499999999995,-0.2835755,0.9650894999999999,-0.10322450000000001,0.2965045,0.9545295,-0.0680345,-0.07593649999999999,0.0008644999999999972,-0.00015449999999999492,0.07593649999999999,-0.0008644999999999972,0.00015450000000000186,-0.1184055,-0.3633805,-0.13794449999999997,0.13593449999999999,-0.3675205,-0.1204445,-0.1280955,-0.7024505,-0.043413499999999994,0.1161345,-0.7104605,-0.028221499999999997
51,0.005234500000000004,0.7054444999999999,0.0007954999999999976,-0.1420405,0.5064945,0.0138515,-0.2389105,0.7220544999999999,-0.048809500000000006,0.1479095,0.48436450000000003,0.0181255,0.2646195,0.7231445,-0.020963499999999996,-0.2822905,0.9600345,-0.1136045,0.2980195,0.9489445,-0.0776145,-0.0762565,0.0008285000000000028,-0.0006644999999999984,0.0762565,-0.0008284999999999959,0.0006644999999999984,-0.11945049999999999,-0.3472055,-0.1544445,0.1401995,-0.3511955,-0.1377445,-0.12866049999999998,-0.6816655,-0.04660449999999999,0.11636950000000001,-0.6890155,-0.0316515
52,0.0058774999999999964,0.7033845,-0.006065999999999995,-0.1414805,0.5051045,0.0069099999999999995,-0.23787049999999998,0.7200145,-0.057318999999999995,0.1483795,0.4832645,0.011250000000000003,0.2652895,0.7212545,-0.029411999999999994,-0.2815205,0.9576145,-0.123759,0.29905950000000003,0.9458845,-0.08641900000000001,-0.0765025,0.0007675000000000043,-0.0008209999999999953,0.0765025,-0.0007675000000000043,0.0008210000000000023,-0.12136050000000001,-0.3285055,-0.17228900000000003,0.14517950000000002,-0.33274549999999997,-0.15502899999999997,-0.1292105,-0.6589355,-0.050426,0.1166495,-0.6651155,-0.035989999999999994
53,0.006248000000000002,0.70538,-0.013384,-0.14115799999999998,0.50532,-0.0004870000000000013,-0.237478,0.72053,-0.066529,0.148502,0.48429999999999995,0.004177,0.265962,0.72085,-0.037759,-0.28106800000000004,0.95611,-0.133699,0.299892,0.9443199999999999,-0.09517900000000001,-0.07666999999999999,0.0007599999999999968,-0.0012809999999999974,0.07666999999999999,-0.0007600000000000107,0.0012809999999999974,-0.12345799999999998,-0.30928,-0.188249,0.14980200000000002,-0.31381000000000003,-0.171199,-0.130348,-0.6353300000000001,-0.054723999999999995,0.11672199999999999,-0.6401,-0.040797
54,0.0068045000000000015,0.705435,-0.021209000000000006,-0.1401105,0.501025,-0.009946000000000003,-0.2373005,0.7190650000000001,-0.07652300000000001,0.1486395,0.48428499999999997,-0.004179000000000002,0.2668695,0.7177849999999999,-0.047305,-0.2807205,0.955255,-0.144443,0.3005295,0.941255,-0.105333,-0.0768565,0.0004649999999999932,-0.001451000000000001,0.0768565,-0.00046500000000002095,0.001451000000000001,-0.1267505,-0.288275,-0.20871299999999998,0.1561195,-0.293315,-0.19154300000000002,-0.1316905,-0.610085,-0.059643,0.1166295,-0.613405,-0.045851
55,0.007645999999999998,0.7061850000000001,-0.029726000000000002,-0.139021,0.49862500000000004,-0.018775000000000007,-0.236621,0.718585,-0.086177,0.149019,0.485845,-0.011711000000000006,0.267539,0.715305,-0.056229,-0.279981,0.953885,-0.155137,0.301189,0.937685,-0.114877,-0.077065,0.00010500000000002174,-0.001470000000000006,0.077065,-0.00010499999999999399,0.001469999999999999,-0.12995099999999998,-0.266655,-0.228787,0.162699,-0.272495,-0.211527,-0.132961,-0.583965,-0.06475700000000001,0.11665900000000001,-0.586685,-0.05074300000000001
56,0.008158,0.70551,-0.03891649999999999,-0.137778,0.49687,-0.028466500000000006,-0.236318,0.72068,-0.09815750000000001,0.149332,0.48564999999999997,-0.0206605,0.268152,0.71453,-0.0664675,-0.27960799999999997,0.94862,-0.1689475,0.301902,0.93596,-0.1260375,-0.077232,-4.000000000001225e-05,-0.0015534999999999993,0.077232,3.999999999998449e-05,0.0015534999999999993,-0.133238,-0.24314000000000002,-0.24981750000000003,0.169162,-0.24825000000000003,-0.23171750000000002,-0.133078,-0.55654,-0.0681475,0.11666199999999999,-0.55645,-0.0521595
57,0.0086045,0.704595,-0.048443499999999994,-0.13649350000000002,0.494915,-0.0383225,-0.23607350000000002,0.7231749999999999,-0.1104685,0.1496265,0.485315,-0.029788500000000002,0.2685465,0.714695,-0.0770885,-0.2794835,0.947395,-0.1819185,0.30270650000000004,0.933475,-0.1379685,-0.07738249999999999,-0.00010500000000002174,-0.0017215000000000008,0.07738249999999999,0.00010499999999999399,0.0017215000000000008,-0.1366535,-0.218945,-0.2703285,0.1755665,-0.22368500000000002,-0.2515485,-0.1332035,-0.529315,-0.0711185,0.1163865,-0.5267850000000001,-0.0570785
58,0.008878999999999995,0.7043550000000001,-0.057257499999999996,-0.135398,0.493775,-0.047038500000000004,-0.235368,0.719275,-0.1207985,0.149862,0.484965,-0.0376545,0.268902,0.7147049999999999,-0.08733849999999999,-0.278778,0.940005,-0.19440849999999998,0.303452,0.936445,-0.1494885,-0.07760600000000001,-6.499999999998174e-05,-0.0021995,0.07760600000000001,6.50000000000095e-05,0.0021995,-0.13977799999999999,-0.19775500000000001,-0.28748850000000004,0.180862,-0.202335,-0.2670285,-0.133428,-0.5075149999999999,-0.07326849999999999,0.116002,-0.5019549999999999,-0.0602985
59,0.009577,0.703615,-0.069846,-0.13394499999999998,0.49155499999999996,-0.059119000000000005,-0.23422500000000002,0.717325,-0.135196,0.15037499999999998,0.483935,-0.04896400000000001,0.269855,0.711985,-0.101746,-0.277585,0.934455,-0.21192599999999998,0.304695,0.939505,-0.167286,-0.077923,0.00013499999999999623,-0.0025560000000000027,0.077923,-0.00013499999999999623,0.0025560000000000027,-0.14248499999999997,-0.16950500000000002,-0.30528599999999995,0.18593500000000002,-0.173775,-0.283856,-0.13242500000000001,-0.47904500000000005,-0.076246,0.115805,-0.470225,-0.065216
60,0.010568500000000003,0.702885,-0.081445,-0.1326775,0.487935,-0.070805,-0.2334275,0.718275,-0.148985,0.15116249999999998,0.48346500000000003,-0.060066999999999995,0.2714725,0.712225,-0.11569499999999999,-0.2765875,0.932505,-0.22886499999999999,0.3064625,0.941565,-0.185515,-0.0781395,5.500000000002725e-05,-0.0028900000000000037,0.0781395,-5.499999999997174e-05,0.0028899999999999967,-0.14424749999999997,-0.14197499999999996,-0.320235,0.19001250000000003,-0.146345,-0.297965,-0.1307775,-0.451615,-0.079575,0.1159525,-0.439655,-0.070845
61,0.011850499999999996,0.70102,-0.094794,-0.13130950000000002,0.48559,-0.083494,-0.2321495,0.7124,-0.16376400000000002,0.1517305,0.48264000000000007,-0.072484,0.2731405,0.71084,-0.131444,-0.2753695,0.9238000000000001,-0.246884,0.3084005,0.9428000000000001,-0.20529399999999998,-0.0784035,-2.999999999997449e-05,-0.0032960000000000003,0.0784035,3.0000000000030003e-05,0.003295999999999997,-0.14525949999999999,-0.11595999999999995,-0.333984,0.19306050000000002,-0.12001999999999996,-0.310814,-0.12915949999999998,-0.4254,-0.086284,0.1164105,-0.41052,-0.07745400000000001
62,0.012813500000000002,0.69599,-0.105219,-0.13024850000000002,0.48135,-0.093449,-0.2313485,0.70476,-0.175449,0.1521215,0.47997999999999996,-0.082169,0.2742115,0.70766,-0.144359,-0.2744085,0.91383,-0.26155900000000004,0.3100715,0.94162,-0.221979,-0.0786625,-0.00020000000000003348,-0.0033889999999999997,0.0786625,0.00019999999999997797,0.0033889999999999997,-0.14653850000000002,-0.09253,-0.344159,0.1959115,-0.09514,-0.320639,-0.1275085,-0.40152,-0.090209,0.1164415,-0.38604000000000005,-0.08151900000000001
63,0.013507999999999997,0.69136,-0.11511000000000002,-0.129123,0.480595,-0.10213,-0.231683,0.70061,-0.18805,0.152577,0.47711899999999996,-0.09104999999999999,0.27607699999999996,0.7079899999999999,-0.15636,-0.274173,0.90293,-0.27684,0.312087,0.9404,-0.23727,-0.079062,-1.0000000000010001e-05,-0.0036640000000000006,0.079062,9.99999999995449e-06,0.0036640000000000006,-0.146813,-0.06856000000000001,-0.349,0.197157,-0.06995000000000001,-0.3253,-0.125413,-0.37788,-0.09351999999999999,0.11563699999999999,-0.36295,-0.09111
64,0.013839,0.68587,-0.12406849999999998,-0.12803799999999999,0.478737,-0.11094849999999999,-0.232238,0.69564,-0.20040850000000002,0.15245199999999998,0.472982,-0.09999849999999999,0.27789200000000003,0.70781,-0.16851850000000002,-0.274368,0.89141,-0.2914785,0.314122,0.93923,-0.25205849999999996,-0.07935,0.00024000000000001798,-0.0039875000000000015,0.07935,-0.00024000000000001798,0.0039875000000000015,-0.147428,-0.04246,-0.35329849999999996,0.19825199999999998,-0.04393999999999998,-0.32932849999999997,-0.123868,-0.35469999999999996,-0.0962285,0.116142,-0.34047999999999995,-0.0956585
65,0.013991999999999997,0.68188,-0.1320935,-0.127079,0.476281,-0.11841349999999999,-0.232999,0.6879500000000001,-0.2099935,0.15212099999999998,0.47068699999999997,-0.10700349999999999,0.279341,0.70495,-0.17871350000000003,-0.27520900000000004,0.88342,-0.3026935,0.315901,0.9353899999999999,-0.2641135,-0.07962,0.00031999999999998696,-0.0041045000000000005,0.07962,-0.00031999999999998696,0.004104499999999999,-0.148269,-0.021589999999999998,-0.3564835,0.199171,-0.022139999999999993,-0.3323435,-0.12229899999999999,-0.33380000000000004,-0.0984835,0.11672099999999999,-0.32239,-0.0995035
66,0.013676000000000004,0.6784250000000001,-0.1395205,-0.126905,0.473805,-0.1256205,-0.233985,0.680085,-0.2188905,0.151735,0.468462,-0.1135205,0.280815,0.7018949999999999,-0.1872805,-0.276465,0.874295,-0.3144205,0.31776499999999996,0.931475,-0.2746905,-0.07991999999999999,0.0004049999999999887,-0.0043314999999999985,0.07991999999999999,-0.0004049999999999887,0.0043315,-0.14934499999999998,-0.005025000000000002,-0.3597505,0.20028500000000002,-0.0035350000000000104,-0.3354205,-0.12098500000000001,-0.31380500000000006,-0.10094049999999999,0.117395,-0.306235,-0.10358049999999999
67,0.013190499999999999,0.6749350000000001,-0.146097,-0.1269785,0.471353,-0.131637,-0.2349485,0.677635,-0.227467,0.1512815,0.467016,-0.118927,0.2819915,0.697995,-0.194057,-0.2777785,0.8698049999999999,-0.324897,0.3197415,0.926435,-0.28333699999999995,-0.0802745,0.0003150000000000097,-0.004462000000000001,0.0802745,-0.0003150000000000097,0.004461999999999999,-0.1507985,0.009344999999999992,-0.362797,0.20198149999999998,0.01292500000000002,-0.33817699999999995,-0.1199385,-0.29591500000000004,-0.103607,0.1181115,-0.29200499999999996,-0.10738700000000001
68,0.012866999999999996,0.672515,-0.14855100000000002,-0.127193,0.469517,-0.134421,-0.235283,0.674145,-0.231651,0.150927,0.46581100000000003,-0.12088100000000002,0.282937,0.6968650000000001,-0.196021,-0.278873,0.8643350000000001,-0.330291,0.321457,0.921865,-0.285111,-0.080639,0.00018500000000004624,-0.004723999999999999,0.080639,-0.00018499999999999073,0.004724000000000001,-0.15210300000000002,0.016525000000000012,-0.363671,0.203687,0.021465000000000012,-0.33881100000000003,-0.119053,-0.285775,-0.105131,0.11910699999999999,-0.28571499999999994,-0.110211
69,0.012660499999999996,0.670835,-0.15065,-0.1275425,0.469486,-0.13641999999999999,-0.2355125,0.670605,-0.23543999999999998,0.1506775,0.46466999999999997,-0.12237,0.28361749999999997,0.695855,-0.19741999999999998,-0.28027250000000004,0.8615349999999999,-0.3347,0.32306749999999995,0.9206650000000001,-0.28643,-0.0808875,0.0002449999999999952,-0.0049700000000000005,0.0808875,-0.0002449999999999952,0.004969999999999999,-0.1530925,0.022565,-0.36413,0.2055875,0.02863500000000002,-0.33873000000000003,-0.1181025,-0.27764500000000003,-0.10650000000000001,0.1200575,-0.28083500000000006,-0.11233000000000001
70,0.012456999999999996,0.67032,-0.1519095,-0.127998,0.469514,-0.1376995,-0.236578,0.6725399999999999,-0.2374695,0.15073199999999998,0.464047,-0.12359949999999999,0.28416199999999997,0.69618,-0.19860950000000002,-0.281968,0.86626,-0.3374395,0.324322,0.91903,-0.2875495,-0.08118600000000001,0.00024999999999997247,-0.0051395,0.08118600000000001,-0.000250000000000028,0.005139500000000001,-0.15332800000000002,0.026099999999999957,-0.3641895,0.20732199999999998,0.032979999999999954,-0.3383395,-0.116668,-0.2728900000000001,-0.1073095,0.11974199999999999,-0.27917000000000003,-0.11574949999999999
71,0.012051499999999998,0.6707299999999999,-0.1531035,-0.12869250000000002,0.46884999999999993,-0.1389235,-0.2376825,0.6761599999999999,-0.23873350000000002,0.1505775,0.46290699999999996,-0.12477350000000001,0.2847275,0.6974099999999999,-0.19971350000000002,-0.2837925,0.86988,-0.3399235,0.32533749999999995,0.9183399999999999,-0.28862350000000003,-0.0814305,0.00017999999999995797,-0.0052345,0.0814305,-0.000180000000000069,0.0052345,-0.15314250000000001,0.02896999999999994,-0.36427350000000003,0.2090875,0.03638999999999992,-0.3373735,-0.1158425,-0.26943000000000006,-0.1079935,0.1190275,-0.2767200000000001,-0.1227135
72,0.011683500000000003,0.6707299999999999,-0.15365199999999998,-0.1292455,0.46884999999999993,-0.13949199999999998,-0.2379155,0.6761599999999999,-0.23927199999999998,0.15022449999999998,0.46290699999999996,-0.12515199999999999,0.2849245,0.6974099999999999,-0.19986199999999998,-0.28527549999999996,0.86988,-0.34057200000000004,0.3262745,0.9183399999999999,-0.288322,-0.08125850000000001,0.00017999999999995797,-0.0052109999999999995,0.08125850000000001,-0.000180000000000069,0.005211,-0.1529455,0.028619999999999923,-0.364182,0.2104645,0.036079999999999945,-0.336552,-0.11559549999999999,-0.26958000000000004,-0.108492,0.1192745,-0.2767200000000001,-0.123212
73,0.011302500000000004,0.6707299999999999,-0.1530955,-0.1298855,0.46884999999999993,-0.1392455,-0.2380555,0.67651,-0.2396555,0.1499045,0.46290699999999996,-0.1246755,0.28504450000000003,0.6974099999999999,-0.1984555,-0.2870055,0.8715499999999999,-0.3411055,0.32704449999999996,0.9183399999999999,-0.2863955,-0.0811375,0.00017999999999995797,-0.0052535,0.0811375,-0.000180000000000069,0.0052535,-0.1527155,0.028619999999999923,-0.3645355,0.2114945,0.03579999999999994,-0.33585550000000003,-0.1158655,-0.26948000000000005,-0.10918549999999999,0.1189545,-0.2775900000000001,-0.1290955
74,0.010740000000000001,0.6707299999999999,-0.15134950000000003,-0.130511,0.46884999999999993,-0.13896950000000002,-0.23902099999999998,0.6766099999999999,-0.2396195,0.14959899999999998,0.46290699999999996,-0.1240495,0.28523899999999996,0.6974099999999999,-0.19643950000000002,-0.288501,0.87347,-0.3416595,0.327469,0.9183399999999999,-0.2835495,-0.081012,0.00017999999999995797,-0.0052375,0.081012,-0.000180000000000069,0.005237500000000001,-0.152621,0.028619999999999923,-0.3641795,0.21208900000000003,0.036079999999999945,-0.3350795,-0.115741,-0.2693500000000001,-0.10958949999999999,0.119219,-0.2775900000000001,-0.12980950000000002
75,0.010224500000000001,0.67359,-0.148468,-0.1318505,0.471564,-0.135568,-0.2406605,0.6807099999999999,-0.236528,0.14902949999999998,0.46461399999999997,-0.120548,0.2849795,0.69665,-0.192038,-0.2907105,0.88032,-0.339368,0.3277295,0.91784,-0.278568,-0.0808085,0.00010999999999999899,-0.005219,0.0808085,-0.00010999999999999899,0.0052190000000000005,-0.1520805,0.02306999999999998,-0.363318,0.2125095,0.03053,-0.334358,-0.1171005,-0.27469,-0.110888,0.12036949999999999,-0.28314000000000006,-0.12969799999999998
76,0.009798999999999999,0.676635,-0.144884,-0.13303900000000002,0.473897,-0.132164,-0.242679,0.684505,-0.233254,0.148731,0.465271,-0.117114,0.284641,0.6966749999999999,-0.187114,-0.292899,0.886605,-0.336624,0.32826099999999997,0.918095,-0.27328399999999997,-0.080657,0.00013499999999999623,-0.005205,0.080657,-0.00013499999999999623,0.0052049999999999996,-0.150169,0.01621499999999998,-0.362224,0.212891,0.02290500000000001,-0.333734,-0.118169,-0.28234499999999996,-0.111044,0.122001,-0.29088500000000006,-0.125704
77,0.009334999999999998,0.680705,-0.14079,-0.134117,0.475876,-0.12813,-0.244567,0.6870350000000001,-0.22899999999999998,0.14855300000000002,0.467108,-0.11346,0.284493,0.6991050000000001,-0.1818,-0.295177,0.890815,-0.33247,0.32886299999999996,0.9197649999999999,-0.26748,-0.080459,-2.4999999999997247e-05,-0.005187,0.080459,2.5000000000052758e-05,0.005187,-0.147707,0.005725000000000036,-0.36129,0.213093,0.011855000000000004,-0.33308,-0.11912700000000001,-0.29344499999999996,-0.11137,0.12390299999999999,-0.29998499999999995,-0.12155999999999999
78,0.008698500000000005,0.685705,-0.134536,-0.1353315,0.480008,-0.12209600000000001,-0.24639149999999999,0.692655,-0.222626,0.1480985,0.46910799999999997,-0.108376,0.2839785,0.702525,-0.175086,-0.2981215,0.902335,-0.325526,0.3287385,0.922855,-0.25934599999999997,-0.0801645,-7.499999999999174e-05,-0.005069,0.0801645,7.499999999999174e-05,0.005069000000000001,-0.1448515,-0.012905,-0.358506,0.2129585,-0.0067050000000000165,-0.33039599999999997,-0.12027149999999999,-0.315805,-0.113706,0.1257885,-0.320105,-0.117266
79,0.007817000000000001,0.689855,-0.12744799999999998,-0.136192,0.482471,-0.115288,-0.24897200000000003,0.697925,-0.214938,0.14729799999999998,0.47141299999999997,-0.102128,0.283038,0.703945,-0.167398,-0.301302,0.910855,-0.317318,0.328538,0.926515,-0.250568,-0.07988899999999999,-0.00022499999999997522,-0.004880000000000001,0.07988899999999999,0.00022499999999997522,0.004880000000000001,-0.14186200000000002,-0.034194999999999975,-0.35459799999999997,0.212228,-0.027455000000000007,-0.326538,-0.120922,-0.341355,-0.11143800000000001,0.127248,-0.343045,-0.116408
80,0.006938500000000002,0.69627,-0.11992699999999999,-0.1370795,0.48578,-0.107687,-0.25101949999999995,0.70263,-0.206277,0.1466005,0.474015,-0.095527,0.2820805,0.7059,-0.15900699999999998,-0.3038495,0.91953,-0.307407,0.3283805,0.92832,-0.241377,-0.0793275,-0.00039000000000000146,-0.004671,0.0793275,0.00039000000000000146,0.004671,-0.1387295,-0.05726999999999999,-0.349747,0.2112705,-0.05014000000000002,-0.321917,-0.12175949999999999,-0.36898000000000003,-0.109727,0.1280305,-0.36811,-0.114537
81,0.005697500000000005,0.701945,-0.111239,-0.1382575,0.488645,-0.099689,-0.25336749999999997,0.7069650000000001,-0.196509,0.1459325,0.476995,-0.088181,0.28122250000000004,0.709105,-0.14976899999999999,-0.3067275,0.9275450000000001,-0.296449,0.32785250000000005,0.9330750000000001,-0.230789,-0.07874249999999999,-0.0006249999999999867,-0.004383,0.07874249999999999,0.0006249999999999867,0.004383,-0.1361175,-0.08159500000000003,-0.34409900000000004,0.2096325,-0.07466499999999998,-0.316439,-0.1230175,-0.39862499999999995,-0.107419,0.1282725,-0.395415,-0.112719
82,0.004855,0.7093149999999999,-0.099441,-0.139347,0.49153499999999994,-0.089681,-0.255767,0.712385,-0.183431,0.145553,0.482205,-0.077336,0.280213,0.712105,-0.136551,-0.309237,0.9335249999999999,-0.281011,0.327023,0.935165,-0.21618099999999998,-0.077958,-0.0008250000000000202,-0.004125,0.077958,0.0008249999999999647,0.0041249999999999985,-0.133237,-0.11461500000000002,-0.330911,0.207103,-0.10789500000000002,-0.303701,-0.124477,-0.43988499999999997,-0.102891,0.127893,-0.435685,-0.109361
83,0.0045829999999999985,0.7164699999999999,-0.0863445,-0.140649,0.49564,-0.0782275,-0.257789,0.71695,-0.16909449999999998,0.145521,0.48682000000000003,-0.0652945,0.27920100000000003,0.7142900000000001,-0.12159450000000001,-0.312039,0.93723,-0.2631545,0.326591,0.9381200000000001,-0.20048449999999998,-0.07722000000000001,-0.0006800000000000139,-0.0038335,0.07722000000000001,0.0006800000000000139,0.0038334999999999984,-0.13119899999999998,-0.15027000000000001,-0.3135345,0.20278100000000002,-0.14493,-0.28753449999999997,-0.125449,-0.48472,-0.09768450000000001,0.125321,-0.48016,-0.10473450000000001
84,0.004440500000000002,0.72181,-0.073528,-0.14180749999999998,0.49594000000000005,-0.068827,-0.2598875,0.71992,-0.155329,0.1456925,0.48897999999999997,-0.055343,0.2784425,0.72038,-0.107349,-0.3142275,0.94165,-0.246129,0.3259025,0.94201,-0.185289,-0.0765695,-0.0008100000000000052,-0.0036409999999999984,0.0765695,0.0008100000000000052,0.003641000000000002,-0.1296675,-0.18056999999999998,-0.295069,0.1978125,-0.17734999999999998,-0.269669,-0.12652750000000001,-0.52473,-0.092259,0.1230225,-0.51951,-0.098199
85,0.0039004999999999995,0.72649,-0.0567415,-0.1433725,0.49620000000000003,-0.054460499999999995,-0.2627025,0.72084,-0.1369315,0.14563749999999998,0.49077000000000004,-0.040511500000000006,0.2771975,0.7214700000000001,-0.0891215,-0.31694249999999996,0.94413,-0.22450150000000002,0.32447750000000003,0.94169,-0.1656215,-0.0758455,-0.0008599999999999997,-0.003446499999999998,0.0758455,0.0008599999999999997,0.003446499999999998,-0.1290825,-0.21423999999999999,-0.2691615,0.1915775,-0.21191,-0.2444515,-0.12884250000000003,-0.5675399999999999,-0.0827515,0.1214275,-0.5613,-0.0852315
86,0.0034679999999999997,0.729565,-0.039819499999999994,-0.145032,0.497975,-0.039969500000000005,-0.265422,0.724985,-0.11890949999999999,0.145638,0.49189499999999997,-0.0255615,0.27601800000000004,0.724915,-0.0712495,-0.319602,0.9478249999999999,-0.20340950000000002,0.32340800000000003,0.941525,-0.1463295,-0.07514599999999999,-0.0007250000000000034,-0.0030504999999999977,0.07514599999999999,0.0007249999999999757,0.0030504999999999977,-0.12776200000000001,-0.24601500000000004,-0.2386395,0.182608,-0.24461500000000003,-0.21413949999999998,-0.131802,-0.6084149999999999,-0.0712795,0.11948800000000001,-0.604355,-0.0697895
87,0.0031624999999999986,0.732085,-0.024494500000000002,-0.1459635,0.49731499999999995,-0.02720950000000001,-0.2671335,0.727905,-0.10215150000000002,0.1457065,0.492795,-0.011938500000000005,0.27517650000000005,0.7268549999999999,-0.05504550000000001,-0.32162349999999995,0.945615,-0.1839115,0.32242649999999995,0.940245,-0.12866149999999998,-0.0745055,-0.0007449999999999957,-0.0026815000000000033,0.0745055,0.0007449999999999957,0.0026814999999999964,-0.12658350000000002,-0.270305,-0.21007149999999997,0.1735765,-0.27178500000000005,-0.18500149999999999,-0.1337335,-0.639165,-0.060521500000000006,0.11752649999999999,-0.6374150000000001,-0.054581500000000005
88,0.002855000000000005,0.735305,-0.009737499999999996,-0.146905,0.498915,-0.014956500000000005,-0.26870499999999997,0.7313949999999999,-0.0866375,0.145755,0.494375,0.0008145000000000027,0.27494500000000005,0.731205,-0.04000549999999999,-0.323565,0.946125,-0.1652275,0.321765,0.939915,-0.1118075,-0.074095,-0.0005980000000000013,-0.002408500000000001,0.074095,0.0005980000000000013,0.002408500000000001,-0.125415,-0.29301499999999997,-0.1822375,0.164465,-0.297925,-0.1565275,-0.135665,-0.667535,-0.04931749999999999,0.115595,-0.6679550000000001,-0.040298499999999994
89,0.0025599999999999963,0.7359485,0.004754000000000001,-0.147951,0.5001485,-0.0030859999999999985,-0.270571,0.7351885,-0.07209099999999999,0.145619,0.4954685,0.013246,0.274799,0.7345785,-0.025931999999999997,-0.325481,0.9460585,-0.14777099999999999,0.32104900000000003,0.9412785,-0.095771,-0.07379,-0.00046550000000000064,-0.0020899999999999946,0.07379,0.00046550000000000064,0.0020900000000000016,-0.12437100000000001,-0.3149215,-0.154651,0.15534900000000001,-0.32349150000000004,-0.128241,-0.137531,-0.6950115,-0.03905,0.11349899999999999,-0.6969515000000001,-0.027301999999999993
90,0.002382500000000001,0.737591,0.018088999999999994,-0.1489655,0.501791,0.008173999999999994,-0.27207549999999997,0.739471,-0.05852,0.1455345,0.496601,0.024919999999999998,0.2745845,0.737721,-0.012898000000000007,-0.3267555,0.946551,-0.13118,0.3206545,0.939811,-0.08145,-0.0736685,-0.00017800000000000107,-0.0018740000000000007,0.0736685,0.0001779999999999976,0.0018739999999999937,-0.12341550000000001,-0.335909,-0.12709,0.1457245,-0.348349,-0.09954000000000002,-0.1394455,-0.7209990000000001,-0.025285000000000002,0.11109450000000001,-0.725289,-0.018442
91,0.002013999999999995,0.7367199999999999,0.027359499999999988,-0.150477,0.503,0.01682349999999999,-0.273227,0.74201,-0.049295500000000006,0.145573,0.49555,0.03291749999999999,0.27481300000000003,0.7394799999999999,-0.004340500000000011,-0.327277,0.94307,-0.11984550000000002,0.320743,0.9395199999999999,-0.07194550000000002,-0.073579,0.00012399999999999998,-0.0016145000000000048,0.073579,-0.00012399999999999998,0.001614499999999991,-0.123227,-0.34937,-0.10659550000000001,0.137113,-0.3624,-0.0776655,-0.140707,-0.73489,-0.015629500000000005,0.106933,-0.7391500000000001,-0.007297500000000012
92,0.0012890000000000002,0.7351025,0.0349305,-0.15168500000000001,0.5034425,0.024239500000000004,-0.274015,0.7428925,-0.0416855,0.145365,0.49517250000000007,0.03973550000000001,0.27519499999999997,0.7415225,0.0022365000000000024,-0.327875,0.9419825,-0.11074549999999998,0.320555,0.9378924999999999,-0.06384549999999999,-0.073575,0.00017450000000000018,-0.0013895000000000018,0.073575,-0.00017450000000000018,0.0013895000000000018,-0.12271499999999999,-0.3606975,-0.0895855,0.13011499999999998,-0.3737875,-0.058535500000000004,-0.14186500000000002,-0.7461575,-0.00655349999999999,0.103625,-0.7507975,0.002639500000000003
93,0.000597000000000002,0.7342905,0.042451,-0.152877,0.5049604999999999,0.031841,-0.274777,0.7433405,-0.03401,0.145203,0.4951605,0.04667,0.275283,0.7409905,0.008468000000000003,-0.327997,0.9388504999999999,-0.10188,0.320483,0.9365804999999999,-0.05618000000000001,-0.07356399999999999,0.00046350000000000037,-0.0010890000000000066,0.07356399999999999,-0.00046350000000000037,0.0010890000000000066,-0.122527,-0.3706295,-0.07222,0.12335299999999999,-0.38409950000000004,-0.03967999999999999,-0.14258700000000002,-0.7562895000000001,0.001230999999999996,0.10072300000000001,-0.7618295,0.011556999999999998
94,-1.734723475976807e-18,0.7339910000000001,0.046216999999999994,-0.15362599999999998,0.507031,0.03559499999999999,-0.27544599999999997,0.746591,-0.030087000000000003,0.14516400000000002,0.49660100000000007,0.04951099999999999,0.275644,0.744441,0.011093999999999993,-0.32789599999999997,0.938891,-0.09654700000000002,0.320434,0.938691,-0.05240700000000001,-0.073576,0.0006579999999999989,-0.0010900000000000076,0.073576,-0.0006580000000000023,0.0010899999999999938,-0.122536,-0.376359,-0.06048700000000001,0.11789399999999998,-0.393109,-0.02641700000000001,-0.14327600000000001,-0.763079,0.005136999999999989,0.09951399999999999,-0.769509,0.01508099999999999
95,-0.000706,0.7343885,0.049870000000000005,-0.154483,0.5079085,0.038933,-0.275823,0.7467785,-0.025918999999999998,0.14507699999999998,0.4974885,0.052205,0.275827,0.7450485,0.014055000000000005,-0.327633,0.9385785,-0.09114900000000001,0.319867,0.9396185,-0.048679,-0.073662,0.0008794999999999983,-0.0010980000000000018,0.073662,-0.0008795000000000018,0.0010980000000000018,-0.123623,-0.38103149999999997,-0.052438999999999986,0.11503700000000001,-0.4001115,-0.017742999999999995,-0.14361300000000002,-0.7680115,0.00608800000000001,0.098987,-0.7744415,0.015653000000000007
96,-0.0014535,0.734315,0.053343,-0.15537050000000002,0.5088550000000001,0.042219000000000007,-0.27620049999999996,0.744905,-0.021883,0.1450695,0.498335,0.055046000000000005,0.2750695,0.743545,0.017306000000000002,-0.3275105,0.937515,-0.085991,0.31909950000000004,0.939095,-0.045351,-0.0736635,0.001131,-0.0010980000000000018,0.0736635,-0.001131,0.0010980000000000018,-0.1247205,-0.38542499999999996,-0.04405099999999999,0.1122895,-0.40635499999999997,-0.009057999999999997,-0.1439205,-0.772245,0.007033999999999999,0.0984595,-0.778675,0.016346000000000006
97,-0.001975499999999998,0.7341595000000001,0.056215999999999995,-0.1561055,0.5091395000000001,0.04419699999999999,-0.2765055,0.7422995,-0.01843800000000001,0.14533449999999998,0.4981995,0.05660899999999999,0.2745245,0.7411395000000001,0.02020199999999999,-0.3274055,0.9360495,-0.081646,0.31850449999999997,0.9380195,-0.04183600000000001,-0.0735785,0.0013504999999999975,-0.000793000000000002,0.0735785,-0.0013504999999999975,0.0007929999999999882,-0.1255855,-0.3891405,-0.03636600000000001,0.10985450000000001,-0.4118005,-0.00038400000000000933,-0.14334550000000001,-0.7757404999999999,0.007285,0.0979845,-0.7821705,0.016113999999999996
98,-0.0022480000000000035,0.7342175,0.05855799999999999,-0.156526,0.5087775000000001,0.045267999999999996,-0.276516,0.7398475,-0.014300000000000007,0.14584399999999997,0.49821750000000004,0.057669,0.27473400000000003,0.7410375,0.023133999999999995,-0.32723599999999997,0.9347675,-0.077453,0.31813400000000003,0.9379774999999999,-0.03846300000000001,-0.073519,0.0016124999999999959,-0.0007840000000000069,0.073519,-0.0016125000000000028,0.000783999999999993,-0.12629600000000002,-0.3912825,-0.02962300000000001,0.107884,-0.4162825,0.007648999999999989,-0.142816,-0.7776825,0.00873299999999999,0.098814,-0.7846225,0.015599999999999996
99,-0.0024405000000000017,0.733983,0.060662499999999994,-0.1570205,0.508633,0.04749149999999999,-0.2763105,0.7377830000000001,-0.010622500000000007,0.1456995,0.497733,0.05975549999999999,0.2743095,0.739873,0.027865499999999988,-0.3271905,0.9334330000000001,-0.0735655,0.3176995,0.937003,-0.03413550000000001,-0.0735255,0.0018370000000000053,-0.0007165000000000088,0.0735255,-0.0018369999999999984,0.0007164999999999949,-0.1268905,-0.39299700000000004,-0.02377950000000001,0.10642950000000001,-0.420207,0.01390149999999999,-0.14223049999999998,-0.7787769999999999,0.009771499999999989,0.0997795,-0.786397,0.01483149999999999
100,-0.0026394999999999995,0.7336484999999999,0.06285850000000001,-0.1575715,0.5081884999999999,0.0495565,-0.2761015,0.7362385,-0.0068534999999999985,0.1456385,0.4973685,0.06199350000000001,0.27332850000000003,0.7386185,0.032178500000000006,-0.32747149999999997,0.9325285,-0.0697055,0.3168285,0.9364785,-0.029693499999999998,-0.0735365,0.0020284999999999956,-0.0005904999999999938,0.0735365,-0.0020285000000000025,0.0005905000000000077,-0.1273815,-0.39419150000000003,-0.0185395,0.1051485,-0.4234515,0.019426500000000006,-0.1414815,-0.7793715,0.010405500000000005,0.10063849999999999,-0.7875915,0.014248500000000004
101,-0.002924000000000003,0.7332865,0.06476749999999999,-0.158075,0.5075065,0.05145849999999999,-0.275945,0.7349965,-0.0034835000000000144,0.145475,0.4970065,0.06409649999999999,0.27220500000000003,0.7379765,0.03617849999999999,-0.327775,0.9320065,-0.06611250000000002,0.315915,0.9365665,-0.025537500000000005,-0.07351099999999999,0.002190500000000005,-0.0005885000000000057,0.07351099999999999,-0.002190499999999998,0.0005884999999999918,-0.127795,-0.3953035,-0.013867500000000005,0.10405500000000001,-0.4263135,0.024243499999999994,-0.14066499999999998,-0.7796135,0.010878499999999992,0.10169500000000001,-0.7884435,0.013529499999999993
102,-0.0032609999999999983,0.7328279999999999,0.0662975,-0.15864299999999998,0.506918,0.0534265,-0.275933,0.7336379999999999,-0.0005944999999999978,0.145367,0.49680799999999997,0.0659265,0.270887,0.737598,0.0403125,-0.32798299999999997,0.931858,-0.0631605,0.314867,0.936808,-0.021568500000000004,-0.07345299999999999,0.002343999999999999,-0.0005764999999999937,0.07345299999999999,-0.002343999999999999,0.0005764999999999937,-0.128043,-0.396242,-0.010567499999999994,0.103467,-0.428232,0.027632499999999997,-0.13977299999999998,-0.779482,0.011043499999999998,0.10261700000000001,-0.7887620000000001,0.012671500000000002
103,-0.0035630000000000045,0.7323795,0.0676255,-0.15908300000000003,0.5062995,0.054920500000000004,-0.27602299999999996,0.7318895,0.002107500000000005,0.14526699999999998,0.49667949999999994,0.0679435,0.269727,0.7377495,0.04439850000000001,-0.328063,0.9318695,-0.0605435,0.313917,0.9373095,-0.01783549999999999,-0.073395,0.002425499999999997,-0.0007085000000000008,0.073395,-0.002425500000000004,0.0007085000000000008,-0.128093,-0.3969805,-0.00824649999999999,0.10317699999999999,-0.4299505,0.030096500000000005,-0.13875300000000002,-0.7792405,0.010936500000000002,0.103547,-0.7889505,0.011731500000000006
104,-0.004014499999999998,0.732142,0.06888849999999999,-0.1595505,0.506062,0.056249499999999994,-0.2760905,0.730102,0.004521499999999998,0.1450695,0.49659200000000003,0.0700085,0.2685895,0.737582,0.048035499999999995,-0.3282805,0.931802,-0.0580335,0.31281950000000003,0.937782,-0.0138355,-0.0733525,0.002471000000000001,-0.0008985000000000035,0.0733525,-0.002471000000000001,0.0008984999999999965,-0.1280705,-0.39756800000000003,-0.0069745000000000085,0.1030295,-0.43104800000000004,0.03168649999999999,-0.1376805,-0.778948,0.0103305,0.1044195,-0.789118,0.010303499999999993
105,-0.004495499999999997,0.7320165,0.069988,-0.1599715,0.5059365,0.05772399999999999,-0.2761315,0.7280665,0.006847999999999993,0.1448885,0.4966465,0.07199699999999999,0.2674885,0.7360964999999999,0.05143199999999999,-0.3288315,0.9314565,-0.05574000000000001,0.3117585,0.9383765,-0.009898000000000004,-0.0733505,0.0024814999999999976,-0.0010650000000000034,0.0733505,-0.0024815000000000045,0.0010649999999999965,-0.12794149999999999,-0.3981035,-0.00621300000000001,0.10313850000000001,-0.4319635,0.03258099999999999,-0.1365415,-0.7786335,0.009597999999999995,0.1053085,-0.7892435,0.008796999999999992
106,-0.004499499999999996,0.7320165,0.0706635,-0.1601275,0.5058465,0.0594835,-0.27617749999999996,0.7258765,0.008884500000000004,0.1446725,0.4966965,0.07417750000000001,0.2666425,0.7343265,0.054295500000000003,-0.32945749999999996,0.9309465,-0.0538045,0.31125250000000004,0.9388265,-0.006652499999999999,-0.0733635,0.0024814999999999976,-0.0011175000000000004,0.0733635,-0.0024815000000000045,0.0011175000000000004,-0.1277075,-0.39836350000000004,-0.006308500000000002,0.10347250000000001,-0.43256350000000005,0.0319465,-0.1360275,-0.7780335,0.008698500000000005,0.1058825,-0.7892735000000001,0.007119500000000001
107,-0.004414499999999998,0.7317395,0.071311,-0.1601955,0.5053095,0.061396000000000006,-0.27612549999999997,0.7246095,0.009911000000000003,0.1445745,0.4967095,0.07646,0.2660145,0.7335995,0.056777,-0.3298455,0.9307195,-0.052197999999999994,0.3107545,0.9391895,-0.003462999999999994,-0.07340849999999999,0.0024745000000000045,-0.0010829999999999937,0.07340849999999999,-0.0024744999999999975,0.0010830000000000006,-0.1274255,-0.3983705,-0.006512999999999998,0.10390450000000001,-0.4331905,0.030878000000000003,-0.13540549999999998,-0.7776605,0.006387000000000004,0.1064245,-0.7892805,0.0055660000000000015
108,-0.004302499999999999,0.731383,0.071839,-0.1600595,0.504713,0.061976,-0.27606949999999997,0.723473,0.010874000000000002,0.1446105,0.496903,0.07735,0.2656905,0.732733,0.057501,-0.3300395,0.930583,-0.050941999999999994,0.3105405,0.939483,-0.0014860000000000012,-0.0734435,0.002472000000000002,-0.0011390000000000011,0.0734435,-0.002472000000000002,0.0011390000000000011,-0.1270795,-0.398627,-0.006945,0.1043905,-0.43377699999999997,0.02999,-0.1347695,-0.777277,0.004262999999999996,0.1070005,-0.789317,0.004129000000000001
109,-0.004277999999999999,0.7311955,0.0720815,-0.159989,0.5043955,0.062413500000000004,-0.275779,0.7228855000000001,0.011510500000000007,0.144771,0.4971155,0.0780515,0.265781,0.7324555,0.058307500000000005,-0.330159,0.9307855,-0.050298499999999996,0.310441,0.9397155,-3.0499999999995808e-05,-0.073495,0.0024865000000000026,-0.0012614999999999987,0.073495,-0.0024865000000000026,0.0012615000000000057,-0.126949,-0.3989245,-0.0074164999999999925,0.10473099999999999,-0.4340345,0.029184500000000006,-0.134239,-0.7769444999999999,0.0023945000000000077,0.10730100000000001,-0.7892644999999999,0.0025905000000000025
110,-0.004314,0.7309055,0.072213,-0.15989799999999998,0.5039555,0.06275499999999999,-0.275808,0.7222655,0.011993999999999998,0.144812,0.49722550000000004,0.07875299999999999,0.265932,0.7322755,0.059112,-0.330278,0.9313254999999999,-0.049842,0.31031200000000003,0.9398154999999999,0.0012779999999999944,-0.073552,0.0024904999999999997,-0.0012660000000000032,0.073552,-0.0024904999999999997,0.0012659999999999963,-0.126828,-0.3993645,-0.007981000000000002,0.105022,-0.4343045,0.028386999999999996,-0.13383799999999998,-0.7768045,0.0004789999999999933,0.10756199999999999,-0.7893345,0.0010579999999999964
111,-0.0043335,0.7305995,0.07228,-0.1597435,0.5036495,0.062695,-0.2759335,0.7216695,0.012344,0.1448765,0.49745950000000005,0.079658,0.2662065,0.7333295,0.05925,-0.3303635,0.9318195,-0.049608,0.31030650000000004,0.9404895,0.002124000000000001,-0.07360649999999999,0.0024554999999999993,-0.0012749999999999984,0.07360649999999999,-0.0024554999999999993,0.0012749999999999984,-0.1266635,-0.3998605,-0.008648000000000003,0.10531650000000001,-0.43451049999999997,0.027583,-0.13341350000000002,-0.7765905,-0.0012790000000000024,0.1079965,-0.7891205,-0.0005999999999999964
112,-0.0043219999999999995,0.730303,0.072279,-0.15968,0.5034230000000001,0.062792,-0.27606,0.721373,0.012308999999999997,0.14503,0.497723,0.080184,0.26650999999999997,0.733583,0.059141,-0.33035000000000003,0.932103,-0.049937,0.31059,0.940743,0.002582000000000001,-0.073654,0.0023989999999999984,-0.001236000000000001,0.073654,-0.0023990000000000053,0.001236000000000001,-0.12652,-0.400297,-0.009262,0.10561,-0.43460699999999997,0.026869999999999998,-0.13302000000000003,-0.775967,-0.0025630000000000028,0.10845,-0.788857,-0.0018550000000000025
113,-0.0041960000000000035,0.7300089999999999,0.072057,-0.15960600000000003,0.503279,0.062855,-0.276146,0.7211289999999999,0.011968999999999997,0.14523399999999997,0.497959,0.080519,0.266794,0.7327589999999999,0.05898099999999999,-0.33024600000000004,0.9323589999999999,-0.05081100000000001,0.310864,0.9406190000000001,0.002601999999999993,-0.073685,0.002341000000000003,-0.0011610000000000023,0.073685,-0.002340999999999996,0.0011609999999999954,-0.126376,-0.400771,-0.009653000000000002,0.10588399999999999,-0.434741,0.026294999999999995,-0.13267600000000002,-0.7753209999999999,-0.0031940000000000024,0.10882399999999999,-0.7886610000000001,-0.0027320000000000053
114,-0.004013500000000003,0.72977,0.0716755,-0.1595535,0.50314,0.0628005,-0.27619350000000004,0.7209599999999999,0.0108785,0.1454865,0.49829999999999997,0.0806875,0.2670565,0.73235,0.0584195,-0.3301835,0.93265,-0.0519745,0.31116649999999996,0.94091,0.0014824999999999977,-0.07367850000000001,0.0023080000000000045,-0.0011265000000000025,0.07367850000000001,-0.0023079999999999976,0.0011265000000000025,-0.1262935,-0.40121,-0.010055500000000002,0.1060865,-0.43483,0.0257515,-0.1323735,-0.7748200000000001,-0.004151500000000002,0.10907649999999999,-0.78837,-0.0035994999999999985
115,-0.0038109999999999993,0.7295145,0.07120499999999999,-0.15952,0.5030045,0.062696,-0.27625,0.7207245,0.01004,0.14565,0.49847450000000004,0.080695,0.26829000000000003,0.7324445,0.058025,-0.33006,0.9329345,-0.052797,0.31145999999999996,0.9411945,0.000675999999999996,-0.073681,0.0022754999999999997,-0.0011429999999999982,0.073681,-0.0022754999999999997,0.0011429999999999982,-0.12627,-0.40162549999999997,-0.010231000000000004,0.10622,-0.4349155,0.025403000000000002,-0.13213,-0.7747054999999999,-0.005033000000000003,0.10948,-0.7880855,-0.004636000000000001
116,-0.003699499999999999,0.729352,0.0704465,-0.1595685,0.503002,0.06246750000000001,-0.27658849999999996,0.720432,0.009240500000000006,0.1457115,0.498342,0.0804945,0.2698815,0.7311219999999999,0.057524500000000006,-0.3300285,0.932712,-0.0535625,0.3119015,0.9409219999999999,-5.3499999999997994e-05,-0.0736475,0.0022760000000000002,-0.001182499999999996,0.0736475,-0.0022759999999999933,0.001182500000000003,-0.1263285,-0.401758,-0.010475499999999999,0.1062515,-0.434948,0.025006500000000004,-0.1319785,-0.7749280000000001,-0.005938499999999999,0.1096015,-0.787868,-0.005407499999999996
