sb224sc-HT22-VT27/4dt907/src/ml-research/a12/datafiles/kinect_good_preprocessed_A9_mediapipe/A41_kinect_mirrored.csv
FrameNo,nose_3d_x,nose_3d_y,nose_3d_z,left_shoulder_3d_x,left_shoulder_3d_y,left_shoulder_3d_z,left_elbow_3d_x,left_elbow_3d_y,left_elbow_3d_z,right_shoulder_3d_x,right_shoulder_3d_y,right_shoulder_3d_z,right_elbow_3d_x,right_elbow_3d_y,right_elbow_3d_z,left_wrist_3d_x,left_wrist_3d_y,left_wrist_3d_z,right_wrist_3d_x,right_wrist_3d_y,right_wrist_3d_z,left_hip_3d_x,left_hip_3d_y,left_hip_3d_z,right_hip_3d_x,right_hip_3d_y,right_hip_3d_z,left_knee_3d_x,left_knee_3d_y,left_knee_3d_z,right_knee_3d_x,right_knee_3d_y,right_knee_3d_z,left_ankle_3d_x,left_ankle_3d_y,left_ankle_3d_z,right_ankle_3d_x,right_ankle_3d_y,right_ankle_3d_z
53,0.9841925,0.722959,0.0592485,0.8437135,0.478249,0.0553175,0.7451635,0.7331190000000001,0.0398705,1.1323335,0.5073690000000001,0.0568665,1.2298435,0.7553190000000001,0.0212975,0.7232135,0.976389,0.0068325,1.2552835,0.970289,-0.0096245,0.9261215,-0.0041119999999999,-0.0037774999999999,1.0738785,0.0041119999999999,0.0037774999999999,0.8827035,-0.445681,0.0039495,1.1251735,-0.407731,-0.0197385,0.8727035,-0.8021309999999999,-0.0324465,1.1300634999999999,-0.7844909999999999,-0.0210335
54,0.9845545,0.7223719999999999,0.0585785,0.8444205,0.478652,0.0555055,0.7473905000000001,0.7345419999999999,0.0458745,1.1317805,0.507822,0.0583925,1.2286305,0.7566919999999999,0.0298075,0.7255205,0.977222,0.0211525,1.2549204999999999,0.976122,0.0064155,0.9261105000000001,-0.004076,-0.0042295,1.0738895,0.004076,0.0042295,0.8828805,-0.445858,0.0042995,1.1251205,-0.408538,-0.0193255,0.8729105,-0.803558,-0.0320074999999999,1.1301705,-0.786058,-0.0210115
55,0.9848480000000001,0.7218359999999999,0.0581805,0.844947,0.4789159999999999,0.0558045,0.748577,0.7352460000000001,0.0501825,1.131487,0.507946,0.0598895,1.228877,0.757776,0.0345425,0.7270570000000001,0.976866,0.0315345,1.255377,0.981666,0.0187805,0.9260660000000001,-0.004048,-0.0046854999999999,1.073934,0.0040479999999999,0.0046855,0.883017,-0.446164,0.0046535,1.125077,-0.409434,-0.0189555,0.873027,-0.8048740000000001,-0.0315914999999999,1.130277,-0.7874639999999999,-0.0207865
56,0.9851650000000001,0.72133,0.0583235,0.8452410000000001,0.4793,0.0561665,0.7493609999999999,0.73585,0.0533955,1.1315009999999999,0.5077400000000001,0.0611525,1.229211,0.7594200000000001,0.0386275,0.727851,0.97697,0.0378815,1.2560310000000001,0.98637,0.0278585,0.9260619999999999,-0.0040219999999999,-0.0049675,1.073938,0.0040219999999999,0.0049675,0.883101,-0.44651,0.0049525,1.125071,-0.41002,-0.0187395,0.873121,-0.80562,-0.0312464999999999,1.130461,-0.78886,-0.0208785
57,0.9854610000000001,0.720979,0.0585255,0.845445,0.4797389999999999,0.0564825,0.750035,0.7363090000000001,0.0563025,1.131585,0.507499,0.0622454999999999,1.2295449999999999,0.7608790000000001,0.0425264999999999,0.7282850000000001,0.977229,0.0429004999999999,1.256635,0.990329,0.0358435,0.926072,-0.0039959999999999,-0.0051925,1.073928,0.0039959999999999,0.0051924999999999,0.883205,-0.446801,0.0051824999999999,1.125055,-0.410461,-0.0185825,0.873375,-0.806361,-0.0307745,1.130695,-0.789661,-0.0208965
58,0.985676,0.7208235,0.0587559999999999,0.845573,0.4800235,0.056718,0.750223,0.7365735,0.05759,1.1316929999999998,0.5072935,0.0630179999999999,1.229903,0.7617035,0.0451779999999999,0.728603,0.9775835,0.0462729999999999,1.257063,0.9928835,0.040942,0.926086,-0.0039635,-0.0052899999999999,1.073914,0.0039635,0.0052899999999999,0.883313,-0.4469365,0.0053119999999999,1.125003,-0.4106165,-0.018566,0.8735930000000001,-0.8067165000000001,-0.030403,1.130903,-0.7900565,-0.020996
59,0.9859890000000001,0.720719,0.058943,0.84581,0.480249,0.0570769999999999,0.7505,0.736699,0.058858,1.13195,0.507009,0.063957,1.23026,0.762339,0.047571,0.72899,0.977039,0.049107,1.2581799999999999,0.994939,0.044931,0.9261159999999999,-0.0039249999999999,-0.005374,1.073884,0.0039249999999999,0.005374,0.88343,-0.447051,0.005284,1.1249500000000001,-0.411131,-0.018717,0.87383,-0.807251,-0.0301,1.13113,-0.790761,-0.020987
60,0.9862825,0.720719,0.0590075,0.8460875,0.480329,0.0573165,0.7508075000000001,0.736779,0.0596924999999999,1.1322075,0.507009,0.0647375,1.2306175,0.762779,0.0496405,0.7294075,0.976239,0.0516045,1.2593475,0.996639,0.0486805,0.9261445000000001,-0.0039249999999999,-0.0054424999999999,1.0738554999999999,0.0039249999999999,0.0054424999999999,0.8835875,-0.447051,0.0049745,1.1249175,-0.411271,-0.0190475,0.8741975,-0.807421,-0.0300965,1.1315075,-0.791221,-0.0213625
61,0.986603,0.720719,0.0590845,0.846328,0.480329,0.0575055,0.750998,0.736959,0.0604485,1.132528,0.507009,0.0654184999999999,1.231038,0.762999,0.0512935,0.7295780000000001,0.976339,0.0537455,1.260578,0.998139,0.0512435,0.92618,-0.0039249999999999,-0.0054444999999999,1.07382,0.0039249999999999,0.0054445,0.883638,-0.447051,0.0045275,1.1248479999999998,-0.411411,-0.0194845,0.874408,-0.807421,-0.0303505,1.131768,-0.791671,-0.0217795
62,0.986917,0.720699,0.059264,0.846572,0.480329,0.0577,0.751052,0.737099,0.061096,1.132802,0.507009,0.066067,1.231432,0.762999,0.052482,0.729452,0.976339,0.055198,1.261812,0.999239,0.0528519999999999,0.926221,-0.0039249999999999,-0.005447,1.073779,0.0039249999999999,0.005447,0.883642,-0.447051,0.003907,1.124642,-0.411671,-0.01988,0.874572,-0.807571,-0.030569,1.131922,-0.792021,-0.022008
63,0.9871540000000001,0.720738,0.059811,0.846746,0.480498,0.058158,0.750826,0.737328,0.06204,1.133026,0.5068280000000001,0.066872,1.231746,0.763038,0.053299,0.728996,0.976378,0.056324,1.262636,0.999278,0.052981,0.926287,-0.0039039999999999,-0.005451,1.073713,0.003904,0.005451,0.883646,-0.447412,0.0031419999999999,1.124436,-0.412722,-0.020181,0.874676,-0.808032,-0.030796,1.132066,-0.793012,-0.022855
64,0.9873875000000001,0.7208225,0.060435,0.8469215,0.4807225,0.058569,0.7503215,0.7374625,0.062912,1.1332515,0.5066025000000001,0.067659,1.2320415,0.7631125,0.053855,0.7283115,0.9764425,0.05714,1.2633615,0.9993425,0.052748,0.9263695,-0.0038815,-0.0055209999999999,1.0736305,0.0038814999999999,0.005521,0.8835915,-0.4477875,0.002033,1.1242015,-0.4139975,-0.0206809999999999,0.8747914999999999,-0.8084875,-0.031304,1.1321715,-0.7939475,-0.023835
65,0.9876115000000001,0.720985,0.061004,0.8470905,0.480755,0.05892,0.7496205,0.7376750000000001,0.063618,1.1334505,0.5063850000000001,0.068323,1.2323105,0.763175,0.054028,0.7270705,0.976345,0.057356,1.2639605,0.999445,0.052389,0.9264275,-0.003865,-0.0055459999999999,1.0735725,0.003865,0.005546,0.8834705,-0.448155,0.0007069999999999,1.1239505,-0.415375,-0.021289,0.8749005000000001,-0.808715,-0.032087,1.1322605000000001,-0.794675,-0.0251
66,0.987831,0.7211919999999999,0.0613984999999999,0.8472770000000001,0.480742,0.0591895,0.748757,0.7380319999999999,0.0639405,1.133707,0.506412,0.0687225,1.232547,0.763122,0.0536694999999999,0.725357,0.976202,0.0568635,1.264467,0.999402,0.0516574999999999,0.926477,-0.0038559999999999,-0.0055114999999999,1.073523,0.003856,0.0055115,0.883297,-0.4487879999999999,-0.0011154999999999,1.123717,-0.4168779999999999,-0.0222994999999999,0.875017,-0.808998,-0.0333625,1.132547,-0.7951980000000001,-0.0269645
67,0.988014,0.7214095,0.0615535,0.8474570000000001,0.4806195,0.0593115,0.747907,0.7383995,0.0638755,1.133877,0.5064895,0.0688715,1.2327469999999998,0.7630395,0.0529655,0.723827,0.9760995,0.0559705,1.264757,0.9992995,0.0505694999999999,0.926505,-0.0038665,-0.0055445,1.073495,0.0038665,0.0055444999999999,0.883077,-0.4494305,-0.0032555,1.123497,-0.4183905,-0.0236945,0.875137,-0.8092605,-0.0349335,1.1326669999999999,-0.7959405,-0.0289915
68,0.9881375,0.7216135,0.0615185,0.8475665,0.4804935,0.0592115,0.7471965,0.7386834999999999,0.0633394999999999,1.1339765,0.5065735,0.0685645,1.2328565,0.7629435,0.0519895,0.7226265000000001,0.9759235,0.0548205,1.2647565,0.9990235,0.0490715,0.9264875,-0.0038545,-0.0055705,1.0735125,0.0038544999999999,0.0055704999999999,0.8828065,-0.4499965,-0.0056025,1.1233065,-0.4199765,-0.0253434999999999,0.8752165000000001,-0.8094865,-0.0367155,1.1327364999999998,-0.7966265,-0.0315325
69,0.988222,0.7218005,0.0611845,0.847677,0.4803905,0.0590505,0.7464569999999999,0.7389905,0.0624595,1.134037,0.5066505,0.0680135,1.232907,0.7628705,0.0506285,0.721517,0.9757805,0.0533145,1.264707,0.9987805,0.0469875,0.926454,-0.0038284999999999,-0.0056065,1.073546,0.0038284999999999,0.0056065,0.882487,-0.4504095,-0.0082215,1.123217,-0.4214195,-0.0275085,0.875257,-0.8096595,-0.0389645,1.132627,-0.7971195,-0.0344135
70,0.9883300000000002,0.7217735000000001,0.060408,0.847803,0.4803535,0.058565,0.745783,0.7388135,0.060882,1.134153,0.5065035,0.067135,1.233013,0.7622534999999999,0.0488249999999999,0.720553,0.9758135,0.05114,1.264773,0.9988135,0.044494,0.9264479999999999,-0.0037694999999999,-0.0056469999999999,1.073552,0.0037695,0.0056469999999999,0.882193,-0.4503765,-0.01119,1.1230229999999999,-0.4222765,-0.030069,0.875213,-0.8096265,-0.041585,1.132573,-0.7970865,-0.037177
71,0.9884105000000001,0.7216245,0.0594155,0.8479425,0.4801645,0.0579875,0.7452825000000001,0.7387045,0.0591035,1.1342625,0.5062245,0.0661615,1.2331225,0.7618545,0.0468125,0.7195825,0.9760645,0.0483565,1.2648325,0.9987645,0.0417725,0.9264415,-0.0036624999999999,-0.0057355,1.0735585,0.0036624999999999,0.0057355,0.8818225000000001,-0.4501255,-0.0142785,1.1227925,-0.4220255,-0.0330205,0.8751425,-0.8093755,-0.0444055,1.1324725,-0.7970555,-0.0406265
72,0.9884415,0.721928,0.057713,0.8480624999999999,0.480218,0.057197,0.7449425000000001,0.7384080000000001,0.056568,1.1343425,0.5065580000000001,0.0648,1.2332425,0.762348,0.044247,0.7187925,0.976498,0.044822,1.2648825000000001,0.998798,0.03861,0.9264435,-0.003691,-0.005667,1.0735565,0.003691,0.0056669999999999,0.8813025,-0.449492,-0.018006,1.1226525,-0.421822,-0.036998,0.8750025,-0.808692,-0.047721,1.1322925,-0.7975019999999999,-0.043907
73,0.988841,0.7221675,0.055558,0.848405,0.4804275,0.056066,0.744855,0.7379375,0.053801,1.134705,0.5068075,0.063143,1.233555,0.7603975000000001,0.041454,0.7179949999999999,0.9763475,0.039916,1.265055,0.9987475,0.034363,0.9263780000000001,-0.0037664999999999,-0.005491,1.0736219999999999,0.0037664999999999,0.0054909999999999,0.880155,-0.4477525,-0.022755,1.1224949999999998,-0.4215824999999999,-0.041982,0.874555,-0.8078625,-0.051133,1.1316149999999998,-0.7978425,-0.047387
74,0.989288,0.7220415,0.0532334999999999,0.848801,0.4802115,0.0548434999999999,0.7448710000000001,0.7369815000000001,0.0509375,1.135071,0.5067615,0.0613625,1.2339310000000001,0.7581115,0.0385675,0.717151,0.9761415,0.0347914999999999,1.265171,0.9989415,0.0297945,0.926283,-0.0037485,-0.0052975,1.073717,0.0037485,0.0052974999999999,0.878931,-0.4460985,-0.0284455,1.1224109999999998,-0.4213985,-0.0475025,0.874111,-0.8072185,-0.0545755,1.130851,-0.7978784999999999,-0.0510565
75,0.989785,0.721605,0.050148,0.849168,0.479335,0.0526919999999999,0.744848,0.735985,0.0472319999999999,1.135478,0.506395,0.058751,1.234298,0.755305,0.034538,0.716398,0.977295,0.028634,1.265308,0.999595,0.0235319999999999,0.926153,-0.0036259999999999,-0.004907,1.073847,0.0036259999999999,0.004907,0.877318,-0.443915,-0.036027,1.122248,-0.420385,-0.054875,0.873578,-0.8054749999999999,-0.058708,1.129888,-0.796555,-0.055234
76,0.9902865,0.7208245000000001,0.0470239999999999,0.8495505000000001,0.4786244999999999,0.050359,0.7448305,0.7347745,0.043241,1.1359605,0.5058945,0.056182,1.2346805,0.7526545,0.030306,0.7157205,0.9787645,0.022089,1.2654805,1.0002645,0.016857,0.9260485,-0.0034124999999999,-0.004502,1.0739515,0.0034124999999999,0.004502,0.8756705,-0.4414355,-0.04391,1.1221505,-0.4189555,-0.062706,0.8730805,-0.8033055,-0.062975,1.1291605,-0.7949554999999999,-0.060031
77,0.9909755000000001,0.718974,0.0428485,0.8499885,0.478294,0.0470145,0.7448785,0.733524,0.0380125,1.1366985,0.505104,0.0527544999999999,1.2352985,0.748864,0.0247814999999999,0.7152385,0.981404,0.0139775,1.2658785,1.001004,0.0082285,0.9260295000000001,-0.0030579999999999,-0.0040355,1.0739705,0.003058,0.0040354999999999,0.8738785,-0.4370759999999999,-0.0534215,1.1223285,-0.4159259999999999,-0.0726665,0.8728685,-0.799226,-0.0685135,1.1285384999999999,-0.791296,-0.0657565
78,0.9916645,0.7168680000000001,0.038541,0.8505135,0.478148,0.043342,0.7449735,0.731768,0.032165,1.1373935,0.504148,0.04914,1.2358634999999998,0.744858,0.0187819999999999,0.7147735,0.983878,0.004659,1.2664735,1.001578,-0.0013769999999999,0.9259885,-0.0026609999999999,-0.003541,1.0740115,0.002661,0.0035409999999999,0.8718335,-0.4317419999999999,-0.064216,1.1226734999999999,-0.4115919999999999,-0.083914,0.8726835,-0.794042,-0.073937,1.1279235,-0.7866219999999999,-0.071512
79,0.9922930000000001,0.7149455,0.034276,0.851009,0.4773254999999999,0.0397209999999999,0.744999,0.7303855,0.026104,1.138059,0.5025755,0.045458,1.236339,0.7405455,0.012676,0.7141590000000001,0.9867655,-0.004917,1.266989,1.0017655,-0.01116,0.925959,-0.0022825,-0.003059,1.074041,0.0022825,0.0030589999999999,0.869729,-0.4248545,-0.075228,1.122979,-0.4061045,-0.095536,0.872399,-0.7878045,-0.079295,1.127189,-0.7809345,-0.077266
80,0.9928530000000001,0.713086,0.0298039999999999,0.851518,0.476606,0.035965,0.745018,0.728756,0.019762,1.138688,0.501156,0.04152,1.236798,0.736846,0.0063329999999999,0.713678,0.989486,-0.014574,1.267598,1.002486,-0.021235,0.926005,-0.001967,-0.002541,1.073995,0.001967,0.0025409999999999,0.867598,-0.417404,-0.086524,1.1232280000000001,-0.399754,-0.107649,0.8719680000000001,-0.7806839999999999,-0.084703,1.126448,-0.774314,-0.08338
81,0.9934135000000001,0.7107635,0.025764,0.8519654999999999,0.4758835,0.032169,0.7450155,0.7278335,0.0135769999999999,1.1392855,0.4995135,0.03773,1.2371855,0.7325635,0.000177,0.7129354999999999,0.9921035,-0.024033,1.2682255,1.0026035,-0.03108,0.9259875,-0.0016584999999999,-0.002168,1.0740125,0.0016585,0.002168,0.8656755,-0.4101865,-0.097797,1.1234255,-0.3934565,-0.119363,0.8717655,-0.7734665,-0.089515,1.1261355,-0.7674865,-0.089883
82,0.9937440000000001,0.7085290000000001,0.0215955,0.8522930000000001,0.475129,0.0287155,0.7447630000000001,0.7269990000000001,0.0077225,1.139703,0.4980490000000001,0.0340795,1.237613,0.730919,-0.0059524999999999,0.712233,0.991229,-0.0330395,1.268873,1.003129,-0.0402905,0.92589,-0.001322,-0.0017994999999999,1.07411,0.001322,0.0017994999999999,0.864263,-0.402161,-0.1087255,1.123693,-0.3870409999999999,-0.1305835,0.871583,-0.7654409999999999,-0.0943785,1.125863,-0.759891,-0.0962105
83,0.9940430000000001,0.7054170000000001,0.0174495,0.852517,0.474757,0.0251855,0.744747,0.725747,0.0018205,1.140037,0.4969269999999999,0.0304874999999999,1.238057,0.729087,-0.0122815,0.7114469999999999,0.990237,-0.0418205,1.269787,1.003157,-0.0498665,0.925837,-0.0010059999999999,-0.0014204999999999,1.074163,0.001006,0.0014204999999999,0.862887,-0.393933,-0.1190114999999999,1.123897,-0.380663,-0.1416985,0.871447,-0.7573829999999999,-0.0992285,1.125557,-0.751663,-0.1020745
84,0.9942675,0.7029825000000001,0.013661,0.8527075,0.4749325,0.0218509999999999,0.7445075,0.7240525,-0.003735,1.1398575,0.4956825,0.026741,1.2385275,0.7276125,-0.017893,0.7108875,0.9889525,-0.049991,1.2709275,0.9992325,-0.058796,0.9258465,-0.0007485,-0.001272,1.0741535,0.0007485,0.0012719999999999,0.8617675,-0.3807275,-0.128654,1.1243874999999999,-0.3692775,-0.151893,0.8718075000000001,-0.7457075,-0.103471,1.1258475,-0.7403175,-0.107907
85,0.9946515000000001,0.7008815,0.008869,0.8528515,0.4746615,0.01743,0.7440615000000002,0.7239215,-0.011372,1.1395615000000001,0.4939115,0.021992,1.2389115,0.7268115,-0.0259469999999999,0.7095015,0.9898515,-0.0602609999999999,1.2723915,0.9948115,-0.070218,0.9258715,-0.0005014999999999,-0.0008809999999999,1.0741285,0.0005014999999999,0.0008809999999999,0.8605515000000001,-0.3626184999999999,-0.140547,1.1247815,-0.3521585,-0.1640609999999999,0.8727315,-0.7285185,-0.108712,1.1267915,-0.7226485,-0.114264
86,0.9944490000000001,0.700159,0.0012445,0.852633,0.475409,0.0098065,0.743233,0.720439,-0.0216984999999999,1.138923,0.493979,0.0143884999999999,1.238833,0.725759,-0.0364914999999999,0.707813,0.982389,-0.0741435,1.273543,0.988069,-0.0842084999999999,0.9258250000000001,-0.0004659999999999,-0.0003974999999999,1.0741749999999999,0.000466,0.0003975,0.858973,-0.345121,-0.1557265,1.124593,-0.335751,-0.1786065,0.873343,-0.711161,-0.1167595,1.127243,-0.705171,-0.1236295
87,0.993894,0.700886,-0.0067349999999999,0.85221,0.475676,0.0019399999999999,0.7420800000000001,0.7196659999999999,-0.03195,1.1379,0.491576,0.006085,1.23858,0.726746,-0.0470239999999999,0.70602,0.977446,-0.087371,1.27431,0.982056,-0.098332,0.925679,-0.000655,0.0004709999999999,1.074321,0.000655,-0.0004709999999999,0.85609,-0.326294,-0.173256,1.12411,-0.317944,-0.196266,0.87363,-0.6921940000000001,-0.124923,1.12727,-0.686084,-0.132988
88,0.9932795,0.701576,-0.0145879999999999,0.8516385,0.477016,-0.0057369999999999,0.7409384999999999,0.718156,-0.0419949999999999,1.1368685,0.490166,-0.0022749999999999,1.2382985,0.728276,-0.0573079999999999,0.7042085,0.972106,-0.1002049999999999,1.2750185,0.976716,-0.112068,0.9255055000000001,-0.000632,0.001203,1.0744945,0.0006319999999999,-0.0012029999999999,0.8532685,-0.308374,-0.190465,1.1235485,-0.300964,-0.2133449999999999,0.8738185,-0.673784,-0.1329,1.1271385,-0.667784,-0.141922
89,0.9923330000000001,0.701913,-0.0226229999999999,0.851055,0.476363,-0.0136669999999999,0.739225,0.717673,-0.051957,1.1354549999999999,0.488973,-0.010934,1.237635,0.729593,-0.0674329999999999,0.702285,0.968203,-0.113163,1.275225,0.971993,-0.12566,0.9252549999999999,-0.0006359999999999,0.0021029999999999,1.074745,0.0006359999999999,-0.0021029999999999,0.849925,-0.290577,-0.207749,1.122795,-0.284347,-0.230369,0.873605,-0.654687,-0.141111,1.126565,-0.649007,-0.150564
90,0.991341,0.70291,-0.03052,0.8503499999999999,0.47617,-0.021317,0.73741,0.7169800000000001,-0.061991,1.1338899999999998,0.4885299999999999,-0.01945,1.23602,0.7317800000000001,-0.077656,0.70041,0.96487,-0.125761,1.2742799999999999,0.96811,-0.138972,0.9250240000000001,-0.00057,0.0030169999999999,1.074976,0.00057,-0.003017,0.84656,-0.27334,-0.224427,1.12211,-0.26895,-0.246857,0.87336,-0.63576,-0.148781,1.12603,-0.63037,-0.158727
91,0.9902715,0.70273,-0.0385365,0.8496995,0.47592,-0.0291555,0.7354995000000001,0.7146199999999999,-0.0722255,1.1322595,0.48728,-0.0283295,1.2344195,0.73315,-0.0878355,0.6986695,0.9655,-0.1379375,1.2737895,0.96467,-0.1523515,0.9248035,-0.0005699999999999,0.0036734999999999,1.0751965,0.0005699999999999,-0.0036734999999999,0.8430995,-0.25551,-0.2408555,1.1214594999999998,-0.25275,-0.2631655,0.8731295,-0.61626,-0.1563655,1.1251095,-0.6110800000000001,-0.1667565
92,0.9891055,0.703095,-0.0470509999999999,0.8490265000000001,0.475765,-0.0375359999999999,0.7334864999999999,0.7138249999999999,-0.08319,1.1305865,0.486355,-0.0377519999999999,1.2327865,0.735255,-0.098688,0.6967765,0.966305,-0.151739,1.2731865,0.962435,-0.166555,0.9245615000000001,-0.000595,0.004353,1.0754385,0.0005949999999999,-0.0043529999999999,0.8395865,-0.235585,-0.257827,1.1209265,-0.234735,-0.2798469999999999,0.8729765,-0.594295,-0.164656,1.1241765,-0.589515,-0.175439
93,0.9879425,0.702605,-0.0558439999999999,0.8484955000000001,0.475515,-0.0461589999999999,0.7314655,0.713475,-0.095438,1.1290455,0.483685,-0.047288,1.2310055,0.727125,-0.10958,0.6948354999999999,0.964315,-0.1666039999999999,1.2726454999999999,0.956975,-0.179921,0.9243525,-0.0005449999999999,0.004746,1.0756475,0.000545,-0.004746,0.8361855,-0.215795,-0.274414,1.1201055,-0.216685,-0.296274,0.8720654999999999,-0.572465,-0.172476,1.1230555,-0.567985,-0.183566
94,0.9866760000000001,0.7024999999999999,-0.063714,0.847947,0.47474,-0.054708,0.729677,0.7120200000000001,-0.106223,1.127297,0.48278,-0.056122,1.2299470000000001,0.72106,-0.117852,0.693127,0.96073,-0.179627,1.272117,0.95442,-0.191875,0.924017,-0.00075,0.0048749999999999,1.075983,0.00075,-0.004875,0.832897,-0.20031,-0.289265,1.119437,-0.20184,-0.310685,0.871177,-0.55443,-0.178858,1.121787,-0.55125,-0.189761
95,0.9857810000000001,0.701835,-0.067779,0.847844,0.473115,-0.059214,0.7285540000000001,0.7143349999999999,-0.113176,1.126024,0.480755,-0.060948,1.229394,0.716515,-0.122343,0.691934,0.963715,-0.187678,1.2715539999999999,0.953895,-0.200342,0.923652,-0.000835,0.0048199999999999,1.076348,0.000835,-0.00482,0.8302240000000001,-0.185665,-0.29895,1.119194,-0.1876749999999999,-0.32039,0.8707940000000001,-0.5372750000000001,-0.180971,1.120974,-0.535265,-0.191913
96,0.9852725,0.699885,-0.071086,0.8479065,0.471145,-0.063217,0.7278465000000001,0.714125,-0.119539,1.1252865,0.480745,-0.064552,1.2293465000000001,0.711395,-0.126517,0.6913665,0.965205,-0.195067,1.2713664999999998,0.954385,-0.207348,0.9234055,-0.0007749999999999,0.004405,1.0765945,0.0007749999999999,-0.004405,0.8289565,-0.170875,-0.305045,1.1191065,-0.172805,-0.325465,0.8708265,-0.520595,-0.18237,1.1200365,-0.519935,-0.193156
97,0.9847130000000001,0.69728,-0.074536,0.84801,0.46809,-0.067521,0.7275200000000002,0.7136399999999999,-0.125886,1.12461,0.48036,-0.06836,1.22884,0.70765,-0.131607,0.6913200000000002,0.96612,-0.202984,1.27132,0.95568,-0.215255,0.923153,-0.0009699999999999,0.004095,1.0768469999999999,0.0009699999999999,-0.004095,0.82776,-0.15339,-0.311475,1.11902,-0.1555,-0.3308649999999999,0.8710800000000001,-0.5020600000000001,-0.18297,1.11896,-0.50393,-0.193831
98,0.9842725,0.6951400000000001,-0.078039,0.8479965,0.46671,-0.071529,0.7270265,0.70887,-0.131902,1.1241565,0.47956,-0.072048,1.2288665,0.70418,-0.13713,0.6914365,0.96418,-0.210637,1.2711765,0.9498,-0.22306,0.9230195,-0.00107,0.0036699999999999,1.0769805,0.00107,-0.00367,0.8268765,-0.13545,-0.31771,1.1188365,-0.13839,-0.33584,0.8713765,-0.48381,-0.183313,1.1187465,-0.48791,-0.195446
99,0.9838325000000001,0.69255,-0.082102,0.8477475000000001,0.46549,-0.075656,0.7265775,0.7048099999999999,-0.137944,1.1238475,0.4785,-0.075937,1.2290775,0.70042,-0.142965,0.6914475,0.96156,-0.21855,1.2709975,0.94423,-0.23086,0.9228705,-0.0011399999999999,0.0032599999999999,1.0771295,0.0011399999999999,-0.0032599999999999,0.8261275000000001,-0.1228099999999999,-0.32396,1.1185375,-0.12649,-0.34098,0.8714875,-0.46564,-0.1844549999999999,1.1178875,-0.47285,-0.195767
100,0.9836495000000001,0.690975,-0.086127,0.8476285,0.463975,-0.0801659999999999,0.7263185,0.703345,-0.1437689999999999,1.1236884999999999,0.476825,-0.080148,1.2280685,0.6982349999999999,-0.149331,0.6916385,0.959155,-0.226335,1.2707185,0.939585,-0.2384049999999999,0.9227475,-0.001145,0.003015,1.0772525,0.001145,-0.0030149999999999,0.8257285,-0.109435,-0.330315,1.1181985,-0.1142249999999999,-0.346265,0.8723084999999999,-0.447285,-0.185608,1.1171384999999998,-0.4571949999999999,-0.1964059999999999
101,0.98359,0.688325,-0.089915,0.847571,0.462345,-0.084354,0.726261,0.700155,-0.149148,1.123721,0.4748749999999999,-0.083863,1.227391,0.6957549999999999,-0.1552879999999999,0.6917610000000001,0.954065,-0.232885,1.270721,0.933955,-0.244875,0.922511,-0.001085,0.0028549999999999,1.077489,0.0010849999999999,-0.0028549999999999,0.8254509999999999,-0.097715,-0.335805,1.117991,-0.103315,-0.350855,0.8737509999999999,-0.432015,-0.1865689999999999,1.116461,-0.443895,-0.19684
102,0.9835695,0.687115,-0.093068,0.8475405,0.460615,-0.088455,0.7265205,0.697535,-0.153205,1.1237005,0.474935,-0.087685,1.2269605000000001,0.7036450000000001,-0.161018,0.6918405000000001,0.953175,-0.238165,1.2707505000000001,0.937095,-0.251345,0.9221865,-0.0012049999999999,0.0028549999999999,1.0778135,0.001205,-0.002855,0.8252105000000001,-0.0859049999999999,-0.340385,1.1178005,-0.0923549999999999,-0.354785,0.8748905,-0.417895,-0.187442,1.1149705,-0.4319349999999999,-0.196468
103,0.9836895,0.68479,-0.0961539999999999,0.8476475,0.46009,-0.092164,0.7266375,0.6947,-0.15736,1.1236374999999998,0.47322,-0.091643,1.2268675,0.70271,-0.1666699999999999,0.6920675000000001,0.95226,-0.2436749999999999,1.2710375,0.93659,-0.256325,0.9217545,-0.00101,0.0028549999999999,1.0782455,0.0010099999999999,-0.0028549999999999,0.8254075,-0.07408,-0.343855,1.1178074999999998,-0.08114,-0.357965,0.8763275000000001,-0.40434,-0.188683,1.1133775,-0.41962,-0.196143
104,0.9837420000000001,0.6822900000000001,-0.098695,0.847785,0.459226,-0.09556,0.7267450000000001,0.69153,-0.161087,1.123585,0.47131,-0.095244,1.225855,0.70276,-0.171757,0.692305,0.95227,-0.248535,1.271285,0.93733,-0.259965,0.921408,-0.00089,0.002625,1.078592,0.00089,-0.002625,0.825945,-0.0617699999999999,-0.346715,1.117635,-0.06962,-0.360545,0.877795,-0.39119,-0.189616,1.111825,-0.40705,-0.195057
105,0.9838095,0.67961,-0.101519,0.8478595,0.457522,-0.099452,0.7268995,0.68869,-0.1656,1.1236594999999998,0.469036,-0.098863,1.2259495,0.70398,-0.177422,0.6928395,0.94936,-0.2539,1.2718395,0.93878,-0.26544,0.9210135,-0.0007899999999999,0.0023999999999999,1.0789865,0.00079,-0.0023999999999999,0.8268495000000001,-0.0479599999999999,-0.3491,1.1173795,-0.0565599999999999,-0.36271,0.8794395,-0.37766,-0.190697,1.1108895,-0.39344,-0.193483
106,0.983785,0.677315,-0.1039699999999999,0.84769,0.45652,-0.102861,0.72677,0.6865950000000001,-0.169926,1.12364,0.4662929999999999,-0.102198,1.2262199999999999,0.703885,-0.181724,0.6933100000000001,0.947545,-0.2588,1.27243,0.939435,-0.2703299999999999,0.920722,-0.0006249999999999,0.00217,1.079278,0.0006249999999999,-0.0021699999999999,0.82805,-0.035135,-0.35046,1.1170099999999998,-0.044005,-0.36384,0.87983,-0.3667749999999999,-0.1916669999999999,1.11003,-0.381105,-0.1922309999999999
107,0.9834620000000001,0.67455,-0.106053,0.847072,0.455552,-0.105845,0.726592,0.68838,-0.174121,1.123302,0.46373,-0.105256,1.226812,0.69674,-0.185247,0.693172,0.94622,-0.26394,1.2728519999999999,0.9392,-0.27477,0.920448,-0.0004899999999999,0.0020199999999999,1.079552,0.0004899999999999,-0.00202,0.829032,-0.0221699999999999,-0.35072,1.1163319999999999,-0.0311899999999999,-0.36415,0.8817820000000001,-0.3561699999999999,-0.191709,1.109352,-0.36794,-0.191151
108,0.983142,0.67238,-0.10733,0.8465670000000001,0.453192,-0.108287,0.7260070000000001,0.68929,-0.177847,1.122817,0.460866,-0.107974,1.227347,0.68999,-0.188664,0.692787,0.94465,-0.268615,1.273097,0.93852,-0.279355,0.9201010000000001,-0.0005299999999999,0.0020649999999999,1.079899,0.00053,-0.0020649999999999,0.830227,-0.00912,-0.350425,1.115567,-0.0182399999999999,-0.363735,0.884287,-0.34584,-0.1919,1.109027,-0.35521,-0.1907559999999999
109,0.9828655,0.669385,-0.108616,0.8460865000000001,0.451682,-0.110257,0.7254165,0.689395,-0.181688,1.1226965,0.459395,-0.110417,1.2274965,0.684065,-0.192315,0.6923265000000001,0.943235,-0.272915,1.2737764999999999,0.937985,-0.284975,0.9197655,-0.000495,0.002115,1.0802345,0.000495,-0.0021149999999999,0.8317165,0.004595,-0.350255,1.1146465,-0.0044549999999999,-0.363415,0.8862435,-0.336425,-0.191668,1.1087164999999999,-0.341985,-0.1913119999999999
110,0.982529,0.668135,-0.1094889999999999,0.845453,0.450803,-0.1121249999999999,0.724673,0.687525,-0.185335,1.1226829999999999,0.457808,-0.113019,1.227663,0.680065,-0.196145,0.691613,0.943535,-0.276705,1.2743229999999999,0.938265,-0.291545,0.9194400000000001,-0.0003249999999999,0.0022049999999999,1.08056,0.000325,-0.0022049999999999,0.8331729999999999,0.021015,-0.350215,1.113543,0.011985,-0.363205,0.886506,-0.321195,-0.1915339999999999,1.1095329999999999,-0.326685,-0.194859
111,0.9822175,0.665955,-0.11063,0.8446835,0.450779,-0.113736,0.7238935,0.687165,-0.188896,1.1226935,0.4567219999999999,-0.11514,1.2277434999999999,0.677785,-0.200774,0.6907935000000001,0.941865,-0.2808,1.2749135,0.933595,-0.29847,0.9192925,-9.500000000001174e-05,0.0023599999999999,1.0807075,9.500000000001174e-05,-0.00236,0.8344535,0.0389149999999999,-0.35011,1.1124135,0.0298849999999999,-0.36326,0.8860715,-0.3038949999999999,-0.191397,1.1109435,-0.308785,-0.199995
112,0.981695,0.6643950000000001,-0.111063,0.843719,0.450332,-0.114325,0.722899,0.687065,-0.190974,1.1226889999999998,0.456275,-0.116008,1.227509,0.682025,-0.205563,0.6898690000000001,0.938865,-0.283575,1.2753489999999998,0.930275,-0.305145,0.9192359999999999,-8.500000000000174e-05,0.0025449999999999,1.080764,8.500000000000174e-05,-0.002545,0.8353889999999999,0.054825,-0.349135,1.111239,0.045795,-0.362855,0.88683,-0.2919049999999999,-0.191335,1.112039,-0.292875,-0.204303
113,0.981128,0.6627050000000001,-0.1112759999999999,0.84273,0.4496590000000001,-0.1148199999999999,0.72161,0.6863950000000001,-0.192581,1.1225999999999998,0.4554250000000001,-0.116821,1.22684,0.684845,-0.21028,0.6889799999999999,0.935225,-0.286035,1.27575,0.925955,-0.311575,0.919173,-5.499999999991623e-05,0.002755,1.080827,5.500000000002725e-05,-0.0027549999999999,0.83605,0.068965,-0.3475549999999999,1.11009,0.059975,-0.3621149999999999,0.88797,-0.2816249999999999,-0.191044,1.11168,-0.2787349999999999,-0.2054369999999999
114,0.9806060000000001,0.6612200000000001,-0.111329,0.842012,0.4503750000000001,-0.1148599999999999,0.720342,0.6861300000000001,-0.192851,1.122512,0.455056,-0.116922,1.226742,0.6849500000000001,-0.2140659999999999,0.687762,0.93425,-0.287445,1.275942,0.92042,-0.316375,0.919189,-3.999999999992898e-05,0.003055,1.080811,4.000000000004e-05,-0.003055,0.8364320000000001,0.08211,-0.345145,1.108782,0.07323,-0.360525,0.889121,-0.2721499999999999,-0.190097,1.113432,-0.2662899999999999,-0.2113439999999999
115,0.98001,0.659905,-0.111027,0.841175,0.4511019999999999,-0.114542,0.718935,0.684255,-0.192499,1.122265,0.4553809999999999,-0.116641,1.227395,0.6847349999999999,-0.21752,0.6860649999999999,0.932445,-0.28795,1.275985,0.914245,-0.3201,0.919365,-3.500000000000725e-05,0.0033799999999999,1.080635,3.4999999999896225e-05,-0.00338,0.836565,0.0946449999999999,-0.34169,1.107325,0.0862649999999999,-0.35813,0.890239,-0.2627050000000001,-0.187876,1.115335,-0.254465,-0.21703
116,0.9796175000000001,0.65889,-0.110775,0.8405045000000001,0.451971,-0.114273,0.7177845,0.68169,-0.192198,1.1222045,0.455673,-0.116411,1.2281745,0.69086,-0.221105,0.6844045000000001,0.93155,-0.287965,1.2759945,0.91497,-0.323875,0.9196805,-2.000000000002e-05,0.0037249999999999,1.0803195,2.000000000002e-05,-0.003725,0.8367845,0.10704,-0.338055,1.1060345,0.09923,-0.355675,0.8913385,-0.25432,-0.18426,1.1173145,-0.24285,-0.222185
117,0.9792585,0.65743,-0.1098529999999999,0.8397835,0.4536249999999999,-0.113049,0.7167635,0.6794,-0.191645,1.1221535,0.455929,-0.115921,1.2285235,0.6964699999999999,-0.22364,0.6821835,0.93098,-0.2875999999999999,1.2761035,0.91534,-0.32697,0.9199875,0.0,0.00417,1.0800125,0.0,-0.0041699999999999,0.8368435,0.1195399999999999,-0.33386,1.1047635,0.11012,-0.35338,0.8921135,-0.24394,-0.1817559999999999,1.1186335,-0.23351,-0.2259499999999999
118,0.9790905000000001,0.65684,-0.1087139999999999,0.8391895,0.45493,-0.111459,0.7159895000000001,0.67688,-0.1909739999999999,1.1222095,0.45588,-0.11492,1.2293595,0.69984,-0.22479,0.6799595,0.92984,-0.28722,1.2759095,0.91387,-0.32918,0.9202355,-7.999999999996898e-05,0.00456,1.0797645,7.999999999996898e-05,-0.0045599999999999,0.8368395000000001,0.1303,-0.3295,1.1037295,0.1212,-0.35067,0.8914055,-0.23495,-0.179194,1.1215395,-0.2241199999999999,-0.23247
119,0.9791125,0.6561,-0.1074479999999999,0.8389535000000001,0.45553,-0.1094639999999999,0.7154834999999999,0.6774300000000001,-0.1899179999999999,1.1222535,0.4556300000000001,-0.1135559999999999,1.2300735,0.70082,-0.2267549999999999,0.6779735,0.92969,-0.286725,1.2762835,0.91181,-0.3307949999999999,0.9203295,-0.0002999999999999,0.004895,1.0796705,0.0003,-0.0048949999999999,0.8370435,0.13908,-0.325315,1.1030335,0.12739,-0.349055,0.8909525000000001,-0.2277199999999999,-0.17672,1.1245835,-0.2184399999999999,-0.237815
120,0.9792425000000001,0.6554369999999999,-0.106374,0.8389985,0.4557499999999999,-0.107771,0.7151285000000001,0.6760499999999999,-0.188997,1.1224185,0.4551699999999999,-0.112287,1.2303385,0.6999799999999999,-0.227575,0.6762985,0.92981,-0.286175,1.2769185,0.91282,-0.332665,0.9204475,-0.00052,0.005025,1.0795525,0.0005199999999999,-0.005025,0.8372385,0.1458399999999999,-0.321665,1.1023385,0.1344499999999999,-0.346735,0.8905285000000001,-0.2209700000000001,-0.174791,1.1261485,-0.21426,-0.2413449999999999
121,0.9792025,0.656745,-0.105784,0.8390525,0.456245,-0.105656,0.7149525,0.674191,-0.187713,1.1225925,0.454975,-0.110526,1.2306725,0.698645,-0.22757,0.6746025,0.930315,-0.28546,1.2779125,0.913955,-0.33358,0.9204735,-0.0006849999999999,0.005,1.0795265,0.000685,-0.005,0.8376325,0.151195,-0.31839,1.1015225,0.137885,-0.34539,0.8912515,-0.216805,-0.174,1.1286425,-0.2118949999999999,-0.24387
122,0.9793765,0.6581060000000001,-0.104628,0.8391415,0.4568,-0.10357,0.7147215,0.674972,-0.186734,1.1227915,0.45484,-0.10862,1.2310315,0.69764,-0.227335,0.6732415,0.93124,-0.284755,1.2790314999999999,0.91509,-0.333655,0.9204255,-0.0007799999999998,0.0049949999999999,1.0795745,0.00078,-0.0049949999999999,0.8378915,0.15605,-0.316245,1.1007514999999999,0.14363,-0.343305,0.8915885,-0.2137099999999999,-0.174705,1.1311415,-0.2089299999999999,-0.246145
123,0.979629,0.6594679999999999,-0.1035639999999999,0.839319,0.4572799999999999,-0.101723,0.714599,0.674345,-0.185192,1.122939,0.4554399999999999,-0.106616,1.231509,0.6972799999999999,-0.2271949999999999,0.672269,0.93148,-0.284125,1.280419,0.91741,-0.333945,0.920446,-0.00081,0.0051049999999999,1.079554,0.0008099999999999,-0.0051049999999999,0.837979,0.1583699999999999,-0.315165,1.100279,0.1482699999999999,-0.342205,0.891627,-0.21139,-0.173893,1.1325489999999998,-0.20647,-0.2460649999999999
124,0.9799160000000001,0.660555,-0.102346,0.839516,0.45736,-0.100088,0.714216,0.674981,-0.183539,1.123316,0.45627,-0.104947,1.232026,0.69679,-0.226885,0.6716059999999999,0.93064,-0.282985,1.2820559999999999,0.91883,-0.333805,0.920421,-0.0007099999999999,0.0053049999999999,1.079579,0.00071,-0.005305,0.837956,0.16015,-0.314915,1.099816,0.1521,-0.341385,0.8917720000000001,-0.2096099999999999,-0.171601,1.133676,-0.2044099999999999,-0.246135
125,0.9802675,0.661273,-0.101447,0.8397515,0.457485,-0.098666,0.7139314999999999,0.675926,-0.182915,1.1239415,0.456895,-0.103486,1.2331315,0.697125,-0.226445,0.6711315,0.929325,-0.282035,1.2841215,0.919855,-0.333905,0.9203825,-0.000595,0.0053549999999999,1.0796175,0.000595,-0.005355,0.8380915,0.161095,-0.3148849999999999,1.0991715,0.154685,-0.340955,0.8924665,-0.210735,-0.171184,1.1348015,-0.2029449999999999,-0.248045
126,0.980778,0.661273,-0.1002779999999999,0.839852,0.457485,-0.09743,0.713802,0.675926,-0.1824879999999999,1.1245319999999999,0.456895,-0.1022909999999999,1.234372,0.697125,-0.2255349999999999,0.670632,0.929325,-0.2808049999999999,1.2866019999999998,0.919855,-0.333845,0.920382,-0.000595,0.005345,1.079618,0.000595,-0.005345,0.838592,0.160485,-0.314905,1.098482,0.154215,-0.340895,0.893112,-0.2135549999999999,-0.170894,1.1359219999999999,-0.2029449999999999,-0.247455
127,0.981166,0.661273,-0.099519,0.839953,0.457485,-0.096655,0.713113,0.675926,-0.182292,1.125103,0.456895,-0.101652,1.235503,0.697125,-0.224095,0.6704330000000001,0.929325,-0.280355,1.288933,0.919855,-0.333285,0.92038,-0.000595,0.005315,1.07962,0.000595,-0.005315,0.838963,0.159535,-0.314995,1.097833,0.152745,-0.341285,0.8939,-0.2143549999999999,-0.170925,1.135673,-0.2035549999999999,-0.246885
128,0.98146,0.661273,-0.099361,0.83999,0.457485,-0.096675,0.7121300000000002,0.67794,-0.182247,1.1251,0.456895,-0.101671,1.23565,0.697125,-0.222385,0.67048,0.929325,-0.280085,1.29041,0.920185,-0.332565,0.920353,-0.000595,0.005335,1.079647,0.000595,-0.0053349999999999,0.83899,0.158435,-0.315695,1.09725,0.151575,-0.341825,0.893414,-0.2125749999999999,-0.172863,1.13543,-0.204075,-0.246245
129,0.9818395,0.662404,-0.099371,0.8400905,0.4571199999999999,-0.096707,0.7112705,0.6806519999999999,-0.182217,1.1254104999999999,0.4578099999999999,-0.101716,1.2359404999999999,0.69743,-0.22024,0.6706505,0.9294,-0.27978,1.2914205,0.92232,-0.33161,0.9202355,-0.0004899999999999,0.0053399999999999,1.0797645,0.0004899999999999,-0.00534,0.8390205,0.1557699999999999,-0.31729,1.0967905,0.1491299999999999,-0.34268,0.8930045,-0.21167,-0.173706,1.1351404999999999,-0.20505,-0.24466
130,0.982784,0.663879,-0.099633,0.840936,0.4565499999999999,-0.096963,0.7114660000000002,0.68333,-0.182431,1.126336,0.4575999999999999,-0.101977,1.237796,0.69367,-0.21926,0.6713260000000001,0.93027,-0.2802,1.293856,0.92242,-0.33155,0.919839,-0.00023,0.0051599999999999,1.080161,0.0002299999999999,-0.0051599999999999,0.839636,0.1463399999999999,-0.32147,1.096966,0.1395599999999999,-0.34557,0.8932599999999999,-0.21719,-0.175015,1.133476,-0.21249,-0.2395499999999999
131,0.9839615,0.665705,-0.100048,0.8420735,0.455985,-0.097503,0.7122535000000001,0.685725,-0.1832349999999999,1.1275135,0.457305,-0.102397,1.2400535,0.688825,-0.218285,0.6723034999999999,0.929175,-0.280635,1.2963635,0.917905,-0.331025,0.9194245,1.4999999999987246e-05,0.004815,1.0805755,-1.4999999999987246e-05,-0.004815,0.8404834999999999,0.131445,-0.326225,1.0971435,0.125475,-0.348875,0.8934805,-0.228005,-0.175849,1.1314935,-0.225225,-0.234975
132,0.985182,0.6677150000000001,-0.100938,0.8432680000000001,0.455277,-0.098162,0.713138,0.688245,-0.184175,1.128758,0.458041,-0.102862,1.241568,0.683435,-0.216195,0.673388,0.927545,-0.280985,1.299088,0.912495,-0.329745,0.919101,0.000155,0.004445,1.080899,-0.0001549999999999,-0.004445,0.841368,0.114585,-0.330995,1.097368,0.110995,-0.3509649999999999,0.894116,-0.2406449999999999,-0.176923,1.1301379999999999,-0.237695,-0.232145
133,0.986505,0.668975,-0.1016099999999999,0.844536,0.4541259999999999,-0.0988989999999999,0.713786,0.6907449999999999,-0.18497,1.130346,0.45929,-0.103097,1.243876,0.6849749999999999,-0.21448,0.674866,0.928175,-0.2810899999999999,1.301836,0.915145,-0.32819,0.918897,0.0001349999999999,0.00424,1.081103,-0.0001349999999999,-0.0042399999999999,0.842176,0.0950149999999999,-0.33457,1.097576,0.0915749999999999,-0.35274,0.89486,-0.257135,-0.1777119999999999,1.126136,-0.2552350000000001,-0.2255599999999999
134,0.987737,0.6711149999999999,-0.102499,0.845721,0.4537869999999999,-0.099975,0.714461,0.692955,-0.186504,1.131941,0.459761,-0.103534,1.245911,0.684655,-0.21336,0.676261,0.927275,-0.28127,1.3045609999999999,0.916125,-0.32691,0.918716,0.0003249999999999,0.0039399999999999,1.081284,-0.000325,-0.0039399999999999,0.842751,0.0739949999999999,-0.33754,1.098061,0.0713749999999999,-0.3533699999999999,0.895,-0.276265,-0.17901,1.122311,-0.273575,-0.21931
135,0.9890355000000001,0.672945,-0.103147,0.8469175,0.453589,-0.100835,0.7156675,0.695025,-0.187384,1.1333375,0.460548,-0.103817,1.2473775,0.682365,-0.211697,0.6776875,0.925485,-0.280985,1.3062574999999998,0.914505,-0.325275,0.9186575,0.000475,0.003845,1.0813425,-0.000475,-0.003845,0.8433275,0.051345,-0.339005,1.0986575,0.048725,-0.353645,0.8949125,-0.2967849999999999,-0.179793,1.1186775,-0.294405,-0.2114349999999999
136,0.9908015000000001,0.6753899999999999,-0.102981,0.8482725,0.453664,-0.101915,0.7174024999999999,0.69652,-0.187675,1.1347325,0.461622,-0.104485,1.2496125,0.68215,-0.210178,0.6795225,0.92682,-0.281475,1.3082625,0.91474,-0.3235949999999999,0.9190685000000001,0.00034,0.003705,1.0809315,-0.00034,-0.003705,0.8437625,0.02382,-0.3403049999999999,1.0996425,0.0225099999999999,-0.353305,0.8940335000000001,-0.32038,-0.180591,1.1155525,-0.31864,-0.203691
137,0.992387,0.67895,-0.1036919999999999,0.849649,0.454401,-0.102759,0.7196290000000001,0.69743,-0.1876709999999999,1.136169,0.462847,-0.104932,1.251489,0.68035,-0.208679,0.6815090000000001,0.92837,-0.28148,1.311039,0.91556,-0.32172,0.919334,0.00031,0.00357,1.080666,-0.0003099999999999,-0.00357,0.843889,-0.0041199999999999,-0.34055,1.100579,-0.0054099999999999,-0.35325,0.893243,-0.34417,-0.181321,1.112639,-0.3432199999999999,-0.1952809999999999
138,0.9936755000000002,0.68257,-0.1042309999999999,0.8508995,0.454753,-0.1032529999999999,0.7213295,0.69817,-0.1873389999999999,1.1373895,0.463483,-0.105039,1.2531394999999999,0.67637,-0.207084,0.6835295,0.92838,-0.28117,1.3129195,0.91215,-0.3195599999999999,0.9196445,0.00034,0.00316,1.0803555,-0.00034,-0.0031599999999999,0.8435895,-0.03398,-0.34009,1.1013795,-0.0355599999999999,-0.3528599999999999,0.8912495,-0.3688299999999999,-0.182238,1.1101695,-0.3714599999999999,-0.189994
139,0.994123,0.685975,-0.103982,0.851267,0.454893,-0.1030109999999999,0.7220770000000001,0.6987049999999999,-0.186842,1.1378869999999999,0.466286,-0.104526,1.253507,0.681025,-0.2061299999999999,0.684167,0.928295,-0.280595,1.314077,0.912915,-0.316885,0.920214,4.499999999996174e-05,0.002765,1.079786,-4.500000000001725e-05,-0.002765,0.8428370000000001,-0.058275,-0.339505,1.101487,-0.060475,-0.352325,0.8886370000000001,-0.389555,-0.183133,1.110827,-0.395185,-0.189013
140,0.9944055,0.6897599999999999,-0.1028099999999999,0.8513795,0.4583899999999999,-0.1018289999999999,0.7226495,0.6996899999999999,-0.1855359999999999,1.1383295,0.46928,-0.1033639999999999,1.2541295,0.6849,-0.203452,0.6846595000000001,0.92695,-0.278985,1.3152095,0.92077,-0.313585,0.9205755,0.0001099999999999,0.002355,1.0794245,-0.0001099999999999,-0.0023549999999999,0.8425795,-0.08013,-0.338295,1.1018895,-0.08273,-0.350745,0.8865795,-0.4105,-0.183055,1.1112895,-0.41736,-0.187853
141,0.994642,0.693465,-0.101009,0.851337,0.461005,-0.10001,0.723097,0.700645,-0.183177,1.138437,0.471185,-0.101555,1.254627,0.692555,-0.200224,0.6850970000000001,0.925045,-0.276725,1.316457,0.931105,-0.3091049999999999,0.920856,0.0001349999999999,0.0021749999999999,1.079144,-0.0001349999999999,-0.002175,0.842687,-0.1007349999999999,-0.336115,1.102357,-0.104105,-0.347915,0.884687,-0.433075,-0.182668,1.111697,-0.4393549999999999,-0.186063
142,0.994703,0.697835,-0.097896,0.851124,0.4637449999999999,-0.09688,0.723194,0.701945,-0.179149,1.1384139999999998,0.472755,-0.098279,1.255194,0.690205,-0.19519,0.685004,0.926215,-0.272,1.318214,0.931645,-0.30321,0.921117,0.0002849999999999,0.0020199999999999,1.078883,-0.000285,-0.00202,0.843064,-0.120225,-0.33002,1.1027339999999999,-0.123335,-0.34198,0.882624,-0.455105,-0.179419,1.112324,-0.4608650000000001,-0.18376
143,0.994643,0.70164,-0.09305,0.8507560000000001,0.46568,-0.09213,0.723346,0.7039599999999999,-0.172738,1.138636,0.47467,-0.09333,1.256186,0.69363,-0.189409,0.684476,0.92897,-0.265451,1.319486,0.93748,-0.295941,0.9216759999999999,0.0001399999999999,0.0018489999999999,1.078324,-0.00014,-0.001849,0.843336,-0.14015,-0.321831,1.103006,-0.1429699999999999,-0.333721,0.8808360000000001,-0.4787099999999999,-0.175589,1.113666,-0.4841499999999999,-0.180506
144,0.9944895,0.70694,-0.086839,0.8503365,0.46865,-0.08601,0.7229965,0.7069099999999999,-0.164955,1.1387165,0.47696,-0.0871649999999999,1.2567665,0.69599,-0.181979,0.6839265,0.93176,-0.256823,1.3206965,0.94174,-0.286483,0.9223595,1.000000000001e-05,0.001587,1.0776405,-1.000000000001e-05,-0.0015869999999999,0.8435765,-0.1608,-0.311573,1.1036265,-0.16288,-0.323623,0.8790165,-0.5047999999999999,-0.171203,1.1146965,-0.50908,-0.175428
145,0.9943255,0.710495,-0.0795615,0.8496465,0.472195,-0.0791605,0.7222065000000001,0.709815,-0.1567835,1.1388965,0.477815,-0.0806615,1.2574765,0.695885,-0.1720555,0.6828565,0.938525,-0.2471955,1.3217965,0.943675,-0.2747255,0.9232025000000001,0.000115,0.0012574999999999,1.0767974999999999,-0.000115,-0.0012575,0.8437365,-0.177945,-0.3006855,1.1045265,-0.179085,-0.3132855,0.8776865000000001,-0.528515,-0.1662045,1.1153865,-0.5312049999999999,-0.1704595
146,0.9942765,0.714035,-0.071777,0.8489515,0.474885,-0.071764,0.7213115,0.7120949999999999,-0.147315,1.1391215,0.478845,-0.0735379999999999,1.2581115,0.6965049999999999,-0.1614769999999999,0.6817815,0.945415,-0.237236,1.3234115,0.946185,-0.261176,0.9240355000000001,4.500000000001725e-05,0.00096,1.0759645,-4.499999999998949e-05,-0.00096,0.8441815,-0.1976649999999999,-0.2891559999999999,1.1048915,-0.196235,-0.302306,0.8765915,-0.552465,-0.159912,1.1161815,-0.5544849999999999,-0.16429
147,0.994305,0.717285,-0.0628595,0.848425,0.477805,-0.0632654999999999,0.7205550000000001,0.714705,-0.1361655,1.139535,0.480615,-0.0653715,1.259175,0.703805,-0.1503875,0.680795,0.951625,-0.2252795,1.324935,0.956245,-0.2474395,0.924851,-5.499999999999949e-05,0.0009335,1.075149,5.499999999999949e-05,-0.0009334999999999,0.845095,-0.2170649999999999,-0.2762995,1.105305,-0.2139449999999999,-0.2898495,0.876155,-0.576175,-0.1526345,1.1170749999999998,-0.577555,-0.1567615
148,0.994245,0.72075,-0.0528735,0.8478160000000001,0.48236,-0.0537215,0.719876,0.7166600000000001,-0.1236325,1.139886,0.4816499999999999,-0.0560065,1.259946,0.70654,-0.1382755,0.679346,0.95556,-0.2116805,1.326306,0.964,-0.2325605,0.925514,1.999999999999225e-05,0.0008284999999999,1.074486,-2.000000000002e-05,-0.0008284999999999,0.846476,-0.23847,-0.2613105,1.105766,-0.23287,-0.2754205,0.875726,-0.6009899999999999,-0.1443154999999999,1.118086,-0.60172,-0.1476905
149,0.9945825000000001,0.7228,-0.0365415,0.8477005000000001,0.48055,-0.0377745,0.7198305,0.71833,-0.1043155,1.1411705,0.48206,-0.0405835,1.2611605,0.71049,-0.1189275,0.6778005,0.95954,-0.1913355,1.3280105,0.96516,-0.2095055,0.9261345,-0.00019,0.0005824999999999,1.0738655,0.0001899999999999,-0.0005824999999999,0.8498805,-0.26468,-0.2343354999999999,1.1069005,-0.25659,-0.2501855,0.8758205,-0.62996,-0.1284765,1.1195505,-0.63028,-0.1320565
150,0.994593,0.7244925,-0.0199804999999999,0.847159,0.4808425,-0.0213644999999999,0.7192890000000001,0.7198125,-0.0844385,1.142589,0.4833425,-0.0244385,1.262289,0.7107025,-0.0985105,0.6760390000000001,0.9637225,-0.1696215,1.3294789999999999,0.9636325,-0.1853614999999999,0.926627,-0.0002824999999999,0.0001475,1.073373,0.0002825,-0.0001475,0.853819,-0.2918675,-0.2053515,1.108139,-0.2809675,-0.2229915,0.875909,-0.6595875,-0.1118934999999999,1.121089,-0.6596074999999999,-0.1159775
151,0.9947615,0.7248935000000001,-0.0046065,0.8469085000000001,0.4813334999999999,-0.0060925,0.7189785,0.7208335,-0.0654025,1.1441184999999998,0.4843735,-0.0092925,1.2637684999999999,0.7139235,-0.0797265,0.6750185,0.9623635,-0.1490945,1.3307585,0.9635035,-0.1624644999999999,0.9269115,-0.0003724999999999,-0.0001685,1.0730885,0.0003724999999999,0.0001684999999999,0.8575985,-0.3157365,-0.1772945,1.1096085,-0.3034464999999999,-0.1965645,0.8762285,-0.6866565,-0.0963505,1.1225684999999999,-0.6862765,-0.1007295
152,0.994851,0.7247505,0.0097284999999999,0.8465940000000001,0.4818004999999999,0.0082654999999999,0.718994,0.7200504999999999,-0.0476665,1.145664,0.4855905,0.0050424999999999,1.265524,0.7127605,-0.0617345,0.6739740000000001,0.9608905,-0.1294415,1.332014,0.9593705,-0.1405915,0.927047,-0.0004745,-0.0003465,1.072953,0.0004744999999999,0.0003464999999999,0.8611139999999999,-0.3379795,-0.1502015,1.111084,-0.3238895,-0.1713715,0.876524,-0.7106095,-0.0817765,1.123894,-0.7096895,-0.0864335
153,0.994966,0.7234275,0.022761,0.84625,0.4811475,0.02132,0.7195600000000001,0.7182775,-0.031096,1.14719,0.4861375,0.018378,1.26701,0.7142875,-0.0455179999999999,0.6729400000000001,0.9603475,-0.111536,1.3326500000000001,0.9577975,-0.120856,0.927037,-0.0005724999999999,-0.00046,1.0729630000000001,0.0005725,0.00046,0.86446,-0.3578425,-0.124706,1.11257,-0.3429225,-0.147746,0.87709,-0.7308925000000001,-0.068368,1.1252,-0.7301525,-0.07309
154,0.9951255,0.722899,0.034893,0.8461405000000001,0.479859,0.033581,0.7197705,0.7184389999999999,-0.014842,1.1488405,0.486909,0.03101,1.2683105000000001,0.718719,-0.030891,0.6728005,0.954159,-0.09346,1.3340105,0.956789,-0.10201,0.9271755000000002,-0.000734,-0.000603,1.0728244999999998,0.000734,0.0006029999999999,0.8681805,-0.375341,-0.0998,1.1139805,-0.360761,-0.12463,0.8777705000000001,-0.748751,-0.055077,1.1267305,-0.7479410000000001,-0.059933
155,0.995319,0.7223200000000001,0.0464399999999999,0.846025,0.47883,0.0453,0.7199949999999999,0.71879,0.000421,1.1505049999999999,0.487,0.042994,1.269015,0.7225900000000001,-0.017,0.6727350000000001,0.94922,-0.075498,1.334255,0.95584,-0.084733,0.927364,-0.000864,-0.0007689999999999,1.072636,0.000864,0.0007689999999999,0.871965,-0.39123,-0.075156,1.115345,-0.37665,-0.1020929999999999,0.878435,-0.76464,-0.042721,1.128235,-0.76383,-0.0472639999999999
156,0.995457,0.7215725,0.056262,0.845813,0.4784124999999999,0.055475,0.720083,0.7194124999999999,0.012996,1.151983,0.4866725,0.0534889999999999,1.269873,0.7219224999999999,-0.004615,0.672653,0.9451325,-0.060177,1.334593,0.9509725,-0.068947,0.9275190000000001,-0.0009695,-0.001168,1.0724809999999998,0.0009694999999999,0.0011679999999999,0.875483,-0.4035475,-0.0529839999999999,1.116233,-0.3889674999999999,-0.0816969999999999,0.8790830000000001,-0.7769575000000001,-0.030943,1.129623,-0.7761475000000001,-0.035764
157,0.995558,0.7205415000000001,0.0647935,0.845675,0.4767515,0.0643995,0.720945,0.7187015000000001,0.0237645,1.153345,0.4862315,0.0625255,1.270845,0.7211315,0.0072065,0.672725,0.9424315,-0.0464944999999999,1.334845,0.9464115,-0.0548044999999999,0.927448,-0.0011024999999999,-0.0014925,1.072552,0.0011024999999999,0.0014925,0.878735,-0.4149185,-0.0329804999999999,1.117015,-0.3991485,-0.0635565,0.879735,-0.7871785,-0.0204104999999999,1.130895,-0.7871484999999999,-0.0253034999999999
158,0.9950840000000001,0.7200770000000001,0.0670075,0.8451270000000001,0.478007,0.0665895,0.720667,0.720107,0.0277974999999999,1.1537169999999999,0.486807,0.0651035,1.271377,0.720947,0.0122184999999999,0.672677,0.942747,-0.0397545,1.334977,0.945987,-0.0479305,0.927368,-0.0013179999999999,-0.0015715,1.072632,0.0013179999999999,0.0015714999999999,0.880287,-0.419193,-0.0256645,1.117657,-0.403093,-0.0568555,0.879827,-0.790753,-0.0187625,1.131577,-0.7904530000000001,-0.0227265
159,0.9947085000000001,0.7198355000000001,0.068464,0.8447145,0.4781755,0.067997,0.7203545,0.7216555,0.0307999999999999,1.1539044999999999,0.4865255,0.06656,1.2711645,0.7212755000000001,0.0157639999999999,0.6725544999999999,0.9439755,-0.034525,1.3339745,0.9465555,-0.042759,0.9272745,-0.0014925,-0.001687,1.0727255,0.0014924999999999,0.001687,0.8813445,-0.4217445,-0.020484,1.1180345,-0.4052745,-0.052288,0.8797645000000001,-0.7924245,-0.017775,1.1319845,-0.7917744999999999,-0.021024
160,0.9943085000000002,0.7195935,0.069904,0.8442815000000001,0.4783035,0.06913,0.7200515000000001,0.7235135,0.0348769999999999,1.1540214999999998,0.4867935,0.067748,1.2704015,0.7215435,0.0195429999999999,0.6723815,0.9453235,-0.029156,1.3329715,0.9472635,-0.037386,0.9272175,-0.0016224999999999,-0.00178,1.0727825,0.0016224999999999,0.0017799999999999,0.8823415,-0.4240165,-0.015679,1.1183815,-0.4069865,-0.047673,0.8796515,-0.7938165,-0.017055,1.1322415000000001,-0.7928265,-0.019581
161,0.9939265,0.7194699999999999,0.0713034999999999,0.8439464999999999,0.47839,0.0701885,0.7197165000000001,0.7257899999999999,0.0388745,1.1539865,0.48743,0.0691035,1.2694765000000001,0.72204,0.0232895,0.6722565,0.94692,-0.0238385,1.3319765000000001,0.94828,-0.0320825,0.9271925,-0.001683,-0.0017785,1.0728075,0.0016829999999999,0.0017785,0.8832565,-0.42529,-0.0113995,1.1188365,-0.40762,-0.0430855,0.8795364999999999,-0.7946300000000001,-0.0163825,1.1324665,-0.79335,-0.0181585
162,0.9935485000000001,0.7193195,0.0727925,0.8436705,0.4784495,0.0712705,0.7193305,0.7277995,0.0427715,1.1539205,0.4879594999999999,0.0702764999999999,1.2688005,0.7222895,0.0268855,0.6721805000000001,0.9483895,-0.0185854999999999,1.3311404999999998,0.9491895,-0.0269005,0.9271625,-0.0017505,-0.0017765,1.0728374999999999,0.0017505,0.0017765,0.8841305,-0.4273005,-0.0072405,1.1195605,-0.4082505,-0.0383325,0.8793905,-0.7953005,-0.0157005,1.1326805,-0.7937405,-0.0168225
163,0.9931675,0.7192284999999999,0.0742879999999999,0.8434805,0.4785285,0.07229,0.7188905,0.7297085,0.04629,1.1538005,0.4882584999999999,0.071799,1.2681705,0.7221985,0.0304909999999999,0.6720005,0.9493985,-0.013979,1.3305305,0.9500985,-0.022357,0.9271165000000001,-0.0017975,-0.001773,1.0728834999999999,0.0017975,0.0017729999999999,0.8845705000000001,-0.4292115,-0.003953,1.1202705,-0.4092615,-0.033869,0.8792005,-0.7957515000000001,-0.015244,1.1327205,-0.7938315,-0.015569
164,0.9928225,0.7192044999999999,0.075704,0.8432755000000001,0.4786445,0.073055,0.7190555000000001,0.7296845,0.049456,1.1536855,0.4879644999999999,0.072999,1.2676555,0.7221744999999999,0.0338479999999999,0.6718655,0.9503745,-0.009727,1.3300155,0.9510745,-0.018183,0.9270505,-0.0018505,-0.001916,1.0729495,0.0018504999999999,0.0019159999999999,0.8849055000000001,-0.4311255,-0.001116,1.1210155,-0.4104055,-0.029964,0.8790355000000001,-0.7962055,-0.015174,1.1327555,-0.7937855,-0.01445
165,0.9925410000000001,0.7190215,0.0772055,0.843083,0.4787015,0.0737464999999999,0.7192530000000001,0.7298815,0.0530535,1.153553,0.4874815,0.0739665,1.267293,0.7223714999999999,0.0371895,0.671733,0.9515715,-0.0053874999999999,1.329673,0.9525715,-0.0141044999999999,0.926988,-0.0019494999999999,-0.0019974999999999,1.073012,0.0019494999999999,0.0019974999999999,0.8851430000000001,-0.4323585,0.0016515,1.121843,-0.4109184999999999,-0.0265244999999999,0.878873,-0.7962485,-0.0151675,1.132783,-0.7934285000000001,-0.0135264999999999
166,0.992294,0.7190464999999999,0.0785485,0.842892,0.4788165,0.0742115,0.7196220000000001,0.7294765,0.0563105,1.153452,0.4874465,0.0746555,1.266782,0.7200664999999999,0.0401015,0.6715420000000001,0.9535665,-0.0010555,1.329642,0.9546665,-0.0103035,0.926945,-0.0020575,-0.0020975,1.073055,0.0020574999999999,0.0020975,0.8852820000000001,-0.4330334999999999,0.0040625,1.122662,-0.4106535,-0.0236265,0.878772,-0.7958535,-0.0154185,1.1327219999999998,-0.7927035,-0.0131534999999999
167,0.9921185,0.718982,0.079426,0.8427555,0.478772,0.0741759999999999,0.7201355,0.7282219999999999,0.05927,1.1533054999999999,0.4870119999999999,0.074984,1.2665055,0.7186920000000001,0.042057,0.6713855,0.955022,0.002091,1.3297855,0.956322,-0.0076439999999999,0.9268965,-0.0020739999999999,-0.0021919999999999,1.0731035,0.0020739999999999,0.0021919999999999,0.8853755,-0.433698,0.005867,1.1233855,-0.410598,-0.0211979999999999,0.8785855,-0.7959579999999999,-0.0157819999999999,1.1326855,-0.792848,-0.0133529999999999
168,0.9920380000000001,0.718932,0.080339,0.8426549999999999,0.4787019999999999,0.074125,0.720655,0.726872,0.062199,1.153205,0.4865819999999999,0.075263,1.266355,0.7174119999999999,0.043956,0.671265,0.956662,0.005459,1.329945,0.958262,-0.0048959999999999,0.92686,-0.002093,-0.0022219999999999,1.07314,0.0020929999999999,0.002222,0.8854750000000001,-0.433758,0.007621,1.124115,-0.410558,-0.0191109999999999,0.8783950000000001,-0.796018,-0.0162749999999999,1.1326749999999999,-0.792898,-0.0133319999999999
169,0.9920575,0.718868,0.0811784999999999,0.8425335,0.478608,0.0741014999999999,0.7210835000000001,0.725328,0.0637885,1.1530835,0.486168,0.0755184999999999,1.2663735,0.7162679999999999,0.0454624999999999,0.6711435,0.958388,0.0088284999999999,1.3300935,0.960488,-0.0023275,0.9268405000000001,-0.002103,-0.0022185,1.0731594999999998,0.0021029999999999,0.0022184999999999,0.8855535,-0.433832,0.0092044999999999,1.1246635,-0.410532,-0.0176385,0.8782235,-0.7960820000000001,-0.0167115,1.1326635,-0.792872,-0.0131685
170,0.9921035,0.7187815,0.0820785,0.8424415000000001,0.4785715,0.0740775,0.7217115000000001,0.7239715,0.0653705,1.1530615,0.4861315,0.0754085,1.2664615000000001,0.7153415,0.0470505,0.6708915000000001,0.9600515,0.0124235,1.3303315,0.9626515,0.0003944999999999,0.9268275,-0.0021245,-0.0022285,1.0731725,0.0021245,0.0022285,0.8855014999999999,-0.4339885,0.0106595,1.1251915000000001,-0.4101885,-0.0166325,0.8780915,-0.7959985,-0.0172044999999999,1.1327515,-0.7926185,-0.0130954999999999
171,0.992162,0.7186790000000001,0.0830475,0.842423,0.4785489999999999,0.0740855,0.722073,0.7241890000000001,0.0671555,1.1530529999999999,0.4861089999999999,0.0753945,1.266573,0.714499,0.0487294999999999,0.670613,0.961829,0.0162075,1.330743,0.964729,0.0031284999999999,0.9268270000000001,-0.002139,-0.0021675,1.073173,0.002139,0.0021674999999999,0.8853630000000001,-0.434011,0.0118264999999999,1.125553,-0.409971,-0.0161335,0.8779530000000001,-0.795871,-0.0176365,1.132903,-0.792261,-0.0129435
172,0.9921715,0.7185794999999999,0.083853,0.8423795000000001,0.4785294999999999,0.074086,0.7221495,0.7244195,0.06902,1.1529895,0.4860894999999999,0.075013,1.2666395,0.7137195,0.050599,0.6703195,0.9637095,0.020182,1.3311294999999999,0.9669095,0.00599,0.9268235,-0.0021585,-0.002124,1.0731765,0.0021585,0.002124,0.8851295,-0.4339505,0.012765,1.1258295,-0.4096005,-0.015999,0.8777895,-0.7957105,-0.0178819999999999,1.1329894999999999,-0.7918305,-0.01276
173,0.9922070000000001,0.7185095,0.0843875,0.842334,0.4784895,0.0741545,0.7228940000000001,0.7230595,0.0709805,1.152924,0.4857995,0.0747345,1.266724,0.7129895,0.0522925,0.670004,0.9654995,0.0240804999999999,1.331364,0.9686995,0.0086345,0.926829,-0.0021824999999999,-0.0020874999999999,1.073171,0.0021825,0.0020874999999999,0.8849440000000001,-0.4336204999999999,0.0134084999999999,1.126094,-0.4090105,-0.0157375,0.8775640000000001,-0.7955705,-0.0180455,1.1330040000000001,-0.7914005,-0.0125565
174,0.992264,0.7184665,0.0839405,0.842263,0.4783665,0.0741005,0.722853,0.7230265,0.0709485,1.152883,0.4855564999999999,0.0743325,1.266743,0.7124564999999999,0.0528185,0.669643,0.9668865,0.0270215,1.331293,0.9696865,0.0094845,0.926836,-0.0022135,-0.0021044999999999,1.073164,0.0022135,0.0021045,0.884903,-0.4326935,0.0135015,1.126313,-0.4081935,-0.0156544999999999,0.877353,-0.7954335,-0.0181864999999999,1.133093,-0.7908835000000001,-0.0123694999999999
175,0.9922650000000001,0.7184565,0.0835865,0.8422140000000001,0.4782565,0.0741304999999999,0.722824,0.7219265,0.0705965,1.152864,0.4851864999999999,0.0739805,1.266704,0.7122265,0.0524675,0.669154,0.9669265,0.0271364999999999,1.331204,0.9697265,0.0091375,0.926844,-0.0022094999999999,-0.0020645,1.073156,0.0022095,0.0020644999999999,0.8848740000000002,-0.4319635,0.0132275,1.126644,-0.4076134999999999,-0.0156095,0.8773340000000001,-0.7953935,-0.0184225,1.133214,-0.7908435,-0.0127315
176,0.9922355,0.7184539999999999,0.0833885,0.8421445,0.478144,0.0741045,0.7226645,0.720584,0.0704065,1.1528345,0.484884,0.0737825,1.2666145,0.711974,0.0522735,0.6686445,0.966954,0.0269695,1.3311445,0.969754,0.0089415,0.9268295,-0.0022009999999999,-0.0020324999999999,1.0731705,0.002201,0.0020324999999999,0.8848445,-0.430716,0.0130295,1.1269545,-0.406956,-0.0155225,0.8773545,-0.795376,-0.0186235,1.1333644999999999,-0.7908160000000001,-0.0128274999999999
177,0.992151,0.718443,0.0833085,0.8420210000000001,0.478073,0.0740385,0.7225810000000001,0.719113,0.0703375,1.152741,0.4846529999999999,0.0737135,1.266691,0.711793,0.0521945,0.667521,0.966983,0.0269675,1.330921,0.969783,0.0088805,0.926802,-0.002193,-0.0020205,1.073198,0.002193,0.0020205,0.884761,-0.430187,0.0129605,1.1272309999999999,-0.406577,-0.0154014999999999,0.877311,-0.795437,-0.0186954999999999,1.133451,-0.790787,-0.0129074999999999
178,0.9921175,0.718352,0.0823655,0.8419175,0.4780919999999999,0.0740445,0.7216275,0.718682,0.0695755,1.1527574999999999,0.484862,0.0736485,1.2669075,0.711982,0.0512205,0.6648275,0.966122,0.0271404999999999,1.3301475,0.968922,0.0076754999999999,0.9267685,-0.0022369999999999,-0.0020184999999999,1.0732315,0.002237,0.0020184999999999,0.8849875,-0.429618,0.0129454999999999,1.1277575,-0.405908,-0.0154115,0.8774875,-0.795478,-0.0186204999999999,1.1339275,-0.790568,-0.0128035
179,0.9919220000000001,0.7180895,0.0804015,0.8417950000000001,0.4786295,0.0740515,0.719855,0.7185595,0.0672695,1.152745,0.4848395,0.0733205,1.267025,0.7120995,0.0489895,0.661705,0.9640695,0.0264225,1.328985,0.9666695,0.0046045,0.9267529999999999,-0.0022855,-0.0020174999999999,1.073247,0.0022854999999999,0.0020175,0.885025,-0.4290705,0.0125405,1.128195,-0.4053605,-0.0154394999999999,0.8776250000000001,-0.7954505,-0.0187084999999999,1.134155,-0.7904605,-0.0129554999999999
180,0.9914720000000001,0.7178395,0.0776735,0.8415750000000001,0.4791495,0.0740325,0.716145,0.7179995,0.0634495,1.152695,0.4848495,0.0727225,1.266945,0.7119694999999999,0.0448435,0.657705,0.9586195,0.0232305,1.327285,0.9627195,-0.0009584999999999,0.926744,-0.0023334999999999,-0.0020164999999999,1.073256,0.0023335,0.0020165,0.884815,-0.4285204999999999,0.0115445,1.128515,-0.4048104999999999,-0.0154604999999999,0.877815,-0.7955105,-0.0189104999999999,1.134295,-0.7902905,-0.0133625
