sb224sc-HT22-VT27/4dt907/src/ml-research/a12/datafiles/kinect_good_preprocessed_A9_mediapipe/A4_kinect_mirrored.csv
FrameNo,nose_3d_x,nose_3d_y,nose_3d_z,left_shoulder_3d_x,left_shoulder_3d_y,left_shoulder_3d_z,left_elbow_3d_x,left_elbow_3d_y,left_elbow_3d_z,right_shoulder_3d_x,right_shoulder_3d_y,right_shoulder_3d_z,right_elbow_3d_x,right_elbow_3d_y,right_elbow_3d_z,left_wrist_3d_x,left_wrist_3d_y,left_wrist_3d_z,right_wrist_3d_x,right_wrist_3d_y,right_wrist_3d_z,left_hip_3d_x,left_hip_3d_y,left_hip_3d_z,right_hip_3d_x,right_hip_3d_y,right_hip_3d_z,left_knee_3d_x,left_knee_3d_y,left_knee_3d_z,right_knee_3d_x,right_knee_3d_y,right_knee_3d_z,left_ankle_3d_x,left_ankle_3d_y,left_ankle_3d_z,right_ankle_3d_x,right_ankle_3d_y,right_ankle_3d_z
56,0.9984465000000001,0.7339985,0.0566145,0.8499225000000001,0.4943184999999999,0.0465555,0.7469425000000001,0.7425385,0.0456305,1.1532725,0.4995685,0.0329865,1.2612524999999999,0.7243085,0.0146845,0.7194625,0.9947085,0.0114075,1.2968325,0.9902085,-0.0245885,0.9261345,-0.0004324999999999,0.0003944999999999,1.0738655,0.0004325,-0.0003944999999999,0.8761925,-0.4449715,0.0205885,1.1273625,-0.4085115,-0.0137955,0.8662925000000001,-0.7844915,-0.0062364999999999,1.1320025,-0.7699815,-0.0275354999999999
57,0.998892,0.734299,0.0571555,0.850271,0.494419,0.0465475,0.747031,0.744619,0.0468345,1.153601,0.500519,0.0339435,1.261601,0.724039,0.0158615,0.719881,0.995259,0.0130125,1.2977809999999999,0.990759,-0.0227314999999999,0.926132,-0.000392,0.0002774999999999,1.073868,0.0003919999999999,-0.0002774999999999,0.876111,-0.4455409999999999,0.0195465,1.127101,-0.4092409999999999,-0.0143035,0.866261,-0.784741,-0.0070665,1.132101,-0.770151,-0.0284245
58,0.999317,0.734511,0.057668,0.850603,0.494611,0.046526,0.747023,0.745991,0.047958,1.153903,0.501391,0.034846,1.261893,0.723721,0.016849,0.720283,0.995731,0.014671,1.2985229999999999,0.991131,-0.021279,0.926141,-0.000355,0.0001,1.073859,0.000355,-9.99999999999994e-05,0.875993,-0.446219,0.018296,1.126803,-0.409949,-0.0149009999999999,0.866213,-0.785079,-0.008027,1.131933,-0.770349,-0.029424
59,0.999669,0.7345404999999999,0.0580759999999999,0.850868,0.4950105,0.046437,0.746928,0.7467104999999999,0.048954,1.154158,0.5021105,0.035635,1.262108,0.7232405,0.017599,0.7204980000000001,0.9959505,0.016293,1.2990680000000001,0.9911505,-0.020153,0.926141,-0.0003685,-4.099999999999937e-05,1.073859,0.0003685,4.099999999999937e-05,0.875808,-0.4469595,0.0168159999999999,1.126418,-0.4106295,-0.015647,0.8660780000000001,-0.7855895,-0.009027,1.131818,-0.7707895,-0.030391
60,0.999969,0.734468,0.0582075,0.851155,0.495398,0.0464375,0.7467349999999999,0.7473879999999999,0.0495725,1.154405,0.502998,0.0365744999999999,1.2622849999999999,0.722738,0.0179375,0.7204750000000001,0.996028,0.0176734999999999,1.299425,0.991028,-0.0196135,0.926139,-0.0003859999999999,-0.0001855,1.073861,0.000386,0.0001854999999999,0.8755650000000001,-0.447752,0.0150195,1.126005,-0.411772,-0.0166415,0.865945,-0.786122,-0.0103685,1.131755,-0.771702,-0.0315835
61,1.000212,0.7343315,0.058063,0.851448,0.4958815,0.046386,0.7469680000000001,0.7466215,0.050414,1.154608,0.5039315,0.037289,1.262408,0.7223415,0.0179569999999999,0.7203379999999999,0.9959715,0.0188549999999999,1.299688,0.9909715,-0.019441,0.926157,-0.0004025,-0.000313,1.073843,0.0004025,0.0003129999999999,0.875288,-0.4484485,0.0128629999999999,1.125528,-0.4129585,-0.017931,0.865868,-0.7866985,-0.011956,1.131648,-0.7726985,-0.033348
62,1.0004325,0.7340895,0.057468,0.8516954999999999,0.4964295,0.046112,0.7472055,0.7471395,0.050999,1.1548355,0.5051395,0.037772,1.2625055,0.7219595,0.0174269999999999,0.7199955,0.9959495,0.019665,1.2998755,0.9908495,-0.019894,0.9262235,-0.0004214999999999,-0.000559,1.0737765,0.0004215,0.000559,0.8749555,-0.4491405,0.010124,1.1250155,-0.4142805,-0.01976,0.8657555,-0.7873705000000001,-0.0141,1.1315555,-0.7740705,-0.035503
63,1.0006395,0.7338155,0.0565175,0.8519605,0.4970255,0.0456364999999999,0.7470705,0.7466955,0.0511975,1.1551405,0.5065655,0.0381895,1.2626105,0.7217155,0.0164675,0.7196205,0.9960455,0.0200825,1.3000005,0.9908455,-0.0209275,0.9263255,-0.0004474999999999,-0.0007235,1.0736745,0.0004475,0.0007234999999999,0.8746605000000001,-0.4496545,0.0070584999999999,1.1245005,-0.4154445,-0.0220175,0.8656805,-0.7879945,-0.0165885,1.1314705,-0.7752945,-0.0385025
64,1.00078,0.7338155,0.054882,0.852186,0.4970255,0.044844,0.747046,0.7469555,0.050516,1.155416,0.5074355,0.038187,1.262746,0.7217155,0.014834,0.719116,0.9960455,0.01947,1.300106,0.9908455,-0.02286,0.926415,-0.0004474999999999,-0.000889,1.073585,0.0004475,0.000889,0.874416,-0.4496545,0.004017,1.1240459999999999,-0.4160845,-0.024355,0.865596,-0.7879945,-0.018874,1.131306,-0.7761745,-0.041497
65,1.000873,0.7337555,0.0530065,0.8523959999999999,0.4970255,0.0439395,0.746596,0.7476055,0.0496065,1.155626,0.5083255,0.0375594999999999,1.262826,0.7217155,0.0130114999999999,0.718506,0.9960455,0.0186225,1.300166,0.9908455,-0.0250685,0.9265170000000001,-0.0004474999999999,-0.0010565,1.073483,0.0004475,0.0010565,0.874106,-0.4496545,0.0007774999999999,1.123636,-0.4166745,-0.0268645,0.865496,-0.7879945,-0.0214395,1.131236,-0.7765745,-0.0446315
66,1.001025,0.7339205,0.05106,0.852689,0.4971405,0.043083,0.745989,0.7463505,0.048557,1.155909,0.5086805,0.036834,1.262929,0.7219504999999999,0.010611,0.7178990000000001,0.9962805,0.01747,1.300259,0.9910805,-0.027468,0.926609,-0.0003634999999999,-0.001242,1.073391,0.0003635,0.001242,0.873869,-0.4494195,-0.0023309999999999,1.123379,-0.4165195,-0.029495,0.865489,-0.7877595000000001,-0.0242039999999999,1.131189,-0.7768295000000001,-0.047638
67,1.001245,0.733823,0.0488279999999999,0.8530660000000001,0.497853,0.0420629999999999,0.745466,0.746253,0.0471269999999999,1.156256,0.508713,0.03611,1.2630460000000001,0.7218330000000001,0.008248,0.7172959999999999,0.996483,0.015805,1.300326,0.990983,-0.03039,0.926725,-0.0003039999999999,-0.0014429999999999,1.073275,0.000304,0.001443,0.873596,-0.449117,-0.005703,1.123196,-0.416797,-0.03259,0.865486,-0.787627,-0.027344,1.131106,-0.777357,-0.051064
68,1.001545,0.733823,0.0464415,0.853383,0.498113,0.0410265,0.7451230000000001,0.745073,0.0456415,1.156563,0.508563,0.0352815,1.263253,0.722373,0.0050034999999999,0.7166530000000001,0.996783,0.0137974999999999,1.300443,0.991183,-0.0338064999999999,0.9268260000000001,-0.0003039999999999,-0.0015955,1.0731739999999999,0.000304,0.0015954999999999,0.873323,-0.448557,-0.0094885,1.123183,-0.416797,-0.0361555,0.8654930000000001,-0.7874369999999999,-0.0310145,1.131113,-0.777757,-0.0548975
69,1.0019194999999999,0.733213,0.0440915,0.8538565,0.498113,0.0399465,0.7448865,0.743783,0.0441215,1.1568865,0.508563,0.0341665,1.2636365,0.7230530000000001,0.0014665,0.7159265,0.996983,0.0116575,1.3006465,0.991183,-0.0375244999999999,0.9269075,-0.0003039999999999,-0.0017035,1.0730925,0.000304,0.0017035,0.8729365,-0.447407,-0.0145495,1.1232665,-0.416537,-0.0405055,0.8655465,-0.787337,-0.0353244999999999,1.1313564999999999,-0.777757,-0.0591434999999999
70,1.002394,0.732243,0.0419695,0.854382,0.498113,0.0390615,0.7446820000000001,0.7424930000000001,0.0422245,1.157282,0.508563,0.0333055,1.2640419999999999,0.722983,-0.0014835,0.715222,0.996983,0.0096545,1.300912,0.991183,-0.0410745,0.9269640000000001,-0.0003039999999999,-0.0017805,1.0730359999999999,0.000304,0.0017805,0.872662,-0.445897,-0.0199715,1.123462,-0.416277,-0.0451105,0.865582,-0.787177,-0.0394415,1.131732,-0.777927,-0.0630105
71,1.0028705,0.730725,0.0403899999999999,0.8548595,0.498235,0.038701,0.7444995,0.740915,0.040567,1.1576795,0.508475,0.032796,1.2644495,0.723015,-0.003953,0.7146895,0.997105,0.007942,1.3011795,0.991305,-0.044241,0.9269595,-0.000223,-0.0017409999999999,1.0730405,0.000223,0.001741,0.8724295,-0.444025,-0.025776,1.1235495,-0.415385,-0.050829,0.8656295,-0.786915,-0.043196,1.1321295,-0.7780750000000001,-0.066589
72,1.0032919999999999,0.7292015000000001,0.0391305,0.855248,0.4983015,0.0387874999999999,0.744348,0.7392815,0.0392714999999999,1.158058,0.5076915000000001,0.0323964999999999,1.264848,0.7221915,-0.0055565,0.714198,0.9976415,0.0063434999999999,1.3013679999999999,0.9910415,-0.0472185,0.926909,-0.0001174999999999,-0.0017605,1.073091,0.0001174999999999,0.0017605,0.872198,-0.4417184999999999,-0.0318405,1.123588,-0.4138985,-0.0568485,0.865678,-0.7863585,-0.0466845,1.132408,-0.7780985,-0.0708835
73,1.003704,0.7276065,0.038044,0.855471,0.4981165,0.03822,0.744151,0.7377665,0.0381359999999999,1.158321,0.5066865,0.0315099999999999,1.2651810000000001,0.7205965000000001,-0.007026,0.713711,0.9985765,0.004853,1.301241,0.9899765,-0.05002,0.926861,1.9499999999998685e-05,-0.001756,1.073139,-1.9499999999998685e-05,0.001756,0.871921,-0.4389435,-0.038405,1.123551,-0.4118835,-0.063299,0.865701,-0.7853835,-0.050004,1.132541,-0.7782435,-0.074791
74,1.0041465,0.726121,0.0370985,0.8556715,0.497541,0.0371635,0.7444014999999999,0.737451,0.0371245,1.1585615,0.505531,0.0301115,1.2656215,0.7193309999999999,-0.0084025,0.7133214999999999,0.999851,0.0033795,1.3011115,0.989251,-0.0526745,0.9267695,0.000173,-0.0017145,1.0732305,-0.0001729999999999,0.0017145,0.8717415,-0.4357189999999999,-0.0451095,1.1235215,-0.409219,-0.0699225,0.8657815,-0.783859,-0.0531935,1.1326315,-0.777509,-0.0790275
75,1.0045179999999998,0.724487,0.036178,0.855768,0.497027,0.035849,0.7447980000000001,0.737477,0.036285,1.158728,0.504287,0.028817,1.266038,0.718387,-0.0096729999999999,0.7129179999999999,1.001467,0.001934,1.300848,0.988767,-0.055177,0.9266840000000001,0.000348,-0.0015959999999999,1.073316,-0.000348,0.001596,0.871468,-0.432283,-0.0520159999999999,1.123478,-0.406253,-0.07672,0.865868,-0.7820429999999999,-0.056314,1.132798,-0.776533,-0.082811
76,1.004819,0.722732,0.035571,0.8559060000000001,0.4962519999999999,0.036128,0.745126,0.737352,0.035828,1.1589260000000001,0.503152,0.02828,1.266316,0.7168420000000001,-0.010605,0.712506,1.002522,0.000923,1.300366,0.987822,-0.057228,0.926609,0.000486,-0.001426,1.073391,-0.000486,0.001426,0.8712759999999999,-0.428968,-0.05884,1.1234659999999999,-0.403228,-0.083456,0.866216,-0.779998,-0.059023,1.133276,-0.775488,-0.0864139999999999
77,1.0050234999999998,0.7207705,0.0351789999999999,0.8559905,0.4955205,0.036516,0.7452905000000001,0.7369005,0.035448,1.1591005,0.5022304999999999,0.027947,1.2664705,0.7153404999999999,-0.011118,0.7121505,1.0036805,0.0002259999999999,1.2997505,0.9869805,-0.058731,0.9265225,0.0006255,-0.00129,1.0734775,-0.0006255,0.0012899999999999,0.8710005000000001,-0.4253395,-0.065409,1.1234005,-0.4000995,-0.090117,0.8664905,-0.7775395,-0.061296,1.1336105,-0.7739295,-0.089389
78,1.0050885,0.7189435,0.034793,0.8559565,0.4951335,0.036987,0.7451365,0.7356834999999999,0.035174,1.1592665,0.5019534999999999,0.027798,1.2664465,0.7135935,-0.0114029999999999,0.7117565,1.0042335,-0.0003269999999999,1.2989065,0.9860335,-0.059911,0.9264825,0.0006485,-0.0011209999999999,1.0735175,-0.0006484999999999,0.001121,0.8706665,-0.4218865,-0.071247,1.1232465,-0.3970964999999999,-0.0967119999999999,0.8666765,-0.7748165,-0.063098,1.1336264999999999,-0.7719665,-0.0918499999999999
79,1.0048955,0.7174455,0.0342865,0.8557684999999999,0.4938755,0.0373675,0.7450685,0.7341555,0.0348155,1.1590185,0.5007955,0.0276855,1.2660585,0.7115055,-0.0116664999999999,0.7112085,1.0043055,-0.0009954999999999,1.2976885,0.9852055,-0.0610874999999999,0.9264405,0.0006245,-0.0009594999999999,1.0735595,-0.0006245,0.0009595,0.8703885,-0.4182545,-0.0769285,1.1232385,-0.3935445,-0.1037015,0.8669085,-0.7716745,-0.0649375,1.1335685,-0.7693045000000001,-0.0939305
80,1.0046035,0.7164855,0.033625,0.8556255,0.4929255,0.037856,0.7448755,0.7330455,0.034331,1.1586855,0.5000255,0.027562,1.2656654999999999,0.7095855,-0.011978,0.7105055,1.0044555,-0.001968,1.2963054999999999,0.9843555,-0.062169,0.9264725,0.0006164999999999,-0.0008879999999999,1.0735275,-0.0006164999999999,0.0008879999999999,0.8697855,-0.4138945,-0.082269,1.1232755,-0.3882045,-0.109578,0.8667855,-0.7676245,-0.066629,1.1337955,-0.7652545000000001,-0.096372
81,1.0043715,0.715691,0.0329235,0.8555305,0.4922809999999999,0.0382585,0.7444405000000001,0.732451,0.0337784999999999,1.1583805,0.499661,0.0274635,1.2653604999999999,0.709691,-0.0129145,0.7097804999999999,1.004891,-0.0029075,1.2956005,0.984591,-0.0632755,0.9264885,0.0005889999999999,-0.0007425,1.0735115,-0.000589,0.0007425,0.8697604999999999,-0.4094589999999999,-0.0875114999999999,1.1234005,-0.3837689999999999,-0.1155585,0.8671105,-0.763189,-0.0680844999999999,1.1339204999999999,-0.761439,-0.0976195
82,1.0041894999999998,0.7161355,0.0314425,0.8552785,0.4929555,0.0378285,0.7437484999999999,0.7333555,0.0321555,1.1579885,0.5007355,0.0267565,1.2654085,0.7118355000000001,-0.0146435,0.7089485,1.0063555,-0.0045114999999999,1.2950085,0.9868555,-0.0650925,0.9265275,0.0006005,-0.0007664999999999,1.0734725,-0.0006005,0.0007664999999999,0.8696485,-0.4034945,-0.0931375,1.1234385,-0.3778045,-0.1220845,0.8672785000000001,-0.7575445,-0.0704405,1.1339985,-0.7562144999999999,-0.0993415
83,1.00383,0.7165885000000001,0.029815,0.8548560000000001,0.4942085,0.037295,0.7428159999999999,0.7318385000000001,0.030602,1.157376,0.5006385000000001,0.025879,1.265196,0.7134885000000001,-0.01629,0.7077260000000001,1.0033985,-0.0065149999999999,1.2943660000000001,0.9886085,-0.066855,0.926544,0.0007504999999999,-0.0006439999999999,1.073456,-0.0007505,0.000644,0.869026,-0.3974015,-0.100318,1.123106,-0.3725015,-0.129956,0.8672759999999999,-0.7516714999999999,-0.072689,1.134036,-0.7504114999999999,-0.101826
84,1.0035764999999999,0.7167015,0.028219,0.8544195,0.4952815,0.036487,0.7419395000000001,0.7302314999999999,0.029087,1.1566995,0.5004215,0.024942,1.2649895,0.7146715,-0.0178919999999999,0.7066095,0.9996915,-0.0087459999999999,1.2937695,0.9851515,-0.069721,0.9265575,0.0008484999999999,-0.0005359999999999,1.0734425,-0.0008485,0.000536,0.8683095000000001,-0.3920984999999999,-0.107526,1.1230695,-0.3683785,-0.1381679999999999,0.8673095,-0.7460385,-0.075093,1.1337795,-0.7444185,-0.103351
85,1.003363,0.7149465,0.0265674999999999,0.8542460000000001,0.4968165,0.0351524999999999,0.741036,0.7277865,0.0274915,1.156596,0.4998264999999999,0.0236625,1.264746,0.7149865000000001,-0.0198215,0.705346,0.9958665,-0.0115785,1.293366,0.9821265,-0.0728235,0.926552,0.0009985,-0.0005805,1.073448,-0.0009984999999999,0.0005805,0.867506,-0.3864835,-0.1153605,1.123316,-0.3648234999999999,-0.1471295,0.867336,-0.7398334999999999,-0.0777165,1.133506,-0.7377334999999999,-0.1045235
86,1.0030834999999998,0.7130195,0.0247695,0.8539765,0.4962695,0.0334395,0.7406965,0.7258495,0.0252265,1.1563765,0.4995394999999999,0.0220365,1.2646765,0.7151695,-0.0227225,0.7044565,0.9928095,-0.0153995,1.2928465,0.9799995,-0.0765005,0.9265865000000001,0.0010744999999999,-0.0005565,1.0734134999999998,-0.0010745,0.0005565,0.8664665,-0.3794705,-0.1231905,1.1235665,-0.3602605,-0.1557275,0.8671065,-0.7318605,-0.0803665,1.1332465,-0.7288205,-0.1061705
87,1.002749,0.71128,0.0227649999999999,0.853648,0.49573,0.0314899999999999,0.7402880000000001,0.7249500000000001,0.0225999999999999,1.156098,0.49961,0.0201169999999999,1.264738,0.7154600000000001,-0.0259,0.703808,0.98877,-0.019781,1.292238,0.9781,-0.080564,0.9266020000000001,0.001194,-0.000447,1.0733979999999999,-0.001194,0.0004469999999999,0.865378,-0.37236,-0.131058,1.123898,-0.35613,-0.163966,0.8668280000000002,-0.72383,-0.083447,1.132928,-0.71863,-0.108053
88,1.0023955,0.710215,0.0205185,0.8534555,0.494865,0.0296605,0.7396555,0.725205,0.0195125,1.1556355,0.498515,0.0183225,1.2649555000000001,0.715425,-0.0294024999999999,0.7028955,0.980285,-0.0250654999999999,1.2916055,0.977435,-0.0853424999999999,0.9265395,0.0014939999999999,-0.0002074999999999,1.0734605,-0.001494,0.0002075,0.8640755,-0.364105,-0.1393705,1.1240155,-0.350745,-0.1720005,0.8661555,-0.714675,-0.0871525,1.1327855,-0.706535,-0.1105324999999999
89,1.002443,0.7090995,0.017953,0.853557,0.4945595,0.027802,0.739127,0.7228794999999999,0.016234,1.155517,0.4974695,0.016493,1.265097,0.7137095,-0.0331739999999999,0.701877,0.9723895,-0.030278,1.292017,0.9693395,-0.092095,0.926453,0.0017324999999999,0.000119,1.073547,-0.0017324999999999,-0.000119,0.862627,-0.3546505,-0.147101,1.123997,-0.3439605,-0.180201,0.865317,-0.7033905,-0.090981,1.1329969999999998,-0.6924904999999999,-0.113652
90,1.002742,0.7074845,0.0150539999999999,0.853801,0.4944445,0.0258079999999999,0.7388410000000001,0.7206245,0.0125909999999999,1.155491,0.4968345,0.0145339999999999,1.265321,0.7118445,-0.037488,0.7007410000000001,0.9649145,-0.03658,1.292591,0.9620345,-0.099129,0.926345,0.0019915,0.0003309999999999,1.073655,-0.0019915,-0.0003309999999999,0.860801,-0.3451355,-0.155362,1.124041,-0.3364755,-0.188432,0.8643810000000001,-0.6913355,-0.095153,1.133071,-0.6779755,-0.117408
91,1.003482,0.7050974999999999,0.0125149999999999,0.85463,0.4921875,0.0243189999999999,0.73893,0.7183775,0.0088909999999999,1.156,0.4942474999999999,0.0129149999999999,1.26497,0.7096075,-0.041749,0.70016,0.9578875,-0.043148,1.29362,0.9555275,-0.10625,0.925994,0.0021395,0.0006859999999999,1.074006,-0.0021395,-0.000686,0.8587400000000001,-0.3322325,-0.163682,1.12445,-0.3251125,-0.196742,0.86332,-0.6788425,-0.098724,1.13316,-0.6628925,-0.120092
92,1.004478,0.7021665,0.0094889999999999,0.855621,0.4892965,0.022356,0.7392810000000001,0.7178165,0.0042749999999999,1.156461,0.4927665,0.010636,1.2645710000000001,0.7075965,-0.046758,0.699981,0.9559265,-0.049901,1.294961,0.9505565,-0.114344,0.925684,0.0022665,0.0010249999999999,1.074316,-0.0022664999999999,-0.001025,0.856791,-0.3184535,-0.170883,1.125131,-0.3126135,-0.2044329999999999,0.862271,-0.6654935,-0.102674,1.1332309999999999,-0.6477735,-0.122768
93,1.0055115,0.699478,0.0049619999999999,0.8567195,0.487098,0.0186829999999999,0.7396795,0.717518,-0.002016,1.1567595,0.491678,0.0067529999999999,1.2640095,0.705048,-0.053275,0.7000394999999999,0.955418,-0.058317,1.2957095,0.951608,-0.123298,0.9254005,0.002402,0.0008569999999999,1.0745995,-0.0024019999999999,-0.000857,0.8541195,-0.302542,-0.179572,1.1255895,-0.297512,-0.213892,0.8608495,-0.650432,-0.107615,1.1334195,-0.631722,-0.127158
94,1.0062114999999998,0.70062,-0.0005289999999999,0.8575385,0.4853499999999999,0.014226,0.7403285,0.7183,-0.0092999999999999,1.1569984999999998,0.49031,0.001295,1.2640785,0.70229,-0.060267,0.7004684999999999,0.95728,-0.067861,1.2962085,0.95147,-0.1330049999999999,0.9251705,0.0025599999999999,0.0015879999999999,1.0748294999999999,-0.00256,-0.0015879999999999,0.8503685,-0.28417,-0.193189,1.1255585,-0.27961,-0.226809,0.8601685,-0.63133,-0.1113099999999999,1.1330385,-0.61212,-0.132124
95,1.0067805,0.7018899999999999,-0.0081255,0.8581485,0.48584,0.0076304999999999,0.7406585,0.7188699999999999,-0.0184395,1.1571585,0.4885899999999999,-0.0063785,1.2642185,0.6999899999999999,-0.0686995,0.7010685,0.95847,-0.0791365,1.2966585,0.9505,-0.1448465,0.9249944999999999,0.00278,0.0019074999999999,1.0750055,-0.00278,-0.0019074999999999,0.8478585000000001,-0.26762,-0.2076575,1.1253585,-0.26343,-0.2421775,0.8600685,-0.61392,-0.1153955,1.1325485,-0.5962400000000001,-0.1373475
96,1.0074225,0.70298,-0.016229,0.8588195000000001,0.48636,0.000384,0.7411395000000001,0.71899,-0.028106,1.1572495,0.48644,-0.014695,1.2644395,0.69696,-0.077736,0.7020195,0.95864,-0.090792,1.2971995,0.94873,-0.157192,0.9248555,0.00312,0.002389,1.0751445,-0.0031199999999999,-0.0023889999999999,0.8438495,-0.25186,-0.224132,1.1251595,-0.24816,-0.257862,0.8591595000000001,-0.59676,-0.1224,1.1318095,-0.57928,-0.145036
97,1.0081775,0.703025,-0.0248735,0.8593055,0.486405,-0.0075695,0.7419855,0.718955,-0.0385415,1.1568255,0.486745,-0.0235035,1.2645855,0.6958249999999999,-0.0876245,0.7030355000000001,0.964435,-0.1024785,1.2987555,0.944545,-0.1708705,0.9246775,0.0031449999999999,0.0030644999999999,1.0753225,-0.003145,-0.0030645,0.8394355,-0.235305,-0.2415805,1.1250955,-0.232425,-0.2743305,0.8581855,-0.5779050000000001,-0.1301975,1.1305855,-0.561005,-0.1536635
98,1.0087375,0.702885,-0.0330209999999999,0.8596775,0.486015,-0.0150449999999999,0.7422175,0.721325,-0.0486709999999999,1.1561275,0.487385,-0.0317509999999999,1.2651474999999999,0.6963950000000001,-0.0971769999999999,0.7040775,0.968955,-0.114064,1.2994374999999998,0.948205,-0.182261,0.9243835,0.0030749999999999,0.003604,1.0756165,-0.0030749999999999,-0.0036039999999999,0.8354175,-0.2205349999999999,-0.257961,1.1252875,-0.218505,-0.2900009999999999,0.8573375,-0.5606850000000001,-0.1374969999999999,1.1295675,-0.5447850000000001,-0.161725
99,1.0090279999999998,0.70377,-0.0411895,0.859821,0.48575,-0.0226754999999999,0.742391,0.72369,-0.0588514999999999,1.155301,0.48605,-0.0404574999999999,1.266001,0.69554,-0.1065265,0.7049110000000001,0.97326,-0.1251304999999999,1.300041,0.95179,-0.1935645,0.924189,0.00324,0.0039935,1.075811,-0.0032399999999999,-0.0039934999999999,0.8314010000000001,-0.20503,-0.2740845,1.125241,-0.20343,-0.3056145,0.856311,-0.54245,-0.1449794999999999,1.128391,-0.5282,-0.1694395
100,1.009121,0.7036100000000001,-0.0494105,0.859962,0.48608,-0.0306895,0.742382,0.72556,-0.0687695,1.154312,0.48564,-0.0491985,1.266852,0.69506,-0.1160425,0.705532,0.97663,-0.1352945,1.300902,0.95446,-0.2054225,0.9239660000000001,0.0033799999999999,0.0045694999999999,1.076034,-0.00338,-0.0045695,0.8277019999999999,-0.1891,-0.2894925,1.124992,-0.18774,-0.3205525,0.855272,-0.52366,-0.1520725,1.127182,-0.51221,-0.1771325
101,1.0089955,0.7040200000000001,-0.057503,0.8598925,0.48696,-0.03874,0.7421424999999999,0.72806,-0.078188,1.1533625,0.48527,-0.057768,1.2678824999999998,0.69489,-0.125256,0.7059124999999999,0.9778,-0.145024,1.3016425,0.95616,-0.216688,0.9237744999999999,0.00348,0.005191,1.0762255,-0.0034799999999999,-0.005191,0.8241425,-0.17356,-0.304198,1.1246425,-0.17251,-0.334598,0.8546825,-0.5057099999999999,-0.158804,1.1254825,-0.49809,-0.184548
102,1.008485,0.70479,-0.0656475,0.859641,0.48654,-0.0469504999999999,0.741681,0.72953,-0.0877135,1.152241,0.48417,-0.0664144999999999,1.269271,0.6966,-0.1351615,0.706091,0.97787,-0.1544145,1.302531,0.95291,-0.2278484999999999,0.923675,0.0035399999999999,0.0056815,1.076325,-0.00354,-0.0056814999999999,0.8205709999999999,-0.15775,-0.3183785,1.124151,-0.15718,-0.3475385,0.854021,-0.4883699999999999,-0.1654995,1.123711,-0.48394,-0.1917785
103,1.00874,0.703705,-0.0690075,0.860266,0.485815,-0.0506395,0.7417560000000001,0.7314050000000001,-0.0921275,1.151676,0.483415,-0.0700075,1.2712759999999999,0.700385,-0.1407995,0.706726,0.976235,-0.1585585,1.3041960000000001,0.951295,-0.2343935,0.923527,0.003595,0.0059665,1.076473,-0.0035949999999999,-0.0059665,0.8193159999999999,-0.1438649999999999,-0.3228135,1.124466,-0.143235,-0.3520535,0.854336,-0.4737749999999999,-0.1667075,1.122626,-0.4724849999999999,-0.1937705
104,1.008894,0.702755,-0.0723305,0.860958,0.484965,-0.0543575,0.7421679999999999,0.730555,-0.0966435,1.151038,0.4824549999999999,-0.0736335,1.272848,0.7036849999999999,-0.1466915,0.707228,0.974245,-0.1624865,1.305548,0.949655,-0.2407435,0.92344,0.0036649999999999,0.0061764999999999,1.07656,-0.003665,-0.0061765,0.8181280000000001,-0.130095,-0.3270935,1.124588,-0.129465,-0.3563835,0.854548,-0.460065,-0.1688605,1.121508,-0.460565,-0.1964205
105,1.0088884999999999,0.7014,-0.0759494999999999,0.8615895,0.48249,-0.0585624999999999,0.7427495,0.7293499999999999,-0.1011435,1.1501795,0.4816499999999999,-0.0774245,1.2741595000000001,0.70658,-0.1531064999999999,0.7074895,0.97393,-0.1666554999999999,1.3067595,0.94901,-0.2472065,0.9233415000000001,0.0034699999999999,0.0064935,1.0766585,-0.00347,-0.0064934999999999,0.8169595000000001,-0.11515,-0.3312564999999999,1.1246995,-0.11452,-0.3608065,0.8549295,-0.4452600000000001,-0.1718715,1.1207494999999998,-0.44713,-0.1974095
106,1.008297,0.7005049999999999,-0.079303,0.861598,0.4822949999999999,-0.062356,0.742988,0.7275849999999999,-0.104835,1.149438,0.4801449999999999,-0.081125,1.275078,0.7081649999999999,-0.158826,0.707468,0.972545,-0.170445,1.306548,0.949885,-0.252095,0.9231320000000001,0.0035049999999999,0.0068049999999999,1.076868,-0.003505,-0.006805,0.816038,-0.106175,-0.334155,1.124148,-0.105445,-0.364215,0.854708,-0.4329050000000001,-0.173742,1.120258,-0.436355,-0.198854
107,1.007634,0.699745,-0.082819,0.861635,0.482275,-0.066268,0.7433350000000001,0.7249749999999999,-0.10855,1.148695,0.4786749999999999,-0.085011,1.2757349999999998,0.709205,-0.164577,0.707345,0.971705,-0.174341,1.3064149999999999,0.949895,-0.25732,0.922898,0.0036549999999999,0.0071,1.077102,-0.003655,-0.0070999999999999,0.815215,-0.096355,-0.33704,1.123585,-0.095675,-0.3676199999999999,0.855395,-0.420675,-0.176097,1.119415,-0.424465,-0.2007439999999999
108,1.006937,0.69773,-0.086273,0.861536,0.48139,-0.070049,0.743696,0.72224,-0.111872,1.147996,0.4774999999999999,-0.088573,1.274956,0.71146,-0.169562,0.707186,0.97111,-0.177934,1.305916,0.94973,-0.261985,0.9226610000000001,0.0035799999999999,0.0074449999999999,1.0773389999999998,-0.00358,-0.007445,0.814576,-0.08698,-0.339335,1.122956,-0.08605,-0.370425,0.857846,-0.41369,-0.184692,1.118926,-0.41278,-0.2024989999999999
109,1.0063805,0.6961550000000001,-0.089456,0.8611635,0.480815,-0.073366,0.7442435000000001,0.718575,-0.115183,1.1472835,0.475835,-0.09192,1.2742535,0.711795,-0.173712,0.7071434999999999,0.969935,-0.181567,1.3053335,0.949085,-0.265345,0.9223705000000001,0.003595,0.0075849999999999,1.0776295,-0.0035949999999999,-0.007585,0.8141235,-0.0780949999999999,-0.341445,1.1225034999999999,-0.0763749999999999,-0.372645,0.8619034999999999,-0.4075649999999999,-0.190545,1.1180035,-0.4021549999999999,-0.204413
110,1.005985,0.694585,-0.092448,0.8610260000000001,0.479965,-0.0766189999999999,0.744926,0.714955,-0.1182489999999999,1.146726,0.474385,-0.095205,1.273686,0.710865,-0.177678,0.7071860000000001,0.970465,-0.184883,1.305296,0.948165,-0.2688549999999999,0.922067,0.0035449999999999,0.007725,1.077933,-0.003545,-0.0077249999999999,0.813816,-0.068655,-0.343375,1.122196,-0.065765,-0.374595,0.866236,-0.4011249999999999,-0.19573,1.117316,-0.391225,-0.205759
111,1.005565,0.692245,-0.094989,0.860725,0.479995,-0.079333,0.745455,0.711545,-0.120723,1.146085,0.473125,-0.098027,1.273275,0.7067950000000001,-0.18082,0.707095,0.971075,-0.187756,1.305235,0.949335,-0.271465,0.921953,0.003605,0.0078049999999999,1.078047,-0.0036049999999999,-0.007805,0.813485,-0.0599549999999999,-0.344945,1.1218650000000001,-0.0556849999999999,-0.3760449999999999,0.870555,-0.395505,-0.200517,1.116865,-0.380715,-0.208294
112,1.0050785,0.690105,-0.097463,0.8604735,0.479335,-0.0818889999999999,0.7457335,0.708035,-0.123095,1.1455235,0.471512,-0.1006529999999999,1.2727235,0.702465,-0.183057,0.7069335,0.970235,-0.190329,1.3048834999999999,0.950355,-0.273655,0.9218824999999999,0.003615,0.0078349999999999,1.0781175,-0.0036149999999999,-0.0078349999999999,0.8132435,-0.051035,-0.346255,1.1214435,-0.0452549999999999,-0.3770949999999999,0.8758435,-0.391455,-0.2094909999999999,1.1173235,-0.3709749999999999,-0.210125
113,1.0047374999999998,0.6880149999999999,-0.0999169999999999,0.8603635000000001,0.477834,-0.084507,0.7455435,0.707135,-0.1253,1.1451835,0.4699699999999999,-0.1030779999999999,1.2733435,0.698145,-0.1855109999999999,0.7068035000000001,0.969525,-0.192824,1.3050535,0.947785,-0.27583,0.9217905,0.0036149999999999,0.0078899999999999,1.0782095,-0.003615,-0.0078899999999999,0.8132435,-0.041525,-0.34758,1.1210535,-0.034485,-0.3782,0.8815235,-0.387025,-0.21848,1.1181634999999999,-0.360855,-0.2123959999999999
114,1.0045905,0.686895,-0.1020919999999999,0.8604785,0.477126,-0.086595,0.7454485,0.706925,-0.127598,1.1449785000000001,0.468049,-0.1053389999999999,1.2724085,0.6955549999999999,-0.1870419999999999,0.7068384999999999,0.968695,-0.195188,1.3049484999999998,0.945585,-0.277775,0.9215905,0.0037049999999999,0.007925,1.0784095,-0.003705,-0.007925,0.8135585000000001,-0.0324949999999999,-0.3490649999999999,1.1205685,-0.024465,-0.379285,0.8871074999999999,-0.383055,-0.227385,1.1197585,-0.352055,-0.214397
115,1.00469,0.68468,-0.103963,0.8607280000000002,0.475584,-0.088514,0.746108,0.70697,-0.12959,1.145098,0.466484,-0.107372,1.271478,0.69165,-0.1884549999999999,0.707138,0.96826,-0.197292,1.305098,0.94424,-0.27963,0.9212,0.0037599999999999,0.00784,1.0788,-0.0037599999999999,-0.00784,0.814338,-0.0221799999999999,-0.35044,1.120158,-0.01338,-0.38007,0.892869,-0.37816,-0.23603,1.121648,-0.34246,-0.2164869999999999
116,1.004905,0.6823049999999999,-0.105572,0.861038,0.4737639999999999,-0.090237,0.746308,0.708125,-0.131765,1.145338,0.463949,-0.109184,1.270748,0.6856450000000001,-0.189761,0.7074480000000001,0.967445,-0.199357,1.305378,0.941585,-0.28135,0.920778,0.003865,0.00773,1.079222,-0.003865,-0.00773,0.815328,-0.011945,-0.35152,1.119848,-0.002365,-0.38069,0.898793,-0.371645,-0.2378,1.123498,-0.332995,-0.219158
117,1.005471,0.68076,-0.106829,0.8615570000000001,0.4727179999999999,-0.091683,0.746867,0.70924,-0.134076,1.145937,0.4628509999999999,-0.11043,1.271177,0.67999,-0.191066,0.708127,0.96494,-0.201169,1.306197,0.93846,-0.2832949999999999,0.920372,0.0039599999999999,0.0075649999999999,1.079628,-0.00396,-0.007565,0.816757,-0.00184,-0.352495,1.119887,0.0083999999999999,-0.380795,0.899709,-0.3615400000000001,-0.238705,1.126477,-0.32289,-0.219321
118,1.0059814999999999,0.67896,-0.108006,0.8620555,0.471579,-0.092802,0.7472855,0.70804,-0.135966,1.1466155,0.461649,-0.111243,1.2717055,0.67557,-0.192353,0.7087355,0.96157,-0.202944,1.3071655,0.93484,-0.285445,0.9200045,0.00404,0.0074649999999999,1.0799954999999999,-0.0040399999999999,-0.007465,0.8182655,0.007,-0.353345,1.1199655,0.0178,-0.380495,0.9003275,-0.3527,-0.239435,1.1294055,-0.31453,-0.221749
119,1.0064675,0.6771,-0.10914,0.8624685000000001,0.470367,-0.093589,0.7473785,0.70391,-0.13792,1.1473485,0.460204,-0.112042,1.2721784999999999,0.67263,-0.194121,0.7092485,0.95773,-0.205133,1.3086685,0.92753,-0.288225,0.9196995,0.00417,0.0072549999999999,1.0803004999999999,-0.00417,-0.0072549999999999,0.8198985,0.0154599999999999,-0.354255,1.1199885,0.0274999999999999,-0.3798149999999999,0.9009145000000001,-0.34431,-0.240255,1.1323185,-0.30656,-0.2234499999999999
120,1.0069215,0.67575,-0.11012,0.8629295000000001,0.469001,-0.094335,0.7473894999999999,0.70126,-0.139779,1.1481895,0.459406,-0.1128349999999999,1.2726095,0.67319,-0.1960239999999999,0.7096295,0.95434,-0.207675,1.3102195,0.92338,-0.291135,0.9194785,0.0042099999999999,0.0070449999999999,1.0805215,-0.0042099999999999,-0.0070449999999999,0.8215494999999999,0.0247499999999999,-0.354825,1.1198995,0.03813,-0.378555,0.9024785,-0.33198,-0.233405,1.1356595,-0.29791,-0.226885
121,1.007339,0.673535,-0.1109179999999999,0.863396,0.468131,-0.0949769999999999,0.747276,0.6988449999999999,-0.1413299999999999,1.149026,0.45937,-0.1135259999999999,1.2735059999999998,0.672885,-0.1980589999999999,0.7098960000000001,0.951565,-0.2103709999999999,1.311676,0.919605,-0.293965,0.919246,0.004215,0.006855,1.080754,-0.004215,-0.0068549999999999,0.823306,0.034355,-0.3550149999999999,1.119786,0.0484149999999999,-0.377115,0.901436,-0.319795,-0.227175,1.138676,-0.290245,-0.229345
122,1.0075285,0.67162,-0.111246,0.8634955,0.468049,-0.095294,0.7470555,0.69701,-0.142465,1.1497055,0.459104,-0.113536,1.2740855,0.673,-0.19989,0.7099854999999999,0.94927,-0.212803,1.3127754999999999,0.91994,-0.29692,0.9191995,0.0042599999999999,0.0066199999999999,1.0808005,-0.0042599999999999,-0.00662,0.8250554999999999,0.0453699999999999,-0.35436,1.1193855,0.0593699999999999,-0.37495,0.8993545000000001,-0.30673,-0.220545,1.1411155,-0.28195,-0.23219
123,1.0075634999999998,0.6691199999999999,-0.111398,0.8635275,0.4686079999999999,-0.0954069999999999,0.7467775,0.69512,-0.14338,1.1502675,0.4592159999999999,-0.113311,1.2754375,0.67263,-0.2019079999999999,0.7099675,0.94696,-0.214857,1.3135775,0.91957,-0.299585,0.9192175,0.0043499999999999,0.006475,1.0807825,-0.00435,-0.0064749999999999,0.8266975,0.0564999999999999,-0.353345,1.1189375,0.0700099999999999,-0.372575,0.8972315,-0.2938200000000001,-0.213743,1.1434975,-0.2737200000000001,-0.2337449999999999
124,1.0073585,0.667545,-0.11139,0.8634014999999999,0.469395,-0.095266,0.7464014999999999,0.6924049999999999,-0.144021,1.1505615,0.45942,-0.112699,1.2765315,0.673455,-0.203537,0.7097915,0.944245,-0.21666,1.3141715,0.918305,-0.30192,0.9194215,0.004385,0.0064299999999999,1.0805785,-0.0043849999999999,-0.00643,0.8281015,0.066945,-0.35189,1.1184315,0.0795549999999999,-0.37014,0.8963125,-0.283425,-0.211059,1.1461215,-0.265505,-0.23545
125,1.0070214999999998,0.6663899999999999,-0.111107,0.8630885,0.4705229999999999,-0.09507,0.7461385,0.6896199999999999,-0.144354,1.1508284999999998,0.4602739999999999,-0.111997,1.2775185,0.6772,-0.205376,0.7096385000000001,0.94296,-0.218107,1.3146285,0.91932,-0.30422,0.9195985,0.0043499999999999,0.0064099999999999,1.0804015,-0.00435,-0.0064099999999999,0.8296685,0.0786799999999999,-0.34985,1.1180485,0.0897099999999999,-0.36732,0.8954125,-0.27195,-0.208316,1.1488085,-0.25776,-0.23713
126,1.0065745,0.6647850000000001,-0.1105829999999999,0.8625765,0.4709730000000001,-0.094623,0.7458465000000001,0.6857850000000001,-0.144393,1.1509565,0.460884,-0.1112549999999999,1.2783965,0.6804250000000001,-0.207116,0.7093265,0.942335,-0.219526,1.3147864999999999,0.919975,-0.306025,0.9196195,0.004145,0.006335,1.0803805,-0.0041449999999999,-0.0063349999999999,0.8310465,0.0898750000000001,-0.347555,1.1179165,0.097965,-0.365635,0.8951255,-0.2610649999999999,-0.205566,1.1495765,-0.2510449999999999,-0.240985
127,1.006083,0.664085,-0.110096,0.8619749999999999,0.4721309999999999,-0.093978,0.745525,0.685325,-0.144421,1.150975,0.4613319999999999,-0.110411,1.279195,0.683675,-0.208622,0.7089449999999999,0.942765,-0.220774,1.314745,0.921315,-0.30731,0.919616,0.0040749999999999,0.0062299999999999,1.080384,-0.004075,-0.00623,0.832375,0.1019649999999999,-0.3447,1.117945,0.1067949999999999,-0.36395,0.8933679999999999,-0.2476249999999999,-0.198563,1.150885,-0.242745,-0.24462
128,1.0055755,0.663395,-0.1093899999999999,0.8613435,0.4730669999999999,-0.093216,0.7453035,0.6875749999999999,-0.144307,1.1509335,0.4623009999999999,-0.109509,1.2787035,0.6866049999999999,-0.208645,0.7086235000000001,0.943395,-0.22157,1.3146434999999999,0.926385,-0.30784,0.9196735,0.0039249999999999,0.00608,1.0803265,-0.003925,-0.00608,0.8335835,0.1140649999999999,-0.3415399999999999,1.1179035,0.1158049999999999,-0.36244,0.8905735,-0.234435,-0.197525,1.1520834999999998,-0.234735,-0.2474299999999999
129,1.004987,0.66282,-0.1085469999999999,0.860627,0.4741299999999999,-0.0923819999999999,0.7450070000000001,0.68902,-0.144009,1.150807,0.4626409999999999,-0.1084619999999999,1.278847,0.68834,-0.209229,0.708137,0.94357,-0.2219249999999999,1.3145470000000001,0.93037,-0.3082549999999999,0.91988,0.0038499999999999,0.005995,1.08012,-0.00385,-0.0059949999999999,0.834647,0.1252499999999999,-0.338255,1.1176869999999999,0.1212499999999999,-0.361185,0.8897170000000001,-0.2246100000000001,-0.1968329999999999,1.153017,-0.22732,-0.2494849999999999
130,1.004463,0.663045,-0.107344,0.860031,0.474968,-0.09139,0.744471,0.6904250000000001,-0.143651,1.150521,0.463314,-0.107304,1.278631,0.691165,-0.2087439999999999,0.7073410000000001,0.944455,-0.221863,1.3143310000000001,0.933985,-0.30777,0.920035,0.003705,0.006,1.079965,-0.0037049999999999,-0.006,0.8358909999999999,0.136615,-0.33426,1.116931,0.126515,-0.36063,0.889011,-0.2148149999999999,-0.196284,1.152411,-0.2201149999999999,-0.25209
131,1.004123,0.660795,-0.105991,0.8596560000000001,0.4735779999999999,-0.090425,0.7442960000000001,0.688815,-0.143016,1.150146,0.462134,-0.10637,1.278456,0.6912149999999999,-0.208109,0.706536,0.942765,-0.221682,1.313846,0.934835,-0.307085,0.9197960000000001,0.0036149999999999,0.006135,1.080204,-0.003615,-0.006135,0.8359960000000001,0.1439949999999999,-0.333665,1.116176,0.1276449999999999,-0.359915,0.8881360000000001,-0.208775,-0.195559,1.151806,-0.216845,-0.254745
132,1.0034425,0.660495,-0.104492,0.8591435000000001,0.473703,-0.089308,0.7433835,0.6886350000000001,-0.14233,1.1495135,0.461997,-0.10533,1.2780235,0.691965,-0.208131,0.7050935,0.943765,-0.221323,1.3132135,0.937235,-0.30688,0.9197795,0.003435,0.0063199999999999,1.0802205,-0.0034349999999999,-0.00632,0.8354435,0.153085,-0.33286,1.1150635,0.129995,-0.35904,0.8876435,-0.2022549999999999,-0.194334,1.1506835,-0.212225,-0.25834
133,1.003434,0.660537,-0.1014289999999999,0.859217,0.474236,-0.086618,0.743077,0.689325,-0.140031,1.149467,0.462055,-0.102718,1.278167,0.692235,-0.206716,0.704187,0.945335,-0.219393,1.313197,0.939335,-0.304645,0.920127,0.003315,0.0065749999999999,1.079873,-0.0033149999999999,-0.0065749999999999,0.835477,0.159315,-0.330465,1.102117,0.117885,-0.373175,0.887077,-0.196025,-0.1911749999999999,1.1328669999999998,-0.210615,-0.279485
134,1.0035655,0.6608499999999999,-0.0967819999999999,0.8593195000000001,0.474821,-0.0822799999999999,0.7428095,0.6904,-0.135924,1.1495295,0.46228,-0.0984849999999999,1.2785594999999998,0.69257,-0.2039619999999999,0.7032595000000001,0.94643,-0.215745,1.3132195,0.94128,-0.300925,0.9205675,0.0030999999999999,0.0064649999999999,1.0794325,-0.0030999999999999,-0.0064649999999999,0.8359695,0.16757,-0.323125,1.0892835,0.09869,-0.387225,0.8871095,-0.19069,-0.187089,1.1159495,-0.20528,-0.299385
135,1.0041039999999999,0.661918,-0.0909919999999999,0.859851,0.475975,-0.0767149999999999,0.742971,0.6925950000000001,-0.130552,1.149981,0.462895,-0.093011,1.278571,0.693535,-0.198571,0.7027410000000001,0.947995,-0.210787,1.3133309999999998,0.943565,-0.2955149999999999,0.920806,0.002645,0.006715,1.079194,-0.002645,-0.0067149999999999,0.836251,0.175545,-0.315305,1.076526,0.076135,-0.400265,0.887211,-0.1872349999999999,-0.182161,1.098591,-0.2056449999999999,-0.319305
136,1.0046845,0.663069,-0.0841465,0.8605065000000001,0.477075,-0.0699275,0.7431464999999999,0.694445,-0.1241285,1.1505365,0.464535,-0.0863705,1.2782065,0.692005,-0.1922595,0.7022765,0.949735,-0.2045865,1.3135565,0.943915,-0.2896395,0.9211255,0.0025049999999999,0.0068404999999999,1.0788745,-0.0025049999999999,-0.0068405,0.8357765,0.182765,-0.3087295,1.0637885,0.0519549999999999,-0.4125295,0.8866965,-0.184825,-0.1801685,1.0815715,-0.215955,-0.3385395
137,1.0054965,0.664942,-0.0773325,0.8615635,0.4791250000000001,-0.0632365,0.7435635,0.696945,-0.1177085,1.1513235,0.466405,-0.0797595,1.2781535,0.691095,-0.1856855,0.7020135000000001,0.952085,-0.1983475,1.3141034999999999,0.944975,-0.2838475,0.9217415,0.002595,0.0068425,1.0782585,-0.0025949999999999,-0.0068425,0.8351435,0.189715,-0.3030075,1.0513284999999999,0.027425,-0.4253174999999999,0.8831635,-0.1833749999999999,-0.1778905,1.0644925,-0.2324949999999999,-0.3577774999999999
138,1.006306,0.667566,-0.0705214999999999,0.86265,0.48183,-0.0565505,0.74398,0.69989,-0.1112295,1.1521,0.46923,-0.0731854999999999,1.27807,0.6906760000000001,-0.1791364999999999,0.7016800000000001,0.95521,-0.1921745,1.31467,0.94647,-0.2780344999999999,0.922346,0.00269,0.0067984999999999,1.077654,-0.0026899999999999,-0.0067984999999999,0.8344,0.19666,-0.2975545,1.038995,0.0068799999999999,-0.4381445,0.87965,-0.1844699999999999,-0.1756665,1.0430549999999998,-0.2276899999999999,-0.4117944999999999
139,1.007196,0.669957,-0.0637894999999999,0.86406,0.484415,-0.0498854999999999,0.74458,0.702535,-0.1045845,1.15336,0.471735,-0.0665345,1.2785199999999999,0.6901889999999999,-0.1729834999999999,0.70154,0.958625,-0.1858234999999999,1.31559,0.948225,-0.2722335,0.922973,0.0027449999999999,0.0066955,1.077027,-0.0027449999999999,-0.0066954999999999,0.83357,0.202255,-0.2926935,1.026756,-0.0148049999999999,-0.4512135,0.87601,-0.186855,-0.1737675,1.0221239999999998,-0.223595,-0.4657035
140,1.0081095,0.6718310000000001,-0.0570735,0.8653945000000001,0.486195,-0.0432905,0.7452145,0.704455,-0.0979185,1.1546345,0.473385,-0.0598555,1.2792645,0.689644,-0.1670154999999999,0.7014745,0.961285,-0.1793485,1.3166645,0.949685,-0.2664085,0.9236645,0.002905,0.0065894999999999,1.0763355,-0.0029049999999999,-0.0065894999999999,0.8325945,0.206675,-0.2880685,1.0146534999999999,-0.0373049999999999,-0.4642385,0.8722745000000001,-0.190125,-0.1716835,1.0013645,-0.2162849999999999,-0.5196985000000001
141,1.0092465,0.6745669999999999,-0.050538,0.8669625,0.48854,-0.036812,0.7460925,0.70715,-0.091349,1.1560925,0.4761899999999999,-0.05332,1.2803425,0.690847,-0.16123,0.7018125,0.96437,-0.172865,1.3179325,0.952,-0.260855,0.9242555000000001,0.0031599999999999,0.0064159999999999,1.0757444999999999,-0.00316,-0.006416,0.8317125000000001,0.2111499999999999,-0.2840749999999999,1.0015525,-0.0589399999999999,-0.477165,0.8733425,-0.19097,-0.16514,0.9840535,-0.23736,-0.537925
142,1.010631,0.6769290000000001,-0.0456655,0.868837,0.4904450000000001,-0.0320024999999999,0.747217,0.7091350000000001,-0.0863375,1.157777,0.478245,-0.0484675,1.281327,0.691914,-0.1567795,0.7024970000000001,0.966475,-0.1679835,1.319497,0.953955,-0.2571934999999999,0.924913,0.003385,0.0060545,1.075087,-0.0033849999999999,-0.0060544999999999,0.830987,0.214915,-0.2823434999999999,1.001777,-0.0669249999999999,-0.4747835,0.8753070000000001,-0.192125,-0.1552055,0.9828720000000001,-0.2594949999999999,-0.5382835
143,1.011844,0.67886,-0.0426035,0.870546,0.4919,-0.0290045,0.748176,0.7108099999999999,-0.0830895,1.159256,0.47974,-0.0454275,1.282686,0.692286,-0.1535115,0.703056,0.96795,-0.1648905,1.320816,0.95518,-0.2554205,0.925651,0.0037699999999999,0.0060525,1.074349,-0.00377,-0.0060525,0.830546,0.2174999999999999,-0.2826905,1.002201,-0.06976,-0.4732305,0.877156,-0.19413,-0.1472495,0.982038,-0.28244,-0.5400805
144,1.0126995,0.680445,-0.0407629999999999,0.8716845,0.4930649999999999,-0.0274109999999999,0.7487845,0.7121949999999999,-0.0811139999999999,1.1602645,0.4807149999999999,-0.043668,1.2830645,0.6927989999999999,-0.152022,0.7032745,0.969045,-0.163063,1.3216345,0.956235,-0.254723,0.9261334999999999,0.0045649999999999,0.005767,1.0738665,-0.004565,-0.005767,0.8305045,0.2194749999999999,-0.283873,1.0023115,-0.0696350000000001,-0.473083,0.8789845000000001,-0.193775,-0.14051,0.9814905,-0.306045,-0.539133
145,1.0130555,0.68137,-0.0401134999999999,0.8723055,0.49371,-0.0269174999999999,0.7489055,0.7131,-0.0802374999999999,1.1607655000000001,0.4810999999999999,-0.0430225,1.2839955,0.694987,-0.1522975,0.7031155,0.96956,-0.1624145,1.3221355,0.9584,-0.2548845,0.9266495,0.0049099999999999,0.0054844999999999,1.0733505,-0.0049099999999999,-0.0054844999999999,0.8306555,0.22068,-0.2841145,1.0024395,-0.0688299999999999,-0.4739545,0.8805455000000001,-0.19381,-0.1341024999999999,0.9817585000000001,-0.30949,-0.5388845
146,1.0130754999999998,0.6817650000000001,-0.040175,0.8725385,0.493965,-0.02717,0.7486585,0.713515,-0.080044,1.1609185,0.481125,-0.043058,1.2845185,0.6966650000000001,-0.1532339999999999,0.7026485,0.969615,-0.1624499999999999,1.3222785,0.960105,-0.2557,0.9269385,0.005085,0.0054479999999999,1.0730615000000001,-0.005085,-0.005448,0.8305885,0.221075,-0.28392,1.0016085,-0.0685049999999999,-0.47539,0.8830585,-0.1939149999999999,-0.124311,0.9806785,-0.3196949999999999,-0.53913
147,1.0132665,0.6818500000000001,-0.040123,0.8728585,0.4939950000000001,-0.027267,0.7485284999999999,0.713535,-0.079731,1.1611785000000001,0.480775,-0.042976,1.2842385,0.6966720000000001,-0.153072,0.7023585,0.969445,-0.162456,1.3222985,0.960125,-0.256346,0.9270275,0.005105,0.005339,1.0729725,-0.0051049999999999,-0.005339,0.8306385000000001,0.221645,-0.283596,1.0013465,-0.0676149999999999,-0.476066,0.8830985000000001,-0.1939149999999999,-0.123923,0.9853905000000001,-0.3401649999999999,-0.5039859999999999
148,1.0134604999999999,0.6821740000000001,-0.0401355,0.8728785,0.4939950000000001,-0.0274255,0.7483485000000001,0.713535,-0.0797274999999999,1.1612185,0.4805250000000001,-0.0430005,1.2838985,0.6966720000000001,-0.1530465,0.7020785,0.969405,-0.1625705,1.3223985,0.960125,-0.2570604999999999,0.9271024999999999,0.005105,0.0052574999999999,1.0728975,-0.0051049999999999,-0.0052574999999999,0.8310285,0.222495,-0.2833005,1.0014744999999998,-0.0667649999999999,-0.4763305,0.8844885,-0.1914249999999999,-0.1241225,0.9900615,-0.3617549999999999,-0.4687504999999999
149,1.0135905,0.6819320000000001,-0.0398505,0.8727715,0.49335,-0.0272864999999999,0.7480815000000001,0.7131400000000001,-0.0794574999999999,1.1611715,0.4798800000000001,-0.0427594999999999,1.2837715,0.6960270000000001,-0.1527945,0.7017715000000001,0.96876,-0.1624585,1.3224515000000001,0.95948,-0.2575685,0.9270965,0.00517,0.0051635,1.0729035,-0.0051699999999998,-0.0051634999999999,0.8311715,0.22158,-0.2835685,1.0010405,-0.06677,-0.4760385,0.8905715000000001,-0.1920699999999999,-0.1144615,0.9933855000000001,-0.3909799999999999,-0.4330085
150,1.0137795,0.6824300000000001,-0.039806,0.8726655,0.49335,-0.02735,0.7478755,0.7138,-0.079387,1.1611655,0.48002,-0.042715,1.2845255,0.6973720000000001,-0.153694,0.7015555,0.96876,-0.162494,1.3228555,0.96082,-0.258274,0.9270315000000001,0.00517,0.005129,1.0729685,-0.0051699999999998,-0.005129,0.8310255,0.22068,-0.283944,1.0009985,-0.06677,-0.475994,0.8967255000000001,-0.1920699999999999,-0.105005,0.9932015,-0.3902899999999999,-0.432944
151,1.0140524999999998,0.683353,-0.0399814999999999,0.8726765000000001,0.493625,-0.0274454999999999,0.7473965,0.7153849999999999,-0.0794835,1.1612665,0.4797049999999999,-0.0427815,1.2849565,0.6983189999999999,-0.1541615,0.7014564999999999,0.968425,-0.1625865,1.3231365,0.961635,-0.2588065,0.9269965,0.0053549999999999,0.0051334999999999,1.0730035,-0.0053549999999999,-0.0051334999999999,0.8312865,0.2197549999999999,-0.2844365,1.0012145,-0.067105,-0.4760165,0.9029225,-0.1903949999999999,-0.0955655,0.9940915,-0.3683850000000001,-0.4330565
152,1.0143925,0.6840430000000001,-0.04019,0.8727825,0.493705,-0.027641,0.7468925,0.7168150000000001,-0.079817,1.1614425,0.4788650000000001,-0.042938,1.2853225,0.700007,-0.1553749999999999,0.7014125,0.967615,-0.1629229999999999,1.3232625,0.961555,-0.259553,0.9269695,0.005485,0.005137,1.0730305,-0.0054849999999999,-0.005137,0.8334325,0.217545,-0.285583,1.0009345,-0.0667949999999999,-0.475803,0.9092385000000001,-0.1888449999999999,-0.085848,0.9936775000000001,-0.3658949999999999,-0.432973
153,1.0146495,0.684592,-0.040463,0.8728765,0.4935349999999999,-0.0279719999999999,0.7463265,0.718235,-0.080377,1.1616765,0.477865,-0.043204,1.2858064999999999,0.701506,-0.156782,0.7013865,0.966495,-0.163435,1.3234465,0.961165,-0.260625,0.9269455,0.005595,0.005058,1.0730545,-0.005595,-0.005058,0.8359265,0.2145049999999999,-0.285985,1.0005365,-0.066135,-0.475375,0.9094895000000001,-0.189895,-0.085962,0.9925085,-0.386125,-0.432245
154,1.014702,0.683809,-0.0411355,0.872866,0.4924949999999999,-0.0287745,0.745646,0.718515,-0.0815275,1.162036,0.4779949999999999,-0.0442765,1.286216,0.7019329999999999,-0.1587875,0.701236,0.964285,-0.1647175,1.323546,0.959185,-0.2623275,0.926885,0.0054549999999999,0.0050774999999999,1.073115,-0.0054549999999999,-0.0050775,0.837796,0.2096549999999999,-0.2888374999999999,1.00053,-0.065525,-0.4737475,0.909559,-0.192635,-0.0865045,0.9925710000000001,-0.389125,-0.4301775
155,1.0147725,0.682999,-0.0437715,0.8728184999999999,0.490935,-0.0313905,0.7449085000000001,0.717975,-0.0846875,1.1624085,0.477615,-0.0472294999999999,1.2862685,0.7023550000000001,-0.1627895,0.7010385,0.961625,-0.1680765,1.3234185,0.956725,-0.2661465,0.9266865,0.005255,0.0053995,1.0733135,-0.005255,-0.0053995,0.8397785,0.203875,-0.2935164999999999,1.0004625,-0.0665449999999999,-0.4743165,0.9102665,-0.1960849999999999,-0.0879554999999999,0.9927565000000002,-0.393355,-0.4282665
156,1.0149745,0.681856,-0.0474315,0.8728355,0.489195,-0.0349895,0.7443455,0.7173250000000001,-0.0888875,1.1631055,0.4771250000000001,-0.0513445,1.2860355,0.702335,-0.1677565,0.7011155,0.958755,-0.1726765,1.3234355,0.953925,-0.2710765,0.9261775,0.0052350000000001,0.0049965,1.0738225,-0.0052349999999999,-0.0049965,0.8421655,0.196855,-0.2980565,1.0013364999999999,-0.0666649999999999,-0.4749465,0.9111735,-0.1994849999999999,-0.0907835,0.9938045,-0.3932549999999999,-0.4275065
157,1.0141745,0.680906,-0.0526004999999999,0.8718395,0.486725,-0.0398805,0.7428395,0.716105,-0.0945415,1.1624995,0.476245,-0.0566975,1.2851295,0.702175,-0.1741875,0.7001995,0.955495,-0.1787774999999999,1.3224595,0.950465,-0.2776274999999999,0.9261615,0.005525,0.0050265,1.0738385,-0.005525,-0.0050265,0.8437395,0.187565,-0.3028775,1.0013474999999998,-0.067655,-0.4765875,0.9111095,-0.203685,-0.0946545,0.9939905,-0.394015,-0.4277074999999999
158,1.013248,0.6798550000000001,-0.0584299999999999,0.87082,0.4849850000000001,-0.045311,0.74125,0.7148650000000001,-0.100905,1.16163,0.4767450000000001,-0.0629199999999999,1.28416,0.7012850000000002,-0.181004,0.69926,0.951445,-0.185364,1.32134,0.946325,-0.285034,0.926091,0.005195,0.005131,1.073909,-0.0051949999999999,-0.0051309999999999,0.8451500000000001,0.1771350000000001,-0.307914,1.013257,-0.0462049999999999,-0.465514,0.910458,-0.2063449999999999,-0.099742,1.0001719999999998,-0.3784049999999999,-0.4190439999999999
159,1.0120835,0.6789689999999999,-0.0652345,0.8694435,0.483221,-0.0512555,0.7394935,0.713075,-0.1080155,1.1606535,0.4763849999999999,-0.0697045,1.2828135,0.699705,-0.1881555,0.6982535000000001,0.948935,-0.1931955,1.3199135,0.940655,-0.2932455,0.9259175,0.004815,0.0054084999999999,1.0740825,-0.004815,-0.0054084999999999,0.8461635000000001,0.164655,-0.3136955,1.0256435,-0.026405,-0.4525755,0.9094355000000001,-0.210775,-0.1069095,1.0129065,-0.362995,-0.4086255
160,1.0100565,0.676735,-0.0743284999999999,0.8673035,0.479535,-0.0593775,0.7373635000000001,0.708035,-0.1170025,1.1588835,0.474315,-0.0787235,1.2808735,0.698095,-0.1975905,0.6965135,0.946075,-0.2034105,1.3175135,0.932645,-0.3035705,0.9252555000000001,0.0038749999999999,0.0052315,1.0747445,-0.0038749999999999,-0.0052315,0.8458435,0.149105,-0.3220105,1.0376925,-0.0092149999999999,-0.4417005,0.9072645,-0.217295,-0.1173235,1.0264844999999998,-0.3487049999999999,-0.3937805
161,1.0077444999999998,0.6762600000000001,-0.083167,0.8648705,0.476849,-0.06716,0.7351805,0.7071500000000001,-0.125864,1.1568705,0.472942,-0.087479,1.2786305,0.6944600000000001,-0.204877,0.6946605,0.94352,-0.212687,1.3149605,0.93028,-0.312617,0.9244505000000001,0.00335,0.0052229999999999,1.0755495,-0.0033499999999999,-0.005223,0.8439105,0.1347,-0.330107,1.0494785,0.0062499999999999,-0.431307,0.9051525,-0.22702,-0.130242,1.0397364999999998,-0.33553,-0.378297
162,1.0053795,0.67456,-0.091948,0.8624195,0.474039,-0.074738,0.7332695,0.7057,-0.134126,1.1545295,0.47097,-0.096096,1.2758495,0.6891,-0.21246,0.6928795,0.94072,-0.22178,1.3123995,0.92614,-0.32128,0.9236255,0.00308,0.0052299999999999,1.0763745,-0.0030799999999999,-0.0052299999999999,0.8420395,0.11899,-0.33803,1.0613395,0.01936,-0.42091,0.9032305,-0.2384399999999999,-0.14411,1.0535125,-0.32228,-0.35744
163,1.0030495,0.677,-0.100234,0.8600875,0.471758,-0.081986,0.7314775,0.70445,-0.141582,1.1522275,0.468686,-0.103967,1.2729575,0.68716,-0.21949,0.6913375000000002,0.9402,-0.23014,1.3098874999999999,0.92264,-0.32915,0.9228425000000001,0.00285,0.0051099999999999,1.0771575,-0.00285,-0.00511,0.8402275,0.10244,-0.34569,1.0731655,0.0309,-0.41134,0.9015495,-0.25175,-0.158005,1.0672135,-0.3111199999999999,-0.33625
164,1.0009934999999999,0.6772,-0.106415,0.8580555,0.470912,-0.08718,0.7300255,0.70331,-0.146664,1.1501655,0.467281,-0.109516,1.2699655,0.68332,-0.224075,0.6902455000000001,0.93909,-0.2359149999999999,1.3074855,0.91732,-0.334155,0.9220565000000001,0.00272,0.0048249999999999,1.0779435,-0.0027199999999999,-0.0048249999999999,0.8382655,0.0834,-0.349005,1.0852055,0.03845,-0.400215,0.8987735,-0.2642799999999999,-0.168723,1.0800775,-0.30364,-0.314355
165,0.999316,0.6779949999999999,-0.110854,0.856313,0.4704509999999999,-0.091039,0.728803,0.702135,-0.150214,1.148313,0.4662709999999999,-0.1134879999999999,1.267233,0.6834749999999999,-0.22741,0.6894830000000001,0.941645,-0.23961,1.305323,0.918245,-0.3375599999999999,0.921462,0.0023549999999999,0.0052699999999999,1.078538,-0.0023549999999999,-0.0052699999999999,0.8360230000000001,0.0641549999999999,-0.35092,1.097543,0.0444049999999999,-0.38863,0.8959280000000001,-0.278005,-0.1784379999999999,1.0933329999999999,-0.2974150000000001,-0.2912599999999999
166,0.9981355000000001,0.679245,-0.113185,0.8550825,0.470671,-0.0933399999999999,0.7280225,0.701925,-0.152178,1.1465025,0.465883,-0.1155969999999999,1.2653325,0.682565,-0.229095,0.6891425,0.943565,-0.2416249999999999,1.3035825,0.919035,-0.339395,0.9209855000000001,0.0016349999999999,0.0051449999999999,1.0790145,-0.0016349999999999,-0.0051449999999999,0.8340425000000001,0.045585,-0.352265,1.0969825,0.026005,-0.388355,0.8912405,-0.292685,-0.1864569999999999,1.0935125,-0.3109649999999999,-0.277555
167,0.9969025000000001,0.68045,-0.114448,0.8534345,0.469773,-0.0946379999999999,0.7270544999999999,0.70133,-0.153658,1.1446645,0.464067,-0.116782,1.2636245,0.68263,-0.229595,0.6884745,0.94532,-0.242965,1.3016145,0.91954,-0.340565,0.9206624999999999,0.00156,0.0048949999999999,1.0793375,-0.00156,-0.0048949999999999,0.8313145,0.0266099999999999,-0.352935,1.1094945,0.0302999999999999,-0.3743749999999999,0.8859675,-0.30798,-0.193448,1.1075445,-0.30662,-0.2531549999999999
168,0.995502,0.68192,-0.1148159999999999,0.851925,0.469473,-0.095024,0.7256549999999999,0.70277,-0.154129,1.142715,0.463422,-0.1170799999999999,1.261635,0.6829700000000001,-0.22887,0.687515,0.94504,-0.24339,1.299695,0.92102,-0.34055,0.920506,0.0015999999999999,0.0045199999999999,1.079494,-0.0015999999999999,-0.0045199999999999,0.828365,0.0081499999999999,-0.3531999999999999,1.109055,0.0124199999999999,-0.37427,0.881645,-0.3255099999999999,-0.193253,1.114475,-0.31926,-0.23692
169,0.995385,0.685055,-0.114799,0.851864,0.470939,-0.0950139999999999,0.725314,0.705425,-0.154084,1.142264,0.465265,-0.117019,1.2607140000000001,0.686315,-0.22748,0.688124,0.947025,-0.24234,1.299404,0.924005,-0.33938,0.920567,0.0021349999999999,0.00451,1.079433,-0.0021349999999999,-0.00451,0.826824,-0.0094049999999999,-0.35237,1.109624,-0.0043849999999999,-0.37367,0.878864,-0.3430649999999999,-0.191361,1.116274,-0.3337249999999999,-0.2284
170,0.9952855,0.6871400000000001,-0.1145979999999999,0.8517405,0.472204,-0.094999,0.7254705,0.70715,-0.153691,1.1418305,0.466573,-0.1166049999999999,1.2598605,0.68962,-0.225995,0.6887105,0.94808,-0.240945,1.2991605,0.92048,-0.337075,0.9206905,0.00228,0.0044949999999999,1.0793095,-0.00228,-0.0044949999999999,0.8252305,-0.0277399999999999,-0.3514049999999999,1.1097605,-0.0222699999999999,-0.372675,0.8736205,-0.35647,-0.1942559999999999,1.1172705,-0.34893,-0.2197259999999999
171,0.9952290000000001,0.69045,-0.11384,0.8515980000000001,0.473703,-0.094951,0.725758,0.70914,-0.15293,1.141678,0.4691369999999999,-0.115912,1.259048,0.6939,-0.223845,0.6894180000000001,0.95265,-0.238395,1.2988979999999999,0.9243,-0.3336449999999999,0.920745,0.0022599999999999,0.0044849999999999,1.079255,-0.00226,-0.004485,0.823908,-0.04609,-0.349905,1.109448,-0.0406199999999999,-0.371735,0.868878,-0.3727,-0.19597,1.116128,-0.36592,-0.216583
172,0.9959680000000001,0.69128,-0.110766,0.852137,0.475531,-0.093071,0.726677,0.71208,-0.150243,1.142387,0.471192,-0.113015,1.259357,0.6944699999999999,-0.219123,0.6908270000000001,0.95457,-0.23346,1.2997670000000001,0.92856,-0.32788,0.920965,0.0023299999999999,0.0045099999999999,1.079035,-0.0023299999999999,-0.00451,0.8238470000000001,-0.0622599999999999,-0.34797,1.110027,-0.05734,-0.36988,0.864827,-0.38494,-0.193517,1.115777,-0.38226,-0.213446
173,0.9966815,0.69419,-0.106561,0.8524285,0.47606,-0.090334,0.7277785,0.71488,-0.145918,1.1428384999999999,0.47333,-0.109508,1.2595584999999998,0.69781,-0.212769,0.6920185,0.95792,-0.227565,1.3005285,0.93313,-0.321355,0.9210315,0.0021999999999999,0.0043149999999999,1.0789685,-0.0022,-0.004315,0.8238885,-0.07839,-0.345805,1.1102985,-0.07349,-0.367745,0.8614085,-0.40015,-0.190905,1.1164785,-0.3991100000000001,-0.210219
174,0.9975485000000001,0.697955,-0.1024089999999999,0.8527965,0.475345,-0.0874149999999999,0.7291865,0.717475,-0.141179,1.1435465,0.475095,-0.1057309999999999,1.2606964999999999,0.6971350000000001,-0.20655,0.6933665000000001,0.957825,-0.2214749999999999,1.3015565,0.931185,-0.314015,0.9212705,0.002035,0.004145,1.0787295,-0.002035,-0.0041449999999999,0.8243564999999999,-0.093235,-0.342815,1.1107064999999998,-0.0886049999999999,-0.365255,0.8577265000000001,-0.4156849999999999,-0.189272,1.1162364999999999,-0.415855,-0.2079599999999999
175,0.9983955,0.7006399999999999,-0.097586,0.8531725,0.4781499999999999,-0.083319,0.7305725000000001,0.71905,-0.136178,1.1444325,0.4769799999999999,-0.101422,1.2623925,0.69755,-0.199975,0.6948425,0.95621,-0.214522,1.3027025,0.93321,-0.30576,0.9214935,0.0022699999999999,0.0040199999999999,1.0785065,-0.0022699999999999,-0.00402,0.8250225,-0.10843,-0.33824,1.1111625,-0.10408,-0.36148,0.8582125,-0.43543,-0.186063,1.1162025,-0.4327899999999999,-0.206525
176,0.9994845000000001,0.703875,-0.0922859999999999,0.8535755,0.480265,-0.07937,0.7317855,0.721595,-0.131116,1.1451955,0.478995,-0.09739,1.2637654999999999,0.697155,-0.1937809999999999,0.6960554999999999,0.961035,-0.207928,1.3037855,0.935315,-0.297905,0.9216415,0.0022849999999999,0.0038549999999999,1.0783585,-0.0022849999999999,-0.0038549999999999,0.8255755,-0.122365,-0.333485,1.1115655,-0.118055,-0.357035,0.8571455,-0.451305,-0.183427,1.1163955,-0.4490749999999999,-0.204568
177,1.0005845,0.7065250000000001,-0.086436,0.8540685,0.481735,-0.074503,0.7329384999999999,0.723385,-0.125225,1.1461585,0.481755,-0.092585,1.2646185,0.701635,-0.186836,0.6972285,0.963695,-0.2013,1.3050585,0.938495,-0.289335,0.9218495,0.002105,0.0037249999999999,1.0781505,-0.0021049999999999,-0.003725,0.8263085,-0.1376449999999999,-0.327085,1.1120185,-0.133075,-0.351215,0.8558285000000001,-0.4697449999999999,-0.180285,1.1164985,-0.468005,-0.202157
178,1.0016895,0.7091449999999999,-0.080737,0.8546625,0.4837049999999999,-0.069589,0.7340325000000001,0.726075,-0.119132,1.1469825,0.4835049999999999,-0.088146,1.2655025,0.702795,-0.179836,0.6981525,0.965715,-0.195159,1.3062525,0.942135,-0.281005,0.9221205,0.0020349999999999,0.0036449999999999,1.0778795,-0.002035,-0.003645,0.8270025,-0.151905,-0.320525,1.1122325,-0.146635,-0.345305,0.8547525000000001,-0.487385,-0.177027,1.1164725,-0.485815,-0.199165
179,1.0027195,0.711705,-0.0747309999999999,0.8551775,0.485605,-0.0642219999999999,0.7352375000000001,0.724845,-0.1119569999999999,1.1476575,0.485395,-0.0832989999999999,1.2663575,0.702305,-0.17167,0.6990775,0.967945,-0.188222,1.3074775,0.946415,-0.272117,0.9224815000000001,0.0021049999999999,0.003463,1.0775184999999998,-0.0021049999999999,-0.0034629999999999,0.8278375,-0.1661049999999999,-0.313177,1.1126274999999999,-0.160205,-0.338477,0.8536475,-0.506285,-0.1738179999999999,1.1169175,-0.504805,-0.197035
180,1.003703,0.714995,-0.0687015,0.855602,0.488065,-0.0587265,0.736532,0.724085,-0.1048275,1.148212,0.486145,-0.0784695,1.267382,0.702465,-0.1637455,0.700082,0.967715,-0.1814665,1.3086820000000001,0.947685,-0.2637465,0.922883,0.002135,0.0032534999999999,1.077117,-0.0021349999999999,-0.0032535,0.828732,-0.179695,-0.3056365,1.112962,-0.173215,-0.3313465,0.852482,-0.5250049999999999,-0.1704945,1.117302,-0.523295,-0.1941385
181,1.004726,0.7173700000000001,-0.062455,0.855862,0.48992,-0.052754,0.737732,0.7226600000000001,-0.097304,1.148732,0.48648,-0.073554,1.268042,0.70272,-0.155869,0.700842,0.96812,-0.17418,1.3099020000000001,0.94799,-0.254816,0.92325,0.0021899999999999,0.0031489999999999,1.07675,-0.0021899999999999,-0.003149,0.829852,-0.19312,-0.297316,1.113332,-0.18695,-0.323396,0.851182,-0.5434699999999999,-0.166308,1.117742,-0.54139,-0.191028
182,1.0055949999999998,0.720455,-0.056853,0.856151,0.492275,-0.047245,0.738801,0.725575,-0.090758,1.149291,0.485705,-0.068976,1.2680609999999999,0.703125,-0.149519,0.701431,0.968755,-0.167489,1.310981,0.951385,-0.24684,0.923574,0.0024349999999999,0.0031299999999999,1.076426,-0.002435,-0.00313,0.830661,-0.203935,-0.28956,1.1136409999999999,-0.198535,-0.31609,0.849791,-0.558395,-0.162759,1.117691,-0.556145,-0.186921
183,1.00621,0.7219,-0.0508424999999999,0.8561710000000001,0.4955199999999999,-0.0411664999999999,0.739231,0.7272299999999999,-0.0840305,1.149601,0.48651,-0.0638165,1.268451,0.70356,-0.1423035,0.701631,0.96887,-0.1604074999999999,1.311731,0.95408,-0.2389754999999999,0.92393,0.0026499999999999,0.0030845,1.07607,-0.00265,-0.0030844999999999,0.831231,-0.21576,-0.2806254999999999,1.113781,-0.21094,-0.3076055,0.848191,-0.57398,-0.1588454999999999,1.117621,-0.5713900000000001,-0.1820804999999999
184,1.0067935,0.7245550000000001,-0.044498,0.8559425,0.495495,-0.035762,0.7395125,0.729045,-0.077371,1.1498525,0.488625,-0.058732,1.2691325,0.706585,-0.135326,0.7016825,0.973035,-0.153075,1.3125825,0.954685,-0.230425,0.9244015,0.0023849999999999,0.0031739999999999,1.0755985,-0.0023849999999999,-0.003174,0.8316325,-0.2267049999999999,-0.271315,1.1139625,-0.2224349999999999,-0.298595,0.8468625,-0.5883649999999999,-0.154667,1.1174325,-0.5858949999999999,-0.178377
185,1.007332,0.726435,-0.038529,0.855908,0.497815,-0.030129,0.739938,0.7303550000000001,-0.070741,1.1501579999999998,0.489875,-0.053488,1.270428,0.709615,-0.127687,0.701918,0.970605,-0.145386,1.313708,0.955345,-0.22157,0.924994,0.0024549999999999,0.0030079999999999,1.075006,-0.0024549999999999,-0.003008,0.832178,-0.237445,-0.26149,1.114538,-0.234045,-0.28903,0.845598,-0.602615,-0.150313,1.117668,-0.6002149999999999,-0.175147
186,1.00769,0.728115,-0.033453,0.855756,0.500035,-0.025743,0.740186,0.730675,-0.064811,1.150346,0.490035,-0.048861,1.2716059999999998,0.707645,-0.120898,0.702046,0.972095,-0.138021,1.314636,0.955065,-0.213624,0.925535,0.002665,0.0027679999999999,1.074465,-0.002665,-0.002768,0.832866,-0.249855,-0.252834,1.114836,-0.2445049999999999,-0.280184,0.845356,-0.615135,-0.145916,1.117516,-0.613225,-0.170761
187,1.0080485,0.730919,-0.0283775,0.8558445,0.501639,-0.0214875,0.7404645000000001,0.731459,-0.0588395,1.1505545,0.490649,-0.0441815,1.2728645,0.705939,-0.1142295,0.7020145000000001,0.972589,-0.1308015,1.3157745,0.954739,-0.2055795,0.9260185,0.002784,0.0025834999999999,1.0739815,-0.0027839999999999,-0.0025835,0.8336245,-0.2628709999999999,-0.2438495,1.1152745,-0.255461,-0.2709495,0.8451045,-0.6282909999999999,-0.1416155,1.1173845,-0.626571,-0.1664765
188,1.00837,0.7328359999999999,-0.0237114999999999,0.855926,0.502376,-0.0176144999999999,0.740656,0.7334459999999999,-0.0538735,1.150796,0.490576,-0.0399464999999999,1.274076,0.709396,-0.1086195,0.702296,0.973776,-0.1243225,1.3170659999999998,0.954806,-0.1982345,0.926386,0.002809,0.0025535,1.073614,-0.0028089999999999,-0.0025535,0.8343560000000001,-0.2752639999999999,-0.2353745,1.115696,-0.2651139999999999,-0.2624045,0.844896,-0.639594,-0.1377054999999999,1.117296,-0.6384340000000001,-0.1625815
189,1.0093755,0.7338595,-0.0132649999999999,0.8566015,0.5027895,-0.0078119999999999,0.7414415000000001,0.7353095000000001,-0.042144,1.1525915,0.4926395,-0.030171,1.2748115,0.7098595,-0.09728,0.7031815,0.9764395,-0.110863,1.3195615,0.9483595,-0.183274,0.9269445000000001,0.0027164999999999,0.002451,1.0730555,-0.0027164999999999,-0.002451,0.8375414999999999,-0.2938505,-0.213194,1.1159915,-0.2808505,-0.241214,0.8459115,-0.6569905,-0.124253,1.1184215,-0.6562705,-0.150197
190,1.0102265,0.734741,-0.0032965,0.8573195,0.503231,0.0013084999999999,0.7423095,0.737951,-0.0309285,1.1543995,0.494941,-0.0208975,1.2757295,0.711331,-0.0869905,0.7039795,0.979901,-0.0980335,1.3218895,0.942921,-0.1691835,0.9275085,0.00257,0.0023434999999999,1.0724915,-0.0025699999999999,-0.0023434999999999,0.8407195000000001,-0.309469,-0.1919435,1.1159695,-0.2956089999999999,-0.2208635,0.8468795,-0.672679,-0.1113445,1.1193695,-0.671959,-0.1378255
191,1.011104,0.7347144999999999,0.0065539999999999,0.858033,0.5032545,0.0101129999999999,0.7431030000000001,0.7367645,-0.01972,1.156253,0.4974845,-0.011902,1.277473,0.7126045,-0.077029,0.704593,0.9822945,-0.085289,1.3242129999999999,0.9364745,-0.155199,0.928034,0.0023375,0.0022259999999999,1.071966,-0.0023374999999999,-0.0022259999999999,0.843993,-0.3249155,-0.170589,1.115783,-0.3102355,-0.200469,0.8480030000000001,-0.6881255000000001,-0.09823,1.120223,-0.6874055,-0.125987
192,1.012092,0.7351179999999999,0.0161515,0.858761,0.503738,0.0184255,0.743941,0.737108,-0.0089405,1.158181,0.498518,-0.0034075,1.279771,0.7140479999999999,-0.0680865,0.705171,0.985388,-0.0728365,1.326661,0.931228,-0.1419255,0.928354,0.002196,0.0020634999999999,1.071646,-0.002196,-0.0020634999999999,0.847321,-0.338482,-0.1501855,1.115551,-0.323712,-0.1808054999999999,0.849421,-0.7016920000000001,-0.0857695,1.1211209999999998,-0.700972,-0.1147515
193,1.013097,0.7342525,0.024954,0.8594809999999999,0.5039125,0.026551,0.7448509999999999,0.7377024999999999,0.001211,1.160041,0.4978425,0.005018,1.282121,0.7143725,-0.059703,0.705991,0.9867025,-0.0615109999999999,1.329111,0.9329625,-0.130471,0.9284870000000001,0.0021715,0.001718,1.071513,-0.0021715,-0.001718,0.8508410000000001,-0.3524275,-0.130711,1.115481,-0.3355375,-0.161831,0.8512109999999999,-0.7145675,-0.073932,1.122141,-0.7138775,-0.104009
194,1.0142095,0.733684,0.0333765,0.8603445000000001,0.502794,0.0341995,0.7460045,0.737784,0.0108905,1.1619645,0.497884,0.0129575,1.2844545,0.715264,-0.0521015,0.7069645,0.988894,-0.0506804999999999,1.3314845,0.935114,-0.1196194999999999,0.9285875,0.0019569999999999,0.0016195,1.0714125,-0.0019569999999999,-0.0016194999999999,0.8545745000000001,-0.365816,-0.1116925,1.1153945,-0.346246,-0.1432795,0.8531445,-0.726706,-0.0626205,1.1231945,-0.725966,-0.0935375
195,1.0154675,0.733792,0.041593,0.8613014999999999,0.501922,0.041395,0.7472615,0.7383919999999999,0.0201989999999999,1.1639815,0.497922,0.020651,1.2870215,0.716842,-0.044711,0.7082315,0.989682,-0.040415,1.3337415,0.937482,-0.109247,0.9286155,0.0017919999999999,0.0015729999999999,1.0713845,-0.001792,-0.001573,0.8584815,-0.378928,-0.092972,1.1153715,-0.356128,-0.125037,0.8553115,-0.738648,-0.051572,1.1244915,-0.737948,-0.083426
196,1.016675,0.732402,0.0494715,0.8622879999999999,0.5013920000000001,0.0485355,0.748408,0.738862,0.0290764999999999,1.165938,0.4978419999999999,0.0281014999999999,1.289388,0.718692,-0.0374575,0.709468,0.990052,-0.0306145,1.335698,0.940122,-0.0993035,0.928615,0.001638,0.0014715,1.071385,-0.001638,-0.0014715,0.862338,-0.392318,-0.0745385,1.115308,-0.366078,-0.1070735,0.857408,-0.750728,-0.0407354999999999,1.125678,-0.7495679999999999,-0.0728805
197,1.0177809999999998,0.7313805,0.0568635,0.863213,0.5012605,0.0551855,0.749553,0.7389705000000001,0.0374735,1.167833,0.4984004999999999,0.0352085,1.291633,0.7177705,-0.0304975,0.710623,0.9903605,-0.0213495,1.337303,0.9427005,-0.0899495,0.928564,0.0015055,0.0013185,1.071436,-0.0015055,-0.0013185,0.866283,-0.4060795,-0.0562665,1.115203,-0.3759095,-0.0894585,0.8596429999999999,-0.7629595,-0.0302004999999999,1.126833,-0.7610294999999999,-0.0627535
198,1.018009,0.7303755,0.057977,0.8633600000000001,0.5010555,0.055858,0.74978,0.7389055,0.0387879999999999,1.16793,0.4974355,0.036155,1.29297,0.7201655,-0.029697,0.71092,0.9885555,-0.019471,1.33746,0.9493155,-0.088563,0.928517,0.0014334999999999,0.00115,1.071483,-0.0014335,-0.00115,0.86713,-0.4101445,-0.051883,1.11541,-0.3789145,-0.08481,0.86011,-0.7677445,-0.029163,1.1269699999999998,-0.7643845,-0.061031
199,1.0181479999999998,0.729643,0.058935,0.863453,0.501133,0.0565009999999999,0.750033,0.738553,0.040026,1.167983,0.4966129999999999,0.037124,1.294023,0.722353,-0.028846,0.711283,0.986743,-0.017731,1.337553,0.955803,-0.087275,0.928422,0.0013989999999999,0.0009649999999999,1.071578,-0.0013989999999999,-0.000965,0.867873,-0.413897,-0.047546,1.115673,-0.381727,-0.080092,0.860493,-0.772107,-0.028099,1.126913,-0.767547,-0.059297
200,1.018284,0.729244,0.0598055,0.863538,0.5015339999999999,0.0570424999999999,0.7502880000000001,0.738204,0.0410165,1.1680679999999999,0.496244,0.0380045,1.294538,0.7235039999999999,-0.0279685,0.711688,0.985244,-0.0163415,1.3376679999999999,0.962044,-0.0861725,0.928374,0.0013659999999999,0.0008155,1.071626,-0.0013659999999999,-0.0008155,0.868588,-0.4170359999999999,-0.0433755,1.115978,-0.3842959999999999,-0.0755405,0.860798,-0.775966,-0.0271425,1.1268880000000001,-0.770406,-0.0576545
201,1.0185365,0.728739,0.0605875,0.8637485,0.501559,0.0576745,0.7507285,0.737649,0.0417985,1.1681885,0.4959089999999999,0.0387195,1.2957285,0.724729,-0.0273095,0.7122085,0.983469,-0.0154575,1.3377985,0.968169,-0.0851425,0.9281805,0.0013729999999999,0.0007164999999999,1.0718195,-0.0013729999999999,-0.0007165,0.8693585,-0.419861,-0.0392215,1.1164685,-0.386911,-0.0712075,0.8610785,-0.779211,-0.0263645,1.1272484999999999,-0.7730710000000001,-0.0562704999999999
202,1.0187765,0.7287235,0.0614265,0.8639605,0.5017135,0.0581695,0.7510105,0.7372835,0.0426325,1.1683105,0.4957835,0.0394835,1.2963305,0.7247835,-0.0265154999999999,0.7127005,0.9820335,-0.0145875,1.3378904999999999,0.9661335,-0.0839625,0.9279915,0.0013675,0.0006015,1.0720085,-0.0013675,-0.0006014999999999,0.8700405,-0.4222364999999999,-0.0352795,1.1169304999999998,-0.3891265,-0.0673844999999999,0.8613605,-0.7819564999999999,-0.0255304999999999,1.1275905,-0.7752065,-0.0549505
203,1.019014,0.7286064999999999,0.06225,0.864171,0.5017564999999999,0.058626,0.751271,0.7370065,0.043478,1.168411,0.4956264999999999,0.040237,1.296761,0.7247465,-0.0256939999999999,0.713121,0.9807865,-0.0136879999999999,1.337781,0.9644865,-0.082649,0.927793,0.0013955,0.000415,1.072207,-0.0013954999999999,-0.0004149999999999,0.870731,-0.4245835,-0.031303,1.117371,-0.3911735,-0.063763,0.861651,-0.7844535,-0.024642,1.127961,-0.7771535,-0.053462
204,1.019318,0.7281960000000001,0.0627389999999999,0.864464,0.5017360000000001,0.058938,0.751594,0.736376,0.044152,1.168534,0.495536,0.040869,1.297174,0.7248560000000001,-0.024911,0.713634,0.979806,-0.012783,1.337824,0.963006,-0.081509,0.927646,0.001354,0.0002609999999999,1.072354,-0.001354,-0.000261,0.871454,-0.4266939999999999,-0.027417,1.117934,-0.392514,-0.060439,0.861984,-0.786504,-0.023699,1.128204,-0.7784139999999999,-0.051956
205,1.0196305,0.7278384999999999,0.0633735,0.8647505,0.5016685,0.0593545,0.7519305000000001,0.7364585,0.0449674999999999,1.1686905,0.4948285,0.0417074999999999,1.2975505,0.7249985,-0.0238445,0.7141505,0.9791985,-0.0117985,1.3374905,0.9621985,-0.0800135,0.9275285,0.0013504999999999,0.0001004999999999,1.0724715,-0.0013504999999999,-0.0001004999999999,0.8721705,-0.4282114999999999,-0.0236745,1.1184805,-0.3935214999999999,-0.0573515,0.8622805,-0.7879315,-0.0227465,1.1283305,-0.7792815000000001,-0.0496375
206,1.019879,0.7275765,0.063935,0.864987,0.5016864999999999,0.059799,0.7521670000000001,0.7365665,0.045731,1.168807,0.4941765,0.0424859999999999,1.297887,0.7253165,-0.022708,0.7145870000000001,0.9790465,-0.010713,1.337157,0.9618465,-0.0784219999999999,0.927464,0.0013535,1.000000000001e-06,1.072536,-0.0013535,-1.000000000001e-06,0.872707,-0.4293935,-0.020273,1.118957,-0.3941735,-0.0543589999999999,0.862547,-0.7888335,-0.021741,1.128347,-0.7799335000000001,-0.0473549999999999
207,1.0200585,0.7275130000000001,0.0644725,0.8652035000000001,0.501673,0.0602685,0.7522635000000001,0.737533,0.0465305,1.1689135,0.493783,0.0431995,1.2982135,0.725573,-0.0215125,0.7149935000000001,0.979053,-0.0095625,1.3369135,0.961653,-0.0767554999999999,0.9273985,0.001362,-9.349999999999983e-05,1.0726015,-0.0013619999999999,9.349999999999983e-05,0.8730635,-0.430677,-0.0168085,1.1195135,-0.394567,-0.0513364999999999,0.8627935,-0.789357,-0.0206925,1.1281935,-0.7799269999999999,-0.0449735
208,1.0203015,0.727439,0.064978,0.8655275,0.501669,0.0607879999999999,0.7523575,0.738359,0.04736,1.1690775,0.493569,0.04393,1.2986375,0.7258789999999999,-0.019952,0.7155875,0.979339,-0.007956,1.3369275,0.961739,-0.074587,0.9273345,0.0013889999999999,-0.0001899999999999,1.0726655,-0.001389,0.0001899999999999,0.8732875,-0.432741,-0.013166,1.1202075,-0.395231,-0.047844,0.8630975,-0.790061,-0.019665,1.1280975,-0.779751,-0.04259
209,1.020532,0.7274364999999999,0.0655405,0.865845,0.5016565,0.0613615,0.752545,0.7391065,0.0482495,1.169285,0.4934465,0.0446625,1.299045,0.7262365,-0.0183925,0.7161850000000001,0.9795865,-0.0062704999999999,1.3370250000000001,0.9618865,-0.0724335,0.92727,0.0014404999999999,-0.0002834999999999,1.07273,-0.0014404999999999,0.0002835,0.8734649999999999,-0.4344135,-0.0096014999999999,1.120965,-0.3960035,-0.0438685,0.8634850000000001,-0.7906235,-0.0185725,1.128005,-0.7794535,-0.0402025
210,1.0206905,0.7274364999999999,0.0660125,0.8661375,0.5017064999999999,0.0618625,0.7527375000000001,0.7395865,0.0490865,1.1694675,0.4930065,0.0452705,1.2993875,0.7262365,-0.0169164999999999,0.7166975,0.9799865,-0.0045455,1.3371975,0.9620865,-0.0702805,0.9272065,0.0014404999999999,-0.0003345,1.0727935,-0.0014404999999999,0.0003345,0.8737175,-0.4361535,-0.0059425,1.1217875,-0.3968435,-0.0397885,0.8638775000000001,-0.7911735,-0.0173235,1.1278975,-0.7790935,-0.0371144999999999
211,1.020816,0.7274364999999999,0.0664125,0.8664200000000001,0.5017365,0.0623364999999999,0.75297,0.7397465,0.0499195,1.1696900000000001,0.4923565,0.0458225,1.29972,0.7262365,-0.0156024999999999,0.71715,0.9801865,-0.0028975,1.33742,0.9621865,-0.0683185,0.927159,0.0014404999999999,-0.0003315,1.072841,-0.0014404999999999,0.0003314999999999,0.8739,-0.4379535,-0.0026165,1.12259,-0.3976535,-0.0359105,0.86426,-0.7916935,-0.0161675,1.1278,-0.7787735,-0.0343745
212,1.020908,0.7273765,0.0667035,0.866672,0.5017665,0.0627215,0.7532220000000001,0.7397465,0.0507065,1.169922,0.4914665,0.0463065,1.300002,0.7262365,-0.0144665,0.717472,0.9804865,-0.0013475,1.337692,0.9623865,-0.0665895,0.927134,0.0014404999999999,-0.0002815,1.072866,-0.0014404999999999,0.0002815,0.874032,-0.4396735,0.0001994999999999,1.123352,-0.3987335,-0.0323995,0.864602,-0.7921235,-0.0150915,1.127722,-0.7787035,-0.0320395
213,1.0208755,0.7273489999999999,0.066851,0.8668075,0.501849,0.062971,0.7533775,0.739879,0.051436,1.1700475,0.490519,0.046624,1.3001574999999999,0.7260789999999999,-0.013516,0.7176775,0.980719,0.000112,1.3379775,0.962519,-0.065134,0.9270975,0.001471,-0.0002559999999999,1.0729025,-0.001471,0.0002559999999999,0.8741075,-0.441111,0.002898,1.1240575,-0.399611,-0.029143,0.8649475,-0.792401,-0.013816,1.1275975,-0.778551,-0.0299689999999999
214,1.020811,0.727361,0.066904,0.8668899999999999,0.502001,0.063151,0.75354,0.740151,0.052127,1.17015,0.4895009999999999,0.0468429999999999,1.30032,0.725981,-0.012801,0.71783,0.981191,0.001353,1.33818,0.962791,-0.064099,0.927066,0.0015,-0.000209,1.072934,-0.0015,0.000209,0.87419,-0.442169,0.005485,1.12474,-0.400319,-0.026086,0.86521,-0.792509,-0.012536,1.12761,-0.778069,-0.029061
215,1.0207365,0.7274965,0.0668914999999999,0.8669335,0.5022365,0.0632925,0.7536735,0.7402965,0.0527605,1.1702235,0.4885465,0.0470115,1.3001635,0.7255865,-0.0121254999999999,0.7179435000000001,0.9816665,0.0023344999999999,1.3383135,0.9631665,-0.0634434999999999,0.9270295,0.0015345,-0.0001744999999999,1.0729705,-0.0015345,0.0001745,0.8743035,-0.4429835,0.0080295,1.1254235,-0.4008035,-0.0232805,0.8654634999999999,-0.7923935,-0.0112755,1.1276335,-0.7773035,-0.0282494999999999
216,1.0205909999999998,0.727677,0.0666865,0.8669430000000001,0.502487,0.0633625,0.753673,0.740487,0.0532725,1.170243,0.4876169999999999,0.0471585,1.299963,0.724727,-0.0115545,0.718013,0.982267,0.0032715,1.338413,0.963767,-0.0629335,0.927011,0.001597,-0.0001264999999999,1.072989,-0.001597,0.0001265,0.874543,-0.443403,0.0102685,1.126063,-0.401133,-0.0210194999999999,0.865733,-0.792253,-0.0103195,1.127743,-0.776703,-0.0275834999999999
217,1.020427,0.72781,0.066408,0.8669160000000001,0.50259,0.063439,0.753836,0.73929,0.05352,1.170286,0.48727,0.04735,1.299796,0.72359,-0.01152,0.717946,0.98226,0.0036919999999999,1.338586,0.96356,-0.062944,0.927011,0.0016289999999999,-0.0001139999999999,1.072989,-0.0016289999999999,0.0001139999999999,0.874756,-0.44341,0.0121679999999999,1.126606,-0.40113,-0.0196,0.865966,-0.79217,-0.0094489999999999,1.127916,-0.7768700000000001,-0.027121
218,1.020252,0.727885,0.066115,0.866898,0.502645,0.063529,0.753878,0.738205,0.053742,1.170348,0.4868649999999999,0.047497,1.299378,0.722105,-0.011449,0.717828,0.982205,0.003965,1.3389280000000001,0.963205,-0.06297,0.927012,0.0016289999999999,-0.0001079999999999,1.072988,-0.0016289999999999,0.000108,0.874978,-0.443495,0.013851,1.127098,-0.401195,-0.018961,0.8661980000000001,-0.792245,-0.0086009999999999,1.127958,-0.7772549999999999,-0.0268049999999999
219,1.0200004999999999,0.7278635,0.065808,0.8668425,0.5027935,0.063768,0.7538925,0.7371535,0.053911,1.1704024999999998,0.4865135,0.047623,1.2992625,0.7211735,-0.011419,0.7175125,0.9820735,0.0040199999999999,1.3392925,0.9626735,-0.063003,0.9270045000000001,0.0016235,-0.000108,1.0729955,-0.0016235,0.000108,0.8751225,-0.4433965,0.015053,1.1274425,-0.4010265,-0.018965,0.8663625,-0.7920865,-0.008105,1.1279525,-0.7770865,-0.026738
