sb224sc-HT22-VT27/4dt907/src/ml-research/a12/datafiles/kinect_good_preprocessed_A9_mediapipe/A82_kinect_mirrored.csv
FrameNo,nose_3d_x,nose_3d_y,nose_3d_z,left_shoulder_3d_x,left_shoulder_3d_y,left_shoulder_3d_z,left_elbow_3d_x,left_elbow_3d_y,left_elbow_3d_z,right_shoulder_3d_x,right_shoulder_3d_y,right_shoulder_3d_z,right_elbow_3d_x,right_elbow_3d_y,right_elbow_3d_z,left_wrist_3d_x,left_wrist_3d_y,left_wrist_3d_z,right_wrist_3d_x,right_wrist_3d_y,right_wrist_3d_z,left_hip_3d_x,left_hip_3d_y,left_hip_3d_z,right_hip_3d_x,right_hip_3d_y,right_hip_3d_z,left_knee_3d_x,left_knee_3d_y,left_knee_3d_z,right_knee_3d_x,right_knee_3d_y,right_knee_3d_z,left_ankle_3d_x,left_ankle_3d_y,left_ankle_3d_z,right_ankle_3d_x,right_ankle_3d_y,right_ankle_3d_z
0,1.015761,0.819237,0.157558,0.8027569999999999,0.5860869999999999,0.128819,0.668797,0.7961769999999999,0.057968,1.182747,0.608707,0.125102,1.293467,0.817627,0.0408559999999999,0.642477,1.049377,-0.047332,1.292977,1.099077,-0.01958,0.91351,-0.003375,-0.001181,1.08649,0.003375,0.0011809999999999,0.878787,-0.465343,0.0312429999999999,1.118047,-0.413333,-0.009541,0.873177,-0.8381230000000001,0.0392029999999999,1.1070769999999999,-0.809883,0.0226509999999999
1,1.015588,0.818668,0.158967,0.802535,0.585078,0.129363,0.668515,0.795688,0.057775,1.182715,0.6084579999999999,0.125491,1.293645,0.817348,0.04087,0.6421050000000001,1.049908,-0.048116,1.293345,1.098808,-0.019809,0.9135010000000001,-0.003418,-0.001286,1.0864989999999999,0.003418,0.001286,0.878835,-0.465542,0.03132,1.118095,-0.413332,-0.009776,0.873225,-0.8379220000000001,0.040073,1.106565,-0.808992,0.022961
2,1.0154565,0.8187924999999999,0.1587325,0.8023875,0.5847024999999999,0.1292335,0.6681575,0.7951824999999999,0.0574355,1.1825475,0.6084925,0.1256355,1.2937075,0.8172124999999999,0.0407585,0.6417775,1.0508025,-0.0493495,1.2934875,1.0986025,-0.0202825,0.9134625,-0.0033185,-0.0012835,1.0865375,0.0033185,0.0012835,0.8789575000000001,-0.4642575,0.0311345,1.1181475,-0.4133875,-0.0099795,0.8733474999999999,-0.8372075000000001,0.0397045,1.1064775,-0.8086775,0.0225875
3,1.0152445,0.8185295,0.1589674999999999,0.8022685,0.5839595,0.1291365,0.6678685000000001,0.7945495,0.0571565,1.1823785,0.6082595000000001,0.1254635,1.2937285,0.8168595,0.0406395,0.6414985,1.0498695,-0.0507924999999999,1.2934585,1.0982695,-0.0209214999999999,0.9133905,-0.0034205,-0.0015214999999999,1.0866095,0.0034205,0.0015215,0.8788785,-0.4644905,0.0308855,1.1178785,-0.4116404999999999,-0.0106704999999999,0.8731485,-0.8373105,0.0393215,1.1060185,-0.8086205,0.0217065
4,1.0150565,0.818246,0.1585715,0.8021315,0.583546,0.1289085,0.6676415,0.794196,0.0566124999999999,1.1821015,0.608106,0.1256845,1.2937015,0.816556,0.0400895,0.6412315,1.049916,-0.0516764999999999,1.2933615,1.097916,-0.0216454999999999,0.9133415,-0.003533,-0.0019575,1.0866585,0.003533,0.0019575,0.8787815,-0.464554,0.0302875,1.1177115,-0.415334,-0.0100565,0.8728115000000001,-0.836564,0.0390975,1.1060215,-0.8087340000000001,0.0212135
5,1.0147295,0.817993,0.1587945,0.8016195,0.584053,0.1292765,0.6675195,0.793623,0.0559195,1.1820694999999999,0.607983,0.1253525,1.2936595,0.816173,0.0393515,0.6408195,1.050843,-0.0534945,1.2932995,1.097543,-0.0228734999999999,0.9133245000000001,-0.003282,-0.0024104999999999,1.0866755,0.003282,0.0024105,0.8784795,-0.471117,0.0305805,1.1177595,-0.415917,-0.0106454999999999,0.8727395,-0.836887,0.0369895,1.1060495,-0.810467,0.0202065
6,1.014489,0.817701,0.1582465,0.801442,0.5838409999999999,0.1288065,0.6673720000000001,0.7931509999999999,0.0554985,1.182052,0.607821,0.1250175,1.293502,0.816001,0.0388865,0.640542,1.050841,-0.0543225,1.293112,1.097341,-0.0236245,0.913372,-0.003371,-0.0023584999999999,1.086628,0.003371,0.0023584999999999,0.877682,-0.465389,0.0298465,1.117592,-0.416419,-0.0111954999999999,0.8733420000000001,-0.836599,0.0369435,1.106012,-0.811879,0.0193325
7,1.014503,0.8175125,0.1579195,0.802022,0.5848525,0.1290195,0.667512,0.7932724999999999,0.0549324999999999,1.182022,0.6072225,0.1250525,1.293332,0.8164524999999999,0.0389575,0.640722,1.0505025,-0.0537805,1.293102,1.0978025,-0.0234625,0.913489,-0.0034165,-0.0024955,1.086511,0.0034165,0.0024954999999999,0.878582,-0.4685475,0.0297454999999999,1.117932,-0.4143575,-0.0116945,0.872572,-0.8383675,0.0352235,1.1062319999999999,-0.8114875,0.0186934999999999
8,1.0143415,0.817342,0.15787,0.8019965,0.5847819999999999,0.129039,0.6674765,0.793132,0.054635,1.1819865,0.6070019999999999,0.125103,1.2933165,0.8164119999999999,0.038855,0.6406665,1.050562,-0.05436,1.2931065,1.097762,-0.023791,0.9135065,-0.003399,-0.0026149999999999,1.0864935,0.003399,0.0026149999999999,0.8785565,-0.469508,0.029557,1.1180165,-0.4147079999999999,-0.011928,0.8724265,-0.838588,0.034519,1.1060965,-0.811828,0.018119
9,1.014173,0.8171634999999999,0.1579735,0.801983,0.5848535,0.1291175,0.667443,0.7930035,0.0544575,1.181953,0.6067935,0.1251715,1.293263,0.8163635,0.0388485,0.640613,1.0505335,-0.0548395,1.293103,1.0977335,-0.0239515,0.913522,-0.0033775,-0.0026484999999999,1.086478,0.0033775,0.0026484999999999,0.878533,-0.4704265,0.0294065,1.118053,-0.4150565,-0.0121785,0.872263,-0.8388565,0.0337365,1.106013,-0.8122565,0.0175865
10,1.014019,0.8170175,0.1580555,0.8019680000000001,0.5850475,0.1292565,0.667508,0.7929075,0.0544474999999999,1.181928,0.6066175,0.1252995,1.2931979999999998,0.8163875,0.0389805,0.6405879999999999,1.0504375,-0.0549244999999999,1.293138,1.0978374999999998,-0.0238765,0.913546,-0.0033615,-0.0026035,1.086454,0.0033615,0.0026035,0.878468,-0.4713025,0.0291475,1.118058,-0.4153825,-0.0123725,0.872028,-0.8391825,0.0330945,1.105858,-0.8125125,0.0171545
11,1.013881,0.816935,0.158312,0.802007,0.585375,0.129551,0.667637,0.792925,0.0545679999999999,1.181937,0.606525,0.125501,1.293157,0.816415,0.039275,0.640617,1.050405,-0.054495,1.293197,1.097905,-0.02348,0.913565,-0.003329,-0.002536,1.086435,0.003329,0.0025359999999999,0.878437,-0.471975,0.0289589999999999,1.118117,-0.415885,-0.012444,0.8718170000000001,-0.839455,0.0325779999999999,1.105777,-0.812655,0.0168239999999999
12,1.0137115,0.816885,0.15874,0.8020695000000001,0.585605,0.129828,0.6677995,0.792995,0.054902,1.1819195,0.606395,0.125802,1.2931095,0.816445,0.039743,0.6407295,1.050405,-0.053693,1.2932595,1.097905,-0.0228309999999999,0.9135854999999999,-0.003329,-0.00238,1.0864145,0.003329,0.00238,0.8784395,-0.4722949999999999,0.028876,1.1181395,-0.416195,-0.012366,0.8716495000000001,-0.839695,0.032353,1.1056895,-0.812785,0.016661
13,1.013462,0.816815,0.159185,0.802245,0.5858450000000001,0.13021,0.667995,0.793205,0.0553999999999999,1.181915,0.606235,0.126132,1.293095,0.816445,0.0402619999999999,0.6409050000000001,1.050405,-0.05251,1.293325,1.097905,-0.022111,0.913605,-0.003329,-0.002259,1.086395,0.003329,0.0022589999999999,0.878485,-0.472175,0.0287529999999999,1.118155,-0.416525,-0.012233,0.871495,-0.839905,0.0322329999999999,1.105565,-0.8129149999999999,0.0165779999999999
14,1.012892,0.8166995,0.1596635,0.802477,0.5860894999999999,0.1305955,0.6682170000000001,0.7935194999999999,0.0559905,1.181897,0.6061095,0.1263225,1.293097,0.8164494999999999,0.0408355,0.6411370000000001,1.0504095,-0.0511735,1.293417,1.0979095,-0.0213924999999999,0.913632,-0.0033245,-0.0021194999999999,1.086368,0.0033244999999999,0.0021195,0.878547,-0.4722205,0.0286085,1.118157,-0.4160204999999999,-0.0123744999999999,0.8713770000000001,-0.8400205000000001,0.0320815,1.105407,-0.8129905000000001,0.0164955
15,1.0121375,0.816596,0.160166,0.8027124999999999,0.586426,0.130996,0.6684925000000002,0.793956,0.056788,1.1818825,0.605886,0.126499,1.2931124999999999,0.816556,0.041393,0.6414025000000001,1.050616,-0.049768,1.2935225,1.098016,-0.020699,0.9136515000000001,-0.003266,-0.001985,1.0863485,0.003266,0.001985,0.8785925,-0.472114,0.02847,1.1182425,-0.416064,-0.0125149999999999,0.8713425,-0.839944,0.0319469999999999,1.1052425,-0.812934,0.016392
16,1.011209,0.816542,0.1607335,0.803001,0.586852,0.1314555,0.668801,0.794392,0.0576135,1.1818710000000001,0.605742,0.1266615,1.293161,0.816662,0.0419105,0.641771,1.050702,-0.0481295,1.293641,1.098202,-0.0199804999999999,0.9136610000000001,-0.003181,-0.0018455,1.086339,0.003181,0.0018455,0.8786610000000001,-0.471388,0.0282245,1.118321,-0.415638,-0.0126925,0.8713510000000001,-0.839798,0.0320545,1.1051009999999999,-0.812798,0.0163515
17,1.010216,0.8165085,0.161306,0.8033250000000001,0.5872685,0.13196,0.669195,0.7948385,0.058551,1.181915,0.6057184999999999,0.126787,1.293255,0.8167485,0.0424299999999999,0.6421950000000001,1.0507185,-0.0465169999999999,1.2938049999999999,1.0983185,-0.019255,0.913672,-0.0031015,-0.001659,1.086328,0.0031015,0.001659,0.878725,-0.4711714999999999,0.027995,1.118415,-0.4151015,-0.0130079999999999,0.871385,-0.8395815000000001,0.032,1.104995,-0.8126215,0.0163369999999999
18,1.0091585,0.816516,0.1618445,0.8036935000000001,0.587776,0.1324975,0.6696135,0.7952859999999999,0.0595965,1.1819535,0.6057159999999999,0.1268905,1.2933634999999999,0.816776,0.0429355,0.6426235,1.0507760000000002,-0.0449845,1.2939935,1.098476,-0.0185795,0.9136815000000001,-0.003021,-0.0014634999999999,1.0863185,0.003021,0.0014634999999999,0.8787935,-0.470824,0.0277125,1.1184835,-0.415284,-0.0131574999999999,0.8714735,-0.839244,0.0320865,1.1048735,-0.812424,0.0163835
19,1.008041,0.8165005,0.162514,0.803944,0.5882805,0.132997,0.6699539999999999,0.7957005,0.06067,1.181984,0.6056905,0.1269839999999999,1.293494,0.8167505,0.043399,0.643014,1.0504805,-0.0430659999999999,1.294144,1.0984805,-0.0180079999999999,0.913694,-0.0029395,-0.0012709999999999,1.086306,0.0029395,0.001271,0.878904,-0.4698994999999999,0.027418,1.118414,-0.4155895,-0.0132749999999999,0.871584,-0.8388095,0.032212,1.1049039999999999,-0.8121595,0.016447
20,1.0068345,0.8164735000000001,0.16318,0.8042265,0.5887635,0.133703,0.6702965000000001,0.7961035000000001,0.061794,1.1819365,0.6055535000000001,0.127129,1.2936465,0.8166535,0.043784,0.6432165000000001,1.0500935,-0.041311,1.2942765,1.0984935,-0.0176329999999999,0.9137025,-0.0028715,-0.0010699999999999,1.0862975,0.0028715,0.00107,0.8790065000000001,-0.4690264999999999,0.027051,1.1183565,-0.4165264999999999,-0.0134129999999999,0.8716965,-0.8384465,0.032343,1.1049365,-0.8118965,0.016477
21,1.005628,0.816504,0.1637825,0.804527,0.589284,0.1343655,0.670617,0.796474,0.0628795,1.181827,0.605114,0.1272225,1.293817,0.816574,0.0440534999999999,0.643427,1.049844,-0.0397605,1.294417,1.098444,-0.0173775,0.91369,-0.002824,-0.0008885,1.08631,0.002824,0.0008885,0.879077,-0.468406,0.0266795,1.118327,-0.417436,-0.0135354999999999,0.871737,-0.837776,0.0323354999999999,1.104977,-0.8115859999999999,0.0164495
22,1.0047234999999999,0.816504,0.164265,0.8048545,0.5893940000000001,0.134895,0.6709845,0.7966540000000001,0.063744,1.1818445,0.605114,0.127177,1.2939745,0.816574,0.043966,0.6438145,1.049844,-0.038888,1.2945745,1.098444,-0.017465,0.9136635,-0.002824,-0.000709,1.0863365,0.002824,0.000709,0.8792245,-0.467686,0.026363,1.1183345,-0.418136,-0.013523,0.8718545,-0.8373959999999999,0.03234,1.1050845,-0.811546,0.016409
23,1.0040799999999999,0.816504,0.1646575,0.805151,0.589474,0.1353275,0.671351,0.796784,0.0644695,1.1818710000000001,0.6049840000000001,0.1271175,1.294141,0.816574,0.0438485,0.644161,1.049844,-0.0383084999999999,1.294731,1.098444,-0.0175825,0.9136340000000001,-0.002824,-0.0005514999999999,1.086366,0.002824,0.0005515,0.879351,-0.467056,0.0259405,1.118331,-0.418376,-0.0137305,0.871981,-0.8369059999999999,0.0323765,1.105181,-0.811546,0.0163405
24,1.003588,0.816504,0.164995,0.805453,0.5895440000000001,0.135655,0.671663,0.796914,0.064897,1.181953,0.6047340000000001,0.1270109999999999,1.294343,0.816574,0.043664,0.644513,1.049944,-0.037912,1.294893,1.098444,-0.017765,0.913609,-0.002824,-0.000376,1.0863909999999999,0.002824,0.000376,0.879483,-0.466496,0.0254889999999999,1.118333,-0.418246,-0.0140479999999999,0.872133,-0.836486,0.032217,1.105293,-0.811546,0.0162
25,1.0033234999999998,0.8168304999999999,0.165227,0.8060035,0.5904204999999999,0.135947,0.6722435,0.7974505,0.065343,1.1820834999999998,0.6040504999999999,0.12695,1.2950035,0.8164505,0.04345,0.6449735000000001,1.0502405,-0.037839,1.2956635,1.0982405,-0.0181539999999999,0.9135715000000001,-0.0026715,-0.0001979999999999,1.0864284999999998,0.0026715,0.000198,0.8794635000000001,-0.4664295,0.025141,1.1182534999999998,-0.4184394999999999,-0.0144119999999999,0.8719935,-0.8356695000000001,0.032049,1.1050335,-0.8110295000000001,0.016181
26,1.003085,0.8171755,0.1654624999999999,0.806341,0.5912855,0.1363725,0.672721,0.7978755000000001,0.0656835,1.182121,0.6033455000000001,0.1269104999999999,1.2956509999999999,0.8163655000000001,0.0431145,0.645381,1.0504455,-0.0378185,1.296411,1.0980455,-0.0187075,0.913541,-0.0025445,-3.250000000000475e-05,1.086459,0.0025445,3.249999999999781e-05,0.8794109999999999,-0.4662245,0.0248674999999999,1.1181510000000001,-0.4186045,-0.0147354999999999,0.871841,-0.8347545,0.0319244999999999,1.104751,-0.8107645,0.0161995
27,1.0029245,0.8175895,0.1656515,0.8066695,0.5920595,0.1367015,0.6731695,0.7981895,0.0658625,1.1821695,0.6024395,0.1268745,1.2963295000000001,0.8162594999999999,0.0426935,0.6457195,1.0506295,-0.0379705,1.2971995,1.0979295,-0.0194034999999999,0.9135135,-0.0024324999999999,0.0001104999999999,1.0864865,0.0024324999999999,-0.0001104999999999,0.8793595,-0.4659304999999999,0.0246015,1.1181895,-0.4179405,-0.0150085,0.8716595,-0.8339305,0.0318175,1.1045095,-0.8104905,0.0161945
28,1.002868,0.818071,0.1657139999999999,0.806897,0.592801,0.136944,0.673597,0.7984110000000001,0.065868,1.182237,0.601441,0.1267889999999999,1.2970169999999999,0.816231,0.042137,0.646007,1.050701,-0.038261,1.297987,1.097801,-0.02031,0.913479,-0.002327,0.000252,1.086521,0.002327,-0.000252,0.879297,-0.465469,0.024186,1.118297,-0.417029,-0.0153379999999999,0.871487,-0.833059,0.03161,1.104247,-0.8102389999999999,0.016099
29,1.002802,0.81854,0.1656,0.807095,0.5935400000000001,0.13721,0.6739550000000001,0.79862,0.065651,1.182295,0.6004900000000001,0.126676,1.297745,0.81621,0.041467,0.646285,1.0507799999999998,-0.038653,1.298775,1.09768,-0.0214359999999999,0.913435,-0.002201,0.0004009999999999,1.086565,0.002201,-0.0004009999999999,0.879245,-0.4647,0.023733,1.118405,-0.41757,-0.015489,0.871285,-0.83236,0.031241,1.103895,-0.8099799999999999,0.015901
30,1.002798,0.8190025000000001,0.1654785,0.8073170000000001,0.5942325,0.1375385,0.6743070000000001,0.7988325000000001,0.0653595,1.182327,0.5994725000000001,0.1266105,1.298487,0.8161825,0.0406665,0.646557,1.0508525,-0.0391745,1.299577,1.0975525,-0.0228135,0.9134180000000001,-0.0020615,0.0005085,1.086582,0.0020615,-0.0005085,0.879217,-0.4639475,0.0231415,1.118417,-0.4181675,-0.0157635,0.871067,-0.8317375,0.0307125,1.103581,-0.8097575,0.0155854999999999
31,1.0027935,0.8194165,0.1653845,0.8074875,0.5949965,0.1379645,0.6745975,0.7990165,0.0650665,1.1823175,0.5984565000000001,0.1265205,1.2991975,0.8159865000000001,0.0399454999999999,0.6466974999999999,1.0515765,-0.0401705,1.3003575,1.0972765,-0.0243325,0.9134175,-0.0019375,0.0005835,1.0865825,0.0019375,-0.0005835,0.8791675,-0.4641135,0.0225934999999999,1.1185375,-0.4187835,-0.0162465,0.8708475,-0.8316835,0.0301094999999999,1.1032415,-0.8095935,0.0152604999999999
32,1.00277,0.8198595,0.1652179999999999,0.8076760000000001,0.5957295,0.138548,0.674856,0.7991095,0.0645979999999999,1.182316,0.5974195,0.126365,1.299876,0.8157095,0.038983,0.6467160000000001,1.0523695,-0.041528,1.301096,1.0967695,-0.026126,0.913413,-0.0017975,0.0006799999999999,1.086587,0.0017974999999999,-0.00068,0.879076,-0.4641205,0.0218319999999999,1.118646,-0.4194605,-0.016975,0.8706860000000001,-0.8314905,0.0291909999999999,1.102891,-0.8095505000000001,0.0146659999999999
33,1.0027519999999999,0.820299,0.1650835,0.8078290000000001,0.5963689999999999,0.1391135,0.6750690000000001,0.799129,0.0640405,1.182359,0.596599,0.1261415,1.300519,0.8153889999999999,0.0378855,0.646699,1.053079,-0.0430044999999999,1.301799,1.096379,-0.0280545,0.91341,-0.0016819999999999,0.0007255,1.08659,0.001682,-0.0007254999999999,0.878969,-0.464241,0.0209444999999999,1.1187589999999998,-0.419951,-0.0179445,0.8704390000000001,-0.831291,0.0281425,1.102506,-0.8096110000000001,0.0138845
34,1.0026974999999998,0.820307,0.164924,0.8079045,0.596497,0.139644,0.6752045,0.7990970000000001,0.063366,1.1823145,0.596527,0.12592,1.3006845,0.815337,0.036743,0.6466345,1.053127,-0.044208,1.3018945,1.0963269999999998,-0.029668,0.9134125,-0.001706,0.0006979999999999,1.0865875,0.001706,-0.000698,0.8789945000000001,-0.463353,0.019947,1.1188444999999998,-0.4195129999999999,-0.0189809999999999,0.8704244999999999,-0.831053,0.026829,1.1024645,-0.809663,0.0128269999999999
35,1.0026835,0.8203244999999999,0.1646795,0.8079575,0.5965644999999999,0.1401895,0.6753675,0.7990645,0.0626984999999999,1.1822375,0.5963544999999999,0.1257134999999999,1.3008875,0.8152944999999999,0.0355255,0.6467674999999999,1.0532845,-0.0454225,1.3020175,1.0962845,-0.0312475,0.9134125,-0.0017285,0.0006794999999999,1.0865875,0.0017285,-0.0006795,0.8790475000000001,-0.4626655,0.0189075,1.1189575,-0.4190755,-0.0200675,0.8704975,-0.8309655,0.0253674999999999,1.1024194999999999,-0.8097055000000001,0.0116704999999999
36,1.0026885,0.820342,0.164389,0.8079735,0.596662,0.140699,0.6755234999999999,0.799022,0.061907,1.1821935,0.596302,0.125414,1.3010535,0.815242,0.034243,0.6468935,1.053332,-0.046703,1.3021235,1.096232,-0.032832,0.9133985,-0.0017439999999999,0.000663,1.0866015,0.0017439999999999,-0.0006629999999999,0.8790935000000001,-0.462068,0.017747,1.1190635,-0.418018,-0.0212639999999999,0.8705735,-0.830928,0.02402,1.1023585,-0.809758,0.010438
37,1.0024665,0.8204925,0.164331,0.8076945,0.5968424999999999,0.141471,0.6754344999999999,0.7988625,0.061386,1.1819545,0.5957925,0.125246,1.3011945,0.8149425,0.033208,0.6466845,1.0535825,-0.047963,1.3022245,1.0957825,-0.034348,0.9133765000000001,-0.0017304999999999,0.0006519999999999,1.0866235,0.0017305,-0.0006519999999999,0.8790945,-0.4612775,0.0164969999999999,1.1191745,-0.4170575,-0.022542,0.8706545,-0.8308375,0.022551,1.1022915,-0.8100575,0.009169
38,1.002303,0.8205604999999999,0.1642144999999999,0.807531,0.5969005,0.1416945,0.675341,0.7987504999999999,0.0608685,1.1817309999999999,0.5953805,0.1250945,1.301311,0.8146804999999999,0.0322325,0.6464909999999999,1.0535205,-0.0491965,1.3022909999999999,1.0954205,-0.0357765,0.913355,-0.0016885,0.0006134999999999,1.086645,0.0016885,-0.0006134999999999,0.8791910000000001,-0.4613095,0.0152535,1.119291,-0.4159095,-0.0239105,0.870791,-0.8308095000000001,0.0211005,1.102389,-0.8101695,0.0079035
39,1.00212,0.8205665000000001,0.16404,0.80733,0.5968865,0.14191,0.6752,0.7985965,0.060306,1.18159,0.5951665,0.1247399999999999,1.30138,0.8143365,0.031232,0.64627,1.0534965,-0.050428,1.3023,1.0949965000000002,-0.037273,0.9133290000000001,-0.0016574999999999,0.000584,1.086671,0.0016575,-0.000584,0.8792400000000001,-0.4612035,0.013869,1.11938,-0.4146135,-0.025345,0.8708400000000001,-0.8309234999999999,0.019732,1.102438,-0.8103635,0.006519
40,1.0019735,0.8205695000000001,0.1637559999999999,0.8072265000000001,0.5968295,0.141956,0.6751065,0.7984895000000001,0.059777,1.1814065,0.5949795,0.124326,1.3014765,0.8139495,0.030178,0.6461265,1.0534695,-0.0516439999999999,1.3023464999999999,1.0945695,-0.038789,0.9133015,-0.0016385,0.0005989999999999,1.0866985,0.0016384999999999,-0.0005989999999999,0.8793365000000001,-0.4605905,0.012334,1.1195065,-0.4133305,-0.0268939999999999,0.8709965,-0.8311505,0.018371,1.1025145,-0.8105605,0.005055
41,1.0014715,0.8205565,0.1635905,0.8068695000000001,0.5968165000000001,0.1419305,0.6746894999999999,0.7981465,0.0594265,1.1809795,0.5947765,0.1240005,1.3012195,0.8136065,0.0294185,0.6454895,1.0533365,-0.0524835,1.3019295,1.0941365,-0.0400745,0.9132725,-0.0016965,0.0005295,1.0867275,0.0016965,-0.0005294999999999,0.8794995,-0.4596335,0.0109755,1.1196295,-0.4117635,-0.0282685,0.8715094999999999,-0.8312835,0.0170815,1.1029395,-0.8106734999999999,0.0037365
42,1.00102,0.820543,0.1633105,0.806539,0.596803,0.1418605,0.674319,0.797823,0.0590875,1.1805889999999999,0.594613,0.1236705,1.300999,0.813303,0.0286455,0.644999,1.053323,-0.0532394999999999,1.3015889999999999,1.093723,-0.0413045,0.913235,-0.0017589999999999,0.0005285,1.086765,0.001759,-0.0005284999999999,0.879709,-0.458767,0.0096825,1.119749,-0.410327,-0.0296045,0.872119,-0.831377,0.0158355,1.103499,-0.810747,0.0024355
43,1.0006024999999998,0.8205100000000001,0.163019,0.8063415,0.5968100000000001,0.141629,0.6740015000000001,0.79749,0.058766,1.1802515,0.5945400000000001,0.1232389999999999,1.3008815,0.81313,0.027703,0.6446315,1.05331,-0.054017,1.3014215,1.09341,-0.042505,0.9132065,-0.001828,0.000581,1.0867935,0.001828,-0.0005809999999999,0.8799315,-0.4581599999999999,0.008548,1.1198915,-0.4089299999999999,-0.03087,0.8727315,-0.83154,0.014677,1.1041025,-0.81081,0.001232
44,1.0002305,0.820454,0.162622,0.8061895,0.596774,0.141302,0.6736995,0.797124,0.05833,1.1799595,0.5944640000000001,0.1227119999999999,1.3008294999999999,0.812994,0.026574,0.6442695,1.053274,-0.055073,1.3013595,1.093174,-0.043831,0.9131645,-0.0019029999999999,0.000657,1.0868355,0.001903,-0.000657,0.8801595000000001,-0.457596,0.0073349999999999,1.1199995,-0.407496,-0.032226,0.8734595,-0.8314959999999999,0.0135009999999999,1.1047125,-0.810836,-8.000000000001062e-06
45,0.9999485,0.820376,0.16202,0.8061075,0.596786,0.14092,0.6734175,0.7967460000000001,0.057206,1.1796875,0.5943660000000001,0.1221599999999999,1.3008875,0.8126760000000001,0.025432,0.6439975,1.052736,-0.056197,1.3014975,1.092836,-0.045323,0.9131115,-0.002015,0.0007759999999999,1.0868885,0.002015,-0.0007759999999999,0.8804075000000001,-0.4570639999999999,0.006135,1.1201675,-0.407124,-0.033645,0.8741975,-0.831314,0.01224,1.1051875,-0.810864,-0.0012549999999999
46,0.999723,0.820307,0.161244,0.806065,0.596637,0.140374,0.673155,0.796397,0.056079,1.179405,0.594327,0.121424,1.301045,0.812327,0.0242819999999999,0.643785,1.052037,-0.057327,1.301725,1.092237,-0.047291,0.91306,-0.002139,0.0009309999999999,1.08694,0.002139,-0.000931,0.8806849999999999,-0.456133,0.0046819999999999,1.120305,-0.406723,-0.0351869999999999,0.874985,-0.830613,0.0112579999999999,1.105664,-0.8108029999999999,-0.002529
47,0.999614,0.8202815,0.160242,0.8061320000000001,0.5965015,0.139652,0.6730119999999999,0.7960715,0.054874,1.179152,0.5942115,0.120412,1.301372,0.8119215,0.023052,0.6436919999999999,1.0511515,-0.0585339999999999,1.302042,1.0916515,-0.049531,0.912999,-0.0022695,0.0011009999999999,1.0870009999999999,0.0022695,-0.0011009999999999,0.880992,-0.4552885,0.003109,1.120432,-0.4063085,-0.036847,0.8757620000000002,-0.8305885000000001,0.010014,1.106264,-0.8107085,-0.003894
48,0.9995585000000001,0.820229,0.15921,0.8062635000000001,0.596429,0.13871,0.6723435,0.7957989999999999,0.053377,1.1789335,0.594039,0.11938,1.3017634999999999,0.8114389999999999,0.021621,0.6436035,1.050239,-0.059786,1.3023435,1.090839,-0.052464,0.9129335,-0.002351,0.0012569999999999,1.0870665,0.002351,-0.0012569999999999,0.8813235,-0.4548009999999999,0.0015869999999999,1.1205835,-0.4064609999999999,-0.038423,0.8767335,-0.830331,0.009058,1.1068965,-0.810991,-0.005067
49,0.999593,0.8202245,0.158214,0.806463,0.5963845,0.137714,0.671693,0.7956045,0.0518209999999999,1.178803,0.5936445,0.118404,1.302193,0.8108645,0.019768,0.6435029999999999,1.0488145,-0.061438,1.302743,1.0900145,-0.055979,0.912843,-0.0024265,0.0014319999999999,1.087157,0.0024265,-0.001432,0.881763,-0.4538255,-1.700000000000139e-05,1.120793,-0.4063354999999999,-0.04033,0.877783,-0.8300255,0.0080109999999999,1.107594,-0.8112055,-0.006279
50,1.00009,0.8203039999999999,0.1572195,0.807003,0.596444,0.1367095,0.6714530000000001,0.795674,0.0502004999999999,1.178993,0.593274,0.1174195,1.302683,0.810074,0.0175655,0.643903,1.047204,-0.0634935,1.303273,1.088804,-0.0600504999999999,0.912755,-0.002418,0.0016175,1.087245,0.002418,-0.0016174999999999,0.882233,-0.4531559999999999,-0.0018154999999999,1.121083,-0.406736,-0.0423594999999999,0.8784730000000001,-0.829986,0.0069995,1.108188,-0.811546,-0.0074845
51,1.0006415,0.8205220000000001,0.156078,0.8076185,0.596642,0.135748,0.6708885,0.7958120000000001,0.0473499999999999,1.1792585,0.592862,0.116298,1.3032485,0.809212,0.015126,0.6443285000000001,1.045612,-0.066011,1.3038185,1.0874119999999998,-0.064582,0.9126665,-0.002356,0.0017279999999999,1.0873335,0.002356,-0.001728,0.8825285,-0.452578,-0.004152,1.1214385,-0.407998,-0.04519,0.8791685,-0.8296479999999999,0.0059849999999999,1.1088115,-0.811828,-0.008641
52,1.0011805,0.8206515,0.1544819999999999,0.8082765000000001,0.5969315000000001,0.1348019999999999,0.6700165,0.7956215,0.04389,1.1795465,0.5923715,0.114852,1.3039064999999999,0.8081515,0.012271,0.6447864999999999,1.0437415,-0.068831,1.3043665,1.0859415,-0.06951,0.9125624999999999,-0.0022545,0.0018319999999999,1.0874375,0.0022545,-0.001832,0.8826965000000001,-0.4518485,-0.007234,1.1219465,-0.4089385,-0.048283,0.8799065,-0.8292484999999999,0.004947,1.1094655,-0.8121484999999999,-0.009897
53,1.0017815,0.8206105,0.152283,0.8089595,0.5970505,0.133453,0.6691195000000001,0.7953905,0.039972,1.1798395,0.5917005,0.113113,1.3049895,0.8068705,0.008704,0.6452495,1.0416705,-0.072124,1.3054195,1.0841705,-0.074906,0.9124475,-0.0021475,0.0019199999999999,1.0875525,0.0021475,-0.0019199999999999,0.8825495,-0.4505695,-0.010768,1.1222795,-0.4104095,-0.05201,0.8805695,-0.8286995,0.0039279999999999,1.1099735,-0.8124495,-0.011151
54,1.0023315,0.820615,0.1498965,0.8095875,0.597035,0.1318464999999999,0.6680775,0.795205,0.0360824999999999,1.1801275,0.590945,0.1110665,1.3061475,0.805545,0.0047274999999999,0.6456474999999999,1.039795,-0.0758065,1.3063875,1.082395,-0.0810755,0.9123295,-0.001979,0.0020124999999999,1.0876705,0.001979,-0.0020125,0.8821975,-0.449205,-0.0149214999999999,1.1226975,-0.411665,-0.0559765,0.8811275,-0.827895,0.0028274999999999,1.1103315,-0.812545,-0.0122845
55,1.0028195,0.820349,0.1469659999999999,0.8101805000000001,0.5969089999999999,0.130036,0.6669005,0.794839,0.032012,1.1804104999999998,0.590109,0.108916,1.3072305,0.804109,0.0005919999999999,0.6459604999999999,1.037459,-0.079777,1.3072105,1.080559,-0.086811,0.9121845,-0.0017819999999999,0.0021829999999999,1.0878155,0.001782,-0.002183,0.8817905,-0.4477109999999999,-0.019316,1.1231005,-0.4126209999999999,-0.06023,0.8816405,-0.827001,0.0018529999999999,1.1106415,-0.812481,-0.0132359999999999
56,1.0032905,0.819871,0.1437875,0.8108015,0.596801,0.1282575,0.6656415,0.794421,0.0278845,1.1808315,0.589021,0.1066775,1.3083315,0.802301,-0.0034875,0.6461915,1.035421,-0.0837094999999999,1.3080414999999999,1.078221,-0.0926314999999999,0.9120315,-0.00157,0.0023385,1.0879685000000001,0.0015699999999999,-0.0023384999999999,0.8811215,-0.445629,-0.0242445,1.1234315,-0.413399,-0.0645775,0.8819915,-0.825519,0.0008644999999999,1.1106675,-0.812269,-0.0140435
57,1.0037605,0.8193360000000001,0.140401,0.8113915,0.5966060000000001,0.126321,0.6647815,0.793826,0.0240739999999999,1.1812115,0.588086,0.104174,1.3093515,0.800446,-0.00758,0.6463415,1.033336,-0.087742,1.3087315,1.076136,-0.097899,0.9118215000000001,-0.001393,0.002521,1.0881785,0.0013929999999999,-0.002521,0.8803715,-0.443264,-0.029228,1.1237015,-0.413054,-0.0692349999999999,0.8822915,-0.823854,-2.7000000000000118e-05,1.1108315,-0.8114739999999999,-0.014907
58,1.004066,0.8188305,0.1368405,0.811952,0.5957905,0.1236805,0.663732,0.7932305,0.0197315,1.181442,0.5874905,0.1015824999999999,1.310162,0.7986705,-0.0117055,0.646272,1.0315205,-0.0929525,1.309202,1.0740205,-0.1031395,0.911552,-0.0012065,0.0026104999999999,1.088448,0.0012064999999999,-0.0026105,0.8794420000000001,-0.4406295,-0.0344045,1.1238819999999998,-0.4124995,-0.0742335,0.882572,-0.8219095000000001,-0.0009045,1.11087,-0.8103095,-0.0156435
59,1.0043084999999998,0.818307,0.132913,0.8124515,0.595037,0.120933,0.6626115,0.792237,0.015044,1.1815715,0.586897,0.098729,1.3109415,0.796867,-0.0159959999999999,0.6461615,1.0295169999999998,-0.098077,1.3097015,1.0717169999999998,-0.109317,0.9112815,-0.001035,0.002688,1.0887185,0.0010349999999999,-0.0026879999999999,0.8783415,-0.4377729999999999,-0.039887,1.1240915,-0.4110229999999999,-0.079303,0.8826115,-0.819993,-0.0017739999999999,1.1108085,-0.808963,-0.0164469999999999
60,1.004474,0.8173965,0.1285575,0.812859,0.5939464999999999,0.1176575,0.661809,0.7909865,0.0113245,1.181689,0.5862765,0.0957365,1.311829,0.7949765,-0.0208085,0.646019,1.0272465,-0.1032425,1.310319,1.0694465,-0.1155325,0.911069,-0.0008885,0.0026855,1.088931,0.0008885,-0.0026855,0.8773390000000001,-0.4346635,-0.0453574999999999,1.124299,-0.4085935,-0.0840515,0.882659,-0.8181635,-0.0028334999999999,1.110677,-0.8074335,-0.0173795
61,1.0046045,0.8166395,0.124062,0.8132505000000001,0.5928495,0.114022,0.6611805,0.7896795,0.007129,1.1818205,0.5860495,0.092829,1.3127105000000001,0.7930895,-0.025943,0.6458205,1.0244495,-0.108858,1.3110205,1.0669495,-0.122248,0.9109505,-0.0007635,0.0026,1.0890495,0.0007635,-0.0026,0.8762905,-0.4308405,-0.050841,1.1244105,-0.4059605,-0.088854,0.8825005,-0.8161005,-0.003962,1.1104455,-0.8055005,-0.018396
62,1.0046899999999999,0.815984,0.119512,0.81357,0.5919139999999999,0.110312,0.66044,0.788384,0.003023,1.1819,0.585704,0.089361,1.31351,0.791064,-0.031318,0.64541,1.0215740000000002,-0.114848,1.31173,1.0641740000000002,-0.130048,0.91086,-0.000675,0.00254,1.08914,0.0006749999999999,-0.0025399999999999,0.8752,-0.426886,-0.056137,1.1245,-0.403326,-0.093522,0.8823,-0.813646,-0.0051909999999999,1.110053,-0.803266,-0.019407
63,1.004761,0.8151855,0.114284,0.8137790000000001,0.5912555,0.106514,0.659599,0.7872855,-0.002144,1.182019,0.5851555,0.0853609999999999,1.314169,0.7892155,-0.036902,0.644799,1.0191955,-0.121086,1.312579,1.0615655,-0.1379459999999999,0.910729,-0.0006204999999999,0.002548,1.089271,0.0006204999999999,-0.002548,0.874089,-0.4227145,-0.061047,1.124459,-0.4001345,-0.0981259999999999,0.882009,-0.8112545,-0.006395,1.109427,-0.8007645,-0.020355
64,1.004711,0.8145684999999999,0.108249,0.813924,0.5906785,0.101917,0.6585540000000001,0.7856685,-0.00826,1.181904,0.5846285,0.08072,1.314914,0.7871184999999999,-0.043366,0.6439140000000001,1.0166385,-0.1284509999999999,1.3137240000000001,1.0585785,-0.147201,0.910404,-0.0005434999999999,0.0026,1.089596,0.0005435,-0.0026,0.872824,-0.4179215,-0.066026,1.124264,-0.3963215,-0.102741,0.881514,-0.8082015,-0.007533,1.108588,-0.7976915,-0.021442
65,1.004367,0.814188,0.101946,0.813914,0.590078,0.096848,0.657354,0.783988,-0.014617,1.181794,0.584298,0.075641,1.315714,0.7852480000000001,-0.050271,0.642764,1.013328,-0.1364989999999999,1.3149440000000001,1.055778,-0.156939,0.9100040000000001,-0.000479,0.002702,1.089996,0.000479,-0.002702,0.8717239999999999,-0.413502,-0.0704399999999999,1.123984,-0.393082,-0.107319,0.8810439999999999,-0.8050919999999999,-0.008395,1.10787,-0.7943319999999999,-0.02257
66,1.0038205,0.8137925,0.0948389999999999,0.8138075,0.5894325,0.0910079999999999,0.6557575,0.7823425,-0.022078,1.1816875,0.5840725,0.0702059999999999,1.3167175,0.7832725,-0.057769,0.6412775,1.0101025,-0.145449,1.3164574999999998,1.0527525,-0.1675589999999999,0.9095675,-0.0003934999999999,0.002756,1.0904325,0.0003934999999999,-0.0027559999999999,0.8706475,-0.4089575,-0.074943,1.1236275,-0.3897775,-0.111489,0.8804975,-0.8018274999999999,-0.009349,1.1070575,-0.7907875,-0.0236819999999999
67,1.0032535,0.8135129999999999,0.0870185,0.8135175,0.589553,0.0852235,0.6541775000000001,0.780663,-0.0297355,1.1816275,0.5836929999999999,0.0641935,1.3178975,0.781183,-0.0657415,0.6395575,1.006883,-0.1539145,1.3182375,1.049663,-0.1785445,0.9091675,-0.0002899999999999,0.0027075,1.0908325,0.0002899999999999,-0.0027075,0.8696475000000001,-0.404497,-0.0795435,1.1231875,-0.386467,-0.1154945,0.8799175,-0.7983870000000001,-0.0104905,1.1061835,-0.7870670000000001,-0.0250635
68,1.0025055,0.813145,0.0784325,0.8131735,0.5893550000000001,0.0784135,0.6525535,0.778945,-0.0381125,1.1814535,0.5831249999999999,0.0574605,1.3191935,0.778805,-0.0744254999999999,0.6374934999999999,1.003895,-0.1635455,1.3202535,1.046555,-0.1892355,0.9088134999999999,-0.000257,0.0026605,1.0911865,0.000257,-0.0026604999999999,0.8688935,-0.399935,-0.0839675,1.1227235,-0.382945,-0.1194355,0.8794435,-0.794535,-0.0116985,1.1054025,-0.782975,-0.0266365
69,1.0017194999999999,0.812882,0.0692349999999999,0.8128505,0.588982,0.071063,0.6509005,0.777092,-0.047409,1.1812305,0.582642,0.050266,1.3206405,0.776332,-0.083618,0.6351105,1.000442,-0.174069,1.3225105,1.043202,-0.200799,0.9085005,-0.000198,0.002576,1.0914995,0.0001979999999999,-0.002576,0.8681905,-0.395428,-0.088155,1.1222905,-0.379738,-0.123279,0.8790105,-0.790368,-0.012898,1.1046705,-0.778798,-0.028258
70,1.000885,0.8124180000000001,0.0589985,0.812445,0.5885279999999999,0.0629435,0.6492450000000001,0.7754380000000001,-0.0568204999999999,1.180875,0.581718,0.0418565,1.3222450000000001,0.773978,-0.0935115,0.632585,0.997148,-0.1853545,1.325115,1.039998,-0.2132745,0.908255,-0.0001759999999999,0.0024795,1.091745,0.000176,-0.0024795,0.867515,-0.391192,-0.0922565,1.121835,-0.376652,-0.1274945,0.878585,-0.7862720000000001,-0.0145095,1.1039539999999999,-0.774492,-0.0302015
71,1.0000685,0.8119025,0.0480235,0.8120635,0.5880425,0.0540485,0.6476735,0.7737825,-0.0676495,1.1806135,0.5809525,0.0331225,1.3238935,0.7713825,-0.1038145,0.6293635,0.9940025,-0.1979445,1.3281234999999998,1.0362925,-0.2260144999999999,0.9080635,-0.0001255,0.0023765,1.0919365,0.0001255,-0.0023765,0.8669235,-0.3872575,-0.0965665,1.1215135,-0.3734075,-0.1315545,0.8782835,-0.7824875,-0.0163335,1.1033665,-0.7703375,-0.0324874999999999
72,0.9993215,0.811218,0.0368215,0.8117624999999999,0.587328,0.0448105,0.6461125000000001,0.771458,-0.0780825,1.1803325,0.580438,0.0243845,1.3259225,0.768648,-0.1143655,0.6260325,0.989858,-0.2107655,1.3315425,1.032588,-0.2388355,0.9078925,-8.79999999999978e-05,0.0023315,1.0921075,8.800000000000474e-05,-0.0023315,0.8665725,-0.383252,-0.1009845,1.1213425,-0.3706419999999999,-0.1358655,0.8781725,-0.778662,-0.0184035,1.1029205,-0.766222,-0.0350495
73,0.9986965000000001,0.8106105,0.0259785,0.8115365,0.5866005000000001,0.0358065,0.6446365000000001,0.7693105,-0.0883935,1.1801865,0.5799905000000001,0.0157105,1.3279165,0.7661105,-0.1247225,0.6220665000000001,0.9853305,-0.2234925,1.3352465,1.0288705,-0.2517825,0.9078565,-1.3499999999999623e-05,0.0022965,1.0921435,1.3499999999999623e-05,-0.0022965,0.8665065000000001,-0.3797295,-0.1052324999999999,1.1212965,-0.3682895,-0.1399425,0.8781665,-0.7750595,-0.0208145,1.1026325,-0.7624095,-0.0376665
74,0.9981505,0.8098764999999999,0.01531,0.8113305,0.5857565,0.026878,0.6433305,0.7668865,-0.099134,1.1797405,0.5795665000000001,0.007415,1.3298005,0.7631665000000001,-0.135279,0.6178605000000001,0.9809165,-0.236339,1.3391405,1.0246065,-0.265099,0.9078505,7.449999999999124e-05,0.002214,1.0921495,-7.450000000000512e-05,-0.002214,0.8665505,-0.3765035,-0.1094089999999999,1.1213004999999998,-0.3662335,-0.143889,0.8782705,-0.7715635000000001,-0.023195,1.1023915,-0.7587735,-0.040136
75,0.9975825000000001,0.8091550000000001,0.004877,0.8111444999999999,0.585495,0.018791,0.6424245,0.7645150000000001,-0.109011,1.1792645,0.5786950000000001,-0.0012229999999999,1.3314245,0.759935,-0.1458509999999999,0.6137845,0.976325,-0.249251,1.3433045,1.019045,-0.278811,0.9078545000000001,0.000209,0.002242,1.0921455,-0.000209,-0.0022419999999999,0.8666545,-0.3735849999999999,-0.113581,1.1211845,-0.364125,-0.147971,0.8783345,-0.768115,-0.025757,1.1021364999999999,-0.7552949999999999,-0.042754
76,0.9969345,0.8076225,-0.0056324999999999,0.8109445,0.5843825,0.0100295,0.6415245,0.7610525,-0.1191655,1.1788845000000001,0.5782025000000001,-0.0091265,1.3329144999999998,0.7567025000000001,-0.1566755,0.6096245,0.9705525,-0.2622055,1.3475545,1.0132125,-0.2924454999999999,0.9078245,0.0002864999999999,0.0023475,1.0921755,-0.0002865,-0.0023474999999999,0.8668245,-0.3710875,-0.1175555,1.1211245,-0.3622575,-0.1519455,0.8785045,-0.7647775,-0.0282745,1.1020145,-0.7518775,-0.0452454999999999
77,0.996463,0.8062475,-0.016123,0.81086,0.5834775,0.001525,0.6407,0.7576175,-0.129148,1.17862,0.5768675,-0.017643,1.3341699999999999,0.7535675000000001,-0.167118,0.60548,0.9642375,-0.275068,1.35193,1.0075075,-0.306768,0.90772,0.0003855,0.002433,1.09228,-0.0003854999999999,-0.0024329999999999,0.86713,-0.3687325,-0.121748,1.12122,-0.3602625,-0.156168,0.87884,-0.7610925,-0.030971,1.10194,-0.7478325,-0.0477799999999999
78,0.9961395,0.8048310000000001,-0.0264464999999999,0.8109995,0.582631,-0.0066424999999999,0.6398395,0.754521,-0.1396525,1.1783495,0.575671,-0.0255525,1.3352095,0.7499410000000001,-0.1775125,0.6021194999999999,0.958801,-0.2885225,1.3565395,1.000611,-0.3209825,0.9076395,0.000419,0.0025505,1.0923605,-0.0004189999999999,-0.0025504999999999,0.8675695,-0.3665889999999999,-0.1261025,1.1215095,-0.3584889999999999,-0.1601725,0.8792995,-0.757289,-0.0337014999999999,1.1019435,-0.7437889999999999,-0.0503915
79,0.995858,0.8034825,-0.0366215,0.811254,0.5815125,-0.0149315,0.6390739999999999,0.7515025,-0.1506515,1.177974,0.5744724999999999,-0.0336915,1.336024,0.7442325,-0.1869715,0.599434,0.9539425,-0.3020314999999999,1.360764,0.9927025,-0.3341415,0.907544,0.0004445,0.0025915,1.092456,-0.0004445,-0.0025915,0.868004,-0.3647475,-0.1304615,1.121864,-0.3569175,-0.1640715,0.8797940000000001,-0.7532675000000001,-0.0363745,1.101938,-0.7395775,-0.0529985
80,0.995637,0.8020275,-0.046636,0.81159,0.5804075,-0.022811,0.6383,0.7489675,-0.161355,1.17754,0.5732175,-0.041594,1.33677,0.7390775,-0.195775,0.59762,0.9492375,-0.315625,1.36492,0.9852675,-0.346685,0.90745,0.0004974999999999,0.002675,1.09255,-0.0004974999999999,-0.002675,0.86844,-0.3627225,-0.134705,1.12215,-0.3552225,-0.167925,0.8802300000000001,-0.7486925,-0.038951,1.101942,-0.7348024999999999,-0.055458
81,0.9955075,0.8004795,-0.056626,0.8119805,0.5794795,-0.030664,0.6379505000000001,0.7465795,-0.172094,1.1770805,0.5715395,-0.049405,1.3371305,0.7339195,-0.204314,0.5964005,0.9447695,-0.329214,1.3685605,0.9776095,-0.359044,0.9073205,0.0005845,0.0026939999999999,1.0926795,-0.0005844999999999,-0.002694,0.8689205,-0.3608804999999999,-0.138934,1.1225105,-0.3537504999999999,-0.171784,0.8807205,-0.7440605,-0.04142,1.1021315,-0.7298005000000001,-0.057824
82,0.995558,0.798218,-0.0666684999999999,0.81259,0.578958,-0.0375865,0.6379600000000001,0.743898,-0.1827805,1.17685,0.569468,-0.0567855,1.33755,0.728498,-0.2127005,0.5963,0.940778,-0.3421605,1.37171,0.969868,-0.3709205,0.90721,0.0007309999999999,0.0027214999999999,1.09279,-0.000731,-0.0027215,0.8696,-0.359452,-0.1428905,1.12301,-0.352412,-0.1755905,0.88147,-0.739602,-0.0435785,1.102529,-0.725082,-0.0599125
83,0.995697,0.795455,-0.0771385,0.8131889999999999,0.577755,-0.0451335,0.6379890000000001,0.741225,-0.1937515,1.1765889999999999,0.567315,-0.0645765,1.337789,0.723295,-0.2214115,0.5962090000000001,0.936635,-0.3553715,1.374299,0.962735,-0.3824815,0.907079,0.000795,0.0027534999999999,1.092921,-0.0007949999999999,-0.0027534999999999,0.870259,-0.358185,-0.1471115,1.123489,-0.350925,-0.1794615,0.8822490000000001,-0.735205,-0.0458105,1.102846,-0.720625,-0.0620365
84,0.9958535000000001,0.79273,-0.087648,0.8136985,0.5755899999999999,-0.053318,0.6379885000000001,0.7382,-0.204843,1.1762484999999998,0.5652699999999999,-0.0720369999999999,1.3379885,0.7184200000000001,-0.229943,0.5960885,0.93218,-0.368403,1.3760785,0.95619,-0.3942029999999999,0.9069185,0.0007599999999999,0.0027119999999999,1.0930815,-0.0007599999999999,-0.0027119999999999,0.8708985000000001,-0.35691,-0.151523,1.1238885,-0.34926,-0.183353,0.8829885,-0.73015,-0.0477989999999999,1.1031615,-0.71575,-0.064094
85,0.9960600000000001,0.79004,-0.098151,0.814276,0.57406,-0.060733,0.638126,0.7353999999999999,-0.215223,1.175946,0.56272,-0.080272,1.338116,0.71357,-0.238613,0.5963860000000001,0.92725,-0.381563,1.377396,0.94992,-0.4057929999999999,0.906766,0.0007599999999999,0.002722,1.093234,-0.0007599999999999,-0.0027219999999999,0.871516,-0.35499,-0.155803,1.124276,-0.34598,-0.1870629999999999,0.8836960000000001,-0.72497,-0.049712,1.103506,-0.71069,-0.06624
86,0.99625,0.7870600000000001,-0.108563,0.814827,0.57249,-0.0681539999999999,0.638587,0.73189,-0.225901,1.175767,0.5612,-0.087564,1.338217,0.70898,-0.247721,0.597317,0.92217,-0.394251,1.378077,0.94384,-0.417021,0.9066770000000001,0.0008299999999999,0.0026819999999999,1.0933229999999998,-0.0008299999999999,-0.002682,0.871887,-0.34983,-0.160061,1.124697,-0.34082,-0.190751,0.884197,-0.7202,-0.051624,1.10399,-0.70573,-0.068377
87,0.996388,0.7839700000000001,-0.1190814999999999,0.815429,0.5709,-0.0757375,0.6389990000000001,0.72839,-0.2359885,1.175529,0.55919,-0.0954385,1.338289,0.70499,-0.2567885,0.598839,0.91703,-0.4067285,1.378009,0.93873,-0.4286284999999999,0.906629,0.0008699999999999,0.0027345,1.093371,-0.00087,-0.0027344999999999,0.872219,-0.3448,-0.1642785,1.1250689999999999,-0.33579,-0.1947185,0.884649,-0.71532,-0.0535584999999999,1.104428,-0.7009,-0.0706604999999999
88,0.9963495000000001,0.7809200000000001,-0.135288,0.8157815000000002,0.56979,-0.088895,0.6397815,0.72553,-0.2510449999999999,1.1749114999999999,0.55764,-0.108505,1.3379715,0.70332,-0.272665,0.6008015,0.91201,-0.425505,1.3776815,0.9351,-0.446835,0.9065315,0.00092,0.0027669999999999,1.0934685,-0.00092,-0.0027669999999999,0.8723415000000001,-0.33932,-0.174215,1.1252015,-0.33031,-0.204645,0.8848914999999999,-0.7100299999999999,-0.061338,1.1046495,-0.6957,-0.078767
89,0.9963750000000001,0.778375,-0.151078,0.816373,0.569215,-0.102356,0.640863,0.7229350000000001,-0.265788,1.174083,0.556045,-0.122129,1.337363,0.702275,-0.289058,0.603083,0.907585,-0.443678,1.377393,0.932805,-0.465158,0.906483,0.001035,0.00277,1.093517,-0.001035,-0.00277,0.871403,-0.331205,-0.190178,1.125113,-0.322175,-0.219298,0.884213,-0.706585,-0.077185,1.105502,-0.692315,-0.092119
90,0.9963925,0.7754000000000001,-0.1666135,0.8169755,0.56884,-0.1152074999999999,0.6423955,0.7200500000000001,-0.2805235,1.1733255,0.55523,-0.1350414999999999,1.3363955,0.7006600000000001,-0.3053135,0.6052255,0.90213,-0.4622335,1.3770255,0.92979,-0.4834735,0.9064855,0.00114,0.0028385,1.0935145,-0.00114,-0.0028385,0.8704155,-0.32298,-0.2059234999999999,1.1251355,-0.31419,-0.2336234999999999,0.8835455000000001,-0.7032100000000001,-0.0930215,1.1063554999999998,-0.6891799999999999,-0.1055595
91,0.9965,0.772975,-0.1818835,0.8176140000000001,0.5684750000000001,-0.1284515,0.644134,0.717335,-0.2949535,1.172364,0.5541050000000001,-0.1484525,1.335364,0.699295,-0.3214734999999999,0.607104,0.896365,-0.4817835,1.376514,0.926875,-0.5018035,0.9066339999999999,0.001255,0.0029174999999999,1.093366,-0.001255,-0.0029174999999999,0.869524,-0.314355,-0.2218935,1.125244,-0.305465,-0.2480935,0.883054,-0.699805,-0.1085305,1.107318,-0.685765,-0.1192775
92,0.9968135,0.7710999999999999,-0.1967175,0.8186985,0.5672999999999999,-0.1421265,0.6460985,0.7147999999999999,-0.3092074999999999,1.1715685,0.55307,-0.1616595,1.3344885,0.6978800000000001,-0.3369375,0.6088685,0.8907799999999999,-0.5003875,1.3757584999999999,0.92341,-0.5200175,0.9067785,0.0013699999999999,0.0030354999999999,1.0932215,-0.00137,-0.0030354999999999,0.8690185,-0.30547,-0.2378375,1.1255985,-0.29631,-0.2625475,0.8828985,-0.69627,-0.1234524999999999,1.1085145,-0.6822999999999999,-0.1331545
93,0.9972195,0.768305,-0.2116345,0.8199605,0.566875,-0.1552285,0.6480905,0.7117549999999999,-0.3231845,1.1707905,0.551805,-0.1748265,1.3334505,0.695735,-0.3524145,0.6106705,0.885305,-0.5188045,1.3751305,0.919745,-0.5376245,0.9069805,0.0015949999999999,0.0031474999999999,1.0930195,-0.001595,-0.0031474999999999,0.8686605000000001,-0.296325,-0.2535045,1.1260305,-0.287185,-0.2768745,0.8828205000000001,-0.6929750000000001,-0.1392065,1.1090345,-0.675705,-0.1419045
94,0.9977155000000001,0.765565,-0.226409,0.8214725,0.5654950000000001,-0.16919,0.6497525,0.7085049999999999,-0.339199,1.1700825,0.550495,-0.188079,1.3324125,0.6931050000000001,-0.367289,0.6121025,0.881365,-0.537309,1.3746925,0.915225,-0.5556289999999999,0.9072225,0.0017649999999999,0.003309,1.0927775,-0.0017649999999999,-0.0033089999999999,0.8684225,-0.286735,-0.269439,1.1265825,-0.277535,-0.291419,0.8827925000000001,-0.6894849999999999,-0.155357,1.1097135,-0.6687749999999999,-0.150808
95,0.998347,0.762295,-0.2409335,0.8232740000000001,0.563875,-0.1830425,0.651204,0.7061649999999999,-0.3544235,1.169254,0.548755,-0.2014435,1.331434,0.6898850000000001,-0.3818735,0.613524,0.8762049999999999,-0.5558335000000001,1.374584,0.910365,-0.5728934999999999,0.907454,0.0018749999999999,0.0034664999999999,1.092546,-0.0018749999999999,-0.0034665,0.868364,-0.276785,-0.2851135,1.127224,-0.267905,-0.3057134999999999,0.882974,-0.6862550000000001,-0.1710305,1.11043,-0.6619649999999999,-0.1595935
96,0.9990580000000001,0.75867,-0.2555705,0.8249420000000001,0.56236,-0.1968654999999999,0.652722,0.7029099999999999,-0.3708905,1.168492,0.54705,-0.2149904999999999,1.330522,0.6858599999999999,-0.3961705,0.6148220000000001,0.8709,-0.5744104999999999,1.374402,0.90432,-0.5901505,0.9076919999999999,0.00204,0.0034995,1.092308,-0.0020399999999999,-0.0034994999999999,0.868512,-0.26631,-0.3007105,1.127932,-0.25755,-0.3199205,0.883242,-0.6828000000000001,-0.1868285,1.111171,-0.6548,-0.1682814999999999
97,1.000223,0.75451,-0.264205,0.826926,0.5607,-0.204857,0.6543760000000001,0.6989,-0.382185,1.168246,0.5439,-0.222745,1.329986,0.68116,-0.404555,0.616386,0.86441,-0.587125,1.3746859999999999,0.89759,-0.601315,0.907946,0.0023,0.0035649999999999,1.092054,-0.0022999999999999,-0.0035649999999999,0.869066,-0.2566199999999999,-0.310575,1.129096,-0.2492999999999999,-0.328205,0.8838060000000001,-0.67996,-0.197262,1.112323,-0.64801,-0.171265
98,1.0014299999999998,0.7492800000000001,-0.2731,0.82878,0.55878,-0.21255,0.65577,0.69336,-0.39355,1.16815,0.54016,-0.22983,1.32982,0.6752400000000001,-0.41269,0.61819,0.85505,-0.5992000000000001,1.37515,0.88889,-0.61251,0.90815,0.0025799999999999,0.0036999999999999,1.09185,-0.0025799999999999,-0.0036999999999999,0.8702300000000001,-0.25127,-0.3144,1.13069,-0.2439799999999999,-0.33172,0.88487,-0.67536,-0.200915,1.113569,-0.64214,-0.17396
99,1.0026115,0.7441599999999999,-0.2825149999999999,0.8306315,0.55317,-0.221575,0.6571215,0.68776,-0.4056849999999999,1.1679915,0.53577,-0.2376349999999999,1.3299715,0.66936,-0.420905,0.6199515,0.84726,-0.611275,1.3758115,0.88037,-0.6236149999999999,0.9082815,0.0027399999999999,0.003835,1.0917185,-0.0027399999999999,-0.0038349999999999,0.8714115,-0.24548,-0.318515,1.1322714999999999,-0.2381899999999999,-0.335535,0.8861015000000001,-0.67012,-0.2042379999999999,1.1148105,-0.6363300000000001,-0.1770149999999999
100,1.0036685,0.738515,-0.291455,0.8322725,0.547295,-0.230585,0.6581525000000001,0.681965,-0.417825,1.1678325,0.531885,-0.244935,1.3299725,0.662985,-0.428825,0.6215625,0.8392350000000001,-0.6228750000000001,1.3762825,0.8715050000000001,-0.6341950000000001,0.9082525,0.0027449999999999,0.0039849999999999,1.0917475,-0.0027449999999999,-0.003985,0.8724025,-0.239725,-0.322455,1.1335725,-0.2324349999999999,-0.338925,0.8871225000000001,-0.665025,-0.20748,1.1160745,-0.631145,-0.180546
101,1.0044445,0.732205,-0.30063,0.8336685,0.542695,-0.2386599999999999,0.6589484999999999,0.675385,-0.4295,1.1675585,0.527375,-0.25224,1.3298185,0.6565650000000001,-0.437,0.6230985,0.8303750000000001,-0.6347099999999999,1.3764785,0.862625,-0.6449400000000001,0.9082485,0.002835,0.00403,1.0917515,-0.0028349999999999,-0.0040299999999999,0.8738285,-0.2350749999999999,-0.32645,1.1346485,-0.227985,-0.34235,0.8884285,-0.659885,-0.210362,1.1166465,-0.622565,-0.179261
102,1.005104,0.72628,-0.30923,0.834903,0.5381400000000001,-0.24675,0.659633,0.66906,-0.44074,1.167243,0.52247,-0.2595699999999999,1.329723,0.6500699999999999,-0.44469,0.624423,0.82118,-0.6464,1.376753,0.85401,-0.6550699999999999,0.908243,0.00295,0.00409,1.091757,-0.00295,-0.0040899999999999,0.875163,-0.23009,-0.33038,1.135693,-0.2232799999999999,-0.3457099999999999,0.889603,-0.65446,-0.213135,1.116998,-0.61362,-0.177791
103,1.0056595,0.71992,-0.31784,0.8361305,0.53357,-0.2542999999999999,0.6603105,0.66301,-0.45086,1.1669005000000001,0.51771,-0.26651,1.3294905,0.64273,-0.45216,0.6256605,0.81132,-0.65781,1.3769805,0.8446400000000001,-0.66429,0.9082405,0.0030599999999999,0.00403,1.0917595,-0.00306,-0.0040299999999999,0.8762105,-0.225,-0.33423,1.1368905,-0.21865,-0.34904,0.8906705,-0.64907,-0.215841,1.1169855,-0.60463,-0.175898
104,1.0061455,0.713795,-0.326075,0.8371265,0.529155,-0.2619249999999999,0.6607665,0.6565049999999999,-0.461505,1.1667265,0.512585,-0.273535,1.3292365,0.635955,-0.459325,0.6267065,0.8027949999999999,-0.6689449999999999,1.3772765,0.8352149999999999,-0.674085,0.9081764999999999,0.0032049999999999,0.004015,1.0918235,-0.003205,-0.0040149999999999,0.8768465,-0.219475,-0.338265,1.1380065,-0.213615,-0.3525049999999999,0.8916565,-0.643395,-0.218464,1.1169025,-0.595325,-0.1743779999999999
105,1.0066345,0.708205,-0.33384,0.8381615,0.524715,-0.26922,0.6611015,0.650265,-0.47029,1.1664015,0.507235,-0.28009,1.3290415,0.629575,-0.46637,0.6278715,0.7922750000000001,-0.6787799999999999,1.3775415,0.825575,-0.6840200000000001,0.9081815,0.0033849999999999,0.0040299999999999,1.0918185,-0.0033849999999999,-0.00403,0.8772715,-0.213625,-0.34225,1.1391815,-0.208255,-0.35582,0.8926815,-0.636925,-0.221004,1.1171695,-0.5885750000000001,-0.177385
106,1.0071405,0.7024,-0.3415749999999999,0.8392655,0.51999,-0.276565,0.6618955,0.64417,-0.4786049999999999,1.1662755,0.50266,-0.286475,1.3288955,0.6234200000000001,-0.473495,0.6291154999999999,0.78285,-0.687645,1.3779655,0.8165,-0.6938249999999999,0.9082255,0.00357,0.004055,1.0917745,-0.0035699999999999,-0.004055,0.8777355,-0.20777,-0.346005,1.1404655,-0.2026299999999999,-0.359025,0.8937555,-0.6302300000000001,-0.22366,1.1176175,-0.58135,-0.180528
107,1.0076195,0.6969350000000001,-0.349025,0.8403134999999999,0.514505,-0.283775,0.6626835,0.637135,-0.486205,1.1662635,0.498815,-0.292555,1.3288035,0.617055,-0.480525,0.6301935000000001,0.775045,-0.696455,1.3784035000000001,0.8076350000000001,-0.703075,0.9082835,0.003625,0.0039649999999999,1.0917165,-0.0036249999999999,-0.0039649999999999,0.8781635000000001,-0.2021949999999999,-0.349195,1.1416534999999999,-0.197405,-0.362075,0.8946935,-0.6238049999999999,-0.226798,1.1180545,-0.574495,-0.183474
108,1.0080485,0.6911499999999999,-0.35601,0.8412935,0.5117,-0.29008,0.6639635000000002,0.62983,-0.4921,1.1661835,0.4955,-0.29803,1.3285535,0.6105,-0.4875799999999999,0.6311635,0.76627,-0.7046999999999999,1.3787435000000001,0.7982499999999999,-0.71258,0.9084035,0.0035999999999999,0.00381,1.0915965,-0.0035999999999999,-0.0038099999999999,0.8785235000000001,-0.19724,-0.35201,1.1427735,-0.19257,-0.3647899999999999,0.8960035000000001,-0.61476,-0.2225269999999999,1.1186575,-0.5688,-0.186265
109,1.0084695,0.685075,-0.36307,0.8423085000000001,0.508765,-0.29673,0.6652785,0.6225149999999999,-0.49733,1.1661285000000001,0.491135,-0.30392,1.3283485,0.603895,-0.49473,0.6321885,0.758075,-0.71263,1.3789585,0.788335,-0.72246,0.9085785000000001,0.0037349999999999,0.0036599999999999,1.0914214999999998,-0.0037349999999999,-0.00366,0.8787785000000001,-0.191985,-0.35503,1.1439385,-0.187105,-0.36752,0.8973585,-0.6053949999999999,-0.218347,1.1192864999999999,-0.5628550000000001,-0.189234
110,1.00921,0.67757,-0.3702499999999999,0.843329,0.5041599999999999,-0.30345,0.667339,0.61442,-0.50312,1.166299,0.48566,-0.31005,1.328349,0.59589,-0.5018,0.6332690000000001,0.7489699999999999,-0.72088,1.3793790000000001,0.77764,-0.73198,0.908829,0.0038599999999999,0.0035499999999999,1.0911710000000001,-0.00386,-0.0035499999999999,0.878899,-0.1871,-0.35827,1.144579,-0.18222,-0.37002,0.8986190000000001,-0.5973900000000001,-0.214587,1.120096,-0.5579700000000001,-0.192456
111,1.0100845,0.67043,-0.37793,0.8447455,0.4989099999999999,-0.31082,0.6695655,0.60687,-0.50901,1.1664955,0.48084,-0.31616,1.3284755,0.58795,-0.50915,0.6345255000000001,0.74015,-0.72956,1.3802555,0.7666,-0.74167,0.9090855,0.0039199999999999,0.0033399999999999,1.0909145,-0.0039199999999999,-0.00334,0.8789955,-0.18244,-0.36169,1.1462255,-0.1767099999999999,-0.37253,0.8998655,-0.5883799999999999,-0.211374,1.1210255,-0.55237,-0.195904
112,1.010965,0.664185,-0.385255,0.845867,0.494225,-0.317805,0.6716070000000001,0.599165,-0.514375,1.166427,0.475445,-0.322355,1.328427,0.579945,-0.516425,0.635767,0.730505,-0.7380950000000001,1.381047,0.755325,-0.7515350000000001,0.9093370000000001,0.003955,0.0031149999999999,1.090663,-0.0039549999999999,-0.003115,0.8787270000000001,-0.1770549999999999,-0.365095,1.146947,-0.1713249999999999,-0.374965,0.900887,-0.579275,-0.208162,1.121799,-0.5469849999999999,-0.199494
113,1.0119905,0.6575949999999999,-0.393595,0.8468785,0.489585,-0.325435,0.6735385,0.5909249999999999,-0.5205649999999999,1.1662985,0.470875,-0.329155,1.3282885,0.571345,-0.5250349999999999,0.6366085,0.7187749999999999,-0.747775,1.3817385,0.743035,-0.762825,0.9096285,0.003925,0.0028549999999999,1.0903715,-0.003925,-0.0028549999999999,0.8783285,-0.172365,-0.369135,1.1476985,-0.1666349999999999,-0.377695,0.9018085,-0.570905,-0.205979,1.1224365,-0.542075,-0.204028
114,1.012638,0.648835,-0.40751,0.847608,0.481255,-0.33675,0.674938,0.580105,-0.5335399999999999,1.165938,0.464365,-0.33973,1.327798,0.561985,-0.53709,0.637058,0.7081949999999999,-0.76138,1.382118,0.7308749999999999,-0.7767,0.9098580000000001,0.0038949999999999,0.00265,1.090142,-0.003895,-0.0026499999999999,0.877158,-0.167305,-0.37143,1.148618,-0.161215,-0.3793999999999999,0.9024280000000001,-0.563315,-0.2078289999999999,1.122832,-0.5376650000000001,-0.212132
115,1.012855,0.639875,-0.42245,0.847919,0.472695,-0.34853,0.675959,0.568775,-0.5475399999999999,1.165289,0.457285,-0.3511999999999999,1.326879,0.551145,-0.5494600000000001,0.637119,0.696885,-0.77617,1.3820890000000001,0.7167950000000001,-0.7911699999999999,0.910139,0.0037949999999999,0.0026,1.089861,-0.0037949999999999,-0.0025999999999999,0.8751990000000001,-0.162785,-0.3738599999999999,1.149249,-0.156405,-0.38181,0.9024990000000002,-0.556475,-0.210419,1.122806,-0.533675,-0.220731
116,1.0129944999999998,0.630875,-0.43714,0.8481164999999999,0.463835,-0.35986,0.6763165,0.557935,-0.56152,1.1643565,0.4494049999999999,-0.3624199999999999,1.3257765,0.5395449999999999,-0.56158,0.6370465000000001,0.684465,-0.79165,1.3820465,0.701685,-0.80555,0.9104265,0.0036749999999999,0.0025799999999999,1.0895735,-0.003675,-0.0025799999999999,0.8725065000000001,-0.158635,-0.37604,1.1498865,-0.151935,-0.38407,0.9023165,-0.5501550000000001,-0.212831,1.1226495,-0.530015,-0.228997
117,1.0130745,0.6223449999999999,-0.451175,0.8481825000000001,0.455495,-0.3708749999999999,0.6763525,0.547165,-0.575155,1.1634525,0.440655,-0.3738249999999999,1.3246225,0.528165,-0.573515,0.6366425,0.6693450000000001,-0.8048550000000001,1.3821225,0.686895,-0.818805,0.9107325,0.0037949999999999,0.002585,1.0892675,-0.0037949999999999,-0.002585,0.8695225,-0.154175,-0.378115,1.1505525,-0.147065,-0.386355,0.9015925,-0.546915,-0.221505,1.1224415,-0.526155,-0.236972
118,1.0130025,0.6150150000000001,-0.464705,0.8481215,0.447845,-0.381285,0.6762815,0.5373650000000001,-0.587865,1.1625515,0.433755,-0.3844149999999999,1.3232315,0.5180750000000001,-0.585055,0.6362315000000001,0.655135,-0.8169249999999999,1.3821615,0.6698850000000001,-0.830805,0.9109715,0.003835,0.002615,1.0890285,-0.0038349999999999,-0.0026149999999999,0.8661015,-0.1494549999999999,-0.379835,1.1511015,-0.1421349999999999,-0.388325,0.9006315,-0.543735,-0.2296139999999999,1.1223385,-0.522365,-0.2442669999999999
119,1.0124885,0.6077349999999999,-0.4772849999999999,0.8477195,0.4405949999999999,-0.391115,0.6758394999999999,0.526895,-0.600085,1.1614894999999998,0.4272549999999999,-0.394135,1.3216495,0.507815,-0.595695,0.6356895,0.641945,-0.827975,1.3819895,0.6534549999999999,-0.842265,0.9110795,0.0037449999999999,0.0027149999999999,1.0889205,-0.0037449999999999,-0.0027149999999999,0.8625295,-0.145205,-0.381355,1.1516095,-0.137495,-0.390115,0.8995295,-0.5404950000000001,-0.236993,1.1220685,-0.519045,-0.2509
120,1.011859,0.600475,-0.4889,0.8472189999999999,0.433855,-0.40027,0.675169,0.516405,-0.61234,1.160579,0.421365,-0.4032799999999999,1.3199589999999999,0.498125,-0.60553,0.634539,0.625455,-0.83813,1.381679,0.638735,-0.85288,0.911159,0.0036249999999999,0.0028799999999999,1.088841,-0.0036249999999999,-0.00288,0.858729,-0.141205,-0.38266,1.152179,-0.133325,-0.39186,0.897949,-0.5375350000000001,-0.244168,1.1217570000000001,-0.516265,-0.25708
121,1.0112029999999999,0.5928500000000001,-0.5001549999999999,0.846699,0.42739,-0.409145,0.674499,0.50691,-0.623865,1.159529,0.41558,-0.412265,1.318579,0.48954,-0.615135,0.633219,0.6107800000000001,-0.846735,1.381329,0.62574,-0.8635349999999999,0.911219,0.00362,0.003125,1.088781,-0.0036199999999999,-0.0031249999999999,0.854959,-0.1374499999999999,-0.3834649999999999,1.152629,-0.12949,-0.393375,0.896009,-0.53471,-0.250648,1.121358,-0.51367,-0.262762
122,1.010506,0.5860449999999999,-0.509945,0.84611,0.421185,-0.416775,0.67334,0.4979749999999999,-0.634755,1.1583999999999999,0.409915,-0.420025,1.31713,0.481355,-0.623115,0.63125,0.597305,-0.853835,1.3807399999999999,0.6143449999999999,-0.872005,0.9114,0.003585,0.003375,1.0886,-0.003585,-0.0033749999999999,0.8511000000000001,-0.133435,-0.382935,1.1530699999999998,-0.125605,-0.394255,0.89439,-0.5310650000000001,-0.255485,1.120879,-0.5110250000000001,-0.267135
123,1.0098084999999999,0.58057,-0.513735,0.8452905,0.4184,-0.4205449999999999,0.6723405,0.49138,-0.6380349999999999,1.1571704999999999,0.4063489999999999,-0.423695,1.3156805,0.47375,-0.627285,0.6291105,0.58495,-0.857115,1.3801005,0.6043499999999999,-0.876625,0.9116305000000001,0.0035099999999999,0.003575,1.0883695,-0.00351,-0.0035749999999999,0.8475805,-0.13063,-0.3837549999999999,1.1532605,-0.1228,-0.395395,0.8929205,-0.52692,-0.25653,1.1203954999999999,-0.50809,-0.2678669999999999
124,1.0089125,0.57473,-0.51603,0.8446085,0.41512,-0.42352,0.6713585,0.48397,-0.64016,1.1559885,0.402671,-0.42632,1.3144985,0.46674,-0.6303300000000001,0.6267585000000001,0.5713,-0.85884,1.3795185,0.5949800000000001,-0.87998,0.9118885,0.0032599999999999,0.00364,1.0881115,-0.0032599999999999,-0.00364,0.8445585,-0.12838,-0.38365,1.1534185,-0.1205499999999999,-0.3954999999999999,0.8915985,-0.52311,-0.256556,1.1199445,-0.5057099999999999,-0.267573
125,1.007574,0.5699,-0.518005,0.843888,0.413076,-0.4267849999999999,0.670168,0.4782799999999999,-0.642385,1.154848,0.4007059999999999,-0.429015,1.313158,0.4617,-0.6333249999999999,0.623828,0.55963,-0.860565,1.378878,0.58715,-0.8827750000000001,0.912178,0.0032099999999999,0.003735,1.087822,-0.00321,-0.0037349999999999,0.842148,-0.12601,-0.383615,1.154018,-0.11778,-0.396235,0.8904680000000001,-0.5181800000000001,-0.256606,1.1194250000000001,-0.50238,-0.2673919999999999
126,1.005975,0.56193,-0.51993,0.843116,0.4079859999999999,-0.4299699999999999,0.668696,0.46965,-0.64522,1.153646,0.395136,-0.43132,1.311716,0.45382,-0.63585,0.620436,0.5478099999999999,-0.86209,1.3780459999999999,0.57665,-0.88555,0.912466,0.0032599999999999,0.0038199999999999,1.087534,-0.00326,-0.0038199999999999,0.840166,-0.12589,-0.38344,1.1539760000000001,-0.11766,-0.3963299999999999,0.8892660000000001,-0.51635,-0.256302,1.119039,-0.50226,-0.267294
127,1.0042289999999998,0.557455,-0.5214650000000001,0.842508,0.405983,-0.432885,0.6671579999999999,0.4644749999999999,-0.647845,1.152418,0.393195,-0.433265,1.310358,0.4490349999999999,-0.637615,0.616988,0.539605,-0.8630249999999999,1.376818,0.571875,-0.8881749999999999,0.912658,0.003255,0.0039049999999999,1.087342,-0.003255,-0.003905,0.838628,-0.123135,-0.383835,1.154488,-0.1146949999999999,-0.397065,0.888288,-0.510955,-0.255795,1.118658,-0.498545,-0.267073
128,1.002101,0.5536449999999999,-0.5228200000000001,0.841758,0.403936,-0.43555,0.6654880000000001,0.459615,-0.65042,1.150928,0.391518,-0.43507,1.308728,0.4449349999999999,-0.6394,0.612968,0.529555,-0.8624400000000001,1.375208,0.5664750000000001,-0.89026,0.912828,0.003155,0.0038999999999999,1.087172,-0.003155,-0.0039,0.837128,-0.120445,-0.3839,1.154658,-0.111775,-0.39761,0.887068,-0.506145,-0.255244,1.118034,-0.4950449999999999,-0.266725
129,0.9998565,0.5503250000000001,-0.523985,0.8408925,0.40212,-0.438075,0.6637225,0.454845,-0.652035,1.1492725,0.389759,-0.436825,1.3068724999999999,0.441525,-0.641165,0.6095425,0.5236850000000001,-0.8620350000000001,1.3731725,0.560775,-0.8923449999999999,0.9129925000000001,0.003145,0.0039249999999999,1.0870075,-0.0031449999999999,-0.003925,0.8354925,-0.1178649999999999,-0.383675,1.1547425,-0.1092349999999999,-0.397865,0.8858925,-0.5018549999999999,-0.254872,1.1173065,-0.491935,-0.266327
130,0.9975035000000001,0.54747,-0.525075,0.8399285,0.400311,-0.440725,0.6618585,0.44979,-0.653765,1.1477485,0.388655,-0.438335,1.3049084999999998,0.43853,-0.642765,0.6059685,0.51753,-0.8623149999999999,1.3709585,0.55533,-0.894015,0.9132085,0.00301,0.003975,1.0867915,-0.00301,-0.003975,0.8334685,-0.11546,-0.383505,1.1552085,-0.10709,-0.397865,0.8846785,-0.49765,-0.25461,1.1165225,-0.48916,-0.265968
131,0.9952240000000001,0.545095,-0.526045,0.8391029999999999,0.398537,-0.443125,0.659933,0.445175,-0.655295,1.146163,0.387394,-0.439535,1.302853,0.436155,-0.643895,0.602813,0.5137050000000001,-0.862395,1.368593,0.550235,-0.895045,0.913373,0.002835,0.003945,1.086627,-0.0028349999999999,-0.003945,0.8298730000000001,-0.1134649999999999,-0.383335,1.156603,-0.1050249999999999,-0.397905,0.8835430000000001,-0.4942449999999999,-0.254844,1.115665,-0.4864149999999999,-0.2658
132,0.9930970000000001,0.543435,-0.52682,0.8384690000000001,0.396499,-0.4451,0.657929,0.441035,-0.65686,1.144559,0.385574,-0.44064,1.300889,0.434341,-0.64436,0.599179,0.5092650000000001,-0.8631500000000001,1.366209,0.545355,-0.89561,0.9134490000000001,0.002745,0.0039599999999999,1.0865509999999998,-0.0027449999999999,-0.0039599999999999,0.824889,-0.1115149999999999,-0.3831799999999999,1.158899,-0.1031349999999999,-0.39796,0.882139,-0.4910949999999999,-0.253975,1.1151099999999998,-0.483765,-0.265883
133,0.9913455,0.54243,-0.526575,0.8380055000000001,0.3943939999999999,-0.446805,0.6560155000000001,0.437616,-0.658135,1.1430655,0.3837029999999999,-0.4415449999999999,1.2991155,0.432785,-0.644915,0.5957355000000001,0.50598,-0.863435,1.3640355,0.54096,-0.896145,0.9135355000000001,0.00262,0.003975,1.0864645,-0.00262,-0.003975,0.8192755,-0.10949,-0.382955,1.1621155,-0.10128,-0.398475,0.8808855,-0.48813,-0.253749,1.1148835,-0.4813199999999999,-0.26587
134,0.989693,0.541875,-0.52634,0.837624,0.39294,-0.44803,0.654134,0.43486,-0.6592,1.141654,0.381867,-0.4423399999999999,1.297534,0.431838,-0.64471,0.5925740000000002,0.503545,-0.8635999999999999,1.362174,0.538125,-0.89656,0.913594,0.0025649999999999,0.00404,1.086406,-0.0025649999999999,-0.0040399999999999,0.812824,-0.106435,-0.38273,1.165634,-0.098735,-0.39898,0.879154,-0.484315,-0.253513,1.114872,-0.478085,-0.265781
135,0.988168,0.54215,-0.526115,0.836984,0.391444,-0.449085,0.652414,0.432826,-0.6591549999999999,1.140264,0.381189,-0.443085,1.296054,0.431142,-0.644795,0.5898639999999999,0.50202,-0.863315,1.360444,0.53617,-0.896885,0.9136340000000001,0.00236,0.0040949999999999,1.086366,-0.0023599999999999,-0.004095,0.8059540000000001,-0.10346,-0.3822149999999999,1.169254,-0.0960699999999999,-0.399445,0.877174,-0.48038,-0.253274,1.114852,-0.4749,-0.265698
136,0.9871955,0.546895,-0.52022,0.8365695,0.396645,-0.44528,0.6510195000000001,0.437975,-0.6546700000000001,1.1391295,0.386772,-0.43917,1.2950495,0.437515,-0.64019,0.5875595,0.507545,-0.85871,1.3597695,0.542945,-0.89225,0.9136895,0.0021249999999999,0.0040399999999999,1.0863105,-0.0021249999999999,-0.00404,0.7974195,-0.094675,-0.38153,1.1747995,-0.086795,-0.3996,0.8752095,-0.4700649999999999,-0.248681,1.1151975,-0.465075,-0.261047
137,0.986246,0.54902,-0.5187200000000001,0.836159,0.398404,-0.44377,0.649419,0.4407879999999999,-0.6526799999999999,1.137979,0.389372,-0.43769,1.2941690000000001,0.440749,-0.6378900000000001,0.585329,0.51179,-0.8566,1.3593790000000001,0.54724,-0.89026,0.913719,0.0012099999999999,0.00379,1.086281,-0.0012099999999999,-0.0037899999999999,0.789929,-0.08903,-0.38209,1.179279,-0.08063,-0.40036,0.873069,-0.4628299999999999,-0.246834,1.115654,-0.45798,-0.258878
138,0.9855070000000001,0.553725,-0.5123500000000001,0.835827,0.40209,-0.43947,0.6479170000000001,0.4459809999999999,-0.64825,1.136937,0.394009,-0.43367,1.293527,0.446194,-0.63306,0.583217,0.518215,-0.8520399999999999,1.359067,0.554115,-0.8855200000000001,0.913737,0.0009949999999999,0.0036999999999999,1.086263,-0.000995,-0.0037,0.7817470000000001,-0.081245,-0.38146,1.184667,-0.0723349999999999,-0.40039,0.8709370000000001,-0.453405,-0.24344,1.116068,-0.448955,-0.254385
139,0.984631,0.5559149999999999,-0.50986,0.834811,0.40368,-0.43671,0.646251,0.44872,-0.6455299999999999,1.1359110000000001,0.3960869999999999,-0.4315,1.292891,0.449177,-0.6301399999999999,0.5805910000000001,0.522915,-0.84921,1.358701,0.558755,-0.8830399999999999,0.913691,0.000315,0.0035499999999999,1.086309,-0.000315,-0.0035499999999999,0.7748810000000002,-0.075865,-0.38294,1.188541,-0.0664049999999999,-0.4024299999999999,0.8686510000000001,-0.446115,-0.242251,1.116411,-0.442015,-0.252141
140,0.9839865,0.5601,-0.502895,0.8337075,0.407416,-0.431795,0.6447475,0.454092,-0.640805,1.1350675,0.400976,-0.4270549999999999,1.2926574999999998,0.454066,-0.625015,0.5780974999999999,0.52986,-0.844515,1.3584675,0.5658,-0.877945,0.9136375,0.0001599999999999,0.003475,1.0863625,-0.0001599999999999,-0.003475,0.7691775000000001,-0.0680899999999999,-0.382495,1.1921175,-0.0580399999999999,-0.402485,0.8665875000000001,-0.43679,-0.238975,1.1168675,-0.4329499999999999,-0.247961
141,0.9832235,0.564495,-0.495325,0.8324024999999999,0.411011,-0.426725,0.6430625000000001,0.459316,-0.635455,1.1342725,0.405737,-0.422555,1.2923325,0.458488,-0.6195550000000001,0.5758825000000001,0.535555,-0.840875,1.3583925,0.572885,-0.872555,0.9135525,-4.999999999977245e-06,0.0034549999999999,1.0864475,5.000000000032756e-06,-0.003455,0.7648625,-0.0610149999999999,-0.382125,1.1945825,-0.0498549999999999,-0.402515,0.8647925000000001,-0.4274749999999999,-0.235865,1.1169825,-0.423575,-0.243658
142,0.9830735000000002,0.56941,-0.486975,0.8315655,0.417305,-0.420555,0.6421555,0.466518,-0.628925,1.1342155,0.413327,-0.416925,1.2926955,0.465363,-0.613065,0.5744955,0.54296,-0.8362350000000001,1.3591955,0.58125,-0.866085,0.9135455,-0.0002899999999999,0.0033149999999999,1.0864545,0.00029,-0.003315,0.7616455000000001,-0.0516099999999999,-0.381865,1.1971055,-0.0393299999999999,-0.402495,0.8638455,-0.41578,-0.232161,1.1176255,-0.41223,-0.239492
143,0.9830105,0.57436,-0.478645,0.8305605,0.4237419999999999,-0.414285,0.6415505,0.4743659999999999,-0.622245,1.1342805,0.4210469999999999,-0.411145,1.2931805,0.4732309999999999,-0.606425,0.5733405,0.5516,-0.831685,1.3605805,0.5890599999999999,-0.857745,0.9135305,-0.00063,0.0033749999999999,1.0864695,0.0006299999999999,-0.0033749999999999,0.7595005,-0.04174,-0.381755,1.1994505,-0.0283,-0.403155,0.8634505,-0.4035500000000001,-0.228393,1.1182305,-0.40041,-0.235113
144,0.9827885000000001,0.57891,-0.47037,0.8293825000000001,0.429656,-0.40827,0.6409325,0.481053,-0.61544,1.1341725,0.42722,-0.4054,1.2937325,0.480883,-0.5998399999999999,0.5719225,0.55974,-0.8268800000000001,1.3621525,0.59662,-0.8494200000000001,0.9135325,-0.0009599999999999,0.0034899999999999,1.0864675,0.00096,-0.0034899999999999,0.7576425,-0.0321999999999999,-0.3815,1.2015725,-0.0177899999999999,-0.4041,0.8624825,-0.39332,-0.225523,1.1187125,-0.3891,-0.230842
145,0.9846070000000001,0.5882149999999999,-0.45803,0.830284,0.438059,-0.3984999999999999,0.642524,0.489936,-0.60503,1.136214,0.4356219999999999,-0.39573,1.296564,0.4909239999999999,-0.58969,0.5727340000000001,0.570395,-0.81835,1.3659139999999999,0.606765,-0.83728,0.9136440000000001,-6.500000000003725e-05,0.00392,1.0863559999999999,6.499999999998174e-05,-0.0039199999999999,0.756564,-0.019535,-0.37976,1.205384,-0.004675,-0.40153,0.8639140000000001,-0.381115,-0.2199769999999999,1.121324,-0.375405,-0.223153
146,0.9861615,0.5967399999999999,-0.44806,0.8310995,0.4463999999999999,-0.38937,0.6439995000000001,0.4978419999999999,-0.59512,1.1381395,0.443366,-0.38651,1.2994495,0.500676,-0.5802,0.5737395000000001,0.5802499999999999,-0.8104100000000001,1.3694595,0.6164499999999999,-0.82558,0.9137095000000001,0.0006299999999999,0.00414,1.0862904999999998,-0.00063,-0.00414,0.7553894999999999,-0.00717,-0.3772999999999999,1.2086994999999998,0.0078999999999999,-0.39788,0.8651995,-0.36958,-0.214945,1.1236694999999999,-0.36236,-0.215996
147,0.9874685,0.6036250000000001,-0.43851,0.8318565,0.453435,-0.38217,0.6452665,0.5042960000000001,-0.5873299999999999,1.1397965,0.449908,-0.37907,1.3021665,0.50871,-0.5729,0.5743365,0.588805,-0.80502,1.3727565,0.624995,-0.81579,0.9137765,0.000655,0.00425,1.0862235,-0.0006549999999999,-0.0042499999999999,0.7545565,0.004355,-0.3766199999999999,1.2107865,0.019655,-0.39622,0.8670265,-0.358055,-0.2103749999999999,1.1257865,-0.350075,-0.210634
148,0.9883840000000002,0.610785,-0.43282,0.83304,0.459799,-0.37498,0.64646,0.511375,-0.57968,1.14115,0.456936,-0.37178,1.30468,0.517347,-0.56547,0.57525,0.597305,-0.79944,1.37572,0.632895,-0.8063400000000001,0.9137,0.000545,0.0042999999999999,1.0863,-0.000545,-0.0042999999999999,0.75398,0.016625,-0.37571,1.21216,0.031905,-0.39449,0.86838,-0.346815,-0.206116,1.12771,-0.3376249999999999,-0.205044
149,0.9884740000000001,0.61172,-0.43348,0.8336410000000001,0.460138,-0.37442,0.646791,0.5120250000000001,-0.5786,1.141701,0.457654,-0.37104,1.306341,0.519842,-0.56475,0.575361,0.599106,-0.80101,1.377951,0.6346400000000001,-0.8037599999999999,0.913251,0.00031,0.0042,1.086749,-0.0003099999999999,-0.0042,0.754861,0.0223,-0.37655,1.212921,0.03764,-0.3949,0.8693310000000001,-0.3405199999999999,-0.207207,1.128791,-0.3311999999999999,-0.206059
150,0.9889495,0.6119,-0.43493,0.8347725,0.460381,-0.3741299999999999,0.6475725,0.5122490000000001,-0.5786,1.1426325,0.458151,-0.3703999999999999,1.3082525,0.522086,-0.5644,0.5759125,0.601457,-0.80168,1.3804325,0.6357,-0.80125,0.9128225,7.00000000000145e-05,0.0041,1.0871775,-7.00000000000145e-05,-0.0040999999999999,0.7560925000000001,0.02807,-0.37754,1.2133325,0.04308,-0.3953,0.8705925,-0.3349099999999999,-0.2088259999999999,1.1300824999999999,-0.32533,-0.2071839999999999
151,0.9888885,0.6110840000000001,-0.43764,0.8360525,0.458001,-0.37501,0.6481725,0.5094740000000001,-0.58019,1.1434425,0.456052,-0.37093,1.3100125,0.5216670000000001,-0.56516,0.5762525000000001,0.60104,-0.80183,1.3828725,0.6353200000000001,-0.79983,0.9124225,-1.999999999990898e-05,0.00412,1.0875775,2.000000000002e-05,-0.00412,0.7572925,0.03127,-0.37827,1.2134624999999999,0.04597,-0.39572,0.8718725,-0.33207,-0.211223,1.1313625,-0.3218999999999999,-0.2082729999999999
152,0.9886940000000001,0.609745,-0.438475,0.837414,0.455153,-0.375745,0.6488039999999999,0.505231,-0.581725,1.144374,0.453828,-0.371415,1.311674,0.519774,-0.565955,0.5766640000000001,0.598974,-0.801855,1.385024,0.63482,-0.799585,0.912154,-7.999999999996898e-05,0.004135,1.087846,7.999999999996898e-05,-0.004135,0.758264,0.0331199999999999,-0.378775,1.213824,0.04702,-0.395745,0.873334,-0.33085,-0.21347,1.132644,-0.3198499999999999,-0.209109
153,0.9880805,0.6083830000000001,-0.44154,0.8386015,0.4525080000000001,-0.37666,0.6492715,0.5018520000000001,-0.58318,1.1451315,0.4529540000000001,-0.37193,1.3131215,0.5181290000000001,-0.56677,0.5765015,0.596592,-0.8019099999999999,1.3867915,0.6333350000000001,-0.7994600000000001,0.9117615,-0.0001649999999999,0.00415,1.0882385,0.000165,-0.0041499999999999,0.7594515,0.035185,-0.3792,1.2127915,0.048295,-0.39574,0.8747715,-0.3294149999999999,-0.2146739999999999,1.1338314999999999,-0.3175649999999999,-0.2101859999999999
154,0.9866130000000001,0.610452,-0.436795,0.838858,0.4533319999999999,-0.3717749999999999,0.648738,0.5015769999999999,-0.579005,1.144898,0.455885,-0.3668249999999999,1.313588,0.519717,-0.561395,0.575118,0.5923579999999999,-0.795475,1.3875579999999998,0.6346299999999999,-0.793575,0.911758,2.999999999997449e-05,0.0041049999999999,1.088242,-3.0000000000085517e-05,-0.0041049999999999,0.757708,0.0406299999999999,-0.377135,1.213568,0.0534499999999999,-0.394265,0.8754280000000001,-0.32423,-0.2094019999999999,1.134008,-0.31216,-0.2050449999999999
155,0.9850140000000001,0.613518,-0.43422,0.8392470000000001,0.455429,-0.36698,0.6483369999999999,0.502801,-0.57509,1.1446569999999998,0.459865,-0.36171,1.313977,0.522086,-0.55612,0.5735570000000001,0.591737,-0.79203,1.388277,0.638255,-0.78823,0.911747,4.499999999996174e-05,0.0038799999999999,1.088253,-4.499999999996174e-05,-0.00388,0.755977,0.0470249999999999,-0.37518,1.2137069999999999,0.0592449999999999,-0.39288,0.875737,-0.3189849999999999,-0.204924,1.134267,-0.306115,-0.200169
156,0.9844395,0.616739,-0.428555,0.8398785,0.457974,-0.3618949999999999,0.6478985000000002,0.50458,-0.571245,1.1444385,0.463871,-0.356305,1.3143685,0.5250589999999999,-0.550515,0.5720785000000002,0.590894,-0.7882750000000001,1.3889585,0.63977,-0.782645,0.9117385,5.999999999994898e-05,0.0036849999999999,1.0882615,-5.999999999994898e-05,-0.003685,0.7542584999999999,0.0536499999999999,-0.3729449999999999,1.2139885,0.06555,-0.390915,0.8769085000000001,-0.31272,-0.199356,1.1347085,-0.29983,-0.194958
157,0.982022,0.616318,-0.42874,0.838562,0.457442,-0.36245,0.645682,0.502532,-0.5730200000000001,1.142482,0.464046,-0.35651,1.312872,0.52392,-0.55074,0.568852,0.586581,-0.7903199999999999,1.387712,0.636968,-0.78288,0.911622,-0.0006349999999999,0.0034399999999999,1.088378,0.000635,-0.00344,0.752892,0.056115,-0.37153,1.211902,0.067145,-0.39139,0.876302,-0.3102549999999999,-0.199063,1.133232,-0.2980349999999999,-0.195509
158,0.9796495,0.61628,-0.42884,0.8372225,0.457129,-0.3626899999999999,0.6435525,0.50105,-0.5739,1.1405825,0.463849,-0.3566399999999999,1.3114225,0.52325,-0.5508299999999999,0.5645225,0.583053,-0.79148,1.3863825,0.635179,-0.78267,0.9114725,-0.001225,0.00321,1.0885275,0.001225,-0.0032099999999999,0.7517125,0.0586849999999999,-0.36998,1.2102825,0.0689549999999999,-0.39156,0.8757225000000001,-0.307095,-0.19838,1.1317925,-0.296295,-0.196008
159,0.9771915,0.614918,-0.42805,0.8358865,0.4583899999999999,-0.36278,0.6413565,0.500887,-0.5740000000000001,1.1387464999999999,0.465244,-0.3567,1.3098665,0.523844,-0.55087,0.5602165,0.581489,-0.79213,1.3851065,0.634221,-0.78199,0.9113465000000001,-0.00153,0.0030199999999999,1.0886535,0.00153,-0.00302,0.7503765,0.06202,-0.36843,1.2087264999999998,0.07161,-0.39138,0.8744565000000001,-0.3043,-0.198583,1.1302765,-0.29335,-0.196258
160,0.975414,0.6143790000000001,-0.427235,0.834478,0.4598460000000001,-0.362695,0.639318,0.5018190000000001,-0.573875,1.137138,0.4666990000000001,-0.356295,1.308468,0.5248700000000001,-0.550605,0.556318,0.5813530000000001,-0.791765,1.384058,0.6337710000000001,-0.780805,0.911328,-0.0017049999999999,0.0029949999999999,1.088672,0.001705,-0.0029949999999999,0.7491380000000001,0.065505,-0.366815,1.207338,0.074495,-0.390935,0.873048,-0.3013549999999999,-0.198498,1.128988,-0.2903249999999999,-0.196438
161,0.974099,0.6148440000000001,-0.42411,0.833364,0.461805,-0.36264,0.6374340000000001,0.503538,-0.57378,1.135934,0.468525,-0.3557,1.307364,0.526707,-0.55067,0.552874,0.5821850000000001,-0.7903100000000001,1.383404,0.634355,-0.7794500000000001,0.911734,-0.0019549999999999,0.00297,1.088266,0.001955,-0.00297,0.748124,0.069365,-0.36638,1.206244,0.077855,-0.39052,0.8719340000000001,-0.297975,-0.198443,1.128094,-0.286945,-0.196485
162,0.9726645,0.615705,-0.422805,0.8321225000000001,0.4638179999999999,-0.362145,0.6355625,0.505362,-0.5736749999999999,1.1347125,0.470178,-0.354805,1.3061425,0.528503,-0.550615,0.5501025000000002,0.583768,-0.788575,1.3826524999999998,0.636058,-0.777645,0.9120225,-0.002095,0.002955,1.0879775,0.0020949999999999,-0.0029549999999999,0.7468825,0.0723349999999999,-0.365975,1.2055625,0.0805849999999999,-0.390325,0.8703325,-0.297055,-0.1991679999999999,1.1268825,-0.284265,-0.1965969999999999
163,0.9716155,0.616414,-0.418985,0.8308225,0.466235,-0.361195,0.6338325,0.507994,-0.572835,1.1335125,0.472186,-0.353705,1.3064225,0.530887,-0.550315,0.5477525,0.587071,-0.786315,1.3819725,0.638627,-0.774975,0.9123325,-0.00219,0.0029049999999999,1.0876675,0.00219,-0.0029049999999999,0.7456324999999999,0.0751999999999999,-0.365875,1.2053325,0.08331,-0.390275,0.8690625,-0.29508,-0.199462,1.1259325,-0.28115,-0.196697
164,0.9705235000000001,0.6243489999999999,-0.408275,0.8291605000000001,0.4751189999999999,-0.353405,0.6322605,0.51743,-0.565315,1.1320805,0.480645,-0.345695,1.3073005,0.540229,-0.5434950000000001,0.5455004999999999,0.597136,-0.777585,1.3811305,0.6486919999999999,-0.7654650000000001,0.9128105,-0.002415,0.0027949999999999,1.0871895,0.0024149999999999,-0.002795,0.7420005000000001,0.0852649999999999,-0.362485,1.2070405,0.0933649999999999,-0.387845,0.8676905,-0.286745,-0.192879,1.1247605,-0.271425,-0.19032
165,0.9696935,0.633057,-0.39679,0.8273995000000001,0.484187,-0.34478,0.6308595,0.52764,-0.5565599999999999,1.1309195,0.4892919999999999,-0.33677,1.3084895,0.550381,-0.53623,0.5433995,0.607421,-0.7675799999999999,1.3803995,0.6589769999999999,-0.7558199999999999,0.9132295,-0.0025899999999999,0.00264,1.0867705,0.0025899999999999,-0.00264,0.7383395000000001,0.0955499999999999,-0.3588599999999999,1.2089295,0.1036099999999999,-0.38525,0.8654595,-0.27864,-0.1865669999999999,1.1237495,-0.26142,-0.183838
166,0.9691945,0.6372200000000001,-0.38983,0.8256055,0.487543,-0.3407,0.6295855,0.5328250000000001,-0.5524,1.1301855,0.492384,-0.3325,1.3102455,0.5555660000000001,-0.53402,0.5413555,0.6161050000000001,-0.7642,1.3799755,0.664162,-0.75122,0.9133155,-0.0026549999999999,0.0023999999999999,1.0866845,0.002655,-0.0023999999999999,0.7365554999999999,0.100335,-0.3575,1.2097955,0.108125,-0.38417,0.8632755,-0.2754849999999998,-0.185631,1.1228855,-0.2572449999999999,-0.182547
167,0.9691420000000001,0.642576,-0.3820249999999999,0.8239190000000001,0.491263,-0.335815,0.6284890000000001,0.53841,-0.546885,1.129799,0.496017,-0.327535,1.312379,0.5611510000000001,-0.531535,0.540199,0.623449,-0.7595850000000001,1.380989,0.673864,-0.7462150000000001,0.913399,-0.00278,0.002105,1.086601,0.00278,-0.0021049999999999,0.7347790000000001,0.10512,-0.355935,1.210879,0.1129,-0.3827549999999999,0.861449,-0.27117,-0.1837929999999999,1.122319,-0.2527399999999999,-0.180919
168,0.969166,0.6474260000000001,-0.377005,0.822546,0.4941960000000001,-0.330365,0.627776,0.5432600000000001,-0.540585,1.130106,0.498926,-0.322435,1.314986,0.5660010000000001,-0.528635,0.539396,0.630711,-0.7545249999999999,1.382296,0.6834760000000001,-0.7412049999999999,0.9134460000000001,-0.0031199999999999,0.001745,1.0865539999999998,0.00312,-0.0017449999999999,0.7335160000000001,0.10895,-0.354345,1.212516,0.11668,-0.381275,0.859606,-0.2681199999999999,-0.1830729999999999,1.1219659999999998,-0.2489099999999999,-0.179113
169,0.97062,0.6517809999999999,-0.37134,0.8223389999999999,0.4969649999999999,-0.32477,0.628429,0.547959,-0.53391,1.131589,0.5014679999999999,-0.31718,1.319529,0.5710059999999999,-0.5251,0.5398090000000001,0.638211,-0.74869,1.384959,0.6933029999999999,-0.73632,0.913749,-0.003435,0.0013799999999999,1.086251,0.0034349999999999,-0.00138,0.733319,0.1112049999999999,-0.35279,1.215329,0.1192249999999999,-0.37954,0.858789,-0.2655550000000001,-0.18304,1.122959,-0.245605,-0.177539
170,0.9722875,0.656146,-0.364575,0.8222565,0.499807,-0.318805,0.6297665,0.553077,-0.5261549999999999,1.1334565,0.504054,-0.311205,1.3244565,0.57666,-0.5203150000000001,0.5417164999999999,0.646325,-0.739535,1.3878065,0.70381,-0.7303250000000001,0.9139565000000001,-0.0035199999999999,0.0011749999999999,1.0860435,0.0035199999999999,-0.001175,0.7332365000000001,0.11358,-0.351345,1.2181665,0.12129,-0.377795,0.8584965,-0.2632799999999999,-0.181802,1.1240765,-0.2422299999999999,-0.175681
171,0.9736225,0.663057,-0.357182,0.8221035000000001,0.5027999999999999,-0.312752,0.6311135,0.5585359999999999,-0.518232,1.1352335,0.506626,-0.3048119999999999,1.3292035,0.5826899999999999,-0.514582,0.5434435,0.655138,-0.730262,1.3906735000000001,0.71519,-0.723752,0.9139435,-0.00346,0.000978,1.0860565,0.00346,-0.0009779999999999,0.7329034999999999,0.1160999999999999,-0.350112,1.2204135,0.1233599999999999,-0.376162,0.8575835,-0.26028,-0.1811479999999999,1.1249135,-0.239,-0.173611
172,0.9751795,0.669833,-0.349525,0.8221775,0.505745,-0.306855,0.6326674999999999,0.56422,-0.510025,1.1370575,0.509056,-0.298095,1.3325575,0.589152,-0.508425,0.5453574999999999,0.664264,-0.720885,1.3937175,0.727035,-0.716855,0.9139375,-0.003275,0.0008239999999999,1.0860625,0.003275,-0.000824,0.7325875,0.118445,-0.349325,1.2223875,0.124925,-0.374455,0.8571375,-0.2575149999999999,-0.179754,1.1256575,-0.236035,-0.171598
173,0.977198,0.6762239999999999,-0.341966,0.8224629999999999,0.508215,-0.301396,0.634683,0.569981,-0.5020560000000001,1.138983,0.510995,-0.291746,1.335413,0.595278,-0.501976,0.5474330000000001,0.672908,-0.711936,1.3971930000000001,0.7388349999999999,-0.709916,0.913873,-0.002955,0.0007789999999999,1.086127,0.0029549999999999,-0.000779,0.732413,0.1201749999999999,-0.349006,1.224133,0.1258249999999999,-0.372896,0.8573729999999999,-0.255105,-0.178486,1.126753,-0.233705,-0.17003
174,0.9792,0.6823940000000001,-0.3345479999999999,0.822591,0.510405,-0.296268,0.636341,0.576112,-0.495088,1.140511,0.512835,-0.285888,1.337381,0.601289,-0.495668,0.548991,0.681517,-0.704438,1.400491,0.750605,-0.7025779999999999,0.913791,-0.002645,0.000756,1.086209,0.002645,-0.0007559999999999,0.732011,0.121645,-0.348998,1.2254509999999998,0.126375,-0.371378,0.857031,-0.252745,-0.177147,1.127601,-0.231735,-0.168742
175,0.9813135000000001,0.687428,-0.327401,0.8229455000000001,0.5121950000000001,-0.291981,0.6382055,0.5811950000000001,-0.4885009999999999,1.1420655,0.5139650000000001,-0.280591,1.3388955,0.6064020000000001,-0.488801,0.5507955,0.689138,-0.697411,1.4038255,0.7613350000000001,-0.6953910000000001,0.9136955,-0.0022649999999999,0.000847,1.0863045,0.002265,-0.000847,0.7318555,0.122415,-0.349431,1.2264255,0.1267950000000001,-0.370261,0.8569955000000001,-0.2520449999999999,-0.176422,1.1285455,-0.2302049999999998,-0.167613
176,0.9840565,0.692373,-0.320788,0.8241485,0.51354,-0.287368,0.6405285000000001,0.586087,-0.483228,1.1443185,0.51531,-0.275988,1.3408785,0.611147,-0.481938,0.5533085,0.69637,-0.6916479999999999,1.4067285,0.7673300000000001,-0.688678,0.9135885,-0.00192,0.001001,1.0864115,0.00192,-0.001001,0.7326185000000001,0.12301,-0.350078,1.2281385,0.12681,-0.3694179999999999,0.8581185,-0.2520599999999999,-0.174818,1.1301985,-0.22901,-0.166737
177,0.9871465,0.6960770000000001,-0.314471,0.8258725,0.51383,-0.282911,0.6435525,0.589738,-0.477861,1.1468225,0.5156000000000001,-0.271151,1.3432325,0.6155470000000001,-0.473421,0.5567025,0.702194,-0.685651,1.4101225,0.77307,-0.682071,0.9134625000000001,-0.00163,0.0011299999999999,1.0865375,0.00163,-0.00113,0.7338925000000001,0.12272,-0.350531,1.2301525,0.12583,-0.368591,0.8596225,-0.25298,-0.17326,1.1323625,-0.22872,-0.165681
178,0.9900335000000001,0.699376,-0.308466,0.8274225,0.51412,-0.278696,0.6463225,0.5932890000000001,-0.472526,1.1490925,0.5156700000000001,-0.267016,1.3449725,0.619201,-0.465636,0.5600025,0.707253,-0.680406,1.4131624999999999,0.77788,-0.675296,0.9133325,-0.00163,0.001282,1.0866675,0.00163,-0.001282,0.7346725000000001,0.12219,-0.350966,1.2320425,0.12461,-0.367606,0.8608225,-0.25346,-0.1721929999999999,1.1341525,-0.2287099999999999,-0.164428
179,0.992936,0.702609,-0.3040879999999999,0.828999,0.51475,-0.275758,0.648649,0.597127,-0.469558,1.151079,0.5163300000000001,-0.264488,1.346619,0.622579,-0.4598279999999999,0.562559,0.7121580000000001,-0.6778080000000001,1.4160089999999999,0.7825300000000001,-0.6706380000000001,0.913139,-0.00163,0.0014009999999999,1.086861,0.00163,-0.0014009999999999,0.7350289999999999,0.12142,-0.351958,1.2343790000000001,0.12362,-0.367398,0.8618590000000002,-0.2545999999999999,-0.1715169999999999,1.135989,-0.22885,-0.164438
180,0.9955405,0.706279,-0.299633,0.8303055,0.51674,-0.2720829999999999,0.6501755,0.601254,-0.466263,1.1525855,0.5173,-0.262233,1.3479655,0.6258269999999999,-0.454063,0.5650055,0.7162989999999999,-0.6747129999999999,1.4183655,0.78655,-0.6665030000000001,0.9130155,-0.00142,0.0015669999999999,1.0869845,0.0014199999999999,-0.0015669999999999,0.7346755,0.1204299999999999,-0.352463,1.2370055,0.1221099999999999,-0.367303,0.8626255,-0.2554700000000001,-0.170826,1.1374955,-0.22914,-0.163887
181,0.9971265000000001,0.7103729999999999,-0.295081,0.8307035,0.5186369999999999,-0.267951,0.6507735,0.6054889999999999,-0.462811,1.1530335,0.5173749999999999,-0.260011,1.3480634999999999,0.6286109999999999,-0.448041,0.5663435,0.7201,-0.671501,1.4195335,0.7910999999999999,-0.662971,0.9130135,-0.0008800000000001,0.00149,1.0869865,0.0008799999999999,-0.0014899999999999,0.7324634999999999,0.1186999999999999,-0.352221,1.2390835,0.1201999999999999,-0.367141,0.8626635,-0.25699,-0.170022,1.1379934999999999,-0.23009,-0.16316
182,0.9985790000000001,0.712928,-0.290922,0.8313159999999999,0.5196689999999999,-0.2639019999999999,0.651116,0.607381,-0.459412,1.153476,0.516082,-0.257872,1.347736,0.629762,-0.4427419999999999,0.567816,0.72188,-0.668242,1.420326,0.79279,-0.660192,0.913006,-0.0003199999999999,0.001374,1.086994,0.0003199999999999,-0.001374,0.730016,0.11485,-0.351722,1.241416,0.11591,-0.367152,0.862456,-0.26044,-0.169599,1.138236,-0.2335399999999999,-0.162592
183,1.0000085,0.7159150000000001,-0.287285,0.8319095,0.521081,-0.260045,0.6514395,0.61062,-0.4562049999999999,1.1542595,0.5163500000000001,-0.255505,1.3471994999999999,0.6309410000000001,-0.437675,0.5692695,0.7249850000000001,-0.665205,1.4210795,0.794865,-0.657995,0.9129995,0.000145,0.001277,1.0870005,-0.0001449999999999,-0.001277,0.7269995,0.110085,-0.351155,1.2441995000000001,0.111365,-0.367435,0.8625495,-0.2649049999999999,-0.167882,1.1384595,-0.2377749999999999,-0.162206
184,1.0010789999999998,0.7190049999999999,-0.2844205,0.83256,0.5222879999999999,-0.2560305,0.65158,0.6128189999999999,-0.4535405,1.15483,0.5149329999999999,-0.2534705,1.3471199999999999,0.63145,-0.4332305,0.5704899999999999,0.7268149999999999,-0.6622205000000001,1.42158,0.796275,-0.6563604999999999,0.91288,0.0005549999999999,0.0012124999999999,1.08712,-0.000555,-0.0012125,0.72323,0.1036249999999999,-0.3508305,1.2473999999999998,0.1049049999999999,-0.3681405,0.86261,-0.271345,-0.1661715,1.1385399999999999,-0.243855,-0.1620055
185,1.0013605,0.720855,-0.2816845,0.8324095,0.522932,-0.2527945,0.6506395,0.613766,-0.4504945,1.1550095,0.516625,-0.2505645,1.3458595,0.6308389999999999,-0.4288545,0.5710595,0.726205,-0.6586145,1.4207795,0.795885,-0.6548645,0.9128295,0.000375,0.0011454999999999,1.0871705,-0.000375,-0.0011455,0.7185695000000001,0.0944649999999999,-0.3502245,1.2502195,0.0957449999999999,-0.3688845,0.8618195000000001,-0.280505,-0.1642615,1.1377195,-0.252515,-0.1611235
186,1.0014465,0.7234349999999999,-0.2791325,0.8322395,0.5234679999999999,-0.2496825,0.6494795000000001,0.614493,-0.4476425,1.1550095,0.5171849999999999,-0.2477625,1.3445095,0.6286039999999999,-0.4261725,0.5714095,0.7246149999999999,-0.6550425,1.4195495,0.793465,-0.6533025,0.9130294999999999,0.0002749999999999,0.0010635,1.0869705,-0.000275,-0.0010634999999999,0.7137895000000001,0.0831549999999999,-0.3495925,1.2527495,0.0844349999999999,-0.3696625,0.8608595,-0.291505,-0.1621495,1.1366995,-0.263225,-0.1601425
187,1.0013015,0.7255400000000001,-0.2773395,0.8321945,0.5242570000000001,-0.2470295,0.6483645,0.6151350000000001,-0.4448295,1.1549444999999998,0.5179590000000001,-0.2452795,1.3430645,0.628383,-0.4237495,0.5715945,0.7251500000000001,-0.6518995,1.4182345,0.79061,-0.6525095,0.9131945,0.00021,0.0010544999999999,1.0868055,-0.0002099999999999,-0.0010544999999999,0.7104945,0.07099,-0.3492895,1.2541645,0.07199,-0.3697395,0.8591545,-0.3029599999999999,-0.1623735,1.1356045,-0.2757999999999999,-0.1595565
188,1.0011634999999999,0.7278849999999999,-0.275054,0.8323105,0.52589,-0.244114,0.6471505,0.616447,-0.441624,1.1550405,0.5195029999999999,-0.242264,1.3418005,0.627494,-0.421254,0.5718105,0.726035,-0.648564,1.4168905,0.790275,-0.651494,0.9131105,0.0003249999999999,0.001059,1.0868895,-0.000325,-0.001059,0.7077805000000001,0.0552749999999999,-0.348784,1.2546805,0.0559549999999999,-0.369764,0.8574705,-0.319425,-0.162474,1.1344305000000001,-0.293765,-0.15902
189,1.0012145,0.7310000000000001,-0.2736825,0.8325745,0.5265460000000001,-0.2426125,0.6458444999999999,0.618033,-0.4393525,1.1553845,0.520595,-0.2400125,1.3407845,0.627662,-0.4199325,0.5724245,0.72773,-0.6457425,1.4157145,0.7911600000000001,-0.6511125,0.9127645,0.00031,0.0011825,1.0872355,-0.0003099999999999,-0.0011825,0.7061945000000001,0.04039,-0.3487125,1.2542545,0.04156,-0.3701225,0.8560345,-0.33543,-0.1633235,1.1336045,-0.31126,-0.1591715
190,1.0011385,0.73139,-0.272885,0.8328504999999999,0.527282,-0.241635,0.6446405,0.61586,-0.437185,1.1559504999999999,0.520915,-0.238295,1.3400005,0.62523,-0.419595,0.5734105,0.72618,-0.643775,1.4137905,0.78966,-0.6508449999999999,0.9124505,0.00031,0.0011919999999999,1.0875495,-0.00031,-0.0011919999999999,0.7051805,0.02123,-0.348305,1.2531705,0.02243,-0.370945,0.8524005,-0.35609,-0.166197,1.1327605,-0.33359,-0.160478
191,1.0008245,0.73385,-0.272139,0.8328925,0.528192,-0.240539,0.6430825,0.61778,-0.4353889999999999,1.1564225,0.522844,-0.236649,1.3388625,0.6261,-0.418869,0.5742525,0.72861,-0.642099,1.4116325,0.79093,-0.6502889999999999,0.9120425,0.00024,0.00121,1.0879575,-0.00024,-0.0012099999999999,0.7039525000000001,0.0038699999999999,-0.347989,1.2518725,0.0050499999999999,-0.371959,0.8484625,-0.37566,-0.169041,1.1317125,-0.35488,-0.161866
192,1.0005755,0.73588,-0.2710655,0.8330325000000001,0.528128,-0.2390755,0.6418725000000001,0.61754,-0.4331655,1.1566025,0.52334,-0.2350955,1.3381025,0.62524,-0.4180955,0.5753425000000001,0.7264900000000001,-0.6387455,1.4090725,0.78906,-0.6493455,0.9116925,0.0001599999999999,0.0012664999999999,1.0883075,-0.0001599999999999,-0.0012665,0.7027225,-0.0156299999999999,-0.3474355,1.2505725,-0.0141,-0.3725955,0.8447925000000001,-0.3979999999999999,-0.1711465,1.1306425,-0.37884,-0.1633415
193,1.000702,0.73732,-0.2693035,0.8335230000000001,0.529356,-0.2374735,0.640933,0.61804,-0.4306935,1.157093,0.526022,-0.2332935,1.337743,0.6253000000000001,-0.4167234999999999,0.5769329999999999,0.72599,-0.6347335,1.406593,0.7900400000000001,-0.6481935,0.911323,0.00013,0.0013635,1.0886770000000001,-0.0001299999999999,-0.0013635,0.7027829999999999,-0.0353199999999999,-0.3463835,1.249373,-0.0330199999999999,-0.3727435,0.8412930000000001,-0.42077,-0.1737815,1.131793,-0.40337,-0.1678545
194,1.001048,0.73967,-0.266194,0.834287,0.53039,-0.2345539999999999,0.6403570000000001,0.61987,-0.426854,1.157667,0.52501,-0.2308839999999999,1.3377970000000001,0.62625,-0.4133239999999999,0.578687,0.72777,-0.629724,1.4042569999999999,0.7915099999999999,-0.6452739999999999,0.911117,0.00058,0.001312,1.088883,-0.00058,-0.0013119999999999,0.7039569999999999,-0.0542799999999999,-0.343874,1.2475669999999999,-0.0515499999999999,-0.371394,0.8380870000000001,-0.44315,-0.177726,1.133567,-0.4276299999999999,-0.171101
195,1.001282,0.742405,-0.2624325,0.8344739999999999,0.531555,-0.2311225,0.6398539999999999,0.622485,-0.4223725,1.158274,0.525525,-0.2279725,1.337434,0.6281950000000001,-0.4100625,0.579854,0.731665,-0.6247425000000001,1.401334,0.793515,-0.6412825000000001,0.910944,0.0010049999999999,0.0012525,1.089056,-0.0010049999999999,-0.0012525,0.706314,-0.073865,-0.3406725,1.244734,-0.070975,-0.3692225,0.8347640000000001,-0.466695,-0.1818115,1.135324,-0.453155,-0.1748755
196,1.001391,0.7449049999999999,-0.2579405,0.834151,0.535205,-0.2267605,0.639251,0.6237349999999999,-0.4171605,1.1589909999999999,0.526045,-0.2245605,1.337461,0.629535,-0.4069905,0.580881,0.7356050000000001,-0.6190205,1.398001,0.799165,-0.6368105,0.910861,0.001535,0.0013514999999999,1.089139,-0.001535,-0.0013515,0.709301,-0.094075,-0.3365605,1.241151,-0.091225,-0.3659805,0.8309210000000001,-0.491905,-0.1854505,1.137261,-0.479405,-0.1784335
197,1.001519,0.748725,-0.2530485,0.8339740000000001,0.536725,-0.2225384999999999,0.638774,0.625825,-0.4112985,1.1597439999999999,0.526365,-0.2211084999999999,1.337624,0.631575,-0.4033585,0.5820540000000001,0.739405,-0.6132685,1.3950339999999999,0.8033349999999999,-0.6323685,0.910964,0.0017449999999999,0.0015565,1.0890360000000001,-0.0017449999999999,-0.0015565,0.712924,-0.112675,-0.3319285,1.236864,-0.109835,-0.3616685,0.827464,-0.513895,-0.1889585,1.139384,-0.502385,-0.1822155
198,1.0017995,0.7513399999999999,-0.247405,0.8340105,0.5384599999999999,-0.217155,0.6388305000000001,0.62748,-0.404915,1.1607605,0.52669,-0.216895,1.3380305,0.63314,-0.398225,0.5825705,0.7440899999999999,-0.607455,1.3922505,0.80694,-0.626455,0.9108805000000001,0.0019599999999999,0.0015609999999999,1.0891194999999998,-0.00196,-0.001561,0.7175805,-0.13364,-0.326485,1.2319705,-0.13103,-0.356545,0.8241005,-0.5384,-0.192415,1.1417905,-0.52747,-0.186275
199,1.0022995,0.75749,-0.2409474999999999,0.8341455,0.54147,-0.2110175,0.6386555,0.63405,-0.3975975,1.1618755,0.52898,-0.2124075,1.3380155,0.63935,-0.3929875,0.5833055,0.7529699999999999,-0.5999574999999999,1.3905655000000001,0.8153199999999999,-0.6196975,0.9108155,0.0021499999999999,0.0016735,1.0891845,-0.00215,-0.0016734999999999,0.7219055000000001,-0.1505,-0.3213375,1.2277455,-0.14749,-0.3521475,0.8232055,-0.55887,-0.1929175,1.1440755,-0.54836,-0.1901574999999999
200,1.0025465,0.76227,-0.233626,0.8335144999999999,0.54454,-0.204586,0.6385545,0.63868,-0.3893359999999999,1.1626145,0.5306200000000001,-0.207436,1.3378845,0.64475,-0.388246,0.5836345000000001,0.75854,-0.589836,1.3884045,0.82431,-0.613576,0.9108445000000001,0.0023,0.0016769999999999,1.0891555,-0.0022999999999999,-0.0016769999999999,0.7267645,-0.1683899999999999,-0.315426,1.2230445,-0.16558,-0.346686,0.8220244999999999,-0.58031,-0.192996,1.1458345,-0.5707099999999999,-0.193836
201,1.0028329999999999,0.767385,-0.2249285,0.832878,0.547885,-0.1977285,0.638398,0.6442950000000001,-0.3793285,1.163348,0.5325850000000001,-0.2022185,1.337928,0.6511450000000001,-0.3828285,0.583948,0.7693350000000001,-0.5803785,1.3867479999999999,0.835825,-0.6060185,0.910988,0.0023249999999999,0.0018164999999999,1.089012,-0.0023249999999999,-0.0018164999999999,0.731618,-0.184685,-0.3088984999999999,1.218488,-0.1820649999999999,-0.3411185,0.821408,-0.600285,-0.1928185,1.147418,-0.591555,-0.1970085
202,1.003301,0.77248,-0.214951,0.832379,0.5508200000000001,-0.188931,0.6382690000000001,0.64995,-0.367651,1.164359,0.53362,-0.1953809999999999,1.338409,0.65764,-0.374841,0.584499,0.7806500000000001,-0.569601,1.384989,0.8454600000000001,-0.595321,0.911289,0.00236,0.001951,1.088711,-0.00236,-0.0019509999999999,0.7368590000000002,-0.2003499999999999,-0.300701,1.214109,-0.1984599999999999,-0.3336409999999999,0.821419,-0.6193299999999999,-0.191181,1.1474289999999998,-0.61164,-0.195481
203,1.00373,0.7767550000000001,-0.2026885,0.831604,0.554035,-0.1800705,0.637874,0.656435,-0.3550784999999999,1.165514,0.537595,-0.1873985,1.338194,0.664275,-0.3665085,0.584864,0.7939350000000001,-0.5577985,1.382884,0.8568549999999999,-0.5827685,0.9116140000000001,0.002175,0.0020465,1.0883859999999999,-0.0021749999999999,-0.0020464999999999,0.742174,-0.216055,-0.2917984999999999,1.209384,-0.2140449999999999,-0.3252385,0.8214440000000001,-0.638385,-0.1884485,1.1472939999999998,-0.6308149999999999,-0.1936385
204,1.0037435,0.7822600000000001,-0.1911805,0.8303475000000001,0.55847,-0.1713615,0.6370575,0.66343,-0.3433305,1.1663775,0.54049,-0.1797405,1.3380475,0.67335,-0.3577005,0.5847875,0.80811,-0.5458905000000001,1.3805475,0.86887,-0.5700905000000001,0.9118865,0.00188,0.0021115,1.0881135,-0.0018799999999999,-0.0021115,0.7473974999999999,-0.2303799999999999,-0.2829905,1.2043175,-0.22852,-0.3162705,0.8214575,-0.6557499999999999,-0.1854305,1.1469075,-0.64866,-0.1917305
205,1.003653,0.786375,-0.1784565,0.828638,0.559555,-0.1623704999999999,0.636298,0.671425,-0.3315165,1.166828,0.543675,-0.1712435,1.337678,0.680445,-0.3482465,0.584788,0.820105,-0.5326765,1.378318,0.881645,-0.5563765,0.912147,0.0016049999999999,0.0020865,1.087853,-0.0016049999999999,-0.0020864999999999,0.753738,-0.244855,-0.2728865,1.198728,-0.242525,-0.3061764999999999,0.8212380000000001,-0.672735,-0.1818265,1.1462279999999998,-0.665455,-0.1893564999999999
206,1.003684,0.7905800000000001,-0.1661825,0.826928,0.5618399999999999,-0.1530875,0.6353679999999999,0.6786699999999999,-0.3206455,1.167288,0.5460799999999999,-0.1628295,1.3377379999999999,0.6881999999999999,-0.3385955,0.585488,0.8333299999999999,-0.5187655,1.376198,0.8936899999999999,-0.5424855,0.912311,0.0014299999999999,0.0021364999999999,1.087689,-0.00143,-0.0021365,0.7606280000000001,-0.25855,-0.2626255,1.193088,-0.25585,-0.2955355,0.8212079999999999,-0.68899,-0.1784755,1.145778,-0.68173,-0.1868955
207,1.0035995,0.79368,-0.15342,0.8252255,0.56487,-0.143988,0.6345055,0.68635,-0.308977,1.1672155,0.54874,-0.15441,1.3371955,0.6964,-0.329707,0.5856955000000001,0.84506,-0.504107,1.3734555,0.90655,-0.528157,0.9125354999999999,0.0012299999999999,0.002176,1.0874645,-0.0012299999999999,-0.0021759999999999,0.7674955,-0.27124,-0.251667,1.1873254999999998,-0.26853,-0.2841869999999999,0.8213254999999999,-0.7041999999999999,-0.174697,1.1446355,-0.69739,-0.1834569999999999
208,1.0031545,0.794635,-0.1405115,0.8235355,0.566515,-0.1357175,0.6334255000000001,0.6941649999999999,-0.2969395,1.1667954999999999,0.551225,-0.1458805,1.3363355000000001,0.703865,-0.3200495,0.5855855000000001,0.8583350000000001,-0.4898694999999999,1.3694355,0.918665,-0.5133495,0.9126704999999999,0.0008339999999999,0.0021084999999999,1.0873295,-0.000834,-0.0021084999999999,0.7742255,-0.285745,-0.2398995,1.1810455,-0.281275,-0.2718395,0.8221555,-0.718955,-0.1696295,1.1423455,-0.712615,-0.1789795
209,1.0025894999999998,0.7952589999999999,-0.1275125,0.8221255000000001,0.568789,-0.1276034999999999,0.6322555000000001,0.701249,-0.2859545,1.1664955,0.554879,-0.1376305,1.3351955,0.710359,-0.3094745,0.5858555,0.872629,-0.4776545,1.3655855,0.929299,-0.4980445,0.9130575,0.000406,0.0020695,1.0869425,-0.000406,-0.0020695,0.7812255000000001,-0.300681,-0.2274045,1.1743955,-0.296211,-0.2594745,0.8236654999999999,-0.733881,-0.1633975,1.1399855,-0.726521,-0.1749345
210,1.0020225,0.7948645000000001,-0.115303,0.8207405,0.5712145000000001,-0.11986,0.6318405,0.7083045,-0.276181,1.1662705,0.5579645,-0.129495,1.3341705,0.7182945000000001,-0.299141,0.5870705,0.8854045,-0.464761,1.3604505,0.9417645,-0.482261,0.9134545000000001,0.0001295,0.0018979999999999,1.0865455,-0.0001294999999999,-0.001898,0.7888904999999999,-0.3140555,-0.214331,1.1677005,-0.3095854999999999,-0.246231,0.8258605,-0.7472555,-0.156121,1.1372404999999999,-0.7395754999999999,-0.169711
211,1.001801,0.7929689999999999,-0.0982524999999999,0.819619,0.570479,-0.1080785,0.631769,0.713939,-0.2611375,1.1663089999999998,0.5631689999999999,-0.1156095,1.332439,0.7241789999999999,-0.2845275,0.589499,0.8961589999999999,-0.4464975,1.355439,0.951959,-0.4626375,0.913875,-0.0005269999999999,0.0016754999999999,1.086125,0.0005269999999999,-0.0016754999999999,0.799759,-0.328411,-0.1920975,1.161359,-0.323941,-0.2258375,0.831789,-0.761611,-0.1395905,1.1348289999999999,-0.753851,-0.1568855
212,1.0014379999999998,0.794169,-0.0821985,0.818098,0.571469,-0.0944385,0.631778,0.717429,-0.2458975,1.166188,0.563689,-0.1019775,1.330308,0.729409,-0.2698675,0.5933380000000001,0.904809,-0.4270775,1.349928,0.961059,-0.4433074999999999,0.914323,-8.69999999999968e-05,0.0011285,1.085677,8.69999999999968e-05,-0.0011284999999999,0.8114680000000001,-0.346051,-0.1681375,1.154088,-0.340301,-0.2011875,0.838138,-0.776601,-0.1217135,1.130488,-0.768841,-0.1399615
