sb224sc-HT22-VT27/4dt907/src/ml-research/a12/datafiles/kinect_good_preprocessed_A9_mediapipe/B6_kinect_mirrored.csv
FrameNo,nose_3d_x,nose_3d_y,nose_3d_z,left_shoulder_3d_x,left_shoulder_3d_y,left_shoulder_3d_z,left_elbow_3d_x,left_elbow_3d_y,left_elbow_3d_z,right_shoulder_3d_x,right_shoulder_3d_y,right_shoulder_3d_z,right_elbow_3d_x,right_elbow_3d_y,right_elbow_3d_z,left_wrist_3d_x,left_wrist_3d_y,left_wrist_3d_z,right_wrist_3d_x,right_wrist_3d_y,right_wrist_3d_z,left_hip_3d_x,left_hip_3d_y,left_hip_3d_z,right_hip_3d_x,right_hip_3d_y,right_hip_3d_z,left_knee_3d_x,left_knee_3d_y,left_knee_3d_z,right_knee_3d_x,right_knee_3d_y,right_knee_3d_z,left_ankle_3d_x,left_ankle_3d_y,left_ankle_3d_z,right_ankle_3d_x,right_ankle_3d_y,right_ankle_3d_z
157,1.0139865,0.721438,0.0047895,0.8421365000000001,0.5284580000000001,-0.0012554999999999,0.7092565,0.7018580000000001,-0.0649695,1.1666365,0.526088,-0.0215214999999999,1.2905365,0.724488,-0.1106844999999999,0.6614665,0.905508,-0.1104175,1.3529065,0.936338,-0.1670965,0.9227485,9.699999999999986e-05,0.0006605,1.0772515,-9.699999999999986e-05,-0.0006604999999999,0.8867365,-0.358692,-0.0452625,1.1038265,-0.367152,-0.0638455,0.8995415000000001,-0.707062,0.0067765,1.0876325,-0.7087519999999999,-0.0060164999999999
158,1.0141405,0.719413,0.0036659999999999,0.8426595,0.525953,-0.002829,0.7097195000000001,0.702413,-0.067082,1.1668595,0.524633,-0.021746,1.2900995,0.723283,-0.111878,0.6632295,0.904713,-0.112623,1.3520395,0.934703,-0.169216,0.9224105,0.0002389999999999,0.0005259999999999,1.0775895,-0.000239,-0.0005259999999999,0.8848995,-0.353107,-0.053746,1.1052795,-0.361347,-0.074291,0.8999425,-0.7007570000000001,0.0021529999999999,1.0878505,-0.703177,-0.01154
159,1.014537,0.717432,0.0028079999999999,0.843436,0.523772,-0.004423,0.710366,0.703962,-0.069182,1.167316,0.5229119999999999,-0.022121,1.289856,0.722522,-0.112946,0.665246,0.904562,-0.114492,1.351296,0.934042,-0.171089,0.922043,0.0003939999999999,0.000445,1.077957,-0.0003939999999999,-0.000445,0.8830160000000001,-0.346838,-0.062634,1.106866,-0.354778,-0.084464,0.900425,-0.693238,-0.0023859999999999,1.08812,-0.6963980000000001,-0.017408
160,1.0151115,0.715352,0.0021289999999999,0.8445795,0.521702,-0.005579,0.7111894999999999,0.705462,-0.070899,1.1679095,0.521142,-0.022216,1.2897694999999998,0.722132,-0.11393,0.6674995,0.904042,-0.1159119999999999,1.3508194999999998,0.934562,-0.172584,0.9217145,0.0005929999999999,0.0004439999999999,1.0782855,-0.000593,-0.0004439999999999,0.8812195,-0.339998,-0.071148,1.1084295,-0.347748,-0.094565,0.9009125,-0.684988,-0.006697,1.0884025,-0.688788,-0.023178
161,1.015667,0.71364,0.0015054999999999,0.8458559999999999,0.51947,-0.0066865,0.712186,0.7066,-0.0722935,1.168466,0.51963,-0.0225835,1.289886,0.72174,-0.1148675,0.669976,0.90323,-0.1170185,1.350466,0.93626,-0.1738825,0.921392,0.0007799999999999,0.0005044999999999,1.078608,-0.00078,-0.0005045,0.8794060000000001,-0.33271,-0.0797535,1.109736,-0.3403899999999999,-0.1046775,0.901342,-0.67588,-0.0109535,1.088605,-0.68019,-0.0290155
162,1.016146,0.7116020000000001,0.0010289999999999,0.8470680000000002,0.518282,-0.007824,0.7132580000000002,0.707732,-0.073186,1.1689479999999999,0.518202,-0.023188,1.289938,0.721422,-0.115473,0.6722780000000002,0.903052,-0.117974,1.350218,0.938662,-0.174796,0.921138,0.001011,0.0005949999999999,1.078862,-0.001011,-0.0005949999999999,0.877658,-0.325598,-0.087371,1.110528,-0.334158,-0.113674,0.901676,-0.6666179999999999,-0.014787,1.088688,-0.6713279999999999,-0.03426
163,1.0165035,0.7099924999999999,0.0006244999999999,0.8483005,0.5167725,-0.0088095,0.7143005,0.7080325,-0.0740395,1.1693105,0.5169524999999999,-0.0235745,1.2901805,0.7214824999999999,-0.1162465,0.6741604999999999,0.9039925,-0.1190385,1.3502505,0.9424425,-0.1750215,0.9209215,0.0012694999999999,0.0007034999999999,1.0790785,-0.0012694999999999,-0.0007035,0.8759405000000001,-0.3184174999999999,-0.0948435,1.1109105,-0.3275074999999999,-0.1221965,0.9018705,-0.6566975,-0.0187455,1.0885334999999998,-0.6617375,-0.0393885
164,1.017025,0.708712,0.0003029999999999,0.849647,0.514702,-0.009887,0.715437,0.7077720000000001,-0.075004,1.169937,0.515842,-0.023916,1.290477,0.722472,-0.11742,0.676157,0.904662,-0.120122,1.3503669999999999,0.946402,-0.175331,0.920756,0.0014719999999999,0.000882,1.079244,-0.001472,-0.000882,0.874247,-0.311588,-0.102362,1.111257,-0.320588,-0.130393,0.9020810000000001,-0.646268,-0.0224849999999999,1.088436,-0.6513979999999999,-0.044308
165,1.0175835,0.7071035,4.4999999999975615e-06,0.8509165,0.5134135,-0.0109855,0.7165565,0.7073435,-0.0760575,1.1707265,0.5144935,-0.0245575,1.2907465,0.7223634999999999,-0.1186525,0.6780865,0.9050835,-0.1212915,1.3503965,0.9500135,-0.1759185,0.9206735,0.0016625,0.0010825,1.0793265,-0.0016624999999999,-0.0010825,0.8727065,-0.3049165,-0.1094305,1.1116165,-0.3136065,-0.1382025,0.9022545,-0.6354865000000001,-0.0262345,1.0882625,-0.6408265000000001,-0.0487275
166,1.0182775,0.7056105,-0.000219,0.8521255,0.5113005,-0.011972,0.7176454999999999,0.7070005,-0.077206,1.1716355,0.5134205000000001,-0.0253159999999999,1.2909354999999998,0.7224305000000001,-0.120062,0.6799455,0.9056005,-0.122567,1.3503355,0.9523605,-0.176587,0.9206215000000001,0.0018225,0.0012539999999999,1.0793784999999998,-0.0018224999999999,-0.0012539999999999,0.8709755,-0.2984895,-0.116622,1.1119355,-0.3065195,-0.145658,0.9023865000000001,-0.6240494999999999,-0.029888,1.0879995,-0.6296795,-0.052913
167,1.0190095,0.7039255,-0.000547,0.8530615,0.5102755,-0.012922,0.7185715000000001,0.7066954999999999,-0.078219,1.1725415,0.5118855,-0.025895,1.2913115,0.7215955000000001,-0.121641,0.6815815000000001,0.9058655,-0.123869,1.3501615,0.9534455,-0.177201,0.9206015,0.0019415,0.0015149999999999,1.0793985,-0.0019414999999999,-0.001515,0.8690415000000001,-0.2925045,-0.123696,1.1120915,-0.2993845,-0.152444,0.9023905,-0.6124645,-0.033275,1.0876995,-0.6182645,-0.056457
168,1.019642,0.702245,-0.0012884999999999,0.853665,0.509675,-0.0141124999999999,0.7194849999999999,0.705255,-0.0796144999999999,1.173365,0.510495,-0.0268414999999999,1.291515,0.7208249999999999,-0.1233765,0.6831050000000001,0.905485,-0.1255075,1.349855,0.953815,-0.1786025,0.920649,0.002058,0.0016895,1.079351,-0.0020579999999999,-0.0016894999999999,0.866985,-0.2871049999999999,-0.1308625,1.112105,-0.2927649999999999,-0.1593784999999999,0.902348,-0.600935,-0.0368744999999999,1.087295,-0.606965,-0.0597474999999999
169,1.02028,0.7006725,-0.0020659999999999,0.854188,0.5086825,-0.0154009999999999,0.720478,0.7035125,-0.0811979999999999,1.173638,0.5088825,-0.027981,1.2914780000000001,0.7201525,-0.1249889999999999,0.6847180000000002,0.9039125,-0.127019,1.349518,0.9529725,-0.180195,0.92065,0.0021584999999999,0.0017189999999999,1.07935,-0.0021585,-0.0017189999999999,0.864698,-0.2784875,-0.138235,1.112138,-0.2837174999999999,-0.165958,0.902199,-0.5891275,-0.040299,1.087223,-0.5954674999999999,-0.06271
170,1.0209335,0.6984819999999999,-0.0029804999999999,0.8546115,0.508402,-0.0168224999999999,0.7213815,0.701722,-0.0830644999999999,1.1738215,0.507092,-0.0292044999999999,1.2915115,0.719862,-0.1266415,0.6862815,0.902062,-0.1287255,1.3492015,0.951072,-0.1819075,0.9206315,0.0022979999999999,0.0017085,1.0793685,-0.002298,-0.0017084999999999,0.8620815,-0.269578,-0.1454615,1.1122015,-0.274198,-0.1719675,0.9020615,-0.577358,-0.0437024999999999,1.0871784999999998,-0.583918,-0.0653145
171,1.021245,0.69844,-0.0093135,0.855417,0.50823,-0.0237254999999999,0.722117,0.7021999999999999,-0.0903585,1.173687,0.50774,-0.0357915,1.291427,0.72011,-0.1335184999999999,0.687587,0.90271,-0.1356935,1.348607,0.9466,-0.1888955,0.920624,0.00238,0.0015875,1.079376,-0.0023799999999999,-0.0015874999999999,0.8594269999999999,-0.25803,-0.1574545,1.112107,-0.26186,-0.1828655,0.901725,-0.56331,-0.0523615,1.086984,-0.56999,-0.0732085
172,1.0212915,0.7003849999999999,-0.0163095,0.8564415,0.508115,-0.0313385,0.7226715,0.7042849999999999,-0.0982545,1.1733715,0.5070250000000001,-0.0430545,1.2913415,0.719595,-0.1402045,0.6886215,0.905585,-0.1432035,1.3480015,0.948085,-0.1963055,0.9206525000000001,0.002505,0.0015604999999999,1.0793475,-0.002505,-0.0015605,0.8545415000000001,-0.244335,-0.1743715,1.1132615,-0.248015,-0.1981955,0.8995395,-0.5498350000000001,-0.0662175,1.0863435,-0.554745,-0.0818845
173,1.0213065,0.70184,-0.0236789999999999,0.8573824999999999,0.50844,-0.0391999999999999,0.7232425,0.70651,-0.1061879999999999,1.1730525,0.50637,-0.0505669999999999,1.2913025,0.71971,-0.147092,0.6894625,0.90762,-0.151008,1.3474725,0.94976,-0.203707,0.9206385,0.0027399999999999,0.001385,1.0793615,-0.0027399999999999,-0.0013849999999999,0.8498625,-0.22981,-0.1910859999999999,1.1142325,-0.2341499999999999,-0.213567,0.8974705000000001,-0.53662,-0.0804739999999999,1.0857634999999999,-0.53984,-0.090336
174,1.021336,0.703615,-0.0313569999999999,0.858493,0.5088550000000001,-0.047171,0.723883,0.708605,-0.114147,1.172803,0.506275,-0.058348,1.291303,0.721175,-0.1540639999999999,0.690103,0.910165,-0.158968,1.347013,0.951735,-0.211195,0.920667,0.002905,0.001225,1.079333,-0.0029049999999999,-0.0012249999999999,0.845623,-0.2137649999999999,-0.207975,1.115243,-0.2194749999999999,-0.228955,0.89563,-0.5228349999999999,-0.095117,1.085331,-0.524495,-0.098702
175,1.0210899999999998,0.705015,-0.0394449999999999,0.859553,0.509205,-0.055354,0.724433,0.710585,-0.122319,1.172413,0.505335,-0.0664609999999999,1.291363,0.722545,-0.161543,0.6904330000000001,0.911785,-0.167134,1.3465129999999998,0.953725,-0.219455,0.920703,0.003095,0.0010649999999999,1.079297,-0.0030949999999999,-0.0010649999999999,0.841893,-0.1982749999999999,-0.2246449999999999,1.1161029999999998,-0.204615,-0.2441249999999999,0.8940220000000001,-0.509495,-0.1096869999999999,1.084927,-0.509385,-0.107295
176,1.020737,0.70635,-0.047993,0.860569,0.50915,-0.063952,0.724999,0.71204,-0.130993,1.171719,0.5050399999999999,-0.075017,1.291379,0.725,-0.169457,0.690399,0.91376,-0.175706,1.346149,0.95683,-0.22815,0.920705,0.0032699999999999,0.0008299999999999,1.0792950000000001,-0.0032699999999999,-0.0008299999999999,0.838699,-0.1823099999999999,-0.24135,1.116959,-0.18955,-0.25921,0.8926880000000001,-0.49568,-0.124275,1.084446,-0.4942299999999999,-0.116309
177,1.02044,0.707795,-0.056585,0.861624,0.508695,-0.072756,0.7252540000000001,0.714165,-0.13993,1.170804,0.504945,-0.083594,1.291474,0.726685,-0.177613,0.6900740000000001,0.915865,-0.184519,1.345774,0.958745,-0.2371,0.92071,0.003395,0.0006699999999999,1.07929,-0.0033949999999999,-0.00067,0.835934,-0.1663549999999999,-0.25752,1.117654,-0.174365,-0.27384,0.891526,-0.481695,-0.138449,1.083966,-0.478955,-0.125222
178,1.0201385,0.7087600000000001,-0.065175,0.8627425,0.50861,-0.081623,0.7251325,0.71568,-0.149102,1.1698925,0.50543,-0.09217,1.2916225,0.72684,-0.186214,0.6897625000000001,0.91914,-0.193357,1.3454625,0.9599,-0.24604,0.9207855,0.00347,0.0005999999999999,1.0792145,-0.00347,-0.0005999999999999,0.8337625,-0.15109,-0.27286,1.1183325,-0.1599999999999999,-0.28797,0.8905225,-0.46894,-0.152366,1.0835785,-0.46469,-0.13417
179,1.019734,0.7113149999999999,-0.0745349999999999,0.863707,0.507985,-0.0913769999999999,0.724747,0.7187950000000001,-0.1591689999999999,1.1686969999999999,0.506235,-0.1017579999999999,1.291237,0.7283649999999999,-0.1955019999999999,0.6893670000000001,0.923105,-0.2030679999999999,1.345077,0.962415,-0.25578,0.920912,0.003445,0.00065,1.079088,-0.003445,-0.0006499999999999,0.832207,-0.133375,-0.28835,1.118747,-0.143445,-0.30256,0.889547,-0.454665,-0.166763,1.083156,-0.4489149999999999,-0.1438279999999999
180,1.019285,0.711665,-0.078985,0.864142,0.507475,-0.096301,0.724402,0.719115,-0.164216,1.167682,0.504645,-0.106533,1.291122,0.728755,-0.199795,0.689022,0.924045,-0.208231,1.344792,0.965745,-0.260425,0.921013,0.0034849999999999,0.0007149999999999,1.078987,-0.003485,-0.000715,0.830892,-0.117455,-0.298365,1.119092,-0.128815,-0.311705,0.889212,-0.442085,-0.171382,1.082816,-0.435915,-0.148267
181,1.0188725,0.7087650000000001,-0.0831199999999999,0.8642075000000001,0.507175,-0.1007459999999999,0.7242575,0.717245,-0.168892,1.1671274999999999,0.504605,-0.110762,1.2906475,0.730045,-0.2031349999999999,0.6885375,0.921535,-0.213084,1.3444975000000001,0.965265,-0.264625,0.9211345,0.003475,0.000655,1.0788655,-0.0034749999999999,-0.0006549999999999,0.8306675,-0.1064149999999999,-0.302645,1.1188775,-0.1177749999999999,-0.315525,0.8889975,-0.4310649999999999,-0.1752139999999999,1.0826015,-0.425385,-0.152077
182,1.0183525,0.7068000000000001,-0.087613,0.8642275,0.5062,-0.105636,0.7239774999999999,0.71627,-0.174143,1.1666575,0.50301,-0.115413,1.2899375,0.73061,-0.207038,0.6877975000000001,0.92034,-0.218487,1.3441575000000001,0.96411,-0.26938,0.9212945,0.0034399999999999,0.00064,1.0787055,-0.0034399999999999,-0.00064,0.8304075,-0.0947199999999999,-0.30679,1.1186175,-0.1061499999999999,-0.31967,0.8887475,-0.4194999999999999,-0.179473,1.0823415,-0.4141299999999999,-0.156222
183,1.017949,0.7045600000000001,-0.092134,0.864166,0.5055000000000001,-0.110533,0.7236760000000001,0.71509,-0.179373,1.166256,0.50124,-0.119977,1.289376,0.72809,-0.211134,0.6870160000000001,0.9182,-0.224093,1.344136,0.96146,-0.274205,0.9213830000000001,0.0034299999999999,0.0007349999999999,1.078617,-0.0034299999999999,-0.000735,0.830186,-0.0839599999999999,-0.310895,1.118396,-0.0953899999999999,-0.323775,0.889365,-0.4087399999999999,-0.18363,1.0821399999999999,-0.4038,-0.160327
184,1.0175245,0.70217,-0.096648,0.8640125000000001,0.5054799999999999,-0.11526,0.7231925,0.7114199999999999,-0.184448,1.1658225,0.50027,-0.124317,1.2889925,0.72394,-0.215921,0.6861125,0.91652,-0.229756,1.3440225,0.95827,-0.279105,0.9215625000000001,0.0035899999999999,0.000835,1.0784375,-0.0035899999999999,-0.000835,0.8312925000000001,-0.07402,-0.314905,1.1173425,-0.08551,-0.327735,0.8917245,-0.39756,-0.18317,1.0817875,-0.39344,-0.164018
185,1.0170725,0.70115,-0.101381,0.8637185000000001,0.50502,-0.120181,0.7225385000000001,0.70981,-0.18969,1.1653185,0.49945,-0.128912,1.2884885,0.72053,-0.220694,0.6852085,0.91609,-0.235724,1.3438585,0.95563,-0.2843,0.9217545,0.00352,0.00114,1.0782455,-0.0035199999999999,-0.00114,0.8325585,-0.0634799999999999,-0.31856,1.1163285,-0.0746999999999999,-0.33126,0.8939705,-0.38547,-0.182449,1.0813975,-0.38242,-0.167978
186,1.016553,0.6998249999999999,-0.105956,0.8633580000000001,0.504255,-0.124803,0.721738,0.708125,-0.194715,1.164728,0.498745,-0.133294,1.287858,0.7176849999999999,-0.225464,0.684308,0.915605,-0.241518,1.343588,0.950925,-0.28997,0.921918,0.0034949999999999,0.00131,1.078082,-0.003495,-0.00131,0.8336680000000001,-0.053615,-0.32141,1.115318,-0.064425,-0.33398,0.895996,-0.3739950000000001,-0.181169,1.0809479999999998,-0.372005,-0.171515
187,1.015991,0.69938,-0.110937,0.8629560000000001,0.50331,-0.129746,0.720816,0.7078800000000001,-0.199921,1.164046,0.49799,-0.13811,1.287066,0.71656,-0.230432,0.683326,0.9157,-0.24777,1.343286,0.94836,-0.29616,0.922211,0.0034399999999999,0.00142,1.077789,-0.0034399999999999,-0.00142,0.834586,-0.0431,-0.32416,1.114386,-0.0532599999999999,-0.33666,0.8977269999999999,-0.36167,-0.180355,1.080469,-0.3612499999999999,-0.175406
188,1.015293,0.69737,-0.115164,0.8623890000000001,0.5027200000000001,-0.133878,0.719619,0.70631,-0.204589,1.1631889999999998,0.49641,-0.142171,1.285969,0.71338,-0.234818,0.682299,0.91562,-0.253408,1.3428390000000001,0.94472,-0.301765,0.922385,0.00346,0.0013849999999999,1.077615,-0.00346,-0.0013849999999999,0.835179,-0.0344599999999999,-0.325675,1.1134789999999999,-0.04414,-0.338445,0.898935,-0.35125,-0.17918,1.0798379999999999,-0.35239,-0.178543
189,1.0144355,0.6957,-0.1193039999999999,0.8615835000000001,0.50177,-0.1374959999999999,0.7182435,0.70496,-0.209217,1.1621735,0.49546,-0.1457689999999999,1.2847335,0.71082,-0.2391029999999999,0.6811134999999999,0.91614,-0.258788,1.3421935,0.9425,-0.3071899999999999,0.9224995,0.00342,0.00146,1.0775005,-0.0034199999999999,-0.0014599999999999,0.8355635000000001,-0.0256,-0.32677,1.1125835,-0.03493,-0.3398,0.8998145,-0.34075,-0.1781589999999999,1.0790635,-0.34341,-0.1814349999999999
190,1.013877,0.6951700000000001,-0.1232529999999999,0.861017,0.5007699999999999,-0.14084,0.717287,0.70416,-0.213558,1.161487,0.49441,-0.1490709999999999,1.283807,0.7085,-0.243245,0.6801470000000001,0.91793,-0.264053,1.341777,0.94143,-0.312515,0.922284,0.0033199999999999,0.001585,1.077716,-0.0033199999999999,-0.001585,0.836067,-0.01606,-0.327725,1.112157,-0.02482,-0.341145,0.900856,-0.32965,-0.17712,1.078667,-0.33363,-0.184143
191,1.013357,0.69417,-0.126774,0.8605040000000002,0.49994,-0.143618,0.716334,0.70291,-0.217213,1.160874,0.49481,-0.1519869999999999,1.283054,0.70638,-0.247039,0.679164,0.91973,-0.2688439999999999,1.3414139999999999,0.94032,-0.3176,0.922071,0.00306,0.0017399999999999,1.077929,-0.0030599999999999,-0.0017399999999999,0.8364739999999999,-0.0071299999999999,-0.32819,1.111834,-0.0155199999999999,-0.34206,0.9018390000000001,-0.3191199999999999,-0.175769,1.0783109999999998,-0.3242699999999999,-0.186794
192,1.0129285,0.692875,-0.129776,0.8598844999999999,0.498105,-0.145827,0.7153244999999999,0.701265,-0.220222,1.1602445000000001,0.493745,-0.154393,1.2825644999999999,0.706095,-0.250203,0.6781245,0.921355,-0.272951,1.3410445,0.939385,-0.321795,0.9217275,0.0029049999999999,0.0017549999999999,1.0782725,-0.0029049999999999,-0.001755,0.8367045,0.0009149999999999,-0.328435,1.1114945,-0.0070149999999999,-0.342595,0.9014595,-0.309935,-0.177984,1.0779314999999998,-0.315595,-0.188997
193,1.0124659999999999,0.6927700000000001,-0.132186,0.859193,0.49544,-0.147877,0.7142729999999999,0.70235,-0.223035,1.159583,0.4924,-0.156644,1.282133,0.70747,-0.253031,0.677073,0.92134,-0.276739,1.340563,0.93996,-0.325615,0.9215990000000001,0.00269,0.0018249999999999,1.078401,-0.0026899999999999,-0.0018249999999999,0.836863,0.00915,-0.3286449999999999,1.111153,0.00153,-0.342855,0.901078,-0.3006399999999999,-0.179994,1.077571,-0.30672,-0.190979
194,1.0119745,0.69185,-0.1335079999999999,0.8585565,0.493869,-0.1489549999999999,0.7133065000000001,0.7005399999999999,-0.2248329999999999,1.1591465,0.490226,-0.1576849999999999,1.2817465000000001,0.7072,-0.2553189999999999,0.6760865,0.91972,-0.279234,1.3400265,0.93849,-0.3284499999999999,0.9214765,0.0028699999999999,0.00179,1.0785235,-0.0028699999999999,-0.0017899999999999,0.8369265000000001,0.01583,-0.3284499999999999,1.1109865,0.00839,-0.34234,0.9007215,-0.29302,-0.181079,1.0774685,-0.29944,-0.19207
195,1.011502,0.69058,-0.134301,0.8578669999999999,0.493909,-0.149632,0.712457,0.6992499999999999,-0.2262549999999999,1.1587569999999998,0.489016,-0.158424,1.281367,0.7071799999999999,-0.257472,0.675127,0.91846,-0.281153,1.339537,0.94113,-0.33043,0.921386,0.0030799999999999,0.00195,1.078614,-0.00308,-0.00195,0.836987,0.02326,-0.3279499999999999,1.111127,0.0158099999999999,-0.34172,0.9002670000000002,-0.2847700000000001,-0.182034,1.077502,-0.29136,-0.192819
196,1.0109175,0.69054,-0.134513,0.8570575,0.494333,-0.149744,0.7114175,0.7002600000000001,-0.227044,1.1582175000000001,0.489406,-0.158631,1.2809575,0.7086600000000001,-0.258815,0.6741775,0.91847,-0.282139,1.3389175,0.94185,-0.331875,0.9213785,0.00303,0.0021749999999999,1.0786215,-0.0030299999999999,-0.002175,0.8368675000000001,0.03294,-0.326525,1.1113375,0.02548,-0.340495,0.8997365000000002,-0.27439,-0.182439,1.0774865,-0.28113,-0.192907
197,1.0103425,0.69079,-0.134583,0.8562295,0.494711,-0.149361,0.7105495,0.70126,-0.227342,1.1574395,0.490282,-0.158891,1.2805295,0.71113,-0.25982,0.6733695,0.9191,-0.282648,1.3383295,0.94291,-0.33297,0.9214565,0.00305,0.0022599999999999,1.0785435,-0.0030499999999999,-0.00226,0.8366795,0.04281,-0.32517,1.1117595,0.03509,-0.3391699999999999,0.8992475,-0.26385,-0.182706,1.0776385,-0.27073,-0.192905
198,1.0097905,0.6911700000000001,-0.134505,0.8554174999999999,0.495381,-0.148851,0.7098175000000001,0.70234,-0.227332,1.1567275,0.490892,-0.159024,1.2801775,0.7140500000000001,-0.260565,0.6727175000000001,0.92017,-0.28264,1.3376875,0.9439,-0.33365,0.9215255,0.00312,0.0022599999999999,1.0784745,-0.00312,-0.00226,0.8363875000000001,0.05257,-0.32369,1.1123474999999998,0.04483,-0.33795,0.8988275,-0.25315,-0.182917,1.0778025,-0.2601499999999999,-0.193107
199,1.0093775,0.691225,-0.1344709999999999,0.8547845000000001,0.4959019999999999,-0.1482139999999999,0.7090845,0.7037549999999999,-0.2272909999999999,1.1562545,0.491515,-0.158989,1.2799245,0.715635,-0.261082,0.6722545,0.921105,-0.282605,1.3371745,0.944305,-0.3340299999999999,0.9215355000000001,0.0031649999999999,0.00229,1.0784645,-0.003165,-0.0022899999999999,0.8361845,0.0621249999999999,-0.3221499999999999,1.1131645,0.0541449999999999,-0.3367099999999999,0.8985095,-0.242725,-0.1830949999999999,1.0782095,-0.250065,-0.1932999999999999
200,1.009009,0.691055,-0.134247,0.8542340000000002,0.49678,-0.147361,0.708464,0.704955,-0.227044,1.156034,0.491917,-0.158752,1.279744,0.716885,-0.261217,0.671934,0.921055,-0.282366,1.336684,0.944575,-0.333905,0.921465,0.0033449999999999,0.002515,1.078535,-0.0033449999999999,-0.0025149999999999,0.836094,0.0710649999999999,-0.320465,1.114114,0.062925,-0.335515,0.898262,-0.232835,-0.183083,1.0787,-0.240395,-0.19327
201,1.0086864999999998,0.6908150000000001,-0.133574,0.8537235,0.498515,-0.1465,0.7078935,0.7057150000000001,-0.226511,1.1558035,0.493253,-0.158313,1.2797135,0.718365,-0.2613,0.6715135,0.919455,-0.28196,1.3360735,0.944055,-0.333545,0.9213555,0.003555,0.0028949999999999,1.0786445,-0.0035549999999999,-0.002895,0.8359935000000001,0.079945,-0.318605,1.1151235,0.071695,-0.334145,0.8979865,-0.2229549999999999,-0.182894,1.0791125,-0.2306249999999999,-0.193148
202,1.0085004999999998,0.690425,-0.133016,0.8534135,0.500189,-0.145571,0.7074834999999999,0.7073149999999999,-0.2257539999999999,1.1557735,0.4952709999999999,-0.1575119999999999,1.2798334999999998,0.719835,-0.261175,0.6711735,0.920975,-0.281181,1.3355335,0.944255,-0.333115,0.9211355,0.0034249999999999,0.0032149999999999,1.0788645,-0.003425,-0.0032149999999999,0.8359835,0.0890249999999999,-0.316305,1.1163035,0.0806749999999999,-0.3327949999999999,0.8978855,-0.212635,-0.182506,1.0795695,-0.220385,-0.192887
203,1.008567,0.68987,-0.131724,0.8532350000000001,0.501836,-0.144313,0.707145,0.71022,-0.224657,1.155805,0.4974679999999999,-0.156259,1.2799649999999998,0.72197,-0.260644,0.6709149999999999,0.92168,-0.279943,1.335055,0.94489,-0.33235,0.921145,0.00322,0.0036099999999999,1.078855,-0.00322,-0.00361,0.835975,0.0982799999999999,-0.31363,1.117585,0.0898899999999999,-0.33107,0.897888,-0.2020199999999999,-0.181767,1.0798359999999998,-0.20998,-0.192096
204,1.008598,0.690675,-0.1302519999999999,0.853227,0.502436,-0.14306,0.706907,0.712575,-0.223484,1.155947,0.498711,-0.1550099999999999,1.2799669999999999,0.723895,-0.260355,0.670747,0.922215,-0.278497,1.3346369999999999,0.943945,-0.33157,0.9212450000000001,0.0029049999999999,0.0040499999999999,1.078755,-0.002905,-0.0040499999999999,0.836057,0.106565,-0.31071,1.118777,0.098335,-0.32924,0.897996,-0.1921549999999999,-0.180997,1.0801129999999999,-0.2004749999999999,-0.191181
205,1.0085265,0.6899299999999999,-0.128823,0.8528785,0.502132,-0.141795,0.7064785,0.7117,-0.2222329999999999,1.1556485,0.497793,-0.153812,1.2795785,0.72402,-0.260024,0.6703485,0.92034,-0.27697,1.3341185,0.94373,-0.33075,0.9214755,0.0029799999999999,0.00448,1.0785244999999999,-0.0029799999999999,-0.0044799999999999,0.8357384999999999,0.11185,-0.3084199999999999,1.1196184999999998,0.10382,-0.32779,0.8977745,-0.1852899999999999,-0.180137,1.0801045,-0.1940699999999999,-0.190217
206,1.0084685,0.68848,-0.127669,0.8527045,0.5013789999999999,-0.14077,0.7061045,0.71044,-0.221322,1.1554545,0.4971319999999999,-0.152718,1.2794444999999999,0.72371,-0.259889,0.6701245,0.91752,-0.275754,1.3338145,0.94267,-0.3302549999999999,0.9218345,0.0029399999999999,0.004755,1.0781654999999999,-0.00294,-0.004755,0.8355845,0.1162699999999999,-0.306255,1.1205345,0.1083399999999999,-0.326605,0.8976605,-0.17918,-0.179372,1.0801154999999998,-0.18864,-0.1894
207,1.0084285,0.6873750000000001,-0.126128,0.8525855,0.501564,-0.139395,0.7058355000000001,0.709945,-0.220024,1.1554255,0.497165,-0.151162,1.2792355,0.7236450000000001,-0.259351,0.6698755000000001,0.914995,-0.274236,1.3334755,0.941445,-0.32943,0.9222035,0.002595,0.00486,1.0777965,-0.002595,-0.00486,0.8355355000000001,0.121415,-0.30378,1.1215155,0.113355,-0.3248499999999999,0.8976175,-0.1726249999999999,-0.178207,1.0801915,-0.182755,-0.188129
208,1.0083419999999998,0.6864549999999999,-0.1246319999999999,0.852412,0.501991,-0.138046,0.7056819999999999,0.7092449999999999,-0.2187529999999999,1.155432,0.4973249999999999,-0.149526,1.278972,0.7248849999999999,-0.2587669999999999,0.6695720000000001,0.912555,-0.27301,1.333062,0.938775,-0.3287299999999999,0.9223270000000001,0.0022849999999999,0.00494,1.0776729999999999,-0.002285,-0.00494,0.8353820000000001,0.1264849999999999,-0.30129,1.122422,0.1182849999999999,-0.32296,0.897564,-0.166235,-0.177028,1.080401,-0.1771250000000001,-0.186362
209,1.0083405,0.6850800000000001,-0.123186,0.8522215000000001,0.5021040000000001,-0.136793,0.7054815,0.70845,-0.217656,1.1555415,0.497618,-0.147975,1.2785915,0.7261700000000001,-0.258192,0.6693115000000001,0.91029,-0.271911,1.3326615,0.93601,-0.328245,0.9224445,0.00193,0.0049349999999999,1.0775554999999999,-0.0019299999999999,-0.0049349999999999,0.8352415000000001,0.13113,-0.299005,1.1232114999999998,0.12282,-0.321135,0.8976445,-0.1603899999999999,-0.175914,1.0805965,-0.1720799999999999,-0.184679
210,1.008381,0.68417,-0.121786,0.852059,0.502107,-0.135598,0.7053590000000001,0.70855,-0.216634,1.155719,0.4977479999999999,-0.14646,1.278219,0.72734,-0.256949,0.6692290000000001,0.91037,-0.270891,1.332379,0.93386,-0.327955,0.92253,0.0014199999999999,0.0048749999999999,1.07747,-0.0014199999999999,-0.004875,0.835139,0.13615,-0.296585,1.1240189999999999,0.1276399999999999,-0.319135,0.897801,-0.15429,-0.174749,1.080658,-0.1666699999999999,-0.183055
211,1.008423,0.683095,-0.1204679999999999,0.852029,0.5023420000000001,-0.134384,0.7052690000000001,0.707935,-0.215617,1.155899,0.497594,-0.145145,1.277879,0.728505,-0.255845,0.669169,0.909875,-0.269874,1.3321290000000001,0.931125,-0.3277,0.9226570000000001,0.0010449999999999,0.00483,1.077343,-0.0010449999999999,-0.00483,0.835099,0.140695,-0.29424,1.1247989999999999,0.1322249999999999,-0.31709,0.8980360000000001,-0.1488749999999999,-0.17351,1.080658,-0.1619049999999999,-0.181497
212,1.0084719999999998,0.682185,-0.119094,0.851987,0.502518,-0.133199,0.705147,0.707195,-0.214666,1.155947,0.497763,-0.143962,1.277597,0.729465,-0.25467,0.6690670000000001,0.910455,-0.26902,1.331827,0.928595,-0.32755,0.922808,0.000645,0.0046799999999999,1.077192,-0.000645,-0.00468,0.8350270000000001,0.145035,-0.29197,1.1255169999999999,0.136645,-0.31496,0.898273,-0.1438849999999999,-0.172225,1.080825,-0.1575949999999999,-0.179902
213,1.0084705,0.6801950000000001,-0.117872,0.8519525,0.5025590000000001,-0.132058,0.7050025,0.706065,-0.213794,1.1559625,0.497915,-0.142808,1.2768925,0.725865,-0.253316,0.6689625,0.910675,-0.268482,1.3315125,0.926185,-0.32732,0.9229525000000001,0.000295,0.0044899999999999,1.0770475,-0.0002949999999999,-0.0044899999999999,0.8350025,0.148835,-0.28985,1.1262525,0.140475,-0.31289,0.8985185,-0.1394849999999999,-0.170948,1.0810355,-0.1538649999999999,-0.178009
214,1.00843,0.6785,-0.116595,0.851783,0.503018,-0.131012,0.7048730000000001,0.70539,-0.213029,1.1559229999999998,0.4984179999999999,-0.141715,1.276183,0.72221,-0.252166,0.668883,0.91154,-0.268027,1.331183,0.92423,-0.32708,0.923096,-0.00012,0.00436,1.076904,0.00012,-0.00436,0.834893,0.15252,-0.2879,1.127003,0.14421,-0.31095,0.898721,-0.13522,-0.16977,1.081226,-0.1502299999999999,-0.176149
215,1.0083929999999999,0.67774,-0.115259,0.8515079999999999,0.5042,-0.129858,0.704758,0.7047699999999999,-0.212139,1.155848,0.4985729999999999,-0.140553,1.275448,0.7188899999999999,-0.250942,0.6687879999999999,0.91283,-0.267606,1.330908,0.92297,-0.32659,0.92326,-0.00059,0.00423,1.07674,0.0005899999999999,-0.00423,0.834738,0.1564399999999999,-0.28569,1.127718,0.1484399999999999,-0.30882,0.89895,-0.13067,-0.168472,1.081457,-0.14622,-0.173907
216,1.00828,0.6768000000000001,-0.1144359999999999,0.851225,0.504375,-0.1291189999999999,0.704645,0.70326,-0.2116139999999999,1.155775,0.497982,-0.139783,1.274445,0.71482,-0.2493949999999999,0.6686650000000001,0.91321,-0.2677759999999999,1.330575,0.92185,-0.32642,0.923359,-0.0008299999999999,0.0042,1.076641,0.0008299999999999,-0.0041999999999999,0.834535,0.15912,-0.2839,1.128435,0.15147,-0.3072199999999999,0.8991820000000001,-0.1274099999999999,-0.167591,1.081695,-0.14337,-0.1720969999999999
217,1.0081325,0.676075,-0.113754,0.8507925000000001,0.5043799999999999,-0.12858,0.7043725000000001,0.702075,-0.21124,1.1555024999999999,0.49716,-0.139201,1.2733925,0.710865,-0.24797,0.6683525,0.913625,-0.268129,1.3300825,0.922495,-0.326105,0.9235215,-0.0010449999999999,0.004165,1.0764785,0.0010449999999999,-0.004165,0.8341825,0.1613549999999999,-0.282305,1.1289624999999999,0.1540849999999999,-0.305805,0.8993045,-0.124585,-0.166805,1.0816855,-0.140745,-0.170973
218,1.0077209999999999,0.6759899999999999,-0.113185,0.850279,0.5046829999999999,-0.128054,0.7040590000000001,0.701,-0.210938,1.155169,0.4964539999999999,-0.138664,1.272389,0.70693,-0.246488,0.667999,0.91452,-0.268456,1.329529,0.92307,-0.325705,0.923685,-0.00126,0.004135,1.076315,0.0012599999999999,-0.004135,0.833779,0.1636199999999999,-0.28065,1.129449,0.1567599999999999,-0.304375,0.899311,-0.12152,-0.166101,1.081659,-0.1380500000000001,-0.169858
219,1.0073215,0.6759649999999999,-0.112643,0.8497315,0.5046309999999999,-0.127585,0.7036815000000001,0.699835,-0.210591,1.1547715,0.4972549999999999,-0.138199,1.2713615,0.703355,-0.245024,0.6675915,0.914885,-0.268711,1.3289015,0.923845,-0.325345,0.9238925,-0.001535,0.004085,1.0761075,0.0015349999999999,-0.004085,0.8332815,0.1654249999999999,-0.279262,1.1297415,0.1589649999999999,-0.303435,0.8992245,-0.119065,-0.165467,1.0814815,-0.1358450000000001,-0.168733
220,1.0068065,0.67586,-0.112185,0.8491765,0.5047200000000001,-0.127172,0.7032165,0.69908,-0.210328,1.1544165,0.498322,-0.13779,1.2703965,0.69964,-0.243709,0.6670965,0.91475,-0.268916,1.3282265,0.924,-0.32503,0.9240675,-0.00173,0.0040399999999999,1.0759325,0.00173,-0.00404,0.8327465000000001,0.16657,-0.278308,1.1299965,0.16032,-0.30289,0.8991225,-0.11746,-0.164916,1.0812065,-0.1344299999999999,-0.16779
221,1.0061849999999999,0.67612,-0.111841,0.848563,0.5042880000000001,-0.1268449999999999,0.702653,0.6990200000000001,-0.210134,1.153973,0.498882,-0.137451,1.269343,0.69587,-0.2423779999999999,0.666563,0.91448,-0.2690639999999999,1.327503,0.92395,-0.3247649999999999,0.924256,-0.0019599999999999,0.004035,1.075744,0.00196,-0.004035,0.832173,0.16709,-0.277732,1.130253,0.16088,-0.302565,0.898999,-0.1167999999999999,-0.164425,1.080907,-0.1338199999999999,-0.167035
222,1.0053745,0.67612,-0.1114069999999999,0.8477095,0.5042880000000001,-0.12641,0.7019595000000001,0.6990200000000001,-0.209892,1.1531895,0.498882,-0.137144,1.2684095,0.69587,-0.2417949999999999,0.6658695,0.91423,-0.2690909999999999,1.3264895,0.92395,-0.32445,0.9242535000000001,-0.0019599999999999,0.00408,1.0757465,0.00196,-0.00408,0.8313995000000001,0.16709,-0.277298,1.1304095,0.16089,-0.30215,0.8986864999999999,-0.1168299999999999,-0.163933,1.0803745,-0.13376,-0.166607
223,1.0043894999999998,0.67612,-0.111342,0.8466845000000001,0.5042880000000001,-0.126372,0.7010545,0.6990200000000001,-0.210014,1.1522945,0.498882,-0.137149,1.2673045,0.69587,-0.24152,0.6651145,0.91423,-0.269388,1.3253845,0.92395,-0.32443,0.9242795,-0.0019599999999999,0.0041799999999999,1.0757205,0.00196,-0.00418,0.8305645,0.16709,-0.27717,1.1304145,0.161,-0.30205,0.8982735,-0.1169599999999999,-0.163808,1.0798255,-0.13376,-0.16636
224,1.003482,0.67612,-0.11153,0.845995,0.5042880000000001,-0.126465,0.700305,0.6990200000000001,-0.210458,1.151595,0.499651,-0.137329,1.266225,0.69587,-0.241499,0.664575,0.91423,-0.269658,1.3244150000000001,0.92395,-0.32461,0.924137,-0.0019599999999999,0.0041799999999999,1.075863,0.00196,-0.00418,0.8299650000000001,0.16709,-0.277161,1.130685,0.16123,-0.3023,0.898064,-0.1171099999999999,-0.163808,1.079491,-0.13376,-0.166357
225,1.0022989999999998,0.67721,-0.111718,0.845182,0.5039980000000001,-0.126639,0.6994120000000001,0.69912,-0.210886,1.1507919999999998,0.500479,-0.137529,1.264992,0.69603,-0.241524,0.663872,0.9138,-0.269752,1.323362,0.92744,-0.324955,0.924057,-0.0020099999999999,0.0041849999999999,1.075943,0.0020099999999999,-0.0041849999999999,0.829272,0.16674,-0.27732,1.130812,0.16108,-0.302835,0.897751,-0.11765,-0.163803,1.079178,-0.13422,-0.166352
226,1.0010085,0.6788050000000001,-0.112036,0.8442985000000001,0.5037990000000001,-0.126901,0.6984684999999999,0.6995750000000001,-0.211302,1.1499685,0.50094,-0.137765,1.2637485,0.696215,-0.241572,0.6630885,0.913065,-0.269873,1.3221885,0.930625,-0.32544,0.9239065,-0.0020249999999999,0.0041999999999999,1.0760935,0.002025,-0.0042,0.8285685,0.165605,-0.277619,1.1309285,0.160155,-0.30354,0.8974375,-0.1190949999999999,-0.163808,1.0788635,-0.1355149999999999,-0.166368
227,0.9995585,0.6795100000000001,-0.113122,0.8432355,0.5029910000000001,-0.127876,0.6970255000000001,0.70043,-0.21254,1.1488055,0.500915,-0.138781,1.2624855,0.69972,-0.242913,0.6619355,0.91152,-0.27094,1.3208155,0.93251,-0.3265599999999999,0.9237055,-0.00173,0.0042399999999999,1.0762945,0.00173,-0.0042399999999999,0.8280355,0.16189,-0.2793569999999999,1.1307455,0.15657,-0.30512,0.8970885,-0.1230999999999999,-0.16452,1.0783205,-0.1394599999999999,-0.167323
228,0.9982970000000001,0.6814150000000001,-0.114557,0.842444,0.5023500000000001,-0.129269,0.695844,0.7019050000000001,-0.214115,1.147724,0.5019520000000001,-0.140202,1.261644,0.702675,-0.24468,0.660554,0.914075,-0.272186,1.3196539999999999,0.935485,-0.327945,0.923708,-0.0015349999999999,0.004335,1.076292,0.001535,-0.004335,0.827754,0.157085,-0.2818549999999999,1.130964,0.1518150000000001,-0.307485,0.897026,-0.1284249999999999,-0.165601,1.078119,-0.1446949999999999,-0.168502
229,0.997054,0.683415,-0.116277,0.841638,0.501682,-0.131064,0.694658,0.702975,-0.21596,1.146368,0.502746,-0.141932,1.2605979999999999,0.705515,-0.246915,0.6591279999999999,0.914925,-0.273679,1.318368,0.938245,-0.32972,0.923705,-0.0015249999999999,0.0041999999999999,1.076295,0.0015249999999999,-0.0042,0.827678,0.1500949999999999,-0.28527,1.130908,0.1447049999999999,-0.30964,0.896935,-0.136245,-0.16704,1.07798,-0.1521949999999999,-0.170004
230,0.995805,0.6864250000000001,-0.1185919999999999,0.840875,0.500005,-0.1334729999999999,0.693505,0.704855,-0.218466,1.144935,0.503336,-0.144256,1.259515,0.709905,-0.2497209999999999,0.6576949999999999,0.916685,-0.275949,1.316905,0.945155,-0.33251,0.923681,-0.0016549999999999,0.00388,1.076319,0.001655,-0.0038799999999999,0.827595,0.141955,-0.28932,1.1308449999999999,0.136365,-0.31291,0.8968430000000001,-0.1453549999999999,-0.1690459999999999,1.077831,-0.1608649999999999,-0.172152
231,0.9952545,0.68766,-0.121046,0.8409055,0.500031,-0.13616,0.6931955000000001,0.70475,-0.221228,1.1440555,0.503129,-0.146875,1.2591655,0.71224,-0.253129,0.6568455,0.91634,-0.27844,1.3163155,0.94841,-0.33552,0.9234335,-0.0010499999999999,0.0036999999999999,1.0765665,0.0010499999999999,-0.0037,0.8282155,0.1294,-0.29428,1.1316355,0.1235,-0.31621,0.8974545,-0.1588999999999999,-0.171267,1.0784015,-0.1739499999999999,-0.17451
232,0.9953075,0.6882,-0.123035,0.8414935,0.497596,-0.138439,0.6936335,0.70342,-0.223448,1.1437135,0.5004890000000001,-0.149209,1.2594035,0.71348,-0.255745,0.6563335,0.91455,-0.280643,1.3161835,0.95028,-0.338315,0.9231835,-0.0006399999999999,0.0034549999999999,1.0768165,0.00064,-0.003455,0.8295435000000001,0.11397,-0.299305,1.1328035,0.10774,-0.319185,0.8985565000000001,-0.1752399999999999,-0.173187,1.0794805,-0.1896799999999999,-0.176489
233,0.9954845000000001,0.689815,-0.1245059999999999,0.8420825000000001,0.497673,-0.14067,0.6941425,0.702585,-0.224997,1.1434225,0.4979699999999999,-0.1513689999999999,1.2597825,0.716225,-0.258635,0.6559425,0.917535,-0.282707,1.3160025,0.952655,-0.340645,0.9231145000000001,-0.000115,0.0032449999999999,1.0768855,0.0001149999999999,-0.0032449999999999,0.8309525,0.0984949999999999,-0.303965,1.1339425,0.0916349999999999,-0.321855,0.8996495,-0.192335,-0.174977,1.0806275,-0.205995,-0.1782159999999999
234,0.995438,0.690625,-0.126081,0.8422660000000001,0.497081,-0.143062,0.6942159999999999,0.700975,-0.2265599999999999,1.142616,0.496996,-0.1537239999999999,1.259916,0.717935,-0.2614039999999999,0.6553260000000001,0.918345,-0.284612,1.315376,0.951385,-0.342925,0.923203,0.000205,0.003135,1.076797,-0.000205,-0.0031349999999999,0.832036,0.080415,-0.308795,1.134446,0.0732249999999999,-0.324995,0.900337,-0.2119349999999999,-0.176887,1.081371,-0.224805,-0.180111
235,0.9952670000000001,0.691815,-0.127322,0.842482,0.4964429999999999,-0.145059,0.694142,0.699935,-0.227804,1.141602,0.4965809999999999,-0.155917,1.259732,0.719185,-0.263812,0.654622,0.919365,-0.285916,1.314752,0.952645,-0.344535,0.922992,0.0004049999999999,0.0027949999999999,1.077008,-0.000405,-0.0027949999999999,0.833012,0.0619849999999999,-0.3128849999999999,1.134682,0.0544249999999999,-0.327145,0.9008490000000001,-0.232205,-0.178406,1.08195,-0.244495,-0.181662
236,0.995712,0.695595,-0.127743,0.8432670000000001,0.495757,-0.14609,0.694977,0.701505,-0.2281689999999999,1.1411769999999999,0.499133,-0.1571389999999999,1.259847,0.721295,-0.2645679999999999,0.654767,0.923095,-0.28633,1.3148469999999999,0.954575,-0.34497,0.922696,0.0001149999999999,0.00254,1.077304,-0.0001149999999999,-0.0025399999999999,0.8345570000000001,0.0453549999999999,-0.3154599999999999,1.135257,0.0373649999999999,-0.3281199999999999,0.901834,-0.2517449999999999,-0.179084,1.082998,-0.263165,-0.182413
237,0.9958745,0.697465,-0.127845,0.8438525,0.497621,-0.146468,0.6954325,0.700875,-0.228261,1.1406524999999998,0.497571,-0.157802,1.2598725,0.721765,-0.264805,0.6551525,0.921475,-0.286437,1.3147225,0.954785,-0.345065,0.9222335,0.000605,0.0024549999999999,1.0777665,-0.000605,-0.002455,0.8360325,0.026745,-0.317175,1.1353525,0.018475,-0.328525,0.9024825,-0.273505,-0.179297,1.0837504999999998,-0.2840249999999999,-0.18286
238,0.9960950000000001,0.69821,-0.1274389999999999,0.844612,0.49652,-0.1464859999999999,0.6960919999999999,0.6995899999999999,-0.2281889999999999,1.140382,0.49653,-0.1581169999999999,1.260422,0.7205900000000001,-0.2648169999999999,0.655802,0.91974,-0.286452,1.314872,0.95197,-0.345005,0.9217730000000001,0.0005399999999999,0.002465,1.0782269999999998,-0.0005399999999999,-0.0024649999999999,0.837872,0.00667,-0.318015,1.135412,-0.00136,-0.328515,0.903302,-0.29663,-0.1793529999999999,1.084838,-0.30659,-0.1846439999999999
239,0.995981,0.698325,-0.126825,0.844965,0.496885,-0.146399,0.6965250000000001,0.698135,-0.2279459999999999,1.1403050000000001,0.4953849999999999,-0.158134,1.260365,0.7190449999999999,-0.264721,0.656085,0.918035,-0.285756,1.314965,0.951055,-0.3448949999999999,0.921338,0.001105,0.0023849999999999,1.078662,-0.001105,-0.0023849999999999,0.8398950000000001,-0.014095,-0.318465,1.1353550000000001,-0.021955,-0.3284249999999999,0.9032050000000001,-0.320915,-0.181917,1.0858539999999999,-0.330325,-0.1862559999999999
240,0.9955355,0.7000500000000001,-0.1258939999999999,0.8449025,0.49567,-0.1463519999999999,0.6965825,0.69817,-0.2274949999999999,1.1401225,0.49414,-0.1580829999999999,1.2599125,0.71932,-0.264664,0.6561925,0.9184,-0.2847079999999999,1.3146625,0.95164,-0.3448449999999999,0.9210905,0.00069,0.002345,1.0789095,-0.0006899999999999,-0.0023449999999999,0.8416625,-0.0319999999999999,-0.318465,1.1349524999999998,-0.0397699999999999,-0.327885,0.9024575,-0.34317,-0.1849699999999999,1.0864775,-0.35141,-0.187904
241,0.99495,0.702725,-0.12427,0.844672,0.4969949999999999,-0.145642,0.6965319999999999,0.699975,-0.226387,1.139512,0.4955849999999999,-0.157428,1.259412,0.720555,-0.263499,0.6562520000000001,0.919375,-0.282835,1.314442,0.952895,-0.343845,0.921064,0.0005749999999999,0.0022349999999999,1.0789360000000001,-0.000575,-0.002235,0.843112,-0.048615,-0.317855,1.134232,-0.056075,-0.3263749999999999,0.901473,-0.364375,-0.187642,1.086892,-0.371305,-0.188981
242,0.9945425,0.704215,-0.121622,0.8443925,0.497115,-0.143792,0.6964325,0.699905,-0.223999,1.1388725,0.497405,-0.155749,1.2590625,0.7192749999999999,-0.261104,0.6562425000000001,0.916655,-0.280138,1.3143425,0.952545,-0.341285,0.9211555,0.0003449999999999,0.0022649999999999,1.0788445,-0.000345,-0.002265,0.8447125,-0.066655,-0.316235,1.1336125,-0.073175,-0.323905,0.9005365,-0.3863150000000001,-0.189434,1.0875525,-0.392025,-0.189474
243,0.9936255,0.70594,-0.118461,0.8435085,0.49758,-0.141432,0.6959785,0.70165,-0.221089,1.1379385,0.49761,-0.1534309999999999,1.2582784999999999,0.7201299999999999,-0.257726,0.6558485000000001,0.91712,-0.276562,1.3139984999999998,0.95523,-0.33793,0.9210035,8.999999999997899e-05,0.0022099999999999,1.0789965,-9.00000000000345e-05,-0.0022099999999999,0.8459285,-0.08255,-0.3130199999999999,1.1324185,-0.08871,-0.32028,0.8990595000000001,-0.40637,-0.190268,1.0877185,-0.41112,-0.189527
244,0.992213,0.708065,-0.115434,0.8421330000000001,0.497575,-0.138977,0.694913,0.7031050000000001,-0.218159,1.136493,0.497545,-0.151083,1.257053,0.7209650000000001,-0.254251,0.6549929999999999,0.917455,-0.272576,1.313143,0.956205,-0.33423,0.92086,-0.0001549999999999,0.0022,1.07914,0.000155,-0.0022,0.846693,-0.0979449999999999,-0.3101899999999999,1.130713,-0.1035449999999999,-0.31737,0.89688,-0.425735,-0.191581,1.0875029999999999,-0.429295,-0.189929
245,0.990783,0.70985,-0.1122329999999999,0.840734,0.49803,-0.136285,0.693864,0.70372,-0.215175,1.135164,0.4955,-0.148363,1.256164,0.71713,-0.250972,0.654234,0.91898,-0.2680559999999999,1.312274,0.95773,-0.32994,0.9205490000000001,-9.9999999999989e-05,0.0021599999999999,1.079451,9.9999999999989e-05,-0.0021599999999999,0.847494,-0.1138799999999999,-0.30645,1.129054,-0.11846,-0.31362,0.894672,-0.44497,-0.19293,1.087364,-0.44704,-0.190161
246,0.9894125,0.710635,-0.10865,0.8397465,0.497995,-0.133303,0.6926865,0.7032750000000001,-0.211936,1.1339665,0.498195,-0.145114,1.2553965,0.717255,-0.2473,0.6535765,0.918325,-0.263341,1.3115865,0.957555,-0.32539,0.9204145,-0.0007649999999999,0.0020799999999999,1.0795855,0.000765,-0.0020799999999999,0.8488565,-0.1305349999999999,-0.30019,1.1273165,-0.1338349999999999,-0.30745,0.8923355,-0.4646949999999999,-0.193918,1.0874965,-0.4651349999999999,-0.190713
247,0.9883655,0.7129049999999999,-0.105016,0.8387805,0.5003150000000001,-0.130427,0.6916605,0.7051749999999999,-0.208513,1.1329805,0.5003949999999999,-0.141849,1.2550205,0.7189749999999999,-0.243461,0.6531205,0.920365,-0.25857,1.3111105,0.959755,-0.320715,0.9204775000000001,-0.000705,0.0019749999999999,1.0795225,0.0007049999999999,-0.001975,0.8501605,-0.144185,-0.293925,1.1259705,-0.1461049999999999,-0.301385,0.8901415,-0.481405,-0.194648,1.0876605,-0.4797349999999999,-0.189809
248,0.9876295,0.71509,-0.100945,0.8379955,0.50302,-0.126836,0.6909155,0.70627,-0.204724,1.1326455,0.50285,-0.137954,1.2545655,0.72099,-0.239173,0.6528855,0.9222,-0.25368,1.3111655,0.96184,-0.315855,0.9206765,-0.00113,0.0018249999999999,1.0793235,0.0011299999999999,-0.0018249999999999,0.8513655,-0.15759,-0.286705,1.1248354999999999,-0.15748,-0.294955,0.8887345,-0.4975,-0.192229,1.0882955,-0.49327,-0.188496
249,0.987171,0.717945,-0.096883,0.837209,0.505895,-0.123094,0.6904790000000001,0.7087049999999999,-0.201219,1.132639,0.505765,-0.134052,1.254509,0.722375,-0.234867,0.652909,0.924215,-0.248878,1.311569,0.964515,-0.31125,0.920759,-0.0012749999999999,0.0016599999999999,1.0792410000000001,0.001275,-0.0016599999999999,0.852889,-0.1706149999999999,-0.27878,1.124069,-0.1683549999999999,-0.28806,0.8878,-0.512545,-0.18928,1.089359,-0.5063850000000001,-0.187192
250,0.986634,0.7212850000000001,-0.092931,0.8362229999999999,0.509645,-0.119444,0.6899930000000001,0.710495,-0.197715,1.132993,0.507915,-0.130524,1.254343,0.724305,-0.230951,0.6529230000000001,0.927005,-0.244391,1.311873,0.967505,-0.306855,0.9209350000000001,-0.0014749999999999,0.0014949999999999,1.079065,0.001475,-0.0014949999999999,0.8542730000000001,-0.1827249999999999,-0.270555,1.123283,-0.178475,-0.281045,0.88679,-0.526405,-0.185763,1.090483,-0.5188349999999999,-0.185009
251,0.985635,0.7245649999999999,-0.089679,0.834896,0.5125649999999999,-0.116215,0.689216,0.713285,-0.194499,1.132796,0.511825,-0.127322,1.253436,0.727425,-0.227433,0.6524760000000001,0.928315,-0.240778,1.311186,0.970735,-0.303415,0.921234,-0.001715,0.0012649999999999,1.078766,0.0017149999999999,-0.001265,0.8553160000000001,-0.194245,-0.261876,1.1218059999999999,-0.188145,-0.273515,0.885337,-0.539865,-0.182531,1.090686,-0.530605,-0.181817
252,0.9849090000000001,0.7278979999999999,-0.086608,0.8335040000000001,0.517118,-0.113127,0.688724,0.716348,-0.191605,1.132834,0.515008,-0.124269,1.252614,0.729448,-0.223927,0.652284,0.932068,-0.23772,1.310794,0.970488,-0.300345,0.921424,-0.0018519999999999,0.001055,1.078576,0.001852,-0.001055,0.856764,-0.205252,-0.252869,1.120454,-0.197172,-0.265895,0.884121,-0.5526920000000001,-0.178941,1.091114,-0.541702,-0.178773
253,0.9845655000000001,0.7292814999999999,-0.083532,0.8324515,0.5214215,-0.110195,0.6887115000000001,0.7187015,-0.188659,1.1330815,0.5207315,-0.121208,1.2520915000000001,0.7311515,-0.220416,0.6524215,0.9347915,-0.234656,1.3108515,0.9681415,-0.29728,0.9214395,-0.0019985,0.0007199999999999,1.0785605,0.0019985,-0.0007199999999999,0.8588015,-0.2168784999999999,-0.242677,1.1191315,-0.2070484999999999,-0.256724,0.8833775000000001,-0.5659985000000001,-0.175321,1.0915315,-0.5538785,-0.175716
254,0.9842115000000001,0.730755,-0.079496,0.8315805000000001,0.525755,-0.106772,0.6887305,0.718315,-0.185045,1.1328405,0.524915,-0.117407,1.2516405,0.732465,-0.2162629999999999,0.6527205,0.932835,-0.230604,1.3110005,0.969225,-0.2932249999999999,0.9214845,-0.0022309999999999,0.000445,1.0785155,0.0022309999999999,-0.000445,0.8614405,-0.229945,-0.229786,1.1169805,-0.2194749999999999,-0.2438,0.8829085000000001,-0.580715,-0.170777,1.0917005,-0.568205,-0.17079
255,0.9840520000000001,0.7351665,-0.075813,0.8306970000000001,0.5272965,-0.103477,0.688917,0.7215965,-0.181846,1.132967,0.5273665,-0.114014,1.251647,0.7321865,-0.212413,0.653077,0.9342765,-0.227085,1.311167,0.9725165,-0.28941,0.9215810000000001,-0.0022995,0.00014,1.0784189999999998,0.0022994999999999,-0.00014,0.863517,-0.2424635,-0.218525,1.114947,-0.2323435,-0.231646,0.8831370000000001,-0.5944835,-0.16561,1.091927,-0.5827135,-0.16567
256,0.983992,0.7390715,-0.072253,0.829883,0.5294015,-0.100209,0.689133,0.7240015,-0.178987,1.133433,0.5298815,-0.110593,1.251863,0.7317115,-0.208686,0.653383,0.9346415,-0.223745,1.3111329999999999,0.9762215,-0.285765,0.9216330000000001,-0.0021774999999999,-8.500000000000174e-05,1.0783669999999999,0.0021774999999999,8.500000000000174e-05,0.865883,-0.2551184999999999,-0.207167,1.112593,-0.2459285,-0.2185,0.88344,-0.6084685,-0.159373,1.092223,-0.5970785,-0.159822
257,0.9844,0.740818,-0.063694,0.829483,0.532648,-0.092234,0.689743,0.7249779999999999,-0.17091,1.134403,0.5341180000000001,-0.102399,1.2526329999999999,0.730998,-0.200008,0.654203,0.932598,-0.215476,1.311623,0.971538,-0.2774999999999999,0.9215490000000001,-0.0020519999999999,-0.00042,1.0784509999999998,0.002052,0.00042,0.868903,-0.268832,-0.188587,1.1103029999999998,-0.260712,-0.198268,0.884422,-0.6232519999999999,-0.146381,1.092783,-0.6118619999999999,-0.146702
258,0.985538,0.7386484999999999,-0.0533809999999999,0.829832,0.5319984999999999,-0.0827109999999999,0.691072,0.7217684999999999,-0.1616699999999999,1.135872,0.5346385,-0.0926119999999999,1.253472,0.7285885,-0.190116,0.655762,0.9278185,-0.206199,1.312392,0.9642785,-0.26739,0.9220250000000001,-0.0023485,-0.0006099999999999,1.077975,0.0023485,0.0006099999999999,0.874142,-0.2858615,-0.1656679999999999,1.107702,-0.2779715,-0.1748829999999999,0.8861690000000001,-0.6405115,-0.130384,1.093582,-0.6293615,-0.1308909999999999
259,0.9867105,0.736343,-0.043837,0.8302754999999999,0.530533,-0.073421,0.6924355000000001,0.718753,-0.152735,1.1374355,0.535743,-0.083026,1.2543655,0.726293,-0.180659,0.6574255,0.923553,-0.197302,1.3131154999999999,0.957533,-0.25754,0.9224425,-0.0026619999999999,-0.00069,1.0775575,0.002662,0.0006899999999999,0.8793755,-0.301727,-0.143418,1.1050955,-0.293987,-0.152002,0.8883165000000001,-0.656527,-0.113801,1.0940755,-0.646227,-0.114256
260,0.987909,0.733997,-0.0343969999999999,0.8307840000000001,0.529467,-0.0641659999999999,0.693784,0.715947,-0.143814,1.139154,0.534547,-0.073484,1.255074,0.7243470000000001,-0.1711479999999999,0.659124,0.920317,-0.1886339999999999,1.313594,0.951507,-0.2478449999999999,0.92288,-0.002815,-0.0007149999999999,1.07712,0.002815,0.000715,0.884604,-0.316003,-0.1216449999999999,1.102574,-0.308793,-0.1295529999999999,0.890605,-0.670933,-0.0971059999999999,1.094304,-0.662503,-0.0971869999999999
261,0.989207,0.7322955,-0.0247015,0.8319449999999999,0.5273055,-0.0546435,0.6954450000000001,0.7125455,-0.1342765,1.140755,0.5346855,-0.0635405,1.256055,0.7232855,-0.1613224999999999,0.6609750000000001,0.9142755,-0.1797035,1.314135,0.9461455,-0.2374025,0.923139,-0.0029684999999999,-0.0007584999999999,1.076861,0.0029684999999999,0.0007584999999999,0.890022,-0.3291345,-0.0991275,1.099865,-0.3233244999999999,-0.1056475,0.893132,-0.6847745,-0.0798075,1.094465,-0.6784344999999999,-0.0796435
262,0.9904635,0.73146,-0.0149805,0.8331585000000001,0.52625,-0.0450135,0.6971285,0.7094999999999999,-0.1246925,1.1423285,0.5326299999999999,-0.0535165,1.2571984999999999,0.7228699999999999,-0.1515575,0.6628585,0.9099,-0.1706985,1.3144985,0.94222,-0.2268455,0.9233855,-0.003006,-0.0007015,1.0766145,0.003006,0.0007014999999999,0.8950985,-0.3408299999999999,-0.0772705,1.0973785,-0.33642,-0.0828545,0.8956685,-0.6974400000000001,-0.0630255,1.0944585,-0.69269,-0.0625175
