sb224sc-HT22-VT27/4dt907/src/data/kinect_good_preprocessed_A9_mediapipe /A58_kinect.csv
FrameNo,nose_3d_x,nose_3d_y,nose_3d_z,left_shoulder_3d_x,left_shoulder_3d_y,left_shoulder_3d_z,left_elbow_3d_x,left_elbow_3d_y,left_elbow_3d_z,right_shoulder_3d_x,right_shoulder_3d_y,right_shoulder_3d_z,right_elbow_3d_x,right_elbow_3d_y,right_elbow_3d_z,left_wrist_3d_x,left_wrist_3d_y,left_wrist_3d_z,right_wrist_3d_x,right_wrist_3d_y,right_wrist_3d_z,left_hip_3d_x,left_hip_3d_y,left_hip_3d_z,right_hip_3d_x,right_hip_3d_y,right_hip_3d_z,left_knee_3d_x,left_knee_3d_y,left_knee_3d_z,right_knee_3d_x,right_knee_3d_y,right_knee_3d_z,left_ankle_3d_x,left_ankle_3d_y,left_ankle_3d_z,right_ankle_3d_x,right_ankle_3d_y,right_ankle_3d_z
1,-0.028502999999999997,0.621762,0.047509499999999996,-0.168096,0.436872,0.035402499999999996,-0.23429599999999998,0.6816019999999999,-0.015575499999999999,0.15724400000000002,0.45178199999999996,0.0830195,0.237844,0.633602,0.0318385,-0.27118600000000004,0.927312,-0.0104835,0.296774,0.900782,0.0288735,-0.06173,0.0022720000000000006,0.0015685000000000004,0.06173,-0.002272,-0.0015685000000000004,-0.10578599999999999,-0.438958,-0.0368185,0.109564,-0.442578,0.0020754999999999975,-0.137076,-0.906218,-0.0922595,0.162214,-0.952868,-0.0078685
2,-0.028623,0.6202869999999999,0.048617,-0.167657,0.436457,0.034915,-0.234407,0.681657,-0.01559,0.157083,0.45181699999999997,0.083066,0.237843,0.6336269999999999,0.032195,-0.271177,0.9272469999999999,-0.010563999999999997,0.296143,0.9009269999999999,0.029784,-0.061732,0.002269,0.001628000000000001,0.061732,-0.0022689999999999997,-0.0016279999999999975,-0.10577700000000001,-0.43896300000000005,-0.036924,0.109543,-0.442583,0.0019590000000000024,-0.137357,-0.906263,-0.09163299999999999,0.162303,-0.952843,-0.007842000000000002
3,-0.028731500000000004,0.619387,0.0492885,-0.16724250000000002,0.436527,0.0344875,-0.2345325,0.681807,-0.0156465,0.15698749999999997,0.451857,0.0830675,0.23783749999999998,0.633717,0.0326215,-0.2712425,0.927237,-0.010534500000000002,0.2954575,0.901137,0.0307455,-0.061742500000000006,0.002307,0.0018024999999999985,0.061742500000000006,-0.002307,-0.001802500000000002,-0.1057825,-0.438923,-0.037100499999999995,0.1095275,-0.442613,0.0019064999999999985,-0.1372525,-0.906243,-0.0916495,0.1619775,-0.954733,-0.009798500000000002
4,-0.028851500000000002,0.619332,0.0490805,-0.1678165,0.436512,0.0347805,-0.2345865,0.6818620000000001,-0.0158345,0.15685349999999998,0.451912,0.08306949999999999,0.2379035,0.633712,0.0327735,-0.2713065,0.927482,-0.0103095,0.2946235,0.9012720000000001,0.0323505,-0.06174450000000001,0.0023439999999999997,0.0020184999999999995,0.06174450000000001,-0.002344,-0.002018500000000003,-0.1057065,-0.438888,-0.0370905,0.1095835,-0.442648,0.0016334999999999995,-0.1371765,-0.906188,-0.0919055,0.1619535,-0.954598,-0.010118500000000002
5,-0.0289355,0.618604,0.049469,-0.1685315,0.436824,0.035278000000000004,-0.2346515,0.6819040000000001,-0.015953,0.1567385,0.452054,0.08298900000000001,0.2377085,0.6339940000000001,0.033265,-0.27139149999999995,0.927484,-0.010316000000000002,0.2941885,0.901584,0.033471,-0.061745499999999995,0.0023599999999999997,0.0017350000000000004,0.061745499999999995,-0.00236,-0.0017350000000000004,-0.1057415,-0.438876,-0.037225999999999995,0.10990849999999999,-0.442646,0.0016509999999999997,-0.1371515,-0.9061859999999999,-0.09196299999999999,0.1621385,-0.952456,-0.008547000000000003
6,-0.028953000000000003,0.6180875,0.049762,-0.168963,0.43680749999999996,0.035417000000000004,-0.234733,0.6818974999999999,-0.016109000000000002,0.156567,0.4523275,0.082942,0.242017,0.6321475,0.032551000000000004,-0.271563,0.9275575,-0.010387999999999998,0.294187,0.9005475,0.033986,-0.061764,0.0024135,0.0014780000000000001,0.061764,-0.0024135,-0.0014780000000000001,-0.105693,-0.4388225,-0.03744800000000001,0.109947,-0.44273250000000003,0.001466000000000002,-0.137203,-0.9061325,-0.092214,0.16214699999999999,-0.9522725,-0.008676
7,-0.028738999999999997,0.6192504999999999,0.049145999999999995,-0.16836099999999998,0.4364905,0.035127,-0.234431,0.6818704999999999,-0.016119,0.156639,0.4524005,0.082775,0.238339,0.6343205,0.034811999999999996,-0.271361,0.9272505,-0.010875000000000003,0.294499,0.9020104999999999,0.035077,-0.061874,0.0023675,0.0019379999999999988,0.061874,-0.0023675000000000002,-0.0019380000000000022,-0.105491,-0.43887950000000003,-0.037543,0.11004900000000001,-0.4426795,0.001117,-0.13711099999999998,-0.9061395,-0.09279200000000001,0.16214900000000002,-0.9518395000000001,-0.009611000000000001
8,-0.028746999999999998,0.6191235,0.049090999999999996,-0.168382,0.43638350000000004,0.035152,-0.234352,0.6818835,-0.016016999999999997,0.156628,0.4524135,0.08272199999999999,0.238448,0.6343335,0.035441,-0.271362,0.9272235,-0.010951000000000002,0.294348,0.9020235,0.035924,-0.06191,0.0023805,0.001974,0.06191,-0.0023805000000000002,-0.001974,-0.10547200000000001,-0.4388665,-0.037714,0.11005799999999999,-0.4426965,0.0009189999999999997,-0.137102,-0.9061265,-0.09302,0.162138,-0.9518565,-0.010043999999999997
9,-0.028747500000000002,0.619058,0.04901,-0.1683415,0.436248,0.035188,-0.2341415,0.6819179999999999,-0.015927,0.1566185,0.452448,0.082637,0.23855849999999998,0.634358,0.036049,-0.2713715,0.927188,-0.011054999999999999,0.2942985,0.9020579999999999,0.036576,-0.061941500000000004,0.0024149999999999996,0.0019570000000000004,0.061941500000000004,-0.002415,-0.0019570000000000004,-0.1054715,-0.438832,-0.037905999999999995,0.11006849999999999,-0.442732,0.0006999999999999992,-0.1371115,-0.906092,-0.093267,0.16212849999999998,-0.9519920000000001,-0.010491000000000004
10,-0.028740500000000002,0.6189665,0.048884,-0.16831449999999998,0.4361065,0.035108,-0.23267449999999998,0.6758365,-0.015655999999999996,0.1566055,0.4524965,0.082552,0.23870550000000001,0.6342565,0.036606,-0.27082449999999997,0.9236865,-0.011134999999999999,0.2943255,0.9020665,0.037088,-0.0619715,0.0024585,0.001923000000000001,0.0619715,-0.0024584999999999997,-0.0019229999999999976,-0.1054645,-0.4387935,-0.038095,0.11008549999999999,-0.4427835,0.00046800000000000314,-0.1371045,-0.9060435,-0.093555,0.16208550000000002,-0.9521535,-0.010971000000000002
11,-0.028656,0.6191115,0.048902,-0.1682,0.4361815,0.03493,-0.23194,0.6763615000000001,-0.015035,0.15661,0.4526615,0.082638,0.23884,0.6345015,0.037292,-0.27033,0.9244615,-0.011132999999999997,0.29439,0.9023315,0.037819,-0.062004000000000004,0.0025185000000000008,0.0018880000000000008,0.062004000000000004,-0.0025185,-0.0018880000000000008,-0.10549,-0.4387085,-0.03835,0.1101,-0.4428685,0.00017800000000000107,-0.13727999999999999,-0.9059085,-0.094105,0.16194,-0.9518385,-0.011349999999999999
12,-0.028608500000000002,0.6193045,0.0490335,-0.1679985,0.4362845,0.0347545,-0.2311985,0.6768745,-0.0143865,0.15661150000000001,0.4528245,0.0827295,0.2390015,0.6347545,0.0377495,-0.2698085,0.9252145,-0.011074499999999998,0.29456150000000003,0.9025745000000001,0.0383525,-0.062023499999999995,0.0025755000000000005,0.0018055000000000015,0.062023499999999995,-0.0025754999999999997,-0.0018055000000000015,-0.1054385,-0.4386255,-0.0385895,0.11010149999999999,-0.4429355,-8.649999999999977e-05,-0.1374685,-0.9057855,-0.0946505,0.1618115,-0.9515655,-0.011706499999999998
13,-0.0285555,0.6195535,0.0492625,-0.16768149999999998,0.4363935,0.0345405,-0.2304415,0.6773535,-0.013757499999999999,0.1566285,0.4529935,0.0828205,0.2391885,0.6349835,0.038122500000000004,-0.2690815,0.9259635,-0.010861499999999996,0.2947785,0.9027935,0.0387975,-0.0620395,0.0026384999999999994,0.0017175000000000003,0.0620395,-0.0026385000000000002,-0.0017174999999999968,-0.1053715,-0.43853650000000005,-0.0388335,0.1100685,-0.4430065,-0.00034249999999999906,-0.1376715,-0.9056465,-0.0952405,0.1616985,-0.9515165,-0.012279499999999999
14,-0.028516999999999997,0.619956,0.049538,-0.167292,0.436536,0.034283,-0.229642,0.677846,-0.013180999999999998,0.156658,0.453136,0.082895,0.23918799999999998,0.635416,0.037996,-0.268292,0.926536,-0.010561999999999995,0.295078,0.9031359999999999,0.038932,-0.062047,0.002689,0.001577000000000002,0.062047,-0.0026890000000000004,-0.0015769999999999985,-0.105322,-0.438464,-0.039066000000000004,0.110038,-0.443074,-0.0006059999999999989,-0.137852,-0.905504,-0.095873,0.16161799999999998,-0.9514940000000001,-0.012895999999999998
15,-0.0284645,0.6202975,0.049855,-0.1668385,0.4368375,0.034033,-0.2286385,0.6782775,-0.012692999999999996,0.1566915,0.4532775,0.082955,0.2392115,0.6357075,0.037697,-0.26744850000000003,0.9270174999999999,-0.010301999999999999,0.2955015,0.9033475,0.038877,-0.0620515,0.0027445000000000004,0.001400000000000002,0.0620515,-0.0027445000000000004,-0.0013999999999999985,-0.10529849999999999,-0.4383925,-0.039138,0.10999149999999999,-0.4431425,-0.0008319999999999994,-0.1380185,-0.9053625,-0.09648200000000001,0.16158150000000002,-0.9517925,-0.013448000000000002
16,-0.028391999999999997,0.6205904999999999,0.050149,-0.16636700000000001,0.4371705,0.033698,-0.227837,0.6786905,-0.012270999999999997,0.156743,0.4534305,0.082997,0.239343,0.6359404999999999,0.037407,-0.266527,0.9238305,-0.010469,0.295953,0.9035205,0.03876,-0.062048,0.0028044999999999997,0.0012150000000000008,0.062048,-0.0028044999999999997,-0.0012149999999999973,-0.105297,-0.4383195,-0.039257999999999994,0.109953,-0.4432095,-0.0010319999999999982,-0.138167,-0.9052295,-0.09712699999999999,0.161503,-0.9518995,-0.014002
17,-0.028308999999999997,0.6208115,0.0504525,-0.16589199999999998,0.4375615,0.0333815,-0.226962,0.6790415,-0.012126499999999998,0.156808,0.4535515,0.08303350000000001,0.239778,0.6358415,0.0371645,-0.265532,0.9246515,-0.010318500000000001,0.296438,0.9034115,0.038525500000000004,-0.062041,0.0028645000000000007,0.0010345000000000007,0.062041,-0.002864499999999999,-0.0010344999999999972,-0.10530199999999999,-0.4382385,-0.0394275,0.109908,-0.4432785,-0.0012244999999999964,-0.138322,-0.9050885,-0.09777150000000001,0.161418,-0.9520085,-0.014454499999999995
18,-0.028228999999999997,0.6210005000000001,0.0508045,-0.165452,0.4379705,0.0330845,-0.226222,0.6793505000000001,-0.011987499999999998,0.15687800000000002,0.4536405,0.08308650000000001,0.240038,0.6355805,0.0367645,-0.264432,0.9257705,-0.010194500000000002,0.296498,0.9031505000000001,0.0382635,-0.06203,0.0029124999999999993,0.0008965000000000015,0.06203,-0.0029125,-0.0008965000000000015,-0.10531199999999999,-0.4381795,-0.0395565,0.10986800000000001,-0.4433395,-0.0013825000000000018,-0.13847199999999998,-0.9049594999999999,-0.09841749999999999,0.16131800000000002,-0.9521195,-0.0148485
19,-0.028132999999999995,0.6212540000000001,0.0511985,-0.165045,0.438434,0.0328545,-0.226045,0.6799240000000001,-0.0119615,0.156955,0.453704,0.0831585,0.240305,0.635324,0.0364175,-0.26366500000000004,0.926964,-0.0101155,0.29654500000000006,0.902884,0.0380375,-0.062027,0.0029560000000000003,0.0007974999999999996,0.062027,-0.0029560000000000003,-0.0007974999999999996,-0.105325,-0.438116,-0.0396445,0.10981500000000001,-0.443386,-0.0015095000000000004,-0.138605,-0.904836,-0.0990265,0.16120500000000001,-0.952206,-0.015101499999999997
20,-0.0280295,0.6213725,0.0513765,-0.1647545,0.4384925,0.0326995,-0.2265245,0.6857624999999999,-0.012171499999999998,0.1569655,0.4537725,0.0830575,0.2407655,0.6352025,0.0361365,-0.2628245,0.9306724999999999,-0.010086500000000002,0.2968255,0.9027624999999999,0.0379375,-0.0620255,0.0029785000000000002,0.0007174999999999994,0.0620255,-0.0029785000000000002,-0.0007174999999999994,-0.1053645,-0.4380975,-0.03965049999999999,0.1098155,-0.4434075,-0.0015324999999999991,-0.1385645,-0.9047875000000001,-0.09936149999999999,0.1612055,-0.9523075000000001,-0.015244499999999998
21,-0.0278155,0.621488,0.0514015,-0.16448649999999998,0.438548,0.0325965,-0.2263065,0.685648,-0.012258500000000002,0.1569835,0.453838,0.0829595,0.2412135,0.635008,0.0358415,-0.2619765,0.930728,-0.010075499999999998,0.2971435,0.902568,0.0377775,-0.0620255,0.002994,0.0006484999999999998,0.0620255,-0.002994,-0.0006484999999999998,-0.1054065,-0.438082,-0.0396325,0.1098035,-0.443422,-0.0015345000000000011,-0.13853649999999998,-0.904752,-0.0996505,0.1612135,-0.952382,-0.015488499999999999
22,-0.0275455,0.621596,0.051332,-0.1642205,0.438596,0.032527,-0.22608050000000002,0.685656,-0.012334000000000001,0.15699950000000001,0.453906,0.082852,0.24165950000000003,0.635116,0.035509,-0.2613505,0.930626,-0.010091,0.29750950000000004,0.902676,0.037577,-0.0620255,0.003006,0.0005900000000000002,0.0620255,-0.003006,-0.0005900000000000002,-0.1054905,-0.43808400000000003,-0.039577,0.1097895,-0.443434,-0.0015380000000000012,-0.13850050000000003,-0.904734,-0.09994,0.16121950000000002,-0.9525440000000001,-0.01572
23,-0.027304499999999995,0.6218305,0.0513005,-0.1639155,0.43875050000000004,0.0323375,-0.2260555,0.6858905,-0.012744500000000002,0.1569945,0.4539805,0.0827825,0.24220450000000002,0.6352405,0.0349495,-0.2607855,0.9344005,-0.0102855,0.2979845,0.9028005,0.0369875,-0.0620355,0.0030275,0.0005544999999999994,0.0620355,-0.0030275000000000007,-0.0005544999999999994,-0.1054755,-0.4380695,-0.0395035,0.10979449999999999,-0.4434495,-0.0015035000000000014,-0.1384755,-0.9046995,-0.1001595,0.16125450000000002,-0.9526795,-0.015873500000000002
24,-0.0270575,0.6222230000000001,0.0512835,-0.1636525,0.438863,0.0321615,-0.22602250000000002,0.686003,-0.013174499999999999,0.1569775,0.454053,0.0827245,0.2427975,0.6353530000000001,0.034403500000000004,-0.2606125,0.935403,-0.010475499999999999,0.2984775,0.9029130000000001,0.036353500000000004,-0.0620505,0.0030369999999999998,0.0005304999999999997,0.0620505,-0.0030369999999999998,-0.0005304999999999997,-0.1055025,-0.438047,-0.039504500000000005,0.10979749999999999,-0.44345700000000005,-0.0014754999999999976,-0.1384725,-0.904677,-0.10040750000000001,0.1612875,-0.9528169999999999,-0.016044499999999996
25,-0.026774499999999996,0.6226285,0.051226,-0.16340749999999998,0.4389985,0.031952,-0.2260075,0.6861385,-0.013622999999999996,0.1569325,0.4541385,0.082663,0.2434125,0.6354285,0.033802,-0.2607775,0.9365585,-0.010911999999999998,0.29903250000000003,0.9029485,0.035727,-0.0620805,0.0030524999999999997,0.0005150000000000016,0.0620805,-0.0030524999999999997,-0.0005149999999999981,-0.1055475,-0.4380115,-0.03951,0.1097825,-0.44348150000000003,-0.0014519999999999984,-0.1385275,-0.9046615,-0.100429,0.1612425,-0.9528415,-0.016105999999999995
26,-0.0264235,0.623064,0.0509665,-0.1632055,0.43915400000000004,0.0317235,-0.2258655,0.686294,-0.014110499999999998,0.1568845,0.45425400000000005,0.0825825,0.2437145,0.6355339999999999,0.0334965,-0.26067549999999995,0.936504,-0.0114835,0.29958450000000003,0.9030039999999999,0.0351105,-0.0621085,0.003073000000000001,0.0004984999999999989,0.0621085,-0.0030729999999999993,-0.0004985000000000024,-0.1056255,-0.437976,-0.03950650000000001,0.1097745,-0.44350599999999996,-0.0014375000000000013,-0.1385955,-0.9046660000000001,-0.1005045,0.1611945,-0.952856,-0.0161745
27,-0.026023,0.623536,0.0506995,-0.163097,0.439326,0.0315355,-0.225787,0.686336,-0.0146265,0.156843,0.454396,0.0824845,0.243983,0.635806,0.0331785,-0.26049700000000003,0.935866,-0.012069499999999997,0.300193,0.903226,0.0345475,-0.06214,0.003098,0.0004854999999999998,0.06214,-0.003098,-0.0004854999999999998,-0.10574700000000001,-0.437934,-0.0395975,0.10975299999999999,-0.443524,-0.0014295000000000002,-0.13866699999999998,-0.9044540000000001,-0.10046549999999999,0.161133,-0.952814,-0.016273499999999996
28,-0.0254305,0.6240585000000001,0.050373,-0.1630405,0.4394785,0.031397,-0.2257105,0.6864485,-0.015161,0.1567995,0.45455850000000003,0.082377,0.2442495,0.6359885000000001,0.032839,-0.26047050000000005,0.9357185,-0.012788,0.3007895,0.9033485,0.033916,-0.0621735,0.003119499999999999,0.0004709999999999992,0.0621735,-0.0031195000000000007,-0.0004709999999999992,-0.1058605,-0.4379015,-0.039687999999999994,0.10973949999999999,-0.4435515,-0.0014219999999999997,-0.1387305,-0.9044215,-0.10058,0.1610695,-0.9527515,-0.016357999999999998
29,-0.0248005,0.6245345,0.0500225,-0.1630665,0.43962450000000003,0.031272499999999995,-0.2256165,0.6865445,-0.0160055,0.1567435,0.45473450000000004,0.0822395,0.2442035,0.6364345,0.032467499999999996,-0.2604465,0.9350445,-0.013637500000000004,0.3014035,0.9037044999999999,0.033362499999999996,-0.062204499999999996,0.003145499999999999,0.0004515000000000005,0.062204499999999996,-0.0031455000000000007,-0.0004515000000000005,-0.1059765,-0.43786549999999996,-0.0397915,0.1097235,-0.44357549999999996,-0.0013745000000000007,-0.1388165,-0.9043855000000001,-0.1006785,0.1609835,-0.9526355000000001,-0.0164505
30,-0.024011499999999998,0.625033,0.049501500000000004,-0.16316150000000001,0.439763,0.0311645,-0.22528150000000002,0.683383,-0.0167915,0.15668849999999998,0.454923,0.0820985,0.2443285,0.636803,0.0321265,-0.2604415,0.934533,-0.0146605,0.3020285,0.904003,0.0328255,-0.0622365,0.003181999999999999,0.00041550000000000267,0.0622365,-0.003182000000000001,-0.0004154999999999992,-0.1061015,-0.437817,-0.0398875,0.10971850000000001,-0.44360700000000003,-0.0013164999999999982,-0.1389315,-0.904327,-0.10071250000000001,0.1608985,-0.9525170000000001,-0.016481499999999996
31,-0.023142,0.625546,0.04887,-0.163268,0.439876,0.031082,-0.22536799999999999,0.680216,-0.017062,0.156622,0.45511599999999997,0.081949,0.244512,0.6370760000000001,0.031854999999999994,-0.260988,0.934766,-0.014821,0.30263199999999996,0.904216,0.032340999999999995,-0.062265999999999995,0.003214,0.00036699999999999927,0.062265999999999995,-0.003214,-0.00036700000000000274,-0.10622799999999999,-0.43776400000000004,-0.03994400000000001,0.109702,-0.44363400000000003,-0.0012600000000000007,-0.13902799999999998,-0.904284,-0.100766,0.16079200000000002,-0.952284,-0.01647
32,-0.0222395,0.6259535,0.048281500000000005,-0.1633725,0.4399735,0.0310005,-0.2253625,0.6770535,-0.0178105,0.1565675,0.4552635,0.08178250000000001,0.2446975,0.6373035,0.0316275,-0.2613225,0.9332035,-0.0158415,0.30316750000000003,0.9044335,0.0319505,-0.0622935,0.0032484999999999997,0.00030749999999999875,0.0622935,-0.0032484999999999997,-0.00030749999999999875,-0.1063625,-0.4377165,-0.0399625,0.1096975,-0.44366649999999996,-0.0011534999999999983,-0.1391425,-0.9042465,-0.1007775,0.1606875,-0.9520665,-0.016445500000000002
33,-0.0211965,0.626251,0.047702499999999995,-0.1634985,0.440091,0.0309085,-0.2254085,0.6739409999999999,-0.0185615,0.1564915,0.455411,0.08159649999999999,0.2448515,0.637701,0.0314275,-0.26182849999999996,0.9319609999999999,-0.0169835,0.3036515,0.9047609999999999,0.0316245,-0.0623175,0.003292999999999999,0.00023149999999999907,0.0623175,-0.003293000000000001,-0.00023150000000000254,-0.1065085,-0.437649,-0.03999250000000001,0.1096815,-0.443709,-0.0010615,-0.13928849999999998,-0.9041990000000001,-0.1007795,0.16057149999999998,-0.9519390000000001,-0.0165275
34,-0.0200735,0.626519,0.0471645,-0.16368850000000001,0.440199,0.030821499999999998,-0.2254585,0.670699,-0.0192825,0.1564115,0.455529,0.0814165,0.2448515,0.638069,0.0313315,-0.2623985,0.930949,-0.0182745,0.3039815,0.9050990000000001,0.0314315,-0.062328499999999995,0.003330999999999999,0.00017249999999999904,0.062328499999999995,-0.0033310000000000006,-0.0001725000000000025,-0.10664850000000001,-0.437601,-0.0400355,0.10964149999999999,-0.443741,-0.0009275000000000012,-0.1394385,-0.904161,-0.1007465,0.1604715,-0.9518209999999999,-0.0165675
35,-0.018890500000000005,0.6267485,0.046698,-0.1639845,0.4403285,0.030792,-0.2257545,0.6675185,-0.020229999999999998,0.15630549999999999,0.4556285,0.08122599999999999,0.2447755,0.6384085,0.031252,-0.2631245,0.9300585,-0.019673000000000003,0.30417550000000004,0.9053685,0.031332,-0.0623325,0.0033805,0.00010299999999999893,0.0623325,-0.0033805,-0.0001030000000000024,-0.1067845,-0.4375315,-0.040099,0.1096155,-0.4437815,-0.0007960000000000016,-0.1396045,-0.9041115,-0.10067599999999999,0.1603355,-0.9517515,-0.016656999999999998
36,-0.0177335,0.626909,0.0462725,-0.1643425,0.440469,0.0308065,-0.2260725,0.664309,-0.0211885,0.1561775,0.455719,0.0810585,0.2447075,0.638699,0.031199499999999998,-0.26361249999999997,0.929289,-0.021076499999999998,0.30427750000000003,0.905639,0.0313065,-0.0623245,0.003431,9.499999999999093e-06,0.0623245,-0.003431,-9.499999999999093e-06,-0.1069525,-0.437461,-0.0401665,0.1095575,-0.443831,-0.0006474999999999988,-0.1398125,-0.9040509999999999,-0.1005635,0.1601575,-0.951571,-0.0166095
37,-0.0167335,0.6270495,0.0458505,-0.1647525,0.44060950000000004,0.030880499999999998,-0.22641250000000002,0.6610995000000001,-0.0221135,0.1560375,0.45580950000000003,0.0809085,0.2446575,0.6388095,0.0311665,-0.2641925,0.9286495,-0.022648500000000002,0.30439750000000004,0.9057095000000001,0.031300499999999995,-0.0623065,0.0034885000000000003,-0.00011049999999999949,0.0623065,-0.0034884999999999985,0.00011049999999999949,-0.1071125,-0.4373805,-0.0402145,0.10949750000000001,-0.44388049999999996,-0.0004714999999999997,-0.1400125,-0.9039805,-0.1005535,0.15996749999999998,-0.9513905,-0.016537500000000004
38,-0.015775499999999998,0.6271880000000001,0.045498,-0.1651975,0.440748,0.030991,-0.2267175,0.657968,-0.023025999999999998,0.1559025,0.45589799999999997,0.080787,0.24457250000000003,0.638978,0.031202,-0.2647775,0.9281280000000001,-0.024051000000000003,0.3044725,0.9058780000000001,0.031313,-0.0622895,0.003552999999999999,-0.00023799999999999863,0.0622895,-0.0035530000000000006,0.0002380000000000021,-0.1072675,-0.437302,-0.040237999999999996,0.1094125,-0.443942,-0.00033000000000000043,-0.14017749999999998,-0.903902,-0.10056,0.1597725,-0.9511919999999999,-0.016482999999999998
39,-0.014964499999999999,0.6273249999999999,0.045284,-0.1655915,0.440885,0.031096,-0.22707149999999998,0.658095,-0.023572,0.15577850000000001,0.455995,0.080701,0.24447850000000002,0.639145,0.031279,-0.2653015,0.928275,-0.025473,0.3044885,0.906045,0.031455,-0.0622665,0.003611999999999999,-0.0003820000000000004,0.0622665,-0.0036120000000000006,0.0003820000000000004,-0.10738149999999999,-0.437235,-0.04024699999999999,0.1093185,-0.444005,-0.00017299999999999954,-0.14037149999999998,-0.9038250000000001,-0.100498,0.1595185,-0.950735,-0.016421
40,-0.014247500000000003,0.6275029999999999,0.04524399999999999,-0.1659485,0.441043,0.031169999999999996,-0.2274785,0.658133,-0.02414,0.1556115,0.456093,0.08071,0.2444015,0.639203,0.031418999999999996,-0.2658585,0.9283129999999999,-0.026600000000000006,0.3044915,0.906073,0.031719,-0.0622435,0.0036830000000000005,-0.0005260000000000022,0.0622435,-0.0036829999999999988,0.0005259999999999987,-0.10745850000000001,-0.43715699999999996,-0.04026500000000001,0.1092215,-0.444077,-4.400000000000237e-05,-0.1405285,-0.9037470000000001,-0.10048900000000001,0.1593815,-0.9507070000000001,-0.016469000000000004
41,-0.0135955,0.627682,0.045262,-0.16626649999999998,0.441202,0.031237,-0.2278165,0.658132,-0.024651999999999997,0.1554435,0.456212,0.08073,0.2443335,0.639232,0.031602,-0.2664165,0.928332,-0.027619,0.3045035,0.906042,0.032072,-0.062213500000000005,0.003752,-0.0006819999999999986,0.062213500000000005,-0.003752,0.0006819999999999986,-0.1075465,-0.437068,-0.04028899999999999,0.1091235,-0.444148,5.4999999999999494e-05,-0.1406765,-0.903658,-0.100469,0.1592335,-0.950578,-0.016470000000000002
42,-0.013073499999999998,0.6278545,0.045343999999999995,-0.1665575,0.4413345,0.031299,-0.22843750000000002,0.6579845,-0.025259999999999998,0.1552925,0.45633450000000003,0.08075399999999999,0.2442625,0.6392345,0.031832,-0.2668575,0.9282245,-0.028511,0.3045225,0.9060045,0.032491,-0.062186500000000006,0.0038195000000000017,-0.0008149999999999998,0.062186500000000006,-0.0038195,0.0008149999999999998,-0.1076375,-0.4369955,-0.040338,0.1090325,-0.4442155,0.0001449999999999993,-0.14079750000000002,-0.9035854999999999,-0.100465,0.15910249999999998,-0.9504454999999999,-0.016475000000000004
43,-0.012641,0.628027,0.045429,-0.166792,0.441307,0.031370999999999996,-0.228712,0.658187,-0.025823,0.15514799999999998,0.45649700000000004,0.08077899999999999,0.244198,0.639597,0.032224,-0.267182,0.928477,-0.029282999999999997,0.30454800000000004,0.9063169999999999,0.033235,-0.062158000000000005,0.0038670000000000006,-0.0009410000000000009,0.062158000000000005,-0.0038670000000000006,0.0009410000000000009,-0.107682,-0.43693299999999996,-0.040406000000000004,0.10899800000000001,-0.44426299999999996,0.0001799999999999996,-0.140882,-0.903513,-0.100464,0.15897799999999998,-0.950133,-0.016584
44,-0.012282000000000003,0.6281715000000001,0.0455185,-0.167,0.4412615,0.0314395,-0.22879,0.6583615,-0.0261205,0.15503,0.4566415,0.0808525,0.24417,0.6399815000000001,0.0326405,-0.26729,0.9286915,-0.029917500000000003,0.3046,0.9066415000000001,0.0340905,-0.062132,0.0038975,-0.0010485000000000008,0.062132,-0.0038975,0.0010485000000000008,-0.10772000000000001,-0.4368885,-0.0404755,0.10896,-0.4442885,0.00022050000000000194,-0.14093,-0.9034584999999999,-0.1005125,0.1589,-0.9498485,-0.0166765
45,-0.0119825,0.628297,0.045588000000000004,-0.1671605,0.44120699999999996,0.031494999999999995,-0.22880050000000002,0.658517,-0.026396000000000003,0.15494950000000002,0.456767,0.080926,0.2441395,0.640567,0.033018,-0.2673105,0.928867,-0.030466,0.3046595,0.9071969999999999,0.034947,-0.0621145,0.003924,-0.001124,0.0621145,-0.003924,0.001124,-0.1077105,-0.43685300000000005,-0.040568999999999994,0.1089395,-0.444313,0.00024400000000000116,-0.14090049999999998,-0.903423,-0.100616,0.15884949999999998,-0.949673,-0.016758000000000002
46,-0.0117045,0.6284175000000001,0.045656999999999996,-0.1673105,0.4411175,0.031523999999999996,-0.22880050000000002,0.6589775,-0.026695000000000003,0.1548695,0.45686750000000004,0.08101900000000001,0.24410949999999998,0.6411875,0.033367999999999995,-0.2673105,0.9293375,-0.030783000000000005,0.3047395,0.9078175,0.035775,-0.0621005,0.003943500000000001,-0.0011890000000000026,0.0621005,-0.003943499999999999,0.001188999999999999,-0.10770049999999999,-0.43683249999999996,-0.040676,0.1089295,-0.44433249999999996,0.00023799999999999863,-0.14085050000000002,-0.9033924999999999,-0.100827,0.1588095,-0.9495825,-0.016857000000000004
47,-0.011470999999999999,0.628513,0.0457255,-0.167429,0.44100300000000003,0.0315605,-0.228729,0.659263,-0.026963499999999998,0.15482100000000001,0.456953,0.0811095,0.244101,0.641583,0.0337075,-0.267289,0.929623,-0.031077499999999997,0.30482099999999995,0.908213,0.0365705,-0.062085,0.0039570000000000004,-0.001239500000000001,0.062085,-0.003956999999999999,0.001239500000000001,-0.107669,-0.436817,-0.04078949999999999,0.108921,-0.444347,0.00021149999999999988,-0.140779,-0.903367,-0.1010345,0.158801,-0.949497,-0.016956500000000003
48,-0.011344000000000002,0.6286014999999999,0.045802499999999996,-0.167522,0.4408615,0.0315715,-0.228662,0.6594715,-0.027221500000000003,0.15476800000000002,0.4570215,0.08119950000000001,0.244118,0.6418714999999999,0.0340865,-0.267282,0.9298915,-0.0312515,0.30491799999999997,0.9084614999999999,0.0373145,-0.06207,0.003969500000000001,-0.0012794999999999994,0.06207,-0.003969500000000001,0.0012794999999999994,-0.107672,-0.43678849999999997,-0.040883499999999996,0.10890799999999999,-0.4443585,0.00016450000000000145,-0.14069199999999998,-0.9033485,-0.1012605,0.158788,-0.9492885000000001,-0.016982499999999998
49,-0.011248000000000001,0.628683,0.0458875,-0.16761600000000001,0.440693,0.031607500000000004,-0.228596,0.659603,-0.027465499999999997,0.15473399999999998,0.45708299999999996,0.08129549999999999,0.244124,0.6421330000000001,0.0344585,-0.267146,0.930033,-0.0315075,0.305004,0.9086930000000001,0.0380245,-0.062051999999999996,0.003972000000000002,-0.0013154999999999972,0.062051999999999996,-0.003972,0.0013155000000000007,-0.10767600000000001,-0.436777,-0.040973499999999996,0.108904,-0.444357,7.550000000000265e-05,-0.140596,-0.903327,-0.1014725,0.158774,-0.9490369999999999,-0.016995499999999997
50,-0.011157,0.628787,0.045993,-0.167694,0.44050700000000004,0.031634999999999996,-0.228514,0.6596569999999999,-0.027723000000000005,0.15467599999999998,0.457147,0.081393,0.24414599999999997,0.642347,0.034879999999999994,-0.266934,0.9301269999999999,-0.031845000000000005,0.305166,0.908867,0.038074,-0.06204,0.003971000000000001,-0.001348000000000002,0.06204,-0.003970999999999999,0.0013479999999999985,-0.107664,-0.43676299999999996,-0.041077999999999996,0.108916,-0.444363,-7.000000000000062e-05,-0.140484,-0.903323,-0.10167899999999999,0.158796,-0.948843,-0.016988000000000003
51,-0.011092500000000002,0.628873,0.0461265,-0.1677765,0.440283,0.0316655,-0.22843650000000001,0.6596930000000001,-0.028009499999999996,0.1546235,0.45719299999999996,0.0815005,0.2441235,0.642493,0.0353445,-0.2667565,0.930193,-0.0321655,0.3052935,0.9089130000000001,0.0384925,-0.062032500000000004,0.003953999999999999,-0.0013834999999999993,0.062032500000000004,-0.003953999999999999,0.0013834999999999993,-0.10767650000000001,-0.436777,-0.0411965,0.1089435,-0.444377,-0.0003014999999999997,-0.1403865,-0.903327,-0.1018425,0.15891349999999999,-0.949037,-0.0171055
52,-0.011035000000000003,0.6288819999999999,0.04618,-0.16785999999999998,0.440182,0.031701,-0.22837,0.659662,-0.028292,0.15462,0.457192,0.081529,0.24414,0.642192,0.035639000000000004,-0.26661999999999997,0.930172,-0.032594,0.3054,0.908582,0.038895,-0.062028,0.003944999999999999,-0.0014020000000000005,0.062028,-0.003945000000000001,0.0014020000000000005,-0.10767,-0.436778,-0.041345999999999994,0.10894999999999999,-0.444418,-0.0007339999999999985,-0.14032999999999998,-0.903348,-0.101896,0.15894,-0.9491780000000001,-0.017145999999999998
53,-0.0109695,0.6288625,0.046249,-0.1679275,0.4401025,0.031741000000000005,-0.2282875,0.6596325,-0.028580999999999995,0.15461249999999999,0.4571825,0.08155799999999999,0.2441325,0.6419225,0.035934,-0.2664775,0.9301425,-0.033156,0.30563250000000003,0.9082925,0.038976000000000004,-0.062024499999999996,0.003934499999999999,-0.001410999999999999,0.062024499999999996,-0.0039345000000000005,0.0014110000000000025,-0.1076375,-0.4367875,-0.041525999999999993,0.1089525,-0.4444675,-0.0012739999999999974,-0.1403075,-0.9033775,-0.102038,0.1589825,-0.9493575,-0.017208999999999995
54,-0.010899,0.628843,0.0463235,-0.167998,0.440033,0.03178449999999999,-0.228228,0.659603,-0.0288625,0.154632,0.457163,0.0815805,0.24413200000000002,0.641923,0.036240499999999995,-0.26635800000000004,0.930113,-0.033766500000000005,0.30586199999999997,0.908263,0.038996499999999996,-0.062006000000000006,0.003923999999999999,-0.0014205000000000016,0.062006000000000006,-0.003924,0.0014204999999999982,-0.107578,-0.436797,-0.04176150000000001,0.108992,-0.444507,-0.0019845000000000036,-0.140268,-0.903407,-0.1021865,0.159032,-0.949467,-0.0172915
55,-0.010827,0.628854,0.0464655,-0.168092,0.439994,0.0318595,-0.228142,0.659614,-0.0290835,0.154658,0.457144,0.0816285,0.244168,0.641954,0.0365785,-0.266222,0.930134,-0.034518499999999994,0.306058,0.9082439999999999,0.0390155,-0.061989,0.003913999999999999,-0.0014354999999999993,0.061989,-0.003914000000000001,0.0014354999999999993,-0.107512,-0.436796,-0.0420315,0.108968,-0.444546,-0.0027445000000000004,-0.140242,-0.903436,-0.1023105,0.159088,-0.949566,-0.017360499999999997
56,-0.010758000000000002,0.6288825,0.0466225,-0.16816,0.4400225,0.0318075,-0.22805999999999998,0.6596525,-0.0293195,0.15471000000000001,0.4571425,0.08159949999999999,0.24427000000000001,0.6419625,0.036597500000000005,-0.266,0.9301625,-0.0352645,0.30628,0.9082525,0.038957500000000006,-0.061966,0.003912500000000001,-0.0014675,0.061966,-0.003912499999999999,0.0014675,-0.10746,-0.4367975,-0.0423705,0.10894999999999999,-0.4445475,-0.0034954999999999986,-0.14026,-0.9034275,-0.10235150000000001,0.15912,-0.9495675,-0.017392499999999998
57,-0.010673000000000005,0.628911,0.046786499999999995,-0.168237,0.440031,0.0317415,-0.227967,0.659691,-0.0295625,0.15476299999999998,0.457141,0.08154449999999999,0.244363,0.642151,0.0365935,-0.265777,0.9302010000000001,-0.0360475,0.306493,0.908431,0.0388245,-0.061943,0.0039109999999999995,-0.0014975000000000023,0.061943,-0.003911000000000001,0.0014974999999999988,-0.107407,-0.436799,-0.0426375,0.10893299999999999,-0.44454899999999997,-0.0042235000000000016,-0.140267,-0.903429,-0.1024195,0.159153,-0.949529,-0.0174285
58,-0.010572999999999999,0.6289465000000001,0.0470295,-0.168287,0.4400265,0.0316645,-0.227847,0.6596865000000001,-0.029837499999999996,0.15485300000000002,0.4571365,0.08145250000000001,0.24449300000000002,0.6423465,0.0365095,-0.265517,0.9301965000000001,-0.0368955,0.306913,0.9086265,0.0382525,-0.061923,0.0039064999999999985,-0.0014964999999999978,0.061923,-0.0039065,0.0014965000000000013,-0.107377,-0.4368035,-0.042768499999999994,0.10894300000000001,-0.4445535,-0.0049505,-0.140237,-0.9034335,-0.1024535,0.159223,-0.9494735,-0.017474499999999997
59,-0.0103985,0.628977,0.047271999999999995,-0.1683365,0.440037,0.031601,-0.2275865,0.659697,-0.03048,0.1550235,0.457047,0.081267,0.24470350000000002,0.6425069999999999,0.036391999999999994,-0.2651865,0.9302469999999999,-0.038246,0.3073535,0.908757,0.037579,-0.0619055,0.003875,-0.0014900000000000017,0.0619055,-0.003875,0.0014899999999999983,-0.1073665,-0.43684300000000004,-0.04291500000000001,0.1089035,-0.444593,-0.005636000000000002,-0.1402265,-0.9035030000000001,-0.102359,0.1592235,-0.949703,-0.017550000000000003
60,-0.010153500000000003,0.629051,0.047438499999999995,-0.1683055,0.440041,0.0314495,-0.2272655,0.659701,-0.031195499999999998,0.1552645,0.456951,0.0809945,0.24493449999999997,0.642561,0.0362095,-0.26478549999999995,0.930271,-0.0396755,0.30791450000000004,0.9087810000000001,0.0367465,-0.0618765,0.003844,-0.0015434999999999997,0.0618765,-0.003844,0.0015434999999999997,-0.1072855,-0.43687899999999996,-0.0431725,0.1089245,-0.444629,-0.0063135,-0.1401655,-0.903579,-0.10241349999999999,0.1593045,-0.9498989999999999,-0.017775500000000003
61,-0.009891500000000003,0.6291525,0.047564999999999996,-0.1682655,0.4401125,0.031235,-0.22691550000000002,0.6597025,-0.032032000000000005,0.1555445,0.4568125,0.08064199999999999,0.2451645,0.6434124999999999,0.035932,-0.2642955,0.9302825,-0.041299,0.3083045,0.9096225,0.035737,-0.0618705,0.0038165000000000004,-0.0015340000000000006,0.0618705,-0.0038165000000000004,0.0015339999999999972,-0.1072255,-0.43691749999999996,-0.043531,0.10898449999999998,-0.4446575,-0.006819000000000002,-0.14007550000000002,-0.9036475,-0.102492,0.15943449999999998,-0.9500875000000001,-0.018090000000000002
62,-0.009633500000000003,0.62932,0.0475805,-0.1681775,0.4402,0.0309145,-0.2265175,0.65973,-0.0329725,0.15583249999999998,0.45668,0.08020250000000001,0.24547249999999998,0.6444500000000001,0.0354715,-0.26369750000000003,0.93033,-0.043088499999999995,0.3086025,0.91066,0.0348005,-0.061866500000000005,0.0037679999999999988,-0.0015195,0.061866500000000005,-0.0037680000000000005,0.0015195,-0.1071575,-0.43698000000000004,-0.0438875,0.1090625,-0.44468,-0.007286499999999998,-0.14048750000000002,-0.90954,-0.10281950000000001,0.15960249999999998,-0.95026,-0.018501499999999997
63,-0.009430500000000001,0.6294725,0.047517000000000004,-0.1680575,0.4402925,0.030483000000000003,-0.2260875,0.6599025000000001,-0.034123,0.1561225,0.4565225,0.07966300000000001,0.24578250000000001,0.6455125,0.034842,-0.2630175,0.9305525,-0.045199,0.3089125,0.9117525,0.033681,-0.0618735,0.0037155,-0.0014919999999999968,0.0618735,-0.0037155,0.0014920000000000003,-0.10710750000000001,-0.4370375,-0.04411999999999999,0.10917249999999999,-0.4446575,-0.007880999999999999,-0.1408975,-0.9154275,-0.103285,0.15974249999999998,-0.9504375,-0.018978000000000002
64,-0.009243,0.6297455,0.0473395,-0.167881,0.4402655,0.0299335,-0.22562100000000002,0.6602755,-0.0354245,0.156459,0.4557755,0.0790405,0.24611899999999998,0.6465855,0.0340975,-0.262201,0.9309554999999999,-0.047474499999999996,0.309269,0.9128755,0.0323895,-0.061887,0.0036705,-0.0014645000000000005,0.061887,-0.0036705,0.0014645000000000005,-0.10705100000000001,-0.4370945,-0.04432250000000001,0.109349,-0.4446345,-0.008584500000000002,-0.140781,-0.9154345,-0.1037045,0.159959,-0.9504945,-0.019644500000000002
65,-0.009030500000000004,0.6300315,0.0470435,-0.1676775,0.44032150000000003,0.029263499999999998,-0.2251275,0.6606814999999999,-0.0368525,0.1568125,0.4550615,0.0783065,0.2464325,0.6475615,0.0331755,-0.2612875,0.9314215,-0.049925500000000005,0.3093325,0.9139315,0.0312915,-0.061922500000000005,0.0036284999999999998,-0.0013985000000000004,0.061922500000000005,-0.0036284999999999998,0.001398499999999997,-0.1070075,-0.43712850000000003,-0.0444835,0.1095725,-0.44460849999999996,-0.009355500000000003,-0.1405775,-0.9154485,-0.10424349999999999,0.1602125,-0.9503585,-0.020283500000000003
66,-0.008816000000000001,0.630388,0.0467255,-0.16746000000000003,0.440418,0.0284965,-0.22459,0.661138,-0.0384045,0.15718,0.454358,0.0774685,0.2468,0.648508,0.0321175,-0.26022999999999996,0.931928,-0.0525865,0.30956,0.914938,0.029711500000000002,-0.061965000000000006,0.003587,-0.0013195000000000012,0.061965000000000006,-0.003587,0.0013195000000000012,-0.10697,-0.437182,-0.044656499999999995,0.10979,-0.444572,-0.009995500000000001,-0.14087000000000002,-0.921132,-0.10499149999999999,0.16049,-0.950192,-0.021027499999999998
67,-0.0085795,0.6308145,0.046155,-0.1675455,0.4405245,0.027966000000000005,-0.2240155,0.6616645,-0.040172,0.1575545,0.45332449999999996,0.07671700000000001,0.2472045,0.6494845,0.030819000000000003,-0.2590655,0.9325245,-0.055409,0.3098145,0.9159645,0.027825000000000003,-0.062010499999999996,0.0035285000000000004,-0.0012609999999999982,0.062010499999999996,-0.0035285000000000004,0.0012610000000000017,-0.10688550000000001,-0.4372455,-0.044929,0.1100545,-0.4445255,-0.010699999999999998,-0.1405955,-0.9211255,-0.10592399999999999,0.1607845,-0.9499355,-0.021955999999999996
68,-0.008357999999999997,0.6310645,0.045499,-0.16774699999999998,0.4405245,0.027554000000000002,-0.223547,0.6620145,-0.041735,0.15786299999999998,0.4526145,0.07595299999999999,0.247593,0.6500945,0.029585,-0.257987,0.9329244999999999,-0.057901999999999995,0.310013,0.9166345,0.026260000000000002,-0.062051999999999996,0.0035285000000000004,-0.0012719999999999988,0.062051999999999996,-0.0035285000000000004,0.0012720000000000023,-0.106797,-0.4372455,-0.045172,0.110343,-0.4445255,-0.011413,-0.139727,-0.9154855000000001,-0.10697,0.161113,-0.9497855000000001,-0.023065999999999996
69,-0.008213999999999996,0.6312745,0.044773999999999994,-0.168044,0.4405245,0.027128,-0.223114,0.6624045,-0.043466000000000005,0.158086,0.4517245,0.075196,0.24796600000000002,0.6506145,0.028225,-0.256944,0.9333644999999999,-0.060558,0.310186,0.9172144999999999,0.024543,-0.062112,0.0035285000000000004,-0.0012450000000000013,0.062112,-0.0035285000000000004,0.0012449999999999996,-0.106734,-0.4372455,-0.045462,0.11057600000000001,-0.4445255,-0.012221,-0.13955399999999998,-0.9154455,-0.108216,0.161406,-0.9497155,-0.024305999999999998
70,-0.008064500000000002,0.6314544999999999,0.043945,-0.1684205,0.4405245,0.026783,-0.2226805,0.6629145,-0.045352,0.1582995,0.4507345,0.074438,0.24840949999999998,0.6506145,0.026771999999999997,-0.25596050000000004,0.9339545,-0.063189,0.3104395,0.9172144999999999,0.022698,-0.06217350000000001,0.0035285000000000004,-0.0012230000000000001,0.06217350000000001,-0.0035285000000000004,0.0012230000000000001,-0.10662049999999999,-0.4372455,-0.045892,0.1107895,-0.4445255,-0.012986,-0.1393805,-0.9154155,-0.109554,0.1616995,-0.9496355000000001,-0.025624
71,-0.0079955,0.6318725000000001,0.043028,-0.1688925,0.4405425,0.026549999999999997,-0.2222625,0.6637225,-0.047345000000000005,0.1584575,0.4492025,0.073794,0.24876750000000003,0.6508825,0.025254,-0.2550125,0.9348225,-0.065869,0.3105775,0.9174825,0.020664000000000002,-0.0622395,0.003497499999999999,-0.0012300000000000002,0.0622395,-0.0034975000000000006,0.0012300000000000002,-0.1065425,-0.43725749999999997,-0.046496,0.1110375,-0.4444875,-0.013778,-0.13976249999999998,-0.9208474999999999,-0.111092,0.1620775,-0.9493075,-0.027141000000000005
72,-0.007903999999999998,0.632094,0.041957999999999995,-0.169398,0.44063399999999997,0.026282,-0.22187800000000002,0.6641940000000001,-0.049385,0.15860200000000002,0.447694,0.073084,0.249232,0.651124,0.023611,-0.254098,0.935334,-0.06850099999999999,0.310722,0.9177540000000001,0.018521,-0.062289,0.0035390000000000005,-0.0012190000000000013,0.062289,-0.0035389999999999987,0.0012189999999999996,-0.106408,-0.437186,-0.047255000000000005,0.111322,-0.44452600000000003,-0.014585,-0.140158,-0.926136,-0.112679,0.16244200000000003,-0.949136,-0.028742
73,-0.007831000000000001,0.6323529999999999,0.0407785,-0.169907,0.440743,0.0259695,-0.221507,0.6646329999999999,-0.0515005,0.158723,0.446183,0.0722985,0.24952300000000002,0.651103,0.021886500000000003,-0.253197,0.9358029999999999,-0.0712645,0.31110299999999996,0.9177829999999999,0.0162555,-0.062325000000000005,0.0035949999999999992,-0.0011514999999999997,0.062325000000000005,-0.003595000000000001,0.0011515000000000006,-0.106307,-0.437087,-0.0481615,0.111623,-0.444577,-0.015374499999999998,-0.139957,-0.9260170000000001,-0.1141335,0.162763,-0.948987,-0.0303065
74,-0.007778999999999999,0.6325839999999999,0.039471,-0.170408,0.440834,0.025577,-0.22112800000000002,0.665024,-0.053771,0.158822,0.444654,0.071405,0.24980199999999997,0.650994,0.020092,-0.252438,0.936224,-0.074301,0.31147199999999997,0.9177139999999999,0.01376,-0.062335999999999996,0.0036760000000000004,-0.0011280000000000005,0.062335999999999996,-0.0036760000000000004,0.0011279999999999997,-0.106218,-0.437006,-0.049193,0.11194200000000001,-0.444656,-0.016271,-0.139778,-0.925896,-0.11568,0.16306199999999998,-0.948906,-0.031922
75,-0.007630000000000003,0.633164,0.0377395,-0.170858,0.440994,0.0248815,-0.220728,0.665754,-0.0564365,0.158932,0.443134,0.0702055,0.250362,0.650904,0.0179565,-0.251718,0.936904,-0.0778355,0.311902,0.917614,0.010741500000000001,-0.062363,0.0037660000000000003,-0.0011815000000000003,0.062363,-0.003766000000000002,0.0011815000000000003,-0.106148,-0.436916,-0.0503605,0.112292,-0.444736,-0.0173205,-0.139588,-0.9257960000000001,-0.1173755,0.163432,-0.948706,-0.0339545
76,-0.007428499999999999,0.6337125,0.035785000000000004,-0.1708815,0.4411225,0.023577,-0.2203215,0.6664525,-0.059246999999999994,0.1590885,0.4426825,0.06854,0.2511285,0.6507325,0.015768,-0.2509815,0.9373425,-0.08177,0.31244849999999996,0.9174425,0.007348,-0.0624125,0.0038145,-0.001255,0.0624125,-0.003814500000000002,0.001255,-0.10612150000000001,-0.4368675,-0.051458,0.11262849999999999,-0.4447775,-0.018286,-0.1394715,-0.9257175,-0.118822,0.1636585,-0.9485475,-0.035844999999999995
77,-0.007270499999999999,0.6342865000000001,0.0336305,-0.1707265,0.4412665,0.021620499999999997,-0.2199265,0.6670865,-0.0624395,0.15929349999999998,0.44249649999999996,0.0664015,0.2520235,0.6505265,0.013267500000000002,-0.2501465,0.9375665000000001,-0.08647149999999999,0.3131835,0.9172065,0.0035005,-0.0624885,0.0038474999999999985,-0.0012325,0.0624885,-0.0038475000000000002,0.0012325,-0.1061365,-0.4367435,-0.052665500000000004,0.1129435,-0.44481350000000003,-0.0194405,-0.1387565,-0.9197434999999999,-0.1202895,0.1638435,-0.9484834999999999,-0.0378415
78,-0.007157999999999997,0.63491,0.0313425,-0.170571,0.44139,0.0193395,-0.219521,0.6676300000000001,-0.0660835,0.15947899999999998,0.44249,0.0641245,0.25300900000000004,0.65008,0.010350499999999999,-0.249301,0.9375600000000001,-0.0919405,0.31416900000000003,0.9167500000000001,-0.0009155000000000001,-0.06257,0.003853999999999998,-0.0012065,0.06257,-0.003854,0.0012065,-0.10620099999999999,-0.43661,-0.0540625,0.113249,-0.44482,-0.0206825,-0.138121,-0.91376,-0.1218005,0.163959,-0.9483,-0.0398935
79,-0.007120000000000003,0.6356735,0.028875,-0.170484,0.4414435,0.016878999999999998,-0.219094,0.6682935,-0.070409,0.15956599999999999,0.4425135,0.061664,0.25403600000000004,0.6495934999999999,0.006980999999999999,-0.248404,0.9375835,-0.098292,0.315346,0.9162035,-0.005914,-0.062641,0.0039025000000000015,-0.001203,0.062641,-0.0039024999999999997,0.001203,-0.106324,-0.4363665,-0.055653999999999995,0.113496,-0.44483649999999997,-0.022178,-0.138214,-0.9134565,-0.12358100000000001,0.163996,-0.9473165,-0.042089
80,-0.007051000000000001,0.6365735,0.025999,-0.170454,0.4414935,0.014205999999999998,-0.218624,0.6683635,-0.075527,0.159586,0.44258349999999996,0.05899,0.255126,0.6491235,0.0029429999999999994,-0.24754400000000001,0.9376535,-0.105386,0.316726,0.9156235,-0.011643,-0.062724,0.0039015000000000005,-0.001203,0.062724,-0.0039015000000000005,0.0012029999999999992,-0.106464,-0.4361165,-0.057427,0.113696,-0.44479650000000004,-0.023926000000000003,-0.13836400000000001,-0.9131365,-0.125554,0.163946,-0.9463765000000001,-0.044476999999999996
81,-0.0068935,0.637207,0.022415,-0.1701995,0.441487,0.010948,-0.21801949999999998,0.668497,-0.081584,0.15964050000000002,0.44321699999999997,0.05547099999999999,0.2562905,0.648537,-0.0018700000000000019,-0.2465895,0.937547,-0.113343,0.3181805,0.914907,-0.018441,-0.0628055,0.0038849999999999996,-0.0012600000000000007,0.0628055,-0.0038849999999999996,0.001259999999999999,-0.1066695,-0.435823,-0.059478,0.11389049999999999,-0.444723,-0.02588,-0.13786949999999998,-0.907223,-0.127613,0.1639305,-0.945463,-0.04717300000000001
82,-0.006717499999999996,0.6373295,0.017843,-0.1694425,0.4415195,0.006301000000000001,-0.2174225,0.6685795,-0.088462,0.1597675,0.4442495,0.050901,0.2575475,0.6479595,-0.007638000000000001,-0.2456225,0.9370695,-0.121987,0.31925749999999997,0.9141895,-0.026160000000000003,-0.06288450000000001,0.003924499999999999,-0.0015320000000000004,0.06288450000000001,-0.003924499999999999,0.0015320000000000004,-0.10677249999999999,-0.43561049999999996,-0.062421000000000004,0.1140475,-0.4447605,-0.028265,-0.1385225,-0.9119904999999999,-0.130807,0.1639475,-0.9445205,-0.050434999999999994
83,-0.006473499999999998,0.6374285,0.012248500000000002,-0.1684565,0.44155849999999996,0.001069500000000001,-0.2168065,0.6686485,-0.09641849999999999,0.1598735,0.44426849999999996,0.045962499999999996,0.2588835,0.6471184999999999,-0.0145735,-0.24458649999999998,0.9361685,-0.1313425,0.3201235,0.9132385,-0.0349985,-0.0629565,0.0039545,-0.0016674999999999988,0.0629565,-0.0039545,0.0016675000000000023,-0.1068865,-0.43555150000000004,-0.0659025,0.1142235,-0.4447915,-0.0308115,-0.13921650000000002,-0.9166815,-0.1341725,0.1639735,-0.9436415,-0.0539255
84,-0.006169999999999998,0.6375044999999999,0.006113500000000001,-0.167298,0.4416045,-0.0046054999999999985,-0.216158,0.6683745,-0.1049455,0.159982,0.4443445,0.0407025,0.260182,0.6459944999999999,-0.0220405,-0.243528,0.9347745,-0.1412085,0.320892,0.9120645,-0.0442915,-0.063041,0.0039825,-0.0017325000000000014,0.063041,-0.0039825,0.0017325000000000014,-0.107098,-0.4354955,-0.0695235,0.114402,-0.4448055,-0.0336485,-0.139328,-0.9162155000000001,-0.1377785,0.16395200000000001,-0.9428055000000001,-0.057523500000000005
85,-0.005897000000000003,0.637189,-0.0009905000000000018,-0.16551700000000003,0.440719,-0.012087500000000001,-0.21557700000000002,0.667809,-0.1143505,0.159983,0.444509,0.0348435,0.26137299999999997,0.644489,-0.0306265,-0.24263700000000002,0.9331689999999999,-0.1514865,0.321563,0.9105989999999999,-0.0540655,-0.063088,0.00395,-0.0018635000000000006,0.063088,-0.00395,0.0018635000000000006,-0.107387,-0.435291,-0.0735645,0.114663,-0.444681,-0.0372665,-0.13950700000000002,-0.9159010000000001,-0.1418065,0.163853,-0.9418310000000001,-0.0616415
86,-0.005503499999999999,0.6368695,-0.009001499999999999,-0.1634205,0.43975949999999997,-0.0205405,-0.21491049999999998,0.6673795,-0.12452650000000001,0.15991950000000002,0.44429949999999996,0.0265445,0.26252949999999997,0.6432595,-0.0402675,-0.24181049999999998,0.9317695,-0.1619135,0.32230949999999997,0.9094895,-0.06457650000000001,-0.06311649999999999,0.0039535,-0.0021644999999999998,0.06311649999999999,-0.003953499999999999,0.0021644999999999998,-0.1076405,-0.4347205,-0.0780415,0.1151995,-0.4445005,-0.0414215,-0.1395805,-0.9150605,-0.1462535,0.16377950000000002,-0.9402405,-0.06615850000000001
87,-0.005115499999999999,0.636642,-0.017949000000000003,-0.1611655,0.438502,-0.029667000000000006,-0.2142455,0.666662,-0.135141,0.1599345,0.443862,0.017547999999999994,0.2636545,0.642442,-0.050335000000000005,-0.2409955,0.930592,-0.172301,0.32282449999999996,0.908872,-0.07533600000000001,-0.0631205,0.003882,-0.002461000000000005,0.0631205,-0.003882,0.002460999999999998,-0.1078655,-0.43408800000000003,-0.083063,0.11590450000000001,-0.444148,-0.045859000000000004,-0.1396555,-0.913278,-0.150821,0.1636745,-0.937868,-0.071023
88,-0.004622999999999999,0.636124,-0.027442999999999995,-0.158682,0.436754,-0.038890999999999995,-0.21357199999999998,0.6657040000000001,-0.145658,0.159868,0.443304,0.008251000000000001,0.264618,0.641694,-0.060786999999999994,-0.240202,0.9298040000000001,-0.182178,0.322868,0.908404,-0.086404,-0.063139,0.0036840000000000015,-0.0027499999999999955,0.063139,-0.0036839999999999998,0.0027500000000000024,-0.108122,-0.433456,-0.088434,0.116868,-0.44358600000000004,-0.050199999999999995,-0.140112,-0.915956,-0.155648,0.163628,-0.935296,-0.075798
89,-0.003985000000000002,0.6354230000000001,-0.037112,-0.156179,0.434903,-0.048083,-0.21293900000000002,0.6649830000000001,-0.15581699999999998,0.159801,0.442283,-0.0012010000000000007,0.265601,0.6410330000000001,-0.071212,-0.239079,0.9260630000000001,-0.192297,0.322551,0.908143,-0.097083,-0.06310299999999999,0.003373000000000001,-0.0029860000000000025,0.06310299999999999,-0.0033729999999999975,0.0029860000000000025,-0.108369,-0.432807,-0.09412999999999999,0.11807100000000001,-0.442837,-0.054429,-0.140389,-0.918087,-0.160617,0.16364099999999998,-0.9320569999999999,-0.080373
90,-0.0032675000000000048,0.6342515000000001,-0.0466925,-0.1540605,0.4327415,-0.0570865,-0.2124005,0.6640015,-0.1654675,0.1596695,0.4408615,-0.0105315,0.2664395,0.6405615,-0.08125650000000001,-0.2379905,0.9228615,-0.2015275,0.3217595,0.9081415,-0.10718649999999999,-0.0629635,0.003023500000000002,-0.0031614999999999976,0.0629635,-0.0030234999999999984,0.0031614999999999976,-0.1086505,-0.4321085,-0.1000585,0.1195295,-0.44197850000000005,-0.0584735,-0.1405905,-0.9196685,-0.16543750000000002,0.1637395,-0.9283385,-0.0845755
91,-0.0027985000000000032,0.6321559999999999,-0.0559325,-0.15233649999999999,0.43080599999999997,-0.06486950000000001,-0.2119665,0.662356,-0.1745345,0.1594135,0.439386,-0.018947500000000006,0.26734349999999996,0.6390859999999999,-0.09091850000000001,-0.2368965,0.919596,-0.2100145,0.32034349999999995,0.907206,-0.1166795,-0.06278450000000001,0.0027190000000000027,-0.003210500000000005,0.06278450000000001,-0.002718999999999999,0.003210499999999998,-0.1088865,-0.431404,-0.10567850000000001,0.1212135,-0.441104,-0.0621695,-0.1407265,-0.921284,-0.1698845,0.1641635,-0.924864,-0.0885495
92,-0.002159500000000004,0.6299315,-0.0650185,-0.1506925,0.4293415,-0.0721565,-0.21157250000000002,0.6607715,-0.1828135,0.15923749999999998,0.4382215,-0.0270915,0.2683075,0.6378515,-0.0997035,-0.23568250000000002,0.9171214999999999,-0.2176935,0.31858749999999997,0.9065115,-0.1253865,-0.0626035,0.002582499999999998,-0.0034035000000000037,0.0626035,-0.0025825000000000015,0.003403499999999997,-0.1090325,-0.4304585,-0.1114615,0.1231575,-0.4403185,-0.06579750000000001,-0.1406525,-0.9224785,-0.1742935,0.16478749999999998,-0.9209085,-0.0923065
93,-0.0015470000000000024,0.6274805,-0.0731385,-0.148954,0.4268605,-0.0794325,-0.211154,0.6596505,-0.1902105,0.159136,0.4338105,-0.03597650000000001,0.269376,0.6360805,-0.10790150000000001,-0.23417400000000002,0.9153605,-0.22422050000000002,0.316606,0.9052805,-0.1332615,-0.062438,0.0023844999999999977,-0.0034945000000000045,0.062438,-0.0023844999999999977,0.0034944999999999976,-0.10922400000000002,-0.42949950000000003,-0.1170965,0.12542599999999998,-0.43936949999999997,-0.0691915,-0.140384,-0.9227295,-0.17823050000000001,0.165546,-0.9160395,-0.0954005
94,-0.0010624999999999983,0.625852,-0.0803045,-0.1479385,0.42523200000000005,-0.0848595,-0.2107285,0.658632,-0.1966165,0.1590315,0.429802,-0.0440735,0.2702515,0.635282,-0.11482250000000001,-0.2323485,0.914662,-0.2297365,0.3147815,0.904932,-0.1402735,-0.0624245,0.002251000000000003,-0.0035825000000000023,0.0624245,-0.002250999999999996,0.0035824999999999954,-0.1095885,-0.42842800000000003,-0.1220335,0.1279815,-0.43839799999999995,-0.07235950000000001,-0.1399685,-0.917128,-0.1809365,0.16635149999999999,-0.9103180000000001,-0.0976685
95,-0.0010585000000000015,0.6242650000000001,-0.0863865,-0.1472825,0.42394499999999996,-0.0891035,-0.2104525,0.657665,-0.20179550000000002,0.15888750000000001,0.42738499999999996,-0.0494685,0.27083749999999995,0.634695,-0.1205125,-0.2306025,0.914375,-0.2339855,0.3128875,0.9047350000000001,-0.14606449999999999,-0.062420500000000004,0.0021059999999999968,-0.0036084999999999937,0.062420500000000004,-0.0021059999999999968,0.0036085000000000006,-0.1103725,-0.427335,-0.12630049999999998,0.1304975,-0.43739500000000003,-0.0750275,-0.1396825,-0.9110349999999999,-0.1827955,0.1669175,-0.904115,-0.0988385
96,-0.0014865000000000015,0.621436,-0.0907625,-0.1467925,0.422786,-0.0922435,-0.2103825,0.656866,-0.2057755,0.1584575,0.425346,-0.05352849999999999,0.2705975,0.631856,-0.1252265,-0.2288625,0.9142859999999999,-0.23709550000000001,0.3111675,0.902226,-0.1507625,-0.062420500000000004,0.0019900000000000057,-0.0036084999999999937,0.062420500000000004,-0.0019899999999999987,0.0036085000000000006,-0.1114825,-0.426224,-0.1297895,0.1329175,-0.43641399999999997,-0.0770785,-0.1395625,-0.904694,-0.1835955,0.1673375,-0.897684,-0.0990735
97,-0.0017914999999999995,0.6187505000000001,-0.094567,-0.14614049999999998,0.4219905,-0.095374,-0.21025049999999998,0.6562505000000001,-0.209789,0.1582395,0.4232505,-0.057511,0.2702695,0.6290005000000001,-0.12953900000000002,-0.2263405,0.9076105000000001,-0.241959,0.30996949999999995,0.8996305,-0.155202,-0.0623135,0.0018155000000000046,-0.003591999999999998,0.0623135,-0.0018154999999999977,0.003591999999999998,-0.1125805,-0.4248995,-0.133538,0.13562950000000001,-0.4352895,-0.079507,-0.13898049999999998,-0.8979594999999999,-0.184319,0.1679195,-0.8910095,-0.099311
98,-0.0019374999999999976,0.6163785,-0.0983475,-0.1453435,0.42175850000000004,-0.0981785,-0.2098735,0.6548685,-0.2140495,0.1582965,0.4221285,-0.0610025,0.2701465,0.6249485,-0.1336285,-0.2240135,0.9043585000000001,-0.2459195,0.3093265,0.8955385,-0.1611495,-0.0621835,0.0016064999999999968,-0.0035714999999999983,0.0621835,-0.0016064999999999968,0.0035714999999999983,-0.1134535,-0.4233015,-0.1372305,0.1385865,-0.4341115,-0.0822305,-0.1383035,-0.8914715,-0.1848895,0.1687265,-0.8843815,-0.0994965
99,-0.0017494999999999972,0.6141145,-0.101516,-0.14464349999999998,0.42104450000000004,-0.101203,-0.20912350000000002,0.6524445,-0.218175,0.15843649999999998,0.4198045,-0.06453,0.2704765,0.6216045,-0.137666,-0.22140349999999998,0.9015045,-0.25033500000000003,0.30939649999999996,0.8847645000000001,-0.16761500000000001,-0.0620835,0.0015595000000000053,-0.0034540000000000057,0.0620835,-0.0015594999999999914,0.0034539999999999987,-0.1139835,-0.4207155,-0.141149,0.14200649999999998,-0.4324055,-0.08518400000000001,-0.1372935,-0.8839555,-0.18528499999999998,0.1698865,-0.8765855,-0.099514
100,-0.0014845000000000027,0.6130235,-0.1039175,-0.1441265,0.42081350000000006,-0.1037305,-0.2082365,0.6499135,-0.2216555,0.15868349999999998,0.4178035,-0.0674225,0.2711035,0.6191435000000001,-0.1407945,-0.21886650000000002,0.8977535,-0.2551255,0.3098935,0.8755235,-0.1731055,-0.0619285,0.001414500000000013,-0.0034575000000000022,0.0619285,-0.001414499999999999,0.0034575000000000022,-0.11451650000000001,-0.41773649999999996,-0.14467049999999998,0.1454535,-0.4304565,-0.0877785,-0.13632650000000002,-0.8759064999999999,-0.18532549999999998,0.17111349999999997,-0.8684265,-0.09951850000000001
101,-0.0015389999999999952,0.6117830000000001,-0.1049585,-0.143666,0.41872299999999996,-0.1057115,-0.20743599999999998,0.648113,-0.2244865,0.158814,0.415373,-0.0697115,0.271554,0.617313,-0.1434345,-0.216606,0.894123,-0.25978650000000003,0.310544,0.8655430000000001,-0.1779465,-0.06186,0.0010090000000000099,-0.0034574999999999953,0.06186,-0.001008999999999996,0.0034575000000000022,-0.11513599999999999,-0.4134669999999999,-0.1477305,0.14885400000000001,-0.426717,-0.08997849999999999,-0.13544599999999998,-0.8665269999999999,-0.1846265,0.172244,-0.859047,-0.09883149999999999
102,-0.0014844999999999988,0.61073,-0.1057195,-0.1431155,0.4181,-0.1066845,-0.2066955,0.64624,-0.2273075,0.1589345,0.41517000000000004,-0.0704165,0.2721645,0.61586,-0.1457545,-0.2145855,0.89075,-0.2646175,0.3115845,0.85662,-0.1825175,-0.0617975,0.0006299999999999917,-0.003436500000000002,0.0617975,-0.0006300000000000056,0.003436500000000002,-0.11559549999999999,-0.40856000000000003,-0.1506325,0.1522945,-0.42216999999999993,-0.0919355,-0.1344555,-0.85712,-0.1836375,0.1734645,-0.84981,-0.0978485
103,-0.0012664999999999968,0.609965,-0.106132,-0.1426585,0.417315,-0.107398,-0.20597849999999998,0.644015,-0.23027,0.1590415,0.414335,-0.071072,0.2729315,0.6143449999999999,-0.147966,-0.2124085,0.8860250000000001,-0.27038,0.3129615,0.847445,-0.18678,-0.0617175,0.00020499999999999685,-0.0033969999999999972,0.0617175,-0.00020500000000001073,0.003397000000000004,-0.11592849999999999,-0.403025,-0.15342,0.15559150000000002,-0.41631500000000005,-0.093553,-0.1333585,-0.847415,-0.18244,0.1747715,-0.8408549999999999,-0.096816
104,-0.001017500000000002,0.60862,-0.1060475,-0.1422495,0.41681,-0.1076295,-0.20542950000000001,0.64099,-0.23318450000000002,0.1590405,0.41298999999999997,-0.0713915,0.2736205,0.61096,-0.1498075,-0.2101995,0.88051,-0.2763145,0.3144605,0.8371,-0.1911045,-0.0616545,-0.00025999999999999635,-0.0033915000000000056,0.0616545,0.00025999999999999635,0.0033914999999999987,-0.1163995,-0.39816000000000007,-0.1566345,0.1588605,-0.4097700000000001,-0.0952895,-0.1323495,-0.8377100000000001,-0.18096450000000003,0.1760505,-0.8321700000000001,-0.0955715
105,-0.0008410000000000041,0.6086149999999999,-0.10620199999999999,-0.142134,0.415085,-0.108032,-0.205134,0.636665,-0.23634,0.158916,0.411775,-0.071821,0.27478600000000003,0.6105149999999999,-0.15159,-0.207984,0.8750149999999999,-0.28297,0.31586600000000004,0.8285849999999999,-0.19547,-0.061548,-0.0006550000000000167,-0.003491000000000001,0.061548,0.0006549999999999889,0.003491000000000001,-0.116894,-0.39211500000000005,-0.15986,0.161966,-0.401935,-0.097348,-0.13143400000000002,-0.827345,-0.17962,0.177226,-0.8226850000000001,-0.09445300000000001
106,-0.0008835000000000006,0.608685,-0.10658000000000001,-0.14223149999999998,0.41359500000000005,-0.10848,-0.20498149999999998,0.632935,-0.239479,0.1585485,0.410675,-0.072333,0.2758885,0.6096950000000001,-0.153969,-0.2064715,0.8763750000000001,-0.288429,0.3171185,0.8204850000000001,-0.199859,-0.061406499999999996,-0.0009549999999999836,-0.0034500000000000017,0.061406499999999996,0.0009550000000000114,0.0034500000000000017,-0.11731150000000001,-0.385095,-0.16291899999999998,0.1646785,-0.3936549999999999,-0.099601,-0.13063149999999998,-0.816735,-0.17883900000000003,0.17825850000000001,-0.812845,-0.093679
107,-0.0010389999999999983,0.608415,-0.108186,-0.142707,0.41208500000000003,-0.110801,-0.20499699999999998,0.629545,-0.243996,0.158003,0.40827500000000005,-0.074604,0.277053,0.610905,-0.157816,-0.20568699999999998,0.871355,-0.296326,0.318223,0.814365,-0.204196,-0.061329999999999996,-0.0009549999999999836,-0.0034379999999999966,0.061329999999999996,0.0009550000000000114,0.0034380000000000036,-0.11768699999999999,-0.37709499999999996,-0.16810599999999998,0.167363,-0.38463499999999995,-0.10395199999999999,-0.129817,-0.8046449999999999,-0.180126,0.179343,-0.801825,-0.09504599999999999
108,-0.001043999999999998,0.607755,-0.110035,-0.142282,0.411775,-0.11221199999999999,-0.205282,0.626985,-0.248478,0.157678,0.407735,-0.07618,0.278108,0.6107549999999999,-0.161748,-0.20530199999999998,0.866525,-0.30368799999999996,0.319418,0.8147850000000001,-0.207748,-0.061224,-0.0009649999999999936,-0.0034219999999999945,0.061224,0.0009650000000000214,0.0034220000000000014,-0.11810199999999998,-0.36498499999999995,-0.173058,0.169828,-0.37186499999999995,-0.10833899999999999,-0.12934199999999998,-0.791865,-0.18004799999999999,0.180358,-0.791595,-0.09668399999999999
109,-0.0011275,0.606865,-0.1116205,-0.1419035,0.408525,-0.1142195,-0.2057535,0.624915,-0.2533085,0.1573465,0.406395,-0.0782055,0.2790765,0.6106050000000001,-0.1658285,-0.2057235,0.8636250000000001,-0.3103085,0.3205965,0.8149649999999999,-0.21193849999999997,-0.0611455,-0.0009250000000000091,-0.003409500000000003,0.0611455,0.0009250000000000091,0.003409500000000003,-0.11858349999999998,-0.351485,-0.1782685,0.17204650000000002,-0.35795499999999997,-0.1126365,-0.1289335,-0.777955,-0.1799885,0.1810565,-0.7796749999999999,-0.0977925
110,-0.000819499999999999,0.60636,-0.115033,-0.14125949999999998,0.40763000000000005,-0.118117,-0.2061295,0.62248,-0.259886,0.1573205,0.40571,-0.082273,0.2802805,0.61009,-0.171536,-0.2061695,0.86,-0.31853600000000004,0.32171049999999995,0.81693,-0.217836,-0.0610775,-0.0007899999999999852,-0.0033040000000000014,0.0610775,0.0007900000000000129,0.0033040000000000014,-0.11877949999999998,-0.33767,-0.185496,0.17449050000000002,-0.34397999999999995,-0.118941,-0.12829949999999998,-0.76392,-0.181636,0.1819605,-0.7676,-0.100806
111,-0.000359499999999997,0.6072299999999999,-0.12128549999999999,-0.1403865,0.40659999999999996,-0.1250295,-0.20642649999999999,0.62076,-0.26894850000000003,0.15673350000000003,0.4068,-0.0894785,0.2815535,0.61162,-0.17994849999999998,-0.20655649999999998,0.8562399999999999,-0.3294585,0.32293350000000004,0.8226899999999999,-0.2263885,-0.06099450000000001,-0.0008100000000000052,-0.003637500000000002,0.06099450000000001,0.0008099999999999774,0.003637500000000002,-0.11899649999999999,-0.3204000000000001,-0.1993985,0.1783835,-0.32636000000000004,-0.1315495,-0.1275665,-0.7446600000000001,-0.1857985,0.1829735,-0.7516700000000001,-0.1066535
112,0.00029500000000000186,0.607125,-0.1283485,-0.139274,0.405675,-0.13202950000000002,-0.206674,0.618305,-0.2777925,0.156316,0.40768499999999996,-0.0967765,0.282846,0.611385,-0.18863249999999998,-0.206954,0.852685,-0.33943249999999997,0.324346,0.827025,-0.2353425,-0.060931,-0.0008150000000000102,-0.003876500000000005,0.060931,0.0008150000000000102,0.003876499999999998,-0.119084,-0.304705,-0.21299250000000003,0.182136,-0.310025,-0.1442285,-0.126924,-0.7264050000000001,-0.18989250000000002,0.18390600000000001,-0.736415,-0.1127145
113,0.0015235000000000005,0.6066,-0.136029,-0.1379905,0.40299,-0.14009,-0.2066905,0.61398,-0.286894,0.15608950000000002,0.40685000000000004,-0.105216,0.2843095,0.61007,-0.19781400000000002,-0.2072105,0.8500400000000001,-0.349734,0.3258095,0.8321100000000001,-0.244594,-0.0608545,-0.0008699999999999819,-0.004072000000000006,0.0608545,0.0008700000000000097,0.004071999999999992,-0.11876049999999999,-0.289,-0.225694,0.18586950000000002,-0.29385,-0.157005,-0.12619049999999998,-0.7079899999999999,-0.194334,0.18491950000000001,-0.7207999999999999,-0.11912900000000001
114,0.0028465,0.6053649999999999,-0.1438595,-0.1366415,0.401505,-0.1481175,-0.20642149999999998,0.6109450000000001,-0.29590950000000005,0.1560685,0.405485,-0.1138335,0.2858485,0.608555,-0.2070595,-0.2074415,0.847175,-0.3600095,0.3274185,0.837455,-0.2542795,-0.0606985,-0.0009750000000000036,-0.004322500000000007,0.0606985,0.0009750000000000036,0.004322499999999993,-0.11827150000000002,-0.273775,-0.23845950000000002,0.18969850000000002,-0.278795,-0.1698195,-0.12538149999999998,-0.690035,-0.1988295,0.18603850000000002,-0.705575,-0.1256965
115,0.004001500000000003,0.604015,-0.15232400000000001,-0.1352385,0.399405,-0.15682400000000002,-0.2060885,0.607715,-0.305568,0.1563915,0.403525,-0.123169,0.2873115,0.6073850000000001,-0.216648,-0.2075185,0.842415,-0.37170800000000004,0.3291015,0.842015,-0.264778,-0.060575500000000004,-0.0010050000000000336,-0.004612000000000005,0.060575500000000004,0.0010049999999999781,0.004611999999999991,-0.11794850000000001,-0.258065,-0.25175800000000004,0.1936015,-0.264305,-0.182838,-0.12466849999999999,-0.672025,-0.203538,0.1870515,-0.690105,-0.13248500000000002
116,0.005215999999999998,0.6027199999999999,-0.1619785,-0.134753,0.3978,-0.1656605,-0.205623,0.60414,-0.3159415,0.157077,0.40248,-0.1327525,0.289007,0.6044499999999999,-0.2269015,-0.206953,0.84362,-0.38347149999999997,0.330937,0.84488,-0.27618149999999997,-0.060351999999999996,-0.0011499999999999844,-0.004807499999999992,0.060351999999999996,0.0011499999999999844,0.004807500000000006,-0.11772300000000002,-0.24321000000000004,-0.2648115,0.197237,-0.25203,-0.1955715,-0.124063,-0.65585,-0.20834149999999999,0.187887,-0.67581,-0.1389785
117,0.006597499999999996,0.60199,-0.1718195,-0.13403949999999998,0.396831,-0.17444549999999998,-0.20497949999999998,0.60076,-0.3265785,0.15760049999999998,0.40166899999999994,-0.1423575,0.2909105,0.60134,-0.23728849999999999,-0.20629950000000002,0.84366,-0.3960185,0.3332405,0.84742,-0.28791849999999997,-0.0600845,-0.0012900000000000134,-0.004854499999999998,0.0600845,0.0012899999999999578,0.004854500000000012,-0.11754950000000002,-0.22798000000000007,-0.2775385,0.2007005,-0.23992999999999998,-0.2080785,-0.12353950000000001,-0.63939,-0.21294849999999999,0.1885905,-0.66119,-0.1450985
118,0.008235499999999998,0.600545,-0.1813525,-0.1323405,0.397965,-0.18383349999999998,-0.2041405,0.598005,-0.33691550000000003,0.1582495,0.39984200000000003,-0.15236349999999999,0.29316949999999997,0.599055,-0.2476655,-0.20529050000000001,0.841515,-0.4094355,0.3356795,0.850695,-0.29939550000000004,-0.0596815,-0.001715000000000022,-0.005017499999999994,0.0596815,0.001715000000000022,0.005017499999999994,-0.1173205,-0.21281500000000003,-0.2897155,0.2042195,-0.22715500000000005,-0.2208155,-0.1230405,-0.622325,-0.2169855,0.1892495,-0.6461650000000001,-0.1509455
119,0.009378999999999998,0.5977950000000001,-0.18800899999999998,-0.130852,0.398241,-0.190385,-0.203592,0.5949450000000001,-0.34495600000000004,0.158298,0.39655300000000004,-0.15923700000000002,0.295058,0.595745,-0.25551599999999997,-0.204612,0.839755,-0.41965600000000003,0.338208,0.847835,-0.309156,-0.059373999999999996,-0.0016249999999999876,-0.005188999999999999,0.059373999999999996,0.001625000000000043,0.005188999999999999,-0.11774200000000001,-0.19761499999999999,-0.298586,0.206958,-0.21382499999999993,-0.230546,-0.12321199999999999,-0.605565,-0.21773599999999999,0.189188,-0.631845,-0.153811
120,0.010310499999999998,0.5931850000000001,-0.1935285,-0.12891450000000002,0.39638,-0.1948685,-0.20301450000000001,0.590885,-0.3518585,0.1586655,0.38979400000000003,-0.1647915,0.29700550000000003,0.590325,-0.2622485,-0.2037145,0.837575,-0.4287185,0.3404855,0.836855,-0.3176985,-0.0591125,-0.0008050000000000002,-0.005230499999999999,0.0591125,0.0008050000000000002,0.005230499999999999,-0.11820449999999999,-0.18678500000000003,-0.30185850000000003,0.2079455,-0.20359500000000003,-0.2355885,-0.12361449999999999,-0.594765,-0.2181485,0.1887255,-0.620755,-0.1547215
121,0.011516500000000004,0.589965,-0.1988605,-0.1266925,0.39344199999999996,-0.2007405,-0.2023025,0.587825,-0.3591205,0.1590675,0.38540399999999997,-0.1700555,0.29945750000000004,0.586015,-0.2696005,-0.20257250000000002,0.8336749999999999,-0.4387505,0.3428375,0.827995,-0.3258005,-0.0588335,-0.0008150000000000102,-0.005093500000000001,0.0588335,0.0008149999999999546,0.005093500000000001,-0.11860249999999999,-0.17449500000000007,-0.3058905,0.2091375,-0.19150500000000004,-0.2412105,-0.1239725,-0.582055,-0.2184405,0.1883375,-0.608065,-0.15539350000000002
122,0.013021999999999999,0.58765,-0.2041055,-0.12487800000000002,0.391988,-0.2072455,-0.201528,0.58711,-0.3664155,0.159412,0.384108,-0.1744925,0.302132,0.5847600000000001,-0.2772555,-0.20150800000000002,0.83012,-0.4489955,0.345852,0.81975,-0.3346655,-0.058497,-0.0008900000000000019,-0.005035499999999998,0.058497,0.0008900000000000019,0.005035499999999998,-0.11895800000000001,-0.16188000000000002,-0.3102755,0.21024199999999998,-0.17889,-0.24694549999999998,-0.12423800000000002,-0.56926,-0.2189355,0.187972,-0.5951,-0.1560685
123,0.014367000000000003,0.583245,-0.20965250000000002,-0.123128,0.39021200000000006,-0.21353250000000001,-0.20058800000000002,0.5847450000000001,-0.3737125,0.16053199999999998,0.380462,-0.1803845,0.30494200000000005,0.5814050000000001,-0.2855925,-0.200598,0.8274250000000001,-0.4592125,0.349432,0.813005,-0.3440025,-0.058252,-0.0011049999999999671,-0.005016500000000007,0.058252,0.0011050000000000226,0.005016499999999993,-0.11952799999999998,-0.15105499999999994,-0.3147125,0.211252,-0.17002499999999998,-0.25285250000000004,-0.12457799999999998,-0.5562149999999999,-0.2196525,0.187392,-0.581035,-0.15670050000000002
124,0.015844,0.577945,-0.2150145,-0.12107100000000001,0.386676,-0.21921449999999998,-0.199461,0.578835,-0.3813645,0.161329,0.376965,-0.1859065,0.307589,0.577755,-0.2937645,-0.199901,0.8234250000000001,-0.4682545,0.353329,0.805125,-0.3541345,-0.058097,-0.0008150000000000102,-0.004999500000000004,0.058097,0.0008150000000000102,0.004999500000000004,-0.120121,-0.14087500000000003,-0.3188145,0.212199,-0.16142499999999999,-0.2586245,-0.125001,-0.5439449999999999,-0.2204145,0.186769,-0.567965,-0.1573495
125,0.0172775,0.57358,-0.2193965,-0.11838049999999999,0.380235,-0.2247765,-0.1983705,0.57466,-0.3883965,0.16240949999999998,0.37443,-0.19160850000000001,0.3100895,0.5745899999999999,-0.30213650000000003,-0.1989805,0.81606,-0.47825650000000003,0.3570195,0.80068,-0.3636665,-0.0579905,-0.0014100000000000223,-0.0050634999999999986,0.0579905,0.0014099999999999668,0.0050634999999999986,-0.1209705,-0.12893,-0.3231365,0.21335949999999998,-0.15126000000000006,-0.2642865,-0.1255305,-0.52998,-0.2211465,0.1861195,-0.5532600000000001,-0.15797650000000002
126,0.018656500000000003,0.568025,-0.2232775,-0.11548549999999999,0.37358600000000003,-0.2306375,-0.1973555,0.570765,-0.3953175,0.1635745,0.37120400000000003,-0.19748749999999998,0.3125745,0.570195,-0.3099575,-0.19787549999999998,0.8098650000000001,-0.48749750000000003,0.36079449999999996,0.7967850000000001,-0.3730175,-0.0579015,-0.0019649999999999945,-0.0050925,0.0579015,0.00196500000000005,0.0050925,-0.12174549999999998,-0.11714499999999994,-0.3272475,0.2147145,-0.14102499999999996,-0.2696375,-0.12593549999999998,-0.516155,-0.2218475,0.18559450000000002,-0.5388649999999999,-0.1585545
127,0.020299499999999998,0.563015,-0.22768899999999997,-0.11270449999999999,0.365844,-0.23528900000000003,-0.1963645,0.565105,-0.40203900000000004,0.16474550000000002,0.369128,-0.202739,0.3148555,0.565455,-0.317609,-0.1966345,0.805565,-0.496599,0.3650355,0.791955,-0.382819,-0.0578085,-0.002244999999999997,-0.005261000000000002,0.0578085,0.002244999999999997,0.005261000000000002,-0.12247449999999999,-0.10576500000000005,-0.331309,0.2161055,-0.130415,-0.274379,-0.1261945,-0.5027250000000001,-0.22275899999999998,0.1853255,-0.525075,-0.159195
128,0.022714500000000002,0.55877,-0.2322735,-0.1100075,0.35827,-0.2395935,-0.1948375,0.55977,-0.4085535,0.1661725,0.36714199999999997,-0.20841349999999997,0.3174625,0.56067,-0.3252035,-0.1949575,0.79837,-0.5074635,0.3693725,0.7887,-0.39366349999999994,-0.0576305,-0.002840000000000009,-0.005446499999999993,0.0576305,0.002840000000000009,0.005446500000000007,-0.12295750000000001,-0.09346000000000004,-0.33502350000000003,0.2177925,-0.11849000000000004,-0.2786535,-0.1261775,-0.48866000000000004,-0.22368349999999998,0.1853725,-0.5105500000000001,-0.1598025
129,0.025077499999999996,0.555608,-0.236173,-0.10803950000000001,0.353595,-0.244083,-0.1929895,0.554177,-0.415603,0.16723049999999998,0.367425,-0.21335300000000001,0.3195505,0.55589,-0.332523,-0.19371950000000002,0.788655,-0.517503,0.3733705,0.782915,-0.403793,-0.0578015,-0.003684999999999994,-0.0056770000000000015,0.0578015,0.003684999999999994,0.0056770000000000015,-0.1237895,-0.081295,-0.338183,0.2191205,-0.10600500000000002,-0.282233,-0.1263995,-0.475085,-0.224723,0.18516049999999998,-0.496255,-0.16042800000000002
130,0.027639999999999998,0.5519040000000001,-0.24013800000000002,-0.1061,0.35133000000000003,-0.24746800000000002,-0.19135000000000002,0.548752,-0.42248800000000003,0.16846999999999998,0.36682000000000003,-0.21859800000000001,0.32148,0.5483180000000001,-0.338918,-0.19243000000000002,0.77962,-0.526788,0.37776,0.7768,-0.414028,-0.057912,-0.0041799999999999615,-0.005762000000000003,0.057912,0.004180000000000017,0.005761999999999989,-0.12447,-0.06906000000000001,-0.340558,0.22052,-0.09361999999999993,-0.285268,-0.12645,-0.46221999999999996,-0.226128,0.18513,-0.48222999999999994,-0.161114
131,0.0299015,0.5442739999999999,-0.24431350000000002,-0.1042335,0.34961499999999995,-0.2508435,-0.18993349999999998,0.5410389999999999,-0.42966350000000003,0.1697365,0.3608549999999999,-0.2240235,0.32326649999999996,0.5404399999999999,-0.3451535,-0.19118349999999998,0.768825,-0.5363535,0.38177649999999996,0.7697149999999999,-0.4239235,-0.058065500000000006,-0.003595000000000015,-0.005996500000000002,0.058065500000000006,0.0035949999999999593,0.005996500000000002,-0.1251435,-0.05752500000000005,-0.3429035,0.22213650000000001,-0.08230500000000007,-0.2879335,-0.1264535,-0.449955,-0.2277435,0.18509650000000002,-0.468735,-0.16191650000000002
132,0.032019,0.540671,-0.24748749999999997,-0.10202800000000001,0.34226,-0.2535675,-0.18884800000000002,0.534517,-0.4360775,0.170652,0.35889000000000004,-0.2271575,0.325012,0.535056,-0.3504775,-0.189998,0.7579100000000001,-0.5456274999999999,0.385352,0.7613300000000001,-0.4332475,-0.05816,-0.0038799999999999946,-0.006422499999999998,0.05816,0.0038799999999999946,0.006422499999999998,-0.125788,-0.04574,-0.3444475,0.223572,-0.07089000000000001,-0.2895375,-0.126428,-0.43765999999999994,-0.22894749999999997,0.185032,-0.45507999999999993,-0.1623745
133,0.034006499999999995,0.538106,-0.24988249999999998,-0.10107350000000001,0.338125,-0.25655249999999996,-0.1880635,0.530815,-0.44183249999999996,0.17142649999999998,0.35796500000000003,-0.2299725,0.3265965,0.52889,-0.3551625,-0.1890035,0.749715,-0.5551325,0.3884265,0.7541950000000001,-0.4413225,-0.058285500000000004,-0.004595000000000016,-0.00681749999999999,0.058285500000000004,0.004595000000000016,0.006817500000000004,-0.1265035,-0.03387499999999999,-0.34596249999999995,0.22471649999999999,-0.05970500000000001,-0.2907225,-0.1264235,-0.425195,-0.2301425,0.1849065,-0.441055,-0.16276949999999998
134,0.03600400000000001,0.533342,-0.2527625,-0.100404,0.33485000000000004,-0.2597925,-0.18719399999999997,0.524301,-0.4475525,0.17232599999999998,0.35505000000000003,-0.2324925,0.328086,0.520899,-0.3589025,-0.188174,0.7433000000000001,-0.5641725,0.391816,0.74402,-0.4497325,-0.058422,-0.0044600000000000195,-0.007217500000000002,0.058422,0.0044600000000000195,0.007217500000000002,-0.12702399999999997,-0.023880000000000012,-0.3471225,0.22583599999999998,-0.050329999999999986,-0.2918325,-0.12625399999999998,-0.4150499999999999,-0.2318125,0.18481599999999998,-0.42889,-0.1633415
135,0.038391,0.52966,-0.25560499999999997,-0.0991,0.33094999999999997,-0.26244500000000004,-0.18668,0.516853,-0.45272500000000004,0.17346,0.35212,-0.234635,0.32975,0.514102,-0.36228499999999997,-0.18723,0.73532,-0.573175,0.395,0.72925,-0.456755,-0.058875,-0.0042799999999999505,-0.007535,0.058875,0.0042799999999999505,0.007535,-0.12744,-0.01466999999999996,-0.348455,0.22708,-0.041240000000000054,-0.292785,-0.12563000000000002,-0.40651000000000004,-0.233665,0.18514,-0.41816,-0.163949
136,0.0406555,0.52318,-0.2577125,-0.09818750000000001,0.3278249999999999,-0.26373250000000004,-0.18552749999999998,0.51066,-0.4576825,0.1748325,0.34748499999999993,-0.23615250000000002,0.33149249999999997,0.506392,-0.36491250000000003,-0.1862575,0.726775,-0.5806025,0.3976825,0.715065,-0.4624425,-0.0594825,-0.0037650000000000183,-0.007667500000000008,0.0594825,0.0037649999999999073,0.007667499999999994,-0.12768749999999998,-0.006205000000000016,-0.3491025,0.2281825,-0.03298500000000004,-0.2932225,-0.12485749999999998,-0.39893500000000004,-0.2352625,0.1856025,-0.40827500000000005,-0.1644365
137,0.042623,0.516941,-0.259602,-0.097235,0.325055,-0.265402,-0.184275,0.503951,-0.461882,0.176345,0.343615,-0.23703200000000002,0.33309500000000003,0.498509,-0.366832,-0.18526499999999999,0.718955,-0.5858920000000001,0.40014500000000003,0.703925,-0.465242,-0.060237,-0.003155000000000019,-0.007778000000000007,0.060237,0.003155000000000019,0.007777999999999993,-0.127335,0.001314999999999955,-0.349742,0.229165,-0.025124999999999953,-0.293762,-0.12367500000000001,-0.39270499999999997,-0.23683200000000001,0.186325,-0.39922500000000005,-0.16492900000000002
138,0.04464799999999999,0.510218,-0.2610775,-0.096058,0.32175499999999996,-0.2669475,-0.182958,0.49727599999999994,-0.46447750000000004,0.17790199999999998,0.33919499999999997,-0.23765750000000002,0.33472199999999996,0.49055799999999994,-0.3677975,-0.18407800000000002,0.713795,-0.5905275,0.402692,0.6970649999999999,-0.46780750000000004,-0.061075,-0.0027449999999999974,-0.007942500000000005,0.061075,0.0027449999999999974,0.007942500000000005,-0.126588,0.0070949999999999624,-0.3502675,0.230012,-0.017665000000000042,-0.2942775,-0.122228,-0.38705500000000004,-0.23809750000000002,0.187112,-0.390595,-0.1654295
139,0.045908500000000005,0.5032220000000001,-0.2620115,-0.0953705,0.31574500000000005,-0.2683115,-0.1819905,0.4906650000000001,-0.4664215,0.1793695,0.33407500000000007,-0.23855149999999997,0.3361195,0.48524500000000004,-0.3687015,-0.1828705,0.7083750000000001,-0.5952514999999999,0.40496950000000004,0.6893990000000001,-0.4703415,-0.061964500000000006,-0.002214999999999967,-0.008148500000000003,0.061964500000000006,0.002215000000000078,0.008148500000000003,-0.1258105,0.0118950000000001,-0.3509815,0.2308195,-0.010894999999999988,-0.2951415,-0.12072050000000001,-0.3818349999999999,-0.2393615,0.18774949999999999,-0.382845,-0.1662475
140,0.047239,0.500405,-0.26363899999999996,-0.094811,0.30759500000000006,-0.270069,-0.181121,0.48624500000000004,-0.468819,0.180749,0.33359500000000003,-0.240169,0.337489,0.480005,-0.370329,-0.181691,0.7038150000000001,-0.599919,0.406959,0.6819000000000001,-0.472509,-0.063,-0.00293499999999991,-0.008300999999999989,0.063,0.002935000000000021,0.008301000000000003,-0.125241,0.017045000000000088,-0.351419,0.231439,-0.003394999999999926,-0.295989,-0.119231,-0.37658499999999995,-0.241389,0.188119,-0.3750549999999999,-0.167506
141,0.0485715,0.49536,-0.26524000000000003,-0.09407850000000001,0.30638000000000004,-0.27266999999999997,-0.1797185,0.48285,-0.47172,0.1822115,0.33236000000000004,-0.24266,0.3390015,0.47421,-0.37281,-0.1805185,0.699393,-0.6043799999999999,0.4090015,0.674571,-0.47491,-0.0640715,-0.0028399999999999537,-0.008409999999999987,0.0640715,0.0028400000000000647,0.00841,-0.1246485,0.02072000000000007,-0.3518,0.2319015,0.003570000000000073,-0.29674999999999996,-0.11761849999999999,-0.37227999999999994,-0.24392999999999998,0.1884315,-0.36815,-0.169592
142,0.0495425,0.4900749999999999,-0.267845,-0.09306249999999999,0.30438499999999996,-0.276735,-0.1780225,0.48076499999999994,-0.475675,0.1834575,0.32852499999999996,-0.245975,0.34068750000000003,0.4698149999999999,-0.376155,-0.1792725,0.6979019999999999,-0.609185,0.4112775,0.669732,-0.478775,-0.0651375,-0.00307500000000005,-0.008224999999999996,0.0651375,0.003074999999999939,0.008224999999999996,-0.1238125,0.02644499999999994,-0.352975,0.2318775,0.012764999999999915,-0.297685,-0.11552249999999999,-0.36636500000000005,-0.24782500000000002,0.1886975,-0.359565,-0.1729
143,0.0508145,0.486035,-0.27205,-0.0921495,0.303535,-0.27976,-0.1764295,0.48036500000000004,-0.47985,0.1846605,0.325595,-0.24944000000000002,0.34226049999999997,0.467155,-0.379,-0.17816949999999998,0.698616,-0.61343,0.41347049999999996,0.665093,-0.48286,-0.06622650000000001,-0.0034049999999999914,-0.008210000000000009,0.06622650000000001,0.0034049999999999914,0.008209999999999995,-0.12292950000000001,0.03167500000000001,-0.35433000000000003,0.2314205,0.02116499999999999,-0.29863,-0.11315950000000001,-0.36136499999999994,-0.25187000000000004,0.18881050000000002,-0.35177499999999995,-0.17626000000000003
144,0.0516745,0.48222,-0.27537500000000004,-0.09220249999999999,0.30236999999999997,-0.28308500000000003,-0.1756325,0.48042999999999997,-0.484095,0.18563749999999998,0.32232,-0.252765,0.3432775,0.46492999999999995,-0.380965,-0.1771725,0.700517,-0.617645,0.41544749999999997,0.664616,-0.486075,-0.0670085,-0.0038799999999999946,-0.008205000000000004,0.0670085,0.0038799999999999946,0.00820499999999999,-0.1222025,0.036819999999999964,-0.35568500000000003,0.2308575,0.02947999999999995,-0.299315,-0.11097249999999999,-0.35620000000000007,-0.255955,0.1885375,-0.34403000000000006,-0.179334
145,0.052227,0.48075,-0.27838,-0.09212200000000001,0.30254000000000003,-0.28711,-0.174612,0.4815900000000001,-0.4888,0.186468,0.32180000000000003,-0.25648000000000004,0.344158,0.4644400000000001,-0.38371,-0.175862,0.704291,-0.62278,0.41743800000000003,0.664799,-0.48936,-0.06753400000000001,-0.0044199999999999795,-0.008320000000000022,0.06753400000000001,0.0044199999999999795,0.008319999999999994,-0.12137199999999998,0.04242000000000001,-0.35771000000000003,0.23039800000000002,0.03834000000000004,-0.30075,-0.10880199999999998,-0.35014,-0.2609,0.188108,-0.33585999999999994,-0.18322500000000003
146,0.0527465,0.47903000000000007,-0.281785,-0.09189050000000001,0.30207000000000006,-0.291115,-0.1734205,0.4832100000000001,-0.49339500000000003,0.18718949999999998,0.3211900000000001,-0.260355,0.3452995,0.46460000000000007,-0.386595,-0.1745205,0.708767,-0.627155,0.4191395,0.6651630000000001,-0.491845,-0.06785050000000001,-0.005189999999999917,-0.008415000000000006,0.06785050000000001,0.005190000000000028,0.008415000000000006,-0.1204105,0.04759000000000013,-0.359645,0.2297795,0.04703000000000013,-0.302245,-0.1069205,-0.3440899999999999,-0.266025,0.18765949999999998,-0.32826999999999995,-0.18733
147,0.0529945,0.47746,-0.284895,-0.0916305,0.3011,-0.295325,-0.17224050000000002,0.48549,-0.497745,0.1878495,0.32111,-0.26444500000000004,0.3463195,0.46557,-0.38954500000000003,-0.17337049999999998,0.713503,-0.630715,0.4206395,0.667981,-0.49450500000000003,-0.0680105,-0.00607000000000002,-0.008314999999999989,0.0680105,0.00607000000000002,0.008314999999999989,-0.11932050000000001,0.053039999999999976,-0.360555,0.2292095,0.055379999999999985,-0.303995,-0.10537049999999999,-0.33791000000000004,-0.271685,0.1872395,-0.32110000000000005,-0.191684
148,0.05344700000000001,0.47550499999999996,-0.287755,-0.091085,0.3015749999999999,-0.299155,-0.17119499999999999,0.48770499999999994,-0.500955,0.188485,0.32063499999999995,-0.267865,0.347095,0.4665849999999999,-0.391655,-0.172405,0.7193839999999999,-0.633095,0.421895,0.670715,-0.49609500000000006,-0.06803200000000001,-0.006665000000000032,-0.008245000000000002,0.06803200000000001,0.006664999999999921,0.008245000000000002,-0.118145,0.0580949999999999,-0.361475,0.228935,0.06291499999999994,-0.305485,-0.103825,-0.33250500000000005,-0.27603500000000003,0.186805,-0.3146650000000001,-0.19543
149,0.0527985,0.47293,-0.285075,-0.0914595,0.30223,-0.298065,-0.1710695,0.4901,-0.498475,0.1883905,0.31919000000000003,-0.266165,0.3469105,0.46774000000000004,-0.388795,-0.1725595,0.723886,-0.6282650000000001,0.4221605,0.674183,-0.49256500000000003,-0.06813749999999999,-0.007000000000000006,-0.008045000000000024,0.06813749999999999,0.007000000000000006,0.008044999999999997,-0.1177695,0.06272999999999995,-0.35848500000000005,0.2284405,0.06999,-0.302665,-0.10298950000000001,-0.3263299999999999,-0.275685,0.1867105,-0.30759000000000003,-0.19447000000000003
150,0.0517085,0.47119999999999995,-0.282005,-0.0921585,0.30212999999999995,-0.296705,-0.17113850000000003,0.4922899999999999,-0.495445,0.18822149999999999,0.31692999999999993,-0.264085,0.3464315,0.4688699999999999,-0.385525,-0.1731585,0.7254079999999999,-0.622025,0.4220015,0.677986,-0.488615,-0.0682125,-0.007130000000000081,-0.008055000000000007,0.0682125,0.00712999999999997,0.008054999999999979,-0.1175585,0.06730999999999998,-0.356285,0.2281315,0.07628999999999997,-0.30052500000000004,-0.10255850000000001,-0.32152000000000003,-0.275185,0.1864715,-0.3012800000000001,-0.19323300000000002
151,0.050912,0.469495,-0.28191,-0.092556,0.30179500000000004,-0.29776,-0.171396,0.493545,-0.49485,0.18826400000000001,0.31690500000000005,-0.26477,0.346224,0.469885,-0.38524,-0.173756,0.724377,-0.6176200000000001,0.42169399999999996,0.6798770000000001,-0.48679,-0.068441,-0.0070350000000000135,-0.00742000000000001,0.068441,0.0070350000000000135,0.007419999999999982,-0.117296,0.06937500000000008,-0.35694000000000004,0.228194,0.08008500000000007,-0.30203,-0.10196600000000001,-0.319125,-0.27649,0.18646400000000002,-0.297485,-0.19423500000000002
152,0.050187999999999997,0.47216500000000006,-0.280945,-0.092871,0.3056450000000001,-0.297915,-0.171771,0.4979950000000001,-0.492595,0.188379,0.32097500000000007,-0.264505,0.34607899999999997,0.4755350000000001,-0.384065,-0.174431,0.7279620000000001,-0.612395,0.42128899999999997,0.6868750000000001,-0.48429500000000003,-0.068545,-0.0066149999999999265,-0.006635000000000002,0.068545,0.0066150000000000375,0.006635000000000002,-0.117001,0.07577500000000004,-0.356835,0.228289,0.08811500000000005,-0.302755,-0.10150100000000001,-0.312365,-0.277105,0.186129,-0.2901149999999999,-0.193859
153,0.0494335,0.47467,-0.27873499999999996,-0.09331049999999999,0.30967,-0.29673499999999997,-0.1722905,0.50306,-0.489205,0.1882795,0.32552,-0.262955,0.3456895,0.48141,-0.38160499999999997,-0.17535050000000002,0.732029,-0.605815,0.42071949999999997,0.694187,-0.480545,-0.0685445,-0.006319999999999992,-0.006635000000000002,0.0685445,0.006319999999999992,0.006635000000000002,-0.11683049999999999,0.08213999999999999,-0.355445,0.22845949999999998,0.09609000000000001,-0.302145,-0.10134049999999999,-0.30483000000000005,-0.27581500000000003,0.18590949999999998,-0.28093,-0.192153
154,0.0478955,0.47747999999999996,-0.27673000000000003,-0.0945555,0.31309,-0.29537,-0.1738155,0.50708,-0.48585999999999996,0.1874045,0.32921999999999996,-0.26142,0.3444545,0.48595,-0.3789,-0.1772255,0.7341,-0.5989,0.4192945,0.700093,-0.47658999999999996,-0.0683175,-0.006290000000000018,-0.006110000000000004,0.0683175,0.006289999999999907,0.006110000000000004,-0.1174955,0.08701999999999999,-0.35385999999999995,0.2284545,0.10246999999999995,-0.30135,-0.1022355,-0.29901,-0.27525,0.1850545,-0.2733000000000001,-0.189985
155,0.046568,0.480575,-0.27471,-0.095652,0.31656499999999993,-0.29397,-0.175312,0.510995,-0.48231999999999997,0.186708,0.33311499999999994,-0.25987,0.343398,0.4908349999999999,-0.37639,-0.178862,0.736019,-0.59262,0.417988,0.7062609999999999,-0.47316,-0.068202,-0.006265000000000076,-0.005610000000000004,0.068202,0.006264999999999965,0.005610000000000004,-0.11788199999999999,0.09201499999999996,-0.35238,0.228698,0.10887499999999994,-0.30052,-0.103042,-0.29273499999999997,-0.27442,0.185178,-0.26541500000000007,-0.187745
156,0.0454105,0.4838350000000001,-0.27254500000000004,-0.0965065,0.3202250000000001,-0.29235500000000003,-0.1764365,0.5147050000000001,-0.478825,0.1861035,0.3366250000000001,-0.258005,0.3424835,0.4954650000000001,-0.373725,-0.1802265,0.737357,-0.586905,0.4166735,0.7123250000000001,-0.470135,-0.0680875,-0.0062949999999999395,-0.005214999999999997,0.0680875,0.0062950000000000506,0.005214999999999997,-0.11806650000000002,0.09712500000000013,-0.351255,0.2288535,0.11487500000000006,-0.299385,-0.10307649999999999,-0.287145,-0.272305,0.1855435,-0.2579349999999999,-0.185093
157,0.044041,0.4874900000000001,-0.26925499999999997,-0.097618,0.32394000000000006,-0.289585,-0.17796800000000002,0.5184700000000001,-0.474695,0.18523199999999998,0.3402200000000001,-0.25497499999999995,0.34128200000000003,0.5002200000000001,-0.370085,-0.181758,0.7385010000000001,-0.5808450000000001,0.414992,0.718512,-0.466545,-0.068142,-0.006299999999999972,-0.004594999999999988,0.068142,0.006300000000000083,0.004595000000000016,-0.118498,0.1024600000000001,-0.34899499999999994,0.228652,0.12095000000000011,-0.297095,-0.103328,-0.2816099999999999,-0.26890499999999995,0.18604199999999999,-0.2502699999999999,-0.18133299999999997
158,0.0423795,0.4924799999999999,-0.264955,-0.0990635,0.32974,-0.28590499999999996,-0.17977349999999997,0.5231399999999999,-0.469895,0.1839065,0.34512,-0.250955,0.33958649999999996,0.50545,-0.365305,-0.18349349999999998,0.7417159999999999,-0.576105,0.4128765,0.725061,-0.462265,-0.0681815,-0.00664000000000009,-0.00411499999999998,0.0681815,0.006639999999999979,0.0041150000000000075,-0.11987350000000001,0.10502,-0.345785,0.22788650000000002,0.12739,-0.293535,-0.1042735,-0.27502000000000004,-0.264045,0.1859065,-0.24228000000000005,-0.176192
159,0.0405515,0.49781999999999993,-0.26006,-0.1007175,0.33594999999999997,-0.28161,-0.1815875,0.52791,-0.46463,0.1823225,0.35058999999999996,-0.2464,0.3377425,0.51093,-0.36009,-0.1851675,0.7471399999999999,-0.57211,0.4107025,0.7316389999999999,-0.4576,-0.0681565,-0.006979999999999986,-0.00383,0.0681565,0.006979999999999986,0.00383,-0.12113750000000001,0.11078999999999994,-0.3419,0.2268625,0.13381999999999994,-0.28918,-0.1059975,-0.26891,-0.25944,0.1854925,-0.23401000000000005,-0.170445
160,0.038699,0.50352,-0.25505,-0.10242899999999999,0.34237,-0.27717,-0.183259,0.53262,-0.45942,0.18066100000000002,0.35606000000000004,-0.24164999999999998,0.335881,0.51646,-0.35484,-0.186839,0.752792,-0.56793,0.408581,0.738171,-0.45296,-0.06811500000000001,-0.007199999999999984,-0.0033299999999999996,0.06811500000000001,0.007199999999999984,0.0033299999999999996,-0.12278899999999998,0.11482000000000003,-0.33787,0.22576100000000002,0.14022,-0.28462,-0.107159,-0.2629600000000001,-0.25355,0.18477100000000002,-0.22660000000000002,-0.165047
161,0.037079,0.5058200000000002,-0.251865,-0.10386999999999999,0.3453300000000001,-0.274675,-0.18503999999999998,0.5352000000000001,-0.457045,0.17918,0.3583100000000001,-0.238825,0.33433,0.5187900000000001,-0.35185500000000003,-0.18830000000000002,0.754963,-0.565515,0.40683,0.7411440000000001,-0.450305,-0.067984,-0.006839999999999957,-0.003704999999999986,0.067984,0.006840000000000068,0.003705000000000014,-0.12424,0.11438000000000004,-0.335555,0.22486,0.14318000000000008,-0.28212499999999996,-0.10896,-0.2597999999999998,-0.249805,0.18353999999999998,-0.22363999999999995,-0.162596
162,0.03549,0.5081600000000001,-0.24872,-0.10525200000000001,0.3481100000000001,-0.27213,-0.186522,0.5371700000000001,-0.45459,0.177698,0.3605400000000001,-0.23604000000000003,0.332808,0.5212100000000001,-0.34915,-0.189782,0.7570160000000001,-0.56306,0.40525799999999995,0.7439240000000001,-0.44786,-0.067905,-0.006059999999999954,-0.003970000000000001,0.067905,0.006060000000000065,0.003970000000000001,-0.125722,0.1160000000000001,-0.33272,0.223868,0.14587000000000006,-0.27936,-0.11039199999999999,-0.25712,-0.24734,0.182058,-0.22085999999999995,-0.160141
163,0.0343605,0.51098,-0.24567,-0.1061165,0.35093,-0.2696,-0.1875365,0.53923,-0.45209,0.1766535,0.36309,-0.23331000000000002,0.33175350000000003,0.52388,-0.34658,-0.1907165,0.759081,-0.5611900000000001,0.4042135,0.746724,-0.44536,-0.0678605,-0.005199999999999982,-0.004060000000000008,0.0678605,0.005199999999999982,0.004060000000000008,-0.1268165,0.11797000000000002,-0.32968,0.22330350000000002,0.14865000000000006,-0.27665,-0.1122065,-0.2543000000000001,-0.24501,0.1810335,-0.21804,-0.157638
164,0.032819,0.5111399999999999,-0.244745,-0.107497,0.35128,-0.268915,-0.18881699999999998,0.53941,-0.45280499999999996,0.175123,0.36312999999999995,-0.232475,0.330353,0.52404,-0.345905,-0.19188699999999997,0.7584029999999999,-0.561775,0.402713,0.7469169999999999,-0.44469499999999995,-0.067167,-0.0027800000000000047,-0.0033949999999999952,0.067167,0.0027800000000000047,0.0033949999999999952,-0.12849699999999997,0.11797999999999997,-0.328905,0.222343,0.14884999999999993,-0.275905,-0.11369699999999999,-0.25494000000000006,-0.245435,0.17963300000000001,-0.21994999999999998,-0.158128
165,0.03277,0.509475,-0.24440499999999998,-0.107418,0.34982500000000005,-0.268655,-0.188648,0.5381450000000001,-0.45399500000000004,0.175062,0.36146500000000004,-0.232155,0.330472,0.522375,-0.345635,-0.191338,0.756738,-0.563415,0.40266199999999996,0.7453000000000001,-0.444455,-0.067174,-0.001974999999999949,-0.003265000000000004,0.067174,0.00197500000000006,0.003265000000000004,-0.128798,0.11631500000000006,-0.328885,0.22281199999999998,0.147185,-0.275575,-0.113298,-0.2572049999999999,-0.245315,0.179752,-0.2235149999999999,-0.159137
166,0.0327315,0.50948,-0.241685,-0.10751050000000001,0.35008,-0.26593500000000003,-0.1883205,0.53839,-0.45291499999999996,0.1748595,0.36146,-0.22945500000000002,0.3304795,0.52237,-0.342905,-0.1908105,0.756733,-0.562985,0.4025995,0.7453500000000001,-0.44203499999999996,-0.0672025,-0.0019799999999999818,-0.003585000000000005,0.0672025,0.0019799999999999818,0.003584999999999991,-0.1292505,0.11631000000000002,-0.326685,0.2232195,0.14742,-0.272955,-0.1137505,-0.2573099999999999,-0.244155,0.1788795,-0.22556999999999994,-0.157727
167,0.033016000000000004,0.510265,-0.23897000000000002,-0.107357,0.3505849999999999,-0.26344,-0.187727,0.538435,-0.45187,0.174773,0.3612449999999999,-0.2268,0.330713,0.522295,-0.34034,-0.190007,0.7565179999999999,-0.5627500000000001,0.402863,0.745135,-0.43983,-0.067213,-0.0017650000000000166,-0.003810000000000008,0.067213,0.0017649999999999055,0.003809999999999994,-0.129687,0.11609499999999995,-0.32486000000000004,0.223753,0.14736499999999997,-0.27046000000000003,-0.113977,-0.25702500000000006,-0.24281,0.178943,-0.2255450000000001,-0.15568700000000002
168,0.033557000000000003,0.5106200000000001,-0.236675,-0.106937,0.35031000000000007,-0.261435,-0.186977,0.5378200000000001,-0.45074499999999995,0.174923,0.3601700000000001,-0.224565,0.331283,0.5218700000000001,-0.33852499999999996,-0.188857,0.7563580000000001,-0.563735,0.403533,0.744005,-0.43825499999999995,-0.067081,-0.00042999999999993044,-0.004344999999999988,0.067081,0.00043000000000004146,0.004345000000000002,-0.12989699999999998,0.11947000000000008,-0.324405,0.224663,0.1460800000000001,-0.268695,-0.113457,-0.2584599999999999,-0.24132499999999998,0.17840299999999998,-0.22860999999999987,-0.154503
169,0.034436499999999995,0.5125050000000001,-0.236265,-0.10623950000000001,0.35022500000000006,-0.261065,-0.1859395,0.5378050000000001,-0.450855,0.1753005,0.3595750000000001,-0.223945,0.3327605,0.5247750000000001,-0.33970500000000003,-0.1876595,0.7567330000000001,-0.565855,0.4044705,0.7432610000000001,-0.43849499999999997,-0.06683449999999999,0.0010950000000000681,-0.0048950000000000105,0.06683449999999999,-0.0010949999999999571,0.004894999999999997,-0.12983950000000002,0.12282500000000007,-0.325425,0.2254405,0.14453500000000008,-0.268365,-0.11270950000000002,-0.25968499999999994,-0.240475,0.17822049999999998,-0.2317649999999999,-0.155178
170,0.035093,0.515185,-0.236545,-0.105701,0.350295,-0.26115499999999997,-0.184921,0.5388850000000001,-0.451255,0.17544900000000002,0.359325,-0.223895,0.33374899999999996,0.527845,-0.341465,-0.186741,0.757426,-0.568165,0.40506899999999996,0.742683,-0.439325,-0.066469,0.0026049999999999685,-0.005065,0.066469,-0.0026049999999999685,0.005065,-0.12986099999999998,0.12555499999999997,-0.32659499999999997,0.22584900000000002,0.142335,-0.268415,-0.112571,-0.261765,-0.24034499999999998,0.177879,-0.23539500000000002,-0.15617599999999998
171,0.03601449999999999,0.518735,-0.236865,-0.1048975,0.35017499999999996,-0.260985,-0.1841875,0.5406449999999999,-0.452215,0.1757925,0.360585,-0.223895,0.3345325,0.5311349999999999,-0.342865,-0.1857375,0.7581789999999999,-0.569975,0.4056725,0.74271,-0.440025,-0.0657135,0.003574999999999995,-0.00548499999999999,0.0657135,-0.003574999999999995,0.005485000000000004,-0.1298975,0.12576500000000002,-0.328095,0.2265825,0.13921499999999998,-0.268475,-0.1129675,-0.26395499999999994,-0.240955,0.1779825,-0.23970500000000006,-0.15719899999999998
172,0.037124500000000005,0.521725,-0.237465,-0.10381149999999999,0.34884500000000007,-0.260985,-0.1833515,0.540975,-0.452785,0.1763785,0.36090500000000003,-0.22412500000000002,0.33532850000000003,0.5339050000000001,-0.344285,-0.1846315,0.758371,-0.571365,0.4065785,0.742357,-0.440815,-0.0646915,0.0042350000000001,-0.0059050000000000075,0.0646915,-0.004234999999999989,0.005904999999999994,-0.1294015,0.12393500000000002,-0.32955500000000004,0.22746850000000002,0.1343850000000001,-0.26883500000000005,-0.11282149999999999,-0.26682499999999987,-0.24210500000000001,0.1786285,-0.24475499999999994,-0.158217
173,0.0364195,0.524575,-0.23948999999999998,-0.1043655,0.34700499999999995,-0.26193,-0.1839555,0.541555,-0.45346,0.1753845,0.361975,-0.22574,0.3345145,0.536295,-0.34677,-0.1854755,0.759245,-0.57327,0.4058845,0.744374,-0.44325000000000003,-0.0638295,0.004014999999999991,-0.006359999999999991,0.0638295,-0.004014999999999991,0.0063600000000000045,-0.1301955,0.12109499999999995,-0.33136,0.22652450000000002,0.12754500000000002,-0.27049,-0.1143955,-0.2722150000000001,-0.24355,0.1776445,-0.25144500000000003,-0.159653
174,0.035816,0.529445,-0.24199500000000002,-0.104584,0.34849500000000005,-0.262845,-0.184564,0.542975,-0.454285,0.174456,0.365395,-0.227545,0.334026,0.538015,-0.349545,-0.186454,0.7615970000000001,-0.574385,0.405116,0.7449870000000001,-0.445795,-0.062783,0.003995000000000082,-0.006925000000000001,0.062783,-0.003994999999999971,0.006925000000000001,-0.130874,0.11661500000000002,-0.334465,0.22564599999999999,0.11823500000000009,-0.272295,-0.11569399999999999,-0.27895500000000006,-0.24478499999999997,0.176796,-0.26058499999999996,-0.16165000000000002
175,0.035596,0.5342549999999999,-0.24445,-0.104627,0.3501749999999999,-0.26392,-0.184977,0.5449849999999998,-0.45552,0.17410299999999998,0.36862499999999987,-0.22952,0.334073,0.5410849999999999,-0.35237,-0.18687700000000002,0.7644479999999999,-0.57552,0.404863,0.7489669999999999,-0.44803,-0.061758,0.0035849999999999493,-0.007559999999999997,0.061758,-0.0035850000000000604,0.007559999999999997,-0.13078700000000001,0.11187499999999995,-0.3374,0.225383,0.10847499999999988,-0.27448,-0.11676700000000001,-0.2854350000000001,-0.24645,0.176543,-0.2701650000000001,-0.163904
176,0.0367405,0.5341799999999999,-0.24706,-0.1033355,0.34619999999999995,-0.26555,-0.1841055,0.54277,-0.45632,0.1744445,0.36854999999999993,-0.23191,0.3356745,0.53948,-0.35535,-0.1858755,0.7645,-0.5771999999999999,0.40586449999999996,0.7471859999999999,-0.44972,-0.0612995,0.0013099999999999223,-0.008290000000000006,0.0612995,-0.0013100000000000334,0.008289999999999992,-0.1291655,0.09965999999999997,-0.34133,0.2262045,0.09194999999999998,-0.27744,-0.11570549999999999,-0.30197000000000007,-0.24851,0.1780845,-0.2858900000000001,-0.166576
177,0.0385195,0.535805,-0.24863000000000002,-0.1012945,0.344015,-0.26683,-0.1824945,0.541985,-0.45682,0.1755255,0.370595,-0.23385,0.33751549999999997,0.541385,-0.35716,-0.1842445,0.762977,-0.57854,0.4075255,0.747119,-0.45105,-0.0613205,-0.0006450000000000067,-0.008900000000000005,0.0613205,0.0006450000000000067,0.008900000000000005,-0.1270645,0.08690500000000001,-0.34407,0.2277855,0.07580500000000001,-0.28013,-0.11428450000000001,-0.31540499999999994,-0.25,0.1804455,-0.30154499999999995,-0.168955
178,0.03992,0.5364399999999999,-0.24989,-0.099604,0.3453899999999999,-0.26786,-0.181184,0.5432499999999999,-0.45721999999999996,0.17703600000000003,0.37300999999999995,-0.23509000000000002,0.339236,0.5399499999999999,-0.35836999999999997,-0.18303399999999997,0.7637919999999999,-0.57926,0.409056,0.746726,-0.45228999999999997,-0.061097,-0.0018600000000000838,-0.009489999999999998,0.061097,0.0018599999999999728,0.009489999999999998,-0.12499400000000001,0.07200999999999991,-0.34668,0.22898600000000002,0.05799999999999994,-0.28189,-0.113074,-0.3302400000000001,-0.25157,0.182826,-0.31898000000000004,-0.171477
